/* XPM */
static char * 1_xpm[] = {
"512 384 125 2",
"  	c #414230",
". 	c #42392F",
"+ 	c #3E3526",
"@ 	c #363725",
"# 	c #393127",
"$ 	c #31312A",
"% 	c #3A3932",
"& 	c #4B4238",
"* 	c #2A2922",
"= 	c #494A38",
"- 	c #5D5242",
"; 	c #515340",
"> 	c #59524C",
", 	c #595A47",
"' 	c #615A54",
") 	c #312914",
"! 	c #5E4325",
"~ 	c #6B4925",
"{ 	c #68522B",
"] 	c #755835",
"^ 	c #78572B",
"/ 	c #846335",
"( 	c #967240",
"_ 	c #B48D55",
": 	c #52391F",
"< 	c #655A4A",
"[ 	c #54493A",
"} 	c #514B45",
"| 	c #31291F",
"1 	c #6C491F",
"2 	c #232116",
"3 	c #4B4132",
"4 	c #564622",
"5 	c #43423B",
"6 	c #4B4A43",
"7 	c #3A2804",
"8 	c #171008",
"9 	c #6C6357",
"0 	c #696452",
"a 	c #594B41",
"b 	c #36241D",
"c 	c #282118",
"d 	c #1E170C",
"e 	c #181710",
"f 	c #1A0F10",
"g 	c #210F04",
"h 	c #211806",
"i 	c #29180F",
"j 	c #110E03",
"k 	c #0F0907",
"l 	c #4B3716",
"m 	c #716C59",
"n 	c #7C6C62",
"o 	c #726B65",
"p 	c #797361",
"q 	c #7D766F",
"r 	c #6A5A51",
"s 	c #332929",
"t 	c #443015",
"u 	c #84736A",
"v 	c #877B6A",
"w 	c #847263",
"x 	c #726359",
"y 	c #62534A",
"z 	c #433029",
"A 	c #8C7B72",
"B 	c #3A3131",
"C 	c #211819",
"D 	c #8B847E",
"E 	c #8D7A6B",
"F 	c #4C3831",
"G 	c #968374",
"H 	c #8A8471",
"I 	c #54494A",
"J 	c #4C4142",
"K 	c #2A2121",
"L 	c #988D7B",
"M 	c #97867C",
"N 	c #6B5A4C",
"O 	c #52524A",
"P 	c #7C6A5C",
"Q 	c #5C5152",
"R 	c #423839",
"S 	c #746354",
"T 	c #55462F",
"U 	c #837B63",
"V 	c #8C846C",
"W 	c #453620",
"X 	c #928266",
"Y 	c #A38874",
"Z 	c #9C947C",
"` 	c #2A210D",
" .	c #392918",
"..	c #130F00",
"+.	c #948C74",
"@.	c #A99586",
"#.	c #9E9684",
"$.	c #9D8D70",
"%.	c #A89C84",
"&.	c #8D7260",
"*.	c #A59578",
"=.	c #B4A68D",
"-.	c #605238",
";.	c #675E47",
">.	c #3A290D",
",.	c #837458",
"'.	c #30322F",
").	c #A99774",
"!.	c #746B53",
"~.	c #381F0C",
"{.	c #30210F",
"].	c #655A5A",
"^.	c #513926",
"/.	c #554547",
"(.	c #635254",
"_.	c #383937",
":.	c #20211F",
"<.	c #282927",
"[.	c #171816",
"}.	c #482C1C",
"|.	c #857353",
"1.	c #938361",
"2.	c #221700",
"3.	c #070904",
"4.	c #0F110D",
"    . . .   + + .   . . .   @ @ . . # # @ @ @ $ @ @ $ @ @ $ % % & & . . .   * *     = = - - ; ; > > > > , , > > ' ' & & $ $ * * ) ) + + ! ! ! ! ! ! ! ! ! ! ! ! ! ! ! ! ! ! ! ! ! ! ! ! ! ! ! ! ~ ~ ! ! { { ~ ~ { { ~ ~ { { ~ ~ ] ] { { ^ ^ { { ] ] { { ] ] { { ] ] ^ ^ ] ] ] ] ^ ^ ^ ^ ^ ^ ^ ^ ^ ^ ^ ^ ^ ^ ^ ^ / / ^ ^ / / ^ ^ / / ^ ^ / / / / / / / / / / / / ( ( ( ( ( ( ( ( ( ( ( ( ( ( ( ( ( ( ( ( ( ( ( ( ( ( ( ( ( ( ( ( ( ( ( ( _ _ ( ( _ _ _ _ _ _ _ _ _ _ _ _ _ _ _ _ _ _ _ _ _ _ _ _ _ _ _ _ _ _ _ _ _ _ _ _ _ _ _ _ _ _ _ _ _ _ _ _ _ _ _ _ _ _ _ _ _ _ _ _ _ _ _ _ _ _ _ _ _ _ _ _ _ _ ( ( ( ( ( ( ( ( ( ( ( ( ( ( ( ( ( ( ( ( ( ( ( ( ( ( ( ( ( ( ( ( ( ( ( ( / / ( ( / / / / / / / / / / / / / / / / ^ ^ / / ^ ^ / / ^ ^ / / ^ ^ / / ^ ^ / / ^ ^ ] ] ^ ^ ] ] ] ] ^ ^ ] ] ^ ^ ] ] ^ ^ ^ ^ ^ ^ ^ ^ ] ] ^ ^ ] ] ~ ~ ] ] { { { { { { { { ~ ~ { { ! ! { { ! ! ~ ~ ! ! ~ ~ { { ! ! { { ! ! ~ ~ { { ! ! ! ! : : # # ) ) @ @ @ @ = = > > < < - - , , ; ; ; ; [ [ } } . . * * | | $ @         . . @ @ @ @ @ @ # # . . @ @ @ @ @ @ .   @ @     @ @       . ",
"    . .     + +     . .     @ @ . . # # @ @ $ @ @ @ $ @ @ @ % % & & . .     * *     = = - - ; ; > > > > , , > > ' ' & & $ $ * * ) ) + + ! ! ! ! ! ! ! ! ! ! ! ! ! ! ! ! ! ! ! ! ! ! ! ! ! ! ! ! ~ ~ ! ! { { ~ ~ { { ~ ~ { { ~ ~ ] ] { { ^ ^ { { ] ] { { ] ] { { ] ] ^ ^ ] ] ] ] ^ ^ ^ ^ ^ ^ ^ ^ ^ ^ ^ ^ ^ ^ ^ ^ / / ^ ^ / / ^ ^ / / ^ ^ / / / / / / / / / / / / ( ( ( ( ( ( ( ( ( ( ( ( ( ( ( ( ( ( ( ( ( ( ( ( ( ( ( ( ( ( ( ( ( ( ( ( _ _ ( ( _ _ _ _ _ _ _ _ _ _ _ _ _ _ _ _ _ _ _ _ _ _ _ _ _ _ _ _ _ _ _ _ _ _ _ _ _ _ _ _ _ _ _ _ _ _ _ _ _ _ _ _ _ _ _ _ _ _ _ _ _ _ _ _ _ _ _ _ _ _ _ _ _ _ ( ( ( ( ( ( ( ( ( ( ( ( ( ( ( ( ( ( ( ( ( ( ( ( ( ( ( ( ( ( ( ( ( ( ( ( / / ( ( / / / / / / / / / / / / / / / / ^ ^ / / ^ ^ / / ^ ^ / / ^ ^ / / ^ ^ / / ^ ^ ] ] ^ ^ ] ] ] ] ^ ^ ] ] ^ ^ ] ] ^ ^ ^ ^ ^ ^ ^ ^ ] ] ^ ^ ] ] ~ ~ ] ] { { { { { { { { ~ ~ { { ! ! { { ! ! ~ ~ ! ! ~ ~ { { ! ! { { ! ! ~ ~ { { ! ! ! ! : : # # ) ) + @ @ @ = = > > < < - - , , ; ; ; ; [ [ } } . . * * | | $ @           . @ @ @ @ @ @ # # . . @ @ @ @ @ @     @ @     @ @         ",
". .     . . .   . . .   @ @ . . @ @ @ @ @ # @ @ $ @ # # # $         .   % % | | . . } } ; ; - - ; ; > > - - , , , , = = @ @ $ $ ) ) @ # ! ! ! ! ! ! ! ! ! ! ! ! ! ! ! ! ! ! ! ! ! ! ! ! ! ! ! ! { { ! ! 1 1 ~ ~ { { ~ ~ ~ ~ { { ~ ~ { { ~ ~ ] ] { { ] ] ] ] ] ] ^ ^ ] ] ^ ^ / / ^ ^ / / ^ ^ / / ^ ^ / / ^ ^ / / ^ ^ / / / / / / / / / / / / ( ( / / ( ( / / ( ( ( ( / / ( ( ( ( ( ( ( ( ( ( ( ( ( ( ( ( ( ( ( ( ( ( ( ( ( ( ( ( ( ( ( ( ( ( _ _ ( ( _ _ _ _ _ _ _ _ _ _ _ _ _ _ _ _ _ _ _ _ _ _ _ _ _ _ _ _ _ _ _ _ _ _ _ _ _ _ _ _ _ _ _ _ _ _ _ _ _ _ _ _ _ _ _ _ _ _ _ _ _ _ _ _ _ _ _ _ _ _ _ _ _ _ _ _ _ _ ( ( _ _ ( ( ( ( ( ( ( ( ( ( ( ( ( ( ( ( ( ( ( ( ( ( ( ( / / ( ( ( ( ( ( ( ( / / / / ( ( / / ( ( / / / / / / / / / / / / ^ ^ / / ^ ^ / / ^ ^ / / ^ ^ ] ] ^ ^ ^ ^ ] ] ^ ^ ] ] ^ ^ ] ] ] ] ^ ^ ^ ^ ^ ^ ] ] { { { { { { ] ] { { ] ] { { { { ~ ~ { { ! ! { { ! ! { { ! ! ~ ~ ! ! ~ ~ { { ! ! ~ ~ ! ! ! ! ! ! + + | | | | # # & & , , > > > , > > > > [ [ } } = &     2 2 $ $ $ # & & . .     $ $ + # @ # @ @ @ @ . . @ @ . . @ @ . . . .     . .     ",
". .     . .     . . .   @ @ . . @ @ @ @ # # @ @ $ @ # # # $         .   % % | | . . } } ; ; - - ; ; > > - - , , , , = = @ @ $ # ) ) @ # ! ! ! ! ! ! ! ! ! ! ! ! ! ! ! ! ! ! ! ! ! ! ! ! ! ! ! ! { { ! ! 1 1 ~ ~ { { ~ ~ ~ ~ { { ~ ~ { { ~ ~ ] ] { { ] ] ] ] ] ] ^ ^ ] ] ^ ^ / / ^ ^ / / ^ ^ / / ^ ^ / / ^ ^ / / ^ ^ / / / / / / / / / / / / ( ( / / ( ( / / ( ( ( ( / / ( ( ( ( ( ( ( ( ( ( ( ( ( ( ( ( ( ( ( ( ( ( ( ( ( ( ( ( ( ( ( ( ( ( _ _ ( ( _ _ _ _ _ _ _ _ _ _ _ _ _ _ _ _ _ _ _ _ _ _ _ _ _ _ _ _ _ _ _ _ _ _ _ _ _ _ _ _ _ _ _ _ _ _ _ _ _ _ _ _ _ _ _ _ _ _ _ _ _ _ _ _ _ _ _ _ _ _ _ _ _ _ _ _ _ _ ( ( _ _ ( ( ( ( ( ( ( ( ( ( ( ( ( ( ( ( ( ( ( ( ( ( ( ( / / ( ( ( ( ( ( ( ( / / / / ( ( / / ( ( / / / / / / / / / / / / ^ ^ / / ^ ^ / / ^ ^ / / ^ ^ ] ] ^ ^ ^ ^ ] ] ^ ^ ] ] ^ ^ ] ] ] ] ^ ^ ^ ^ ^ ^ ] ] { { { { { { ] ] { { ] ] { { { { ~ ~ { { ! ! { { ! ! { { ! ! ~ ~ ! ! ~ ~ { { ! ! ~ ~ ! ! ! ! ! ! + + | | | | # # & & , , > > > , > > > > [ [ } } = &     2 2 $ $ $ # & & . .     $ $ # # # @ @ @ @ @ . . @ @ . . @ @ . .   . .   . .     ",
"3 3 . .     + + .   . . . % @ @ . . # # @ @ @ $ @ @ @ @ @ $ % % & &   .     * *     = = - - ; ; > > ; ; > , > > ' ' & & @ $ * * @ $ + + ! ! ! ! ! ! ! ! ! ! ! ! ! ! ! ! ! ! ! ! ! ! ! ! ! ! ! ! ! ! ! ! ! ! ! ! ! ! { { ! ! { { ~ ~ ! ! { { ~ ~ { { ~ ~ { { { { ] ] ] ] ^ ^ ] ] ] ] ^ ^ ] ] ^ ^ / / ^ ^ / / ] ] / / / / / / / / / / / / ( ( / / ( ( / / ( ( / / ( ( / / ( ( / / ( ( ( ( ( ( ( ( ( ( ( ( ( ( ( ( ( ( ( ( ( ( ( ( ( ( ( ( _ _ ( ( _ _ ( ( _ _ _ _ _ _ _ _ _ _ _ _ _ _ _ _ _ _ _ _ _ _ _ _ _ _ _ _ _ _ _ _ _ _ _ _ _ _ _ _ _ _ _ _ _ _ _ _ _ _ _ _ _ _ _ _ _ _ _ _ _ _ _ _ _ _ _ _ _ _ ( ( _ _ ( ( _ _ ( ( ( ( ( ( ( ( ( ( ( ( ( ( ( ( ( ( ( ( ( ( ( ( ( ( ( ( ( ( ( ( ( ( ( ( ( ( ( ( / / ( ( / / / / / / / / / / / / ^ ^ / / ^ ^ ^ ^ ^ ^ ^ ^ ^ ^ ^ ^ ] ] ^ ^ ] ] ^ ^ ] ] ^ ^ ] ] ] ] ^ ^ ] ] ^ ^ ] ] { { ] ] { { ] ] { { ] ] { { { { ~ ~ { { ~ ~ { { ~ ~ { { ! ! { { ! ! ~ ~ ! ! ! ! { { ! ! ~ ~ ! 4 4 4 @ @ ) ) @ # @ @ = = > > < < - - , , ; ; ; ; [ [ } } . . * * | | $ @         . . @ @ @ @ @ @ # # . . @ @ . . @ @ . . . . .     . .     . ",
"3 3   . .   + +     .   . . @ @ . . # # @ @ $ @ @ @ @ @ @ $ % % & & . .     * *     = = - - ; ; > > ; ; , , > > ' ' & & @ $ * * @ @ + + ! ! ! ! ! ! ! ! ! ! ! ! ! ! ! ! ! ! ! ! ! ! ! ! ! ! ! ! ! ! ! ! ! ! ! ! ! ! { { ! ! { { ~ ~ ! ! { { ~ ~ { { ~ ~ { { { { ] ] ] ] ^ ^ ] ] ] ] ^ ^ ] ] ^ ^ / / ^ ^ / / ] ] / / / / / / / / / / / / ( ( / / ( ( / / ( ( / / ( ( / / ( ( / / ( ( ( ( ( ( ( ( ( ( ( ( ( ( ( ( ( ( ( ( ( ( ( ( ( ( ( ( _ _ ( ( _ _ ( ( _ _ _ _ _ _ _ _ _ _ _ _ _ _ _ _ _ _ _ _ _ _ _ _ _ _ _ _ _ _ _ _ _ _ _ _ _ _ _ _ _ _ _ _ _ _ _ _ _ _ _ _ _ _ _ _ _ _ _ _ _ _ _ _ _ _ _ _ _ _ ( ( _ _ ( ( _ _ ( ( ( ( ( ( ( ( ( ( ( ( ( ( ( ( ( ( ( ( ( ( ( ( ( ( ( ( ( ( ( ( ( ( ( ( ( ( ( ( / / ( ( / / / / / / / / / / / / ^ ^ / / ^ ^ ^ ^ ^ ^ ^ ^ ^ ^ ^ ^ ] ] ^ ^ ] ] ^ ^ ] ] ^ ^ ] ] ] ] ^ ^ ] ] ^ ^ ] ] { { ] ] { { ] ] { { ] ] { { { { ~ ~ { { ~ ~ { { ~ ~ { { ! ! { { ! ! ~ ~ ! ! ! ! { { ! ! ~ ~ ! 4 4 4 @ @ ) ) + @ @ @ = = > > < < - - , , ; ; ; ; [ [ } } . . * * | | @ +           . @ @ @ @ @ @ @ # . . @ @ . . @ @ . . . .   . . .     . . ",
"    3 3   . .   . . .   @ @ . . @ @ @ @ # # @ @ $ @ # # $ @           .   % | | . . } } } } } ; ; ; , , , > < < > , = = @ @ @ @ ) ) @ # ! ! ! ! ! ! ! ! ! ! ! ! ! ! ! ! ! ! ! ! ! ! ! ! ! ! ! ! ! ! ! ! ! ! { { ! ! ~ ~ ! ! { { ~ ~ { { ~ ~ { { ~ ~ { { { { ] ] ] ] ] ] ] ] ^ ^ ] ] ^ ^ ] ] ^ ^ ^ ^ / / ^ ^ / / ^ ^ / / / / / / / / ( ( / / ( ( / / ( ( / / ( ( / / ( ( / / ( ( ( ( ( ( ( ( ( ( ( ( ( ( ( ( ( ( ( ( ( ( ( ( ( ( ( ( ( ( ( ( _ _ ( ( _ _ _ _ _ _ _ _ _ _ _ _ _ _ _ _ _ _ _ _ _ _ _ _ _ _ _ _ _ _ _ _ _ _ _ _ _ _ _ _ _ _ _ _ _ _ _ _ _ _ _ _ _ _ _ _ _ _ _ _ _ _ _ _ _ _ _ _ _ _ ( ( _ _ ( ( ( ( ( ( ( ( ( ( ( ( ( ( ( ( ( ( ( ( ( ( ( ( ( ( ( ( ( ( ( ( ( ( ( ( ( ( ( ( / / ( ( / / ( ( / / ( ( / / / / / / / / ^ ^ / / ^ ^ ^ ^ ^ ^ ^ ^ ^ ^ ^ ^ ] ] ^ ^ ] ] ^ ^ ] ] ] ] ^ ^ ] ] ^ ^ ] ] ^ ^ ] ] { { ^ ^ ~ ~ { { { { ] ] { { ] ] ~ ~ { { ~ ~ { { ! ! { { ! ! ~ ~ ! ! ! ! { { ! ! ~ ~ ! ! ! ! { { ! ! ! ! # # + + | | # # & & , , > > , , > > > > [ [ } } = &     2 2 $ $ $ # & & . .     $ $ + # # # # @ @ @ . . @ @ . . @ @ .   . .     . . & & ",
"    3 3   .     . .   . @ @ . . @ @ @ @ # # @ @ $ @ # # $ $             . % | | . . } } } } ; ; ; ; , , > > < < , , = = @ @ $ @ ) ) + + ! ! ! ! ! ! ! ! ! ! ! ! ! ! ! ! ! ! ! ! ! ! ! ! ! ! ! ! ! ! ! ! ! ! { { ! ! ~ ~ ! ! { { ~ ~ { { ~ ~ { { ~ ~ { { { { ] ] ] ] ] ] ] ] ^ ^ ] ] ^ ^ ] ] ^ ^ ^ ^ / / ^ ^ / / ^ ^ / / / / / / / / ( ( / / ( ( / / ( ( / / ( ( / / ( ( / / ( ( ( ( ( ( ( ( ( ( ( ( ( ( ( ( ( ( ( ( ( ( ( ( ( ( ( ( ( ( ( ( _ _ ( ( _ _ _ _ _ _ _ _ _ _ _ _ _ _ _ _ _ _ _ _ _ _ _ _ _ _ _ _ _ _ _ _ _ _ _ _ _ _ _ _ _ _ _ _ _ _ _ _ _ _ _ _ _ _ _ _ _ _ _ _ _ _ _ _ _ _ _ _ _ _ ( ( _ _ ( ( ( ( ( ( ( ( ( ( ( ( ( ( ( ( ( ( ( ( ( ( ( ( ( ( ( ( ( ( ( ( ( ( ( ( ( ( ( ( / / ( ( / / ( ( / / ( ( / / / / / / / / ^ ^ / / ^ ^ ^ ^ ^ ^ ^ ^ ^ ^ ^ ^ ] ] ^ ^ ] ] ^ ^ ] ] ] ] ^ ^ ] ] ^ ^ ] ] ^ ^ ] ] { { ^ ^ ~ ~ { { { { ] ] { { ] ] ~ ~ { { ~ ~ { { ! ! { { ! ! ~ ~ ! ! ! ! { { ! ! ~ ~ ! ! ! ! { { ! ! ! ! # # + + | | # # & & , , , > > , > > > , [ [ } } = =     2 2 $ $ $ # & & . .     $ $ # # # # # @ @ @ . . @ @ . . @ @ .   . .     . . 3 & ",
"3 3           . .     . . . @ @ . . # # @ @ $ @ @ @ @ @ @ @ % % & & .       * *     = = - - ; } > > > , > , > , ' ' & & @ $ | | @ @ $ + ! ! ! ! ! ! ! ! { { ! ! { { ! ! { { ! ! { { ! ! { { ~ ~ { { ~ ~ ^ ^ ~ ~ ^ ^ { { ] ] { { ] ] { { ] ] { { ] ] { { ] ] { { ] ] ^ ^ ] ] ^ ^ ] ] ^ ^ ] ] ^ ^ ^ ^ ] ] ^ ^ ^ ^ ^ ^ ^ ^ / / ^ ^ / / / / / / / / ( ( / / ( ( / / ( ( ( ( ( ( ( ( ( ( ( ( ( ( ( ( ( ( ( ( ( ( ( ( ( ( ( ( ( ( ( ( ( ( ( ( _ _ ( ( _ _ _ _ _ _ _ _ _ _ _ _ _ _ _ _ _ _ _ _ _ _ _ _ _ _ _ _ _ _ _ _ _ _ _ _ _ _ _ _ _ _ _ _ _ _ _ _ _ _ _ _ _ _ _ _ _ _ _ _ _ _ _ _ _ _ _ _ _ _ _ _ _ _ _ _ _ _ ( ( _ _ ( ( ( ( ( ( ( ( ( ( ( ( ( ( ( ( ( ( ( ( ( ( ( ( ( ( ( ( ( ( ( ( ( ( ( ( / / ( ( / / / / / / / / / / / / / / / / / / / / ^ ^ / / ^ ^ / / ^ ^ / / ^ ^ ^ ^ ^ ^ ^ ^ ^ ^ ^ ^ ] ] ^ ^ ^ ^ ^ ^ ^ ^ ^ ^ ^ ^ ^ ^ ^ ^ ] ] ^ ^ ^ ^ { { ^ ^ { { ] ] { { { { ~ ~ { { ~ ~ { { ! ! { { ! ! ! ! { { ! ! { { ! ! ! ! # + | | $ $ $ $ = = , , < < - - , , } ; ; ; [ [ } } . . * * * | @ +     5 5 . . @ @ $ $ $ @ @ $ . . @ @ . . @ @   . . .     . .     . . ",
"3 3           . .     . . . @ @ . . # # @ @ @ $ @ @ @ @ @ @ % % & & . .     * *     = = - - ; } > > > > , , > , ' ' & & @ $ | | @ @ @ + ! ! ! ! ! ! ! ! { { ! ! { { ! ! { { ! ! { { ! ! { { ~ ~ { { ~ ~ ^ ^ ~ ~ ^ ^ { { ] ] { { ] ] { { ] ] { { ] ] { { ] ] { { ] ] ^ ^ ] ] ^ ^ ] ] ^ ^ ] ] ^ ^ ^ ^ ] ] ^ ^ ^ ^ ^ ^ ^ ^ / / ^ ^ / / / / / / / / ( ( / / ( ( / / ( ( ( ( ( ( ( ( ( ( ( ( ( ( ( ( ( ( ( ( ( ( ( ( ( ( ( ( ( ( ( ( ( ( ( ( _ _ ( ( _ _ _ _ _ _ _ _ _ _ _ _ _ _ _ _ _ _ _ _ _ _ _ _ _ _ _ _ _ _ _ _ _ _ _ _ _ _ _ _ _ _ _ _ _ _ _ _ _ _ _ _ _ _ _ _ _ _ _ _ _ _ _ _ _ _ _ _ _ _ _ _ _ _ _ _ _ _ ( ( _ _ ( ( ( ( ( ( ( ( ( ( ( ( ( ( ( ( ( ( ( ( ( ( ( ( ( ( ( ( ( ( ( ( ( ( ( ( / / ( ( / / / / / / / / / / / / / / / / / / / / ^ ^ / / ^ ^ / / ^ ^ / / ^ ^ ^ ^ ^ ^ ^ ^ ^ ^ ^ ^ ] ] ^ ^ ^ ^ ^ ^ ^ ^ ^ ^ ^ ^ ^ ^ ^ ^ ] ] ^ ^ ^ ^ { { ^ ^ { { ] ] { { { { ~ ~ { { ~ ~ { { ! ! { { ! ! ! ! { { ! ! { { ! ! ! ! # + | | $ $ $ @ = = , , < < - - , , } ; ; ; [ [ } } . . * * | | @ @ .   5 5 . . @ @ @ $ @ @ $ @ . . @ @ . . @ @   . . .     . .     . . ",
"    3 3 . .     . .   . @ @ . . @ @ . . # # @ @ $ $ @ # # $         .   % % | | @ @ 6 6 ; ; - - ; } > > - - < < , , = = $ $ $ $ ) ) @ # ! ! ! ! ! ! ! ! ! ! { { ! ! { { ~ ~ { { ~ ~ { { ~ ~ { { ~ ~ { { { { ^ ^ { { ] ] { { ] ] { { ^ ^ { { ^ ^ { { { { { { ] ] ^ ^ ] ] ^ ^ ] ] ^ ^ ^ ^ ] ] ^ ^ ^ ^ / / ^ ^ / / ^ ^ / / / / / / / / ( ( / / ( ( / / ( ( / / ( ( ( ( ( ( ( ( ( ( ( ( ( ( ( ( ( ( ( ( ( ( ( ( ( ( ( ( ( ( ( ( ( ( ( ( _ _ _ _ _ _ _ _ _ _ _ _ _ _ _ _ _ _ _ _ _ _ _ _ _ _ _ _ _ _ _ _ _ _ _ _ _ _ _ _ _ _ _ _ _ _ _ _ _ _ _ _ _ _ _ _ _ _ _ _ _ _ _ _ _ _ _ _ _ _ _ _ _ _ _ _ _ _ _ _ _ _ _ _ _ _ ( ( ( ( ( ( ( ( ( ( ( ( ( ( ( ( ( ( ( ( ( ( ( ( ( ( ( ( ( ( ( ( ( ( ( ( / / ( ( / / ( ( / / / / / / / / / / / / / / / / / / / / ^ ^ / / ^ ^ / / ^ ^ / / ^ ^ ^ ^ ^ ^ ^ ^ ] ] ^ ^ 1 1 ^ ^ ^ ^ ^ ^ ^ ^ ^ ^ ^ ^ ] ] ^ ^ ^ ^ { { ^ ^ { { ^ ^ { { { { { { { { ~ ~ { { ! ! { { ! ! { { { { ! ! { { ! ! ! 4 4 ! # @ @ + @ @ # # & & ' ' > > , , - - > > ; } } ; = &     2 2 $ $ # # & & .       $ $ @ @ @ # @ @ @ @ . . @ @ . .   . .     . .     . .   ",
"    3 3 . . .   . .     @ @ . . @ @ . . # # @ @ $ @ # # $ $           .   % | | @ @ 6 6 ; ; - - ; ; > > - - < < , , = = $ $ $ $ ) ) + + ! ! ! ! ! ! ! ! ! ! { { ! ! { { ~ ~ { { ~ ~ { { ~ ~ { { ~ ~ { { { { ^ ^ { { ] ] { { ] ] { { ^ ^ { { ^ ^ { { { { { { ] ] ^ ^ ] ] ^ ^ ] ] ^ ^ ^ ^ ] ] ^ ^ ^ ^ / / ^ ^ / / ^ ^ / / / / / / / / ( ( / / ( ( / / ( ( / / ( ( ( ( ( ( ( ( ( ( ( ( ( ( ( ( ( ( ( ( ( ( ( ( ( ( ( ( ( ( ( ( ( ( ( ( _ _ _ _ _ _ _ _ _ _ _ _ _ _ _ _ _ _ _ _ _ _ _ _ _ _ _ _ _ _ _ _ _ _ _ _ _ _ _ _ _ _ _ _ _ _ _ _ _ _ _ _ _ _ _ _ _ _ _ _ _ _ _ _ _ _ _ _ _ _ _ _ _ _ _ _ _ _ _ _ _ _ _ _ _ _ ( ( ( ( ( ( ( ( ( ( ( ( ( ( ( ( ( ( ( ( ( ( ( ( ( ( ( ( ( ( ( ( ( ( ( ( / / ( ( / / ( ( / / / / / / / / / / / / / / / / / / / / ^ ^ / / ^ ^ / / ^ ^ / / ^ ^ ^ ^ ^ ^ ^ ^ ] ] ^ ^ 1 1 ^ ^ ^ ^ ^ ^ ^ ^ ^ ^ ^ ^ ] ] ^ ^ ^ ^ { { ^ ^ { { ^ ^ { { { { { { { { ~ ~ { { ! ! { { ! ! { { { { ! ! { { ! ! 4 4 ! ! # @ + + @ @ # # & & ' ' > > , , - - > > ; } ; ; = &     2 2 $ $ # # & &   .     $ $ @ @ @ # @ @ @ @ . . @ @ . .   . .     . .   . .     ",
"3 3     3 3   .     @ @ . . @ @ . . @ @ @ @ @ $ @ @ @ # # @ % % & &   .     * *     = = - - } } , > ; ; > , , > ' ' & & # # @ @ $ # # # ! ! ! ! ! ! { { ! ! ! ! { { ~ ~ { { ~ ~ { { ~ ~ { { ~ ~ { { ~ ~ { { { { ] ] { { ] ] { { ] ] ] ] ] ] { { ] ] { { ] ] { { ] ] ] ] ] ] ] ] ^ ^ ] ] ^ ^ ^ ^ ^ ^ ^ ^ / / ^ ^ / / / / / / / / / / / / ( ( / / ( ( / / / / ( ( ( ( ( ( ( ( ( ( ( ( ( ( ( ( ( ( ( ( ( ( ( ( ( ( ( ( ( ( ( ( ( ( ( ( ( ( _ _ ( ( _ _ _ _ _ _ _ _ _ _ _ _ _ _ _ _ _ _ _ _ _ _ _ _ _ _ _ _ _ _ _ _ _ _ _ _ _ _ _ _ _ _ _ _ _ _ _ _ _ _ _ _ _ _ _ _ _ _ _ _ _ _ _ _ _ _ _ _ _ _ _ _ _ _ _ _ _ _ ( ( ( ( ( ( ( ( ( ( ( ( ( ( ( ( ( ( ( ( ( ( ( ( ( ( ( ( ( ( ( ( ( ( ( ( ( ( ( ( / / / / ( ( / / / / ( ( / / ( ( / / / / / / / / ^ ^ / / ^ ^ / / ^ ^ / / ^ ^ ] ] ] ] ] ] ] ] ] ] ] ] ^ ^ ^ ^ ^ ^ ^ ^ ] ] ^ ^ ] ] ^ ^ ] ] ^ ^ ] ] { { ] ] { { ] ] ~ ~ { { ~ ~ { { ! ! { { ! ! { { ! ! ! ! { { ! ! { { ! ! ! ! # + | | $ $ $ @ = = > , < < - - , , } ; ; ; [ [ } } . . * * * | $ @     5 5 . . @ @ @ $ @ @ @ # . . @ @ . . @ @ .     . .   . .         ",
"3 3     3 3   . .   @ @ . . @ @ . . @ @ @ @ @ $ @ @ @ # @ @ % % & & . .     * *     = = - - } } , > ; ; > , > > ' ' & & # # @ @ $ # # # ! ! ! ! ! ! { { ! ! ! ! { { ~ ~ { { ~ ~ { { ~ ~ { { ~ ~ { { ~ ~ { { { { ] ] { { ] ] { { ] ] ] ] ] ] { { ] ] { { ] ] { { ] ] ] ] ] ] ] ] ^ ^ ] ] ^ ^ ^ ^ ^ ^ ^ ^ / / ^ ^ / / / / / / / / / / / / ( ( / / ( ( / / / / ( ( ( ( ( ( ( ( ( ( ( ( ( ( ( ( ( ( ( ( ( ( ( ( ( ( ( ( ( ( ( ( ( ( ( ( ( ( _ _ ( ( _ _ _ _ _ _ _ _ _ _ _ _ _ _ _ _ _ _ _ _ _ _ _ _ _ _ _ _ _ _ _ _ _ _ _ _ _ _ _ _ _ _ _ _ _ _ _ _ _ _ _ _ _ _ _ _ _ _ _ _ _ _ _ _ _ _ _ _ _ _ _ _ _ _ _ _ _ _ ( ( ( ( ( ( ( ( ( ( ( ( ( ( ( ( ( ( ( ( ( ( ( ( ( ( ( ( ( ( ( ( ( ( ( ( ( ( ( ( / / / / ( ( / / / / ( ( / / ( ( / / / / / / / / ^ ^ / / ^ ^ / / ^ ^ / / ^ ^ ] ] ] ] ] ] ] ] ] ] ] ] ^ ^ ^ ^ ^ ^ ^ ^ ] ] ^ ^ ] ] ^ ^ ] ] ^ ^ ] ] { { ] ] { { ] ] ~ ~ { { ~ ~ { { ! ! { { ! ! { { ! ! ! ! { { ! ! { { ! ! 4 ! # + | | $ $ $ @ = = , , < < - - , , ; ; ; ; [ [ } } . . * * | | $ @     5 5 . . @ @ @ $ @ @ # # . . @ @ . . @ @     . .   . . . .       ",
". . 3 3 . .     @ @ % . @ @ . . @ @ . . + # @ @ $ # # @ $ @         .   % % | | % . } } } ; } ; } } > > - - < < , , = = @ $ $ $ ) ) @ # ! ! ! ! ~ ~ ! ! ! ! ! ! ~ ~ ! ! ~ ~ ! 4 ~ ~ ! ! { { ~ ~ { { ~ ~ { { ~ ~ ! ! { { ! ! { { ~ ~ { { ~ ~ ] ] { { ] ] { { ] ] ] ] ] ] ^ ^ ] ] ^ ^ ] ] ^ ^ ^ ^ ^ ^ ] ] ^ ^ ^ ^ ^ ^ ^ ^ ^ ^ ^ ^ ^ ^ / / / / / / / / / / / / ( ( / / / / / / ( ( / / ( ( ( ( ( ( ( ( ( ( ( ( ( ( ( ( ( ( ( ( ( ( ( ( ( ( ( ( ( ( ( ( ( ( ( ( ( ( ( ( _ _ _ _ _ _ _ _ _ _ _ _ _ _ _ _ _ _ _ _ _ _ _ _ _ _ _ _ _ _ _ _ _ _ _ _ _ _ _ _ _ _ _ _ _ _ _ _ _ _ _ _ _ _ ( ( _ _ ( ( ( ( ( ( _ _ ( ( ( ( ( ( ( ( ( ( ( ( ( ( ( ( ( ( ( ( ( ( ( ( ( ( ( ( / / / / / / / / / / ( ( / / / / / / / / / / / / / / / / / / / / ^ ^ / / ^ ^ ^ ^ ^ ^ ^ ^ ^ ^ ^ ^ ] ] ^ ^ ^ ^ ] ] ^ ^ ] ] { { ] ] { { ^ ^ { { ^ ^ { { ^ ^ ~ ~ ^ ^ ~ 1 { { ~ ~ { { { { ~ ~ { { ~ ~ ! ! ! ! ~ ~ ! ! ~ ~ ! ! ~ ~ { { { { ! ! { { ! ! ! 4 4 ! @ @ + @ @ @ # # & & ' ' > > , , - - > > } } ; ; = &     2 2 $ $ $ # & &         $ $ @ @ @ # # @ @ # . . @ @ .     . .     .     . .     ",
". . 3 3 . . .   @ @ . % @ @ . . @ @ . . # # @ @ $ @ # @ $ @           .   % | | . . } } } ; } ; } } > > - - < < , , = = @ @ $ $ ) ) @ # ! ! ! ! ~ ~ ! ! ! ! ! ! ~ ~ ! ! ~ ~ ! ! ~ ~ ! ! { { ~ ~ { { ~ ~ { { ~ ~ ! ! { { ! ! { { ~ ~ { { ~ ~ ] ] { { ] ] { { ] ] ] ] ] ] ^ ^ ] ] ^ ^ ] ] ^ ^ ^ ^ ^ ^ ] ] ^ ^ ^ ^ ^ ^ ^ ^ ^ ^ ^ ^ ^ ^ / / / / / / / / / / / / ( ( / / / / / / ( ( / / ( ( ( ( ( ( ( ( ( ( ( ( ( ( ( ( ( ( ( ( ( ( ( ( ( ( ( ( ( ( ( ( ( ( ( ( ( ( ( ( _ _ _ _ _ _ _ _ _ _ _ _ _ _ _ _ _ _ _ _ _ _ _ _ _ _ _ _ _ _ _ _ _ _ _ _ _ _ _ _ _ _ _ _ _ _ _ _ _ _ _ _ _ _ ( ( _ _ ( ( ( ( ( ( _ _ ( ( ( ( ( ( ( ( ( ( ( ( ( ( ( ( ( ( ( ( ( ( ( ( ( ( ( ( / / / / / / / / / / ( ( / / / / / / / / / / / / / / / / / / / / ^ ^ / / ^ ^ ^ ^ ^ ^ ^ ^ ^ ^ ^ ^ ] ] ^ ^ ^ ^ ] ] ^ ^ ] ] { { ] ] { { ^ ^ { { ^ ^ { { ^ ^ ~ 1 ^ ^ ~ 1 { { ~ ~ { { { { ~ ~ { { ~ ~ ! ! ! ! ~ ~ ! ! ~ ~ ! ! ~ ~ { { { { ! ! { { ! ! ! 4 ! ! # @ @ + @ @ $ # & & ' ' > > , , - - > > } } } ; = =     2 2 $ $ # # & &         $ $ @ @ # # @ @ @ # . . @ @ .   . .     . .   . .       ",
"3 3 . . .   + +   . @ @ . . @ @ . . @ @ @ @ # # @ @ $ @ # @ . . & &   .     * *     = & ; ; ; } ; ; ; ; , , , , ' ' & & $ $ | | ) ) @ # ! ! ! ! ! ! 4 4 4 ! 7 7 8 8 ' ' 9 9 < < 0 0 a a a } + + + + + # # @ | | + + b b c c 8 8 8 8 8 8 8 8 8 8 8 8 8 8 8 8 8 8 d d 8 8 8 8 8 8 8 8 8 8 8 8 8 8 8 8 8 8 e e e f g g 8 8 d d 8 8 8 8 8 8 8 8 8 8 8 8 8 8 8 8 8 8 8 8 d d d d 8 8 e e 8 8 h d e f 8 8 8 8 e e f 8 d h 8 8 d d 8 8 d d 8 8 d h 8 8 d d 8 8 d d 8 8 d h 8 8 d h 8 8 h h 8 8 d h 8 8 h h 8 8 h h 8 8 d d 8 8 h h g g h h g g g h g g h g g g h g g g g h g g h h g g h h g g h h h g g d 8 8 d d 8 8 d h 8 8 h g 8 8 g h 8 8 d d 8 8 h h g h i i g g h d g g 8 8 8 8 d d 8 8 e e f 8 f 8 8 8 d e j j f 8 f 8 f f 8 f f e e f 8 d 8 8 d e j 8 d e j 8 8 8 8 8 e e 8 8 8 8 8 8 8 e k k 8 8 8 8 8 8 8 8 8 8 8 8 8 8 8 8 d d c c c c # # @ # # @ # # # + . . } } > > ' ' 0 0 0 0 0 9 8 8 l l ! ! { { ! ! ! ! ! ! @ @ ) ) $ $ $ $ = = , , < < - - , > ; ; ; ; } } } } .   * * @ @ @ @     & & . . # # # # @ @ # # . . @ @ . . . . .     . .     .     .   ",
"3 3 . .   . + +   . @ @ . . @ @ . . @ @ @ + # # @ @ @ $ @ @ . . & & . .     * *     & = ; ; ; } ; ; ; ; , , , , ' ' & & $ $ | | ) ) # + ! ! ! ! ! ! 4 4 ! ! 7 7 8 8 ' ' 9 9 < < 0 0 a a a } + + + # # # @ # | | + + b b c c 8 8 8 8 8 8 8 8 8 8 8 8 8 8 8 8 8 8 d d 8 8 8 8 8 8 8 8 8 8 8 8 8 8 8 8 8 8 e e e f g g 8 8 d d 8 8 8 8 8 8 8 8 8 8 8 8 8 8 8 8 8 8 8 8 e d d d 8 8 e f 8 8 d d e f 8 8 8 8 e e 8 8 d d 8 8 h d 8 8 d e 8 8 d d 8 8 h d 8 8 d d 8 8 h d 8 8 d h 8 8 h h 8 8 d d 8 8 h d 8 8 h h 8 8 d h 8 8 h h g g h g g g h h g g h h g g h g g g h h h g g h h g h h g g h h g h d d 8 8 h d 8 8 d h 8 8 h g 8 8 g h 8 8 e d 8 8 d h h h i i g g h d g g 8 8 8 8 d h 8 8 e e j 8 f 8 f f e e j 8 f f 8 f f e f 8 f e e f 8 d 8 8 d e 8 8 d e 8 8 8 8 8 8 e e 8 8 8 8 8 8 8 e k k 8 8 8 8 8 8 8 8 8 8 8 8 8 8 8 8 d d c c c c # # @ # # # # @ # # . . } } > > ' ' 0 0 0 0 9 9 8 8 l l ! ! { { ! ! 4 ! ! ! @ @ ) ) $ $ @ $ = = , , < < - - , > ; ; ; ; } } } }     * * @ @ @ @     & & . . # # # # @ @ @ # . . @ @ % . . .       .       .     . . ",
"    3 3 . .   . @ @   . + @ . . @ @ . . $ @ # # # # # @ $ @             . % | | % % } } ; } ; } } } > > - - < < , > = = @ @ $ $ ) ) @ # ! ! 4 ! ! ! 4 ! ! 4 l l d d 9 9 m m n n m m n n o o p p o o q q o o p p o o o o 9 9 9 9 9 9 9 9 r r 0 0 ' ' } } & & # # @ # # # # # @ # | | c c c c 8 8 8 8 8 8 8 8 8 8 8 8 8 8 8 8 8 8 8 8 8 8 8 8 8 8 8 8 8 8 8 8 8 8 8 8 h d 8 8 8 8 8 8 8 8 8 8 8 f 8 f f e 8 8 8 f 8 8 g g 8 8 h d f 8 e d 8 8 d d 8 8 h d 8 8 h d 8 8 d h 8 8 d d 8 8 h d 8 8 h d 8 8 g g 8 8 g g 8 8 g g 8 8 g g 8 8 g g 8 8 g g 8 8 g g 8 8 g g 8 8 g g 8 8 g g 8 8 g g 8 8 g g 8 8 d h g 8 8 8 8 8 8 8 8 8 g g 8 8 h d g g h g 8 8 g h g g h g 8 8 8 8 8 8 8 8 8 8 8 8 8 8 8 8 8 8 8 f 8 f f e 8 8 8 f 8 8 d e 8 j j 8 k k 8 8 8 8 8 e k j f f 8 8 c c c c s s | | + + $ @ # # $ # & & > > ' ' > > ' ' ' ' o o 9 9 o o 9 9 q q o o p p m m n n o o o o o o o o p n n n 9 9 d d t t ! ! ! ! ! ! ! 4 ! 4 + + ) ) | | # #     ' ' > > , , ; ; > > } } ; ; = = & & * * $ $ $ @ & & 5 5 5 5 $ $ @ @ # # @ @ @ @ . . @ @       .     . . .   . .   . ",
"    3 3 . .   . @ @ . . @ @ . . @ @ . . $ @ # # # # # @ $ @             . % | | . % } } } } ; } ; } > > - - < < , > = = @ @ $ $ ) ) + + ! ! 4 ! ! ! 4 ! 4 4 l l d d 9 9 m m n n m m n n o o p p o o q q o o p n o o o o 9 9 9 9 9 9 9 9 r r 0 0 ' ' } } & & # # # @ # # # # # # | | c c c c 8 8 8 8 8 8 8 8 8 8 8 8 8 8 8 8 8 8 8 8 8 8 8 8 8 8 8 8 8 8 8 8 8 8 8 8 d d 8 8 8 8 8 8 8 8 8 8 8 e 8 8 d e 8 8 f 8 f f g g 8 8 d d 8 8 d d 8 8 h d 8 8 d d 8 8 h d 8 8 h d 8 8 d h 8 8 h h 8 8 d h 8 8 h g 8 8 g g 8 8 g g 8 8 g g 8 8 g g 8 8 g g 8 8 g g 8 8 g g 8 8 g g 8 8 g g 8 8 g g 8 8 g g 8 8 d h g 8 8 8 8 8 8 8 8 8 g g g 8 d d g g g g 8 8 d h g g h g 8 8 8 8 8 8 8 8 8 8 8 8 8 8 8 8 8 8 8 f 8 f f e 8 8 f 8 f f e 8 8 j j 8 k k 8 8 8 8 8 f j j 8 f 8 8 c c c c s s | | + + $ $ @ # # $ & & > > ' ' > > ' ' ' ' o o 9 9 o o 9 9 q q o o p p m m n n o o o o o o o o p n n n 9 9 d d t t ! ! ! ! ! ! 4 4 ! 4 + + ) ) | | # #     ' ' > > > , ; ; > > ; } } ; = = & & * * @ $ $ # & & 5 5 5 5 $ $ @ @ # # @ @ @ @ . . @ @     . . .     . .   . . .   ",
"& &       . . .   . @ @ . . @ @ . . @ # + @ # # % % # # # @ % % & &   . .   * *     = = ; ; ; } ; ; ; ; , , , , ' ' & & $ $ | | ) ) + + ! ! ! ! ! ! ! ! ! ! 7 7 d d 9 9 o o o o u u n n n p o o q q o o q q o o q q o o q q n n n p n n p p n n v v p p u u p p u w w w p p n n n p x x o o 9 9 9 9 ' ' 0 0 y y r r a a & & z z z + + + # # + + + # 8 8 8 8 8 8 8 8 8 8 8 8 8 8 8 8 8 8 8 8 k k e e f 8 8 8 8 8 8 8 8 8 8 8 8 8 8 8 8 8 8 8 8 8 d d 8 8 8 8 8 8 d h 8 8 h g 8 8 d d 8 8 d h 8 8 f 8 f f e 8 8 f f 8 f f 8 8 8 8 8 8 8 8 8 8 8 8 8 8 8 8 8 8 8 8 8 8 8 8 8 8 8 8 8 8 8 8 8 8 8 8 h h 8 8 d d 8 8 f 8 8 8 8 8 8 8 d d 8 8 8 8 8 8 g g 8 8 8 8 8 8 8 8 8 8 8 8 8 8 8 8 8 8 8 8 8 8 d d d d b b + + + # # + # # + z z + [ [ } } ' ' 0 0 ' ' 0 0 9 9 m m m x x m o o q q p p u w n n n p p p u w u u v v u u v u p p u w n n n p p n u u p n n n p n n n o o q q o o p p o o o o g g t t ! ! ! ! ! ! ! ! ! ! + + ) ) @ @ @ $ = = , , < < - - , > } ; ; ; } } } } .   | | # @ @ $     & &     @ @ # # # @ $ # . . @ @ . . @ @     . . .     .         ",
"5 &       . . . .   @ @ . . @ @ . . @ @ @ + # # % % # # # @ % % & &   . .   * *     & = ; ; ; } ; ; ; ; , , , , ' ' & & $ $ | | ) ) + + ! ! ! ! ! ! ! ! ! ! 7 7 d d 9 9 o o o o q u n n n p o o q q o o q q o o q q o o q q n n n p n n p p n n v v p p u w n p w w w w p p p n p p m x o o 9 x x 9 ' ' 0 0 y y r r a a & & z z + + + + # # + + + + 8 8 8 8 8 8 8 8 8 8 8 8 8 8 8 8 8 8 8 8 k k e e f 8 8 8 8 8 8 8 8 8 8 8 8 8 8 8 8 8 8 8 8 8 d d 8 8 8 8 8 8 d d 8 8 h d 8 8 d h 8 8 g h 8 8 f 8 8 8 8 f 8 8 8 f 8 8 8 8 8 8 8 8 8 8 8 8 8 8 8 8 8 8 8 8 8 8 8 8 8 8 8 8 8 8 8 8 8 8 8 8 8 8 h h 8 8 d d 8 8 8 8 8 8 8 8 8 8 d d 8 8 8 8 8 8 g g 8 8 8 8 8 8 8 8 8 8 8 8 8 8 8 8 8 8 8 8 8 8 d d d d b b + + + + # # + # z z + + [ [ } } ' ' 9 9 ' ' 0 0 9 9 m m m x m m o o q q p p w u n n p p n p u u v u v v u u u v p p u w n n p p n p u u n n p n n n p n o o q q o o p p o o o o g g t t ! ! ! ! ! ! ! ! ! ! + + ) ) @ @ $ $ = = , , < < - - , > } ; ; ; } } } } .   * | # @ @ @     & &     @ @ # # # @ $ # . . @ @ . . @ @     . . .     .       . ",
"    & & . .   . @ @ . . @ @ . . @ @ . . $ $ % % # # % % # $ 5 5         % % | | % % } } } } ; } ; } > > - - < < , , & = @ @ $ $ ) ) @ @ ! ! ! ! ! ! ! ! ! ! l l 8 8 9 9 o o q q 0 0 - - [ [ > > } } o o p n q q o o q q q q q u n p w u p p u w u v v u p p u w u v A A p p u v v u u v v u q q q q q q q q q q q q u u q q u u n p q q n p q q m m o o 9 x o o o o 9 9 9 9 ' ' } } . . # # B B # # B B # # # + d d g g 8 8 8 8 8 8 8 8 8 8 8 8 8 8 8 8 8 8 8 8 8 8 g g 8 8 g h 8 8 g g 8 8 g g 8 8 d e 8 8 d e 8 8 f e 8 8 d d 8 8 e d 8 8 d h 8 8 d h 8 8 h d 8 8 d h 8 8 d d 8 8 h d 8 8 d h 8 8 h g 8 8 8 8 8 8 8 8 8 8 h h 8 8 g g e d # # @ # # # . .   . # # } } } } 9 9 9 9 9 9 9 9 o o o o q q o o q q p p u q p p u q n n v u u q q q u u v v u u q q u u v A A v v u q q q u u v u u v u v v u u v v u u v u p p u w n p p p m x p p m x n n x x a a & & } } & & a a o o o o 9 9 d d 7 7 ! ! 4 ! ! ! 4 ! ! ! @ + ) ) * * # # & & ' ' > > , , ; ; > > } } } ; = = & & * * $ $ $ # & & 5 5 5 & @ # @ @ # # @ @ @ @   . @ @   . . .     .         . & & ",
".   & & . .   . @ @ . . @ @ . . @ # % . $ $ % % # # % % # $ 5 5       .   % | | % % } } } } ; } ; } > > - - < < , , = = @ @ $ $ ) ) @ @ ! ! ! ! ! ! ! ! ! ! t l 8 8 9 9 o o q q 0 0 - - [ [ > > } } o o p n q q o o q q q u u v p p u w n p u u v u v v p p u w u v A A p p v v u u v v v u q q q q q q q u q q q q q u q q q u p p u q n p q q m m o o 9 9 o o o o 9 x 0 0 ' ' } } . . # # B B # # B B # # @ # d d g g 8 8 8 8 8 8 8 8 8 8 8 8 8 8 8 8 8 8 8 8 8 8 g g 8 8 h g 8 8 g g 8 8 g g 8 8 e e f 8 d e j 8 f e 8 8 h h 8 8 d d 8 8 d h 8 8 d d 8 8 d h 8 8 d d 8 8 d d 8 8 h d 8 8 h d 8 8 g g 8 8 8 8 8 8 8 8 8 8 g h 8 8 g g e d # # # @ # # . . .   # # } } } } 9 9 9 9 9 9 9 9 o o o o q q o o q q p p q q p p u q n p u u q q q q u u v u u u q q q u A A v v v u q q q q q u u v u u v v u v v v u u u v p p u w n p p p m m n p m x n n x x a a & & } } & & a a o o o o x x d d 7 7 ! ! 4 ! ! ! 4 ! ! ! + + ) ) * * # # & & ' ' > > , , ; ; > > ; } ; ; = = & & * * $ $ $ @ & & 5 5 & & # @ @ @ # # @ @ @ @ .   @ @   . . .     .       . . & & ",
"& &     .   . . . . # @ .   @ @ . . @ # # @ $ @ # # # # @ @ % . & &   .     * *     & = ; ; } } ; ; ; ; , , , , ' ' = & $ $ | | ) ) + + ! ! ! ! ! ! ! ! ! ! 7 7 d d 9 9 p p m x > > d d d d 8 8 d h h d d d d e c c C C c c c c b b & & a } } } } } } } > > > > > > q q q q q u q q q q q q q u D D q q q q q u D D q q q u u v A A A v v v v u A A v v v A u u v E v v E v u u v u v w v v u u v u u v u v o o q q p n n p m m x m x x m m - - a a + + 3 3 . . z z + z z + b b b b 8 8 g g 8 8 8 8 8 8 8 8 8 8 8 8 8 8 8 8 8 8 g d d 8 8 8 8 8 g g 8 8 g g 8 8 d d 8 8 h d b b + z # # @ # | b F F z z . . ' ' m m x 9 9 m m m n p o o p p o o u u q q q u q q u v w w E v u u G G w w E E v u E v u E G G E v A A v v H H H A u q q u u v q q q q A A D D u u q q q u q q q q q q u q q q > > > > I I I I I I I I & & J J K K $ @ d d C C d d d d e d d d d e d d 8 8 8 8 ' ' n n o o o o g g t t ! ! ! ! ! 4 4 4 ! ! + + ) ) $ $ $ @ = & , , < < - - , > ; } ; ; } } } }     * | @ # @ @     & &     @ @ @ # # @ $ # . . # @ . . @ @     .   & & . .   . .   ",
"& &     .   . . . . @ @ . . @ @ . . @ @ @ @ $ # @ @ $ # # @ . . & & . .     * *     = = ; ; ; } ; ; ; ; , , , , ' ' = & $ $ | | ) ) + + ! ! ! ! ! ! ! ! ! ! 7 7 d d 9 9 p p m m > > d d d d 8 8 d d d d d d e d c c C C c c c c b b & & } } } } } } } } > > > > > > q q q q q q u q q q q q q q D D u q q q q q D D u q q q u v A A v v v A v v E A A v v H u u v E v v E A u u v u v w v v u u v u v v u u o o q q p n p p m x x x 9 x x m - - a a + + 3 3 . . z z + z z z b b b b 8 8 g g 8 8 8 8 8 8 8 8 8 8 8 8 8 8 8 8 8 8 g d d 8 8 8 8 8 g g 8 8 g g 8 8 h h 8 8 h h b b + z # # @ # | b F F z z . . ' ' m m 9 9 9 9 m m n n o o p p o o u u q q q u q q v v u w v E v u G G w w E E v v E A u v G G E E v A E v A H H A q q q q A v q q q q A v D D u q q q q q q q u q q q q q q q > > > > I I I I I } } } & & J J K K $ $ d d C C d d d d e d d d d d d e 8 8 8 8 ' ' n n o o o o g g t t ! ! ! ! ! ! ! 4 ! ! + + ) ) $ $ $ $ = = , , < < - - , > ; } ; ; } } } }     * | # @ @ $     & &     @ @ # # # @ $ # . . # @ % . + @   . . . & & . . .   .   ",
"    & & . .   . @ @ . . # @ . . @ @ . . $ $ # @ @ $ % % # $ & 5   .     . % | | % % } } } } } ; } ; > > - - < < , , & = @ @ $ $ ) ) @ @ ! ! ! ! ! ! ! ! ! ! l l d d o o o o o o } } # # } } > > } } > > J J # # $ $ @ $ | | + + | | + + | | 8 8 8 8 8 8 8 8 C C d d d d d e C C d d c c c c | | | | } } > > > > > > > > } a y y y y H H A v v A A v v A A v v A E v G G E A A H E v A E A A H H H A L L A A D D q q D D A A q q n p v v u A A A v u u q q q u v p p w u u u p n x x n n x m m x m x 9 9 ' ' > > & & . . # # # @ # # # # z z [ [ 0 0 0 9 9 0 0 0 9 9 o o 9 9 q q n n v A u q v v u u v A A v v A H H A H E v v A A A H H q q D D u q M M D D u q A A H H E v G G E v G G E v G G H H A H H H G G E A G G E E N N > > > > a a > > - - a - } } # # c c c c e e C C d d C C d d c 2 f 8 f f e 8 8 f j j # # | | # # | | # # $ s # # @ # > > } } > > } } > O # # ' ' o o o o 9 9 d d 7 7 4 4 ! ! ! ! 4 ! ! ! @ + | | | | $ #     , , > > < < ; ; > > ; } ; ; } } = & * * $ $ $ # & & 5 5 & & # # @ # # # @ @ @ @ . . @ @   . @ @ .     .     .       ",
"    & & . . .   @ @ . . @ @ . . @ @ . . $ $ @ @ $ $ . % $ $ & 5 .       % % | | % % } } } ; } ; } } > > - - < < , , = & @ @ $ $ ) ) @ @ ! ! ! ! ! ! ! ! ! ! l l d d o o o o o o } } # # } } > > } } > > J J # # # $ $ $ | | # # | | + + | | 8 8 8 8 8 8 8 8 C C d d d d d e C C d d c c c c | | | | } } > > > > > > > > a a > y y y H H A v A A v v A E E v A E A E G G E A H H A v A A A H H E A A L L A A D D q q D D A A q q p p v v v u A A u u q q q u v v p p u u v u p p m x n n x m m m x 9 9 9 ' ' > > & & . . # # # # @ # # # z z [ [ 0 0 0 9 9 0 9 9 9 9 o o 9 9 q q n n A A q q v v u u v A v v A A H H A H H v v A A H H H q q D D q q M M D D u q A A A H H E G G E A G G E E G G H H A H H H G G E A G G E v N N > > > > a a y > - - a - } } # # c c c c e e C C d d C C d d c 2 f f 8 f f 8 f 8 8 j # # | | # # | | # # s s # # @ # > > } I > > } } > O # # ' ' o o o o 9 x d d 7 7 4 4 ! ! ! ! ! 4 ! ! # + | | | | # #     , , > > < < ; ; > > ; } ; ; } } = & * * @ $ # # & & 5 5 & & # # # @ # # @ @ @ @   . @ @   . @ @     . .       .     ",
"& &       . . . . . # @ . . @ @ . % @ @ $ @ # $ @ @ $ @ # # % % & &   .     * *     & = ; ; ; } ; ; ; ; , , , , ' ' & & $ $ | | ) ) + + ! ! ! ! ! ! ! ! ! ! 7 7 d d 9 9 p p o o > > z z ' ' + + 9 9 9 9 9 9 9 9 9 9 P P m m x 9 9 0 0 0 9 9 a a m m x 9 9 x ' ' m x ' r r ' # # + z + + . . # # . . # # . . 8 8 8 8 8 8 8 8 8 8 c c 8 f c c d d c 2 C C K K K K | | } 6 > > > O > > > > Q Q Q > ' ' q q D D q q D D D D D D D D D D D D D D A A L M A A L M q q A A H A A H H E H H A v A A v v u A u u v u p p u u p n p p n p u w n n w w w w v E w w E E w w E E v E v A E A G G E A H A G G H H A H M M H H G M M M D D q q L L D D D D D D D D q q D D ' ' ' ' Q Q > Q } } > > } } > > | | + + 2 C c c d d d d d e c c d d c c 8 f 8 8 8 8 8 8 # # . . # # + + + z z + z z + + r r m m 0 0 m m r r m x ' r < < 0 0 0 9 9 x x m m m n p o o o o r r ' ' 9 9 [ [ < < + + > > n n o o x x 8 8 l t ! ! ! ! ! ! ! ! ! 4 @ @ ) ) @ $ $ # & & > , < < > > > > ; } ; ; } } } ;     * | + @ @ $     & &     @ @ # # # @ # # . . @ @ . . @ @   . . . .     .       . ",
"& &         . . . . @ @ . . @ @ . % @ @ # @ $ $ @ @ $ $ @ # % % & & . .     * *     & = ; ; } } } ; ; ; , , , , ' ' & & @ $ | | ) ) + @ ! ! ! 4 ! ! ! ! ! ! 7 7 d d 9 9 p p o o > > z z ' ' + + 9 9 9 9 9 9 9 9 x x n P m m m x 9 9 0 9 9 9 a a m m 9 9 9 9 ' ' 9 9 r r ' ' # # + z + + . . # # . . # # . . 8 8 8 8 8 8 8 8 8 8 c c 8 f c c d d c 2 C C K K K K | | } 6 > > > O > > > > Q Q Q > Q ' q q D D q q D D D D D D D D D D D D D D A A G M A A G M q q A A A H H E H v H H A v A A v v v u u v u v p p u w n p p p n n w w n n w w w w E v u w v E w w v E E v A E A E G G E A H A G G H H H A M M H H G M M M D D u q M L D D D D D D D D q q D D ' ' ' ' Q Q > Q } } > > } } > > | | + + 2 2 c c d d d d d d c c d d c c 8 f 8 8 8 8 8 8 # # . . # # + + + z z + z z + + r r m x 0 0 m m r r m x r r < < 0 0 0 0 9 9 x m m x n n o o o o r r ' ' 0 0 [ [ < < + + > > n n o o x x 8 8 l t ! ! ! ! ! ! ! ! ! ! @ @ ) ) $ $ # $ & & > > < < > > > > ; ; ; ; } } } ;     | | @ # @ @   . & &     $ # @ # # @ @ # . . @ @ . . + @   . . . .   . .     .   ",
"    & 5   . .   @ @ . . @ @ . . @ @ . % # # # @ # $ $ @ $ $       .     . % | | % % } } } } ; } ; } > > - - r < > > = = @ @ $ @ ) ) @ @ 4 4 ! ! ! ! ! ! ! ! l l g g 9 9 o o o o > > . . ' ' b b < < ' ' 0 0 q q n n w w p n w u 9 9 n n . . u u p n p n w u v v u q q q n n q q q q q u m m x m q q q q q u q q q q q q o o q q o o q q o o & & . . 5 5 . .   . % % R R % % 8 8 8 j j 8 k 8 d h d d d d e d d d d d C C c c # # | | > > } a > > > > ' ' < < ' ' < < H H A H M M A H G M A A H H H H A H H A A v v A E E u u v E v E v u w w H H A v A H E v H H A v A A G G L L A H S S - - N N - - N r y y y < > > > y | | | b c c c c c c c c d d d d C C K c 8 f e e f 8 . .   . % . .   R R . . R R . . R R & & o o o o o o q q q q q u q q p p u v q q q q q u u u 0 0 p p u w n p u u u v u v o p p n p n n n y y m m x 9 n n v u n n n p o o 9 9 < < > > c c 0 0 + + r < m m n n 9 9 d d 7 7 ! 4 ! ! ! ! ! ! ! ! + + ) ) | | @ $ & & ' ' > > > , ; ; > > } } ; } } 6 & & * * @ $ $ # & & 5 5 & & # # $ @ # # @ @ @ @ . . @ @ . . @ @       .     . .     ",
"    & 5 . .   . @ @ . . @ @ . . @ @ . % # # @ @ $ $ @ @ $ $   .   .     . % | | % % } } } } } ; } ; > > - - r < > > & = @ @ $ @ ) ) @ @ 4 4 ! ! ! ! ! ! ! ! l l g g 9 9 o o o o > > . . ' ' | b < < ' ' 9 9 q q n n w w n n u u 0 9 n n . . u u p n p n u u v u v w q q n n q q q q q u m m m x q q q q q u q q q q q q o o q q o o q q o o & & . . 5 5 . .   . % . R R . % 8 8 8 j j j 8 f d d d d e d d d d d d d C C K c # # | | > > } a > > > > ' ' < < ' ' < < H H A H M M H H G M A A H H H H H A v A A G v v E A u v v v E A u v w w H H A v A H E v A H E v A E G G L L A H S S - - N N - - N r y y y < > > > y | | | b c c c c c c c c d d d d C C c c f 8 f e 8 8 . .   . % . . . R R % . R R % . R R & & o o o o o o q q q q q q u q p p u v q q q u u v u u 0 0 p p w u p p w u u v v u p p p n p n n n y y m m m x n n A v p n n n o o 9 x < < > > c c 0 0 + + r < m m n n 9 9 d d 7 7 ! 4 ! ! ! ! ! ! ! ! + + ) ) | | @ # & 5 ' ' > > , > ; ; > , } } ; } } 6 & & * * @ $ $ # & & 5 5 & & # # @ @ # # @ @ @ @ . . @ @ . . @ @     . . .     .     ",
"& & .         . .   @ @ % . $ @ . . @ @ @ @ $ $ $ @ $ @ # # % % & & . .     * *     6 6 ; ; ; } } ; ; ; , , , > > , & & $ $ * * | | + + ! ! ! ! 4 ! ! ! ! 4 7 7 h h 0 0 m m m m > > z z r r 3 3 [ [ - - m m x m p p n P p p n P P P p p - - T T T T w w E E v U E v A E V V U U E E W W E v - - X X X X G G Y Y L L L L L L V V N N n n x m M M M L L L L Z Z Z L L L L G G 0 0 v v G G G G G G G G p p E v [ [ [ [ F F 3 3 F F 3 3 W W T T W W 3 3 8 8 8 8 2 c d d d d ` ` d d c 2 d d c 2 c c # # [ [ - - & & a - q q A H E v X X E v A H ; ; ; } 2 c  . .` ` c c c c c c 2 C c 2 f d 2 c 8 8 8 j j ......3 3 F 3 W W T T W W T T W W T T p p X X X X w w X X M M H H M M v v p p v v L L L +.L L G G L L G G G G V V p p - - N r M M H H H H G M G G G G w w 0 0 P P + + u u v u v v v v U U p p n p v v T T 3 3 ` ` p p m x p p p n v v p p p p n P - - ` ` ' ' ' ' . . > > o o m m x 9 8 8 l t ! ! ! ! ! ! ! 4 4 4 + + ) ) @ @ $ @ & & , , < < - - , > ; ; ; ; } } ; } & & | | @ $ @ @     & & .   % % # # $ # # @ . . @ @ . . @ # . . . . .     .     % . ",
"& & .       . . .   @ @ . . @ @ . . @ @ @ @ $ $ $ # $ @ # # % % & &   .     * *     6 6 ; ; } } } ; } ; , , > > , , & & $ $ * * | | @ + ! ! ! ! 4 ! ! ! ! 4 7 7 h h 0 0 m m m m > > z z r r 3 3 [ [ - - m m m x p p n P P p P P P P p p - - T T T T w w E E v U E v A E V V U U E E W W E v - - X X X X G G Y Y L L L L L Z V V N N n n x m M M M L L L L Z Z Z L L L L +.G 0 0 v v G G G G G G G G p p v v [ [ [ [ F F 3 3 F F 3 3 W W T T W W 3 3 8 8 8 8 2 2 f d d d ` ` d d c 2 d d 2 c c c # # [ [ - - & & a - q q A H E v X X E E H H ; ; } } 2 2  . .` ` c c c c c c c 2 2 c d d 2 c 8 8 8 j j ......3 3 3 F W W T T W W T T W W T T p p X X X X w w X X G M A H M M v v p p u v L L L +.L L G G L L G G G G H H p p - - r r M M H H H H G M G G G G w w 0 0 P P + + u u u v E v E v v U p p n p v v T T 3 3 ` ` p p m m p p n p v v p p n p n n - - ` ` ' ' ' ' . . > > o o m m m x 8 8 l t ! ! ! ! ! ! ! ! 4 4 + + ) ) @ @ $ @ & & , , < < - - , > ; ; ; ; } } } ; & & * | # $ @ @     & & .   % % # # $ @ # @   . @ @ . . @ # . . . . .     .     % . ",
"    & & . .   . @ @ % . $ @ . . + @   . # # $ @ @ $ @ @ @ $     .       % % | | . . } } } } ; ; } } > > > > , , > > = = # $ | | ) ) # # : : ! ! ! ! 4 ! ! ! t t 8 8 9 9 9 P n n y > . . ' ' < r S S m m x m x m n P p p P P p p P P p p P P - - P P U U w w E E v E H H G M A H E v - - W W W W X X X X Y Y Y Y G G @.@.L L N N & & N N m m #.#.#.Z Z L @.@.@.@.#.#.Z L T T H H n n L L L L Z #.@.@.@.@.L L #.#.H H < < H A G M #.#.Z L L L @.@.#.#.Z L D D u q q v q q p p q q m m . .   . % . 3 3 + + + # # + # z v v u A H H X X X V < < h h # # . . W W W W . . 3 3 . . u q q q q q u q q q v v #.#.Z #.#.Z #.#.L L @.@.#.#.G G - - E v L L L L @.@.$.$.%.%.L L #.#.L L S S w w x x L L @.@.L L L L Z Z Z Z L +.p p r r 3 F A A L M E v L M A H M G G G E v N N + + b b A A v v A H v v E A u v v v v E y y T T p p n p n n m m n p p n u u n p m m 0 0 m m r ' 9 9 . . ' ' m m o o 9 9 d d 7 7 4 4 ! ! ! ! ! ! ! ! # # | | | | $ @ 3 3 ' ' > > , > - - - - } } ; ; } } = = * * $ @ # # = & 5 5 5 5 $ @ # # $ # % % @ @ % . @ @ . . @ @ .     . .     . .   ",
"    & & . .   . @ @ % . @ @   . @ @   . # # $ @ @ $ @ @ @ $       .     . % | | . % } } } } ; ; } } > > > > , , > > = = # $ * | ) ) @ # : : ! ! ! ! 4 ! ! ! t t 8 8 9 9 9 P n n > > . . ' ' r r S S m m m x m x P P p p P P p p P P p p P P - - P P U U w w v E E v H H G M A H E v - - W W W W X X X X Y Y Y Y G G @.@.L L N N & & N N m m #.#.Z L L L @.@.@.@.#.#.Z L T T H H n n L L L L #.#.@.@.@.@.L L #.#.H H < < A A L M #.#.Z L L L @.@.#.#.L L D D u q q v q q n p q q m m . .   . % . 3 3 W + + + # # + # v v u A H H X X X V < < h h # # . . W W W W . . 3 3 . . u q q q q q u q q q v v #.#.Z #.#.#.#.Z L L @.@.#.#.G G - - E v L M L L @.@.$.$.%.%.L L #.#.L L S S w w x x L L @.@.L L L L L Z Z Z +.L p p r r 3 F A A G M E v L M H H G M G G E E N N + + b b A A v v A H v v v E A u v v v v y y T T p p p n p n m m n p p p u w n p m m 0 0 m m r ' 9 9 . . ' ' m m o o 9 x d d 7 7 4 4 4 ! ! ! ! ! ! ! # # | | | | $ $ & & ' ' > > , > - - - - } } ; ; ; } = & * * $ @ # # = & 5 5 5 5 $ $ @ # # # % % + @ . . @ @ . . @ @ .   . .     . . .   ",
"5 5 .   5 5 . .     % % . . @ @ . . @ @ % % $ @ # # $ # @ @ % % 5 & . .     * *     6 6 ; ; ; } ; ; ; ; , , > , , , & & $ $ * * | | @ @ ! ! ! ! 4 ! ! ! ! 4 7 7 h h 9 9 o o o o > y z z 9 9 9 9 9 S m m x m x m p p n P P p P P U w x m n p P P p p p p E E w w E E v E H V U w v E E v E v G G Y Y &.&.$.$.Y Y L L $.$.+.L G G N N N N @.@.#.#.Z Z L Z %.%.%.%.%.@.L Z N N + W T T *.*.%.%.L Z Z L %.%.%.@.+.L S S S S 0 0 N N =.=.@.@.#.Z %.@.@.@.@.%.L L 0 0 p p r r D D D D +.L +.L #.#.H H G M < < p p m x + + H H G M G G $.$.V V 9 9 + + p p 9 9 m m v v u q q v #.#.L L L L L +.G H n p 0 0 L L #.#.@.@.@.@.%.@.@.@.Z Z S S ] ] -.-.N N L L *.*.=.=.@.@.@.@.%.@.L L W W W W - - *.*.Z Z @.@.$.+.*.*.+.L +.$.;.;.;.;.-.-.H H G M G L L +.L +.+.L +.$.G G E E U U G G E E E v A E V V U U w U p p E E w w E E p p n P S S n n n P p p P P p p m x m m 0 0 m x ' r . . > y p p o o 9 9 g g t t ! ! ! ! ! ! ! ! ! ! + + ) ) @ @ $ @ & & , , < < - - , > ; ; ; ; } } ; } = = @ @ $ @ @ @     & & .   @ @ $ @ @ @ # @ . . @ @ . . @ @ . . % .     . . .     . ",
"5 5 .   5 5 . .     % % . . @ @ . . @ @ % % $ $ @ # # $ # @ % % & & .   .   * *     6 6 ; ; ; } ; ; ; ; , , > > , , = & $ @ * * | | + @ ! ! ! ! ! ! ! 4 ! ! 7 7 h h 9 9 o o o o > y z z 9 9 9 9 9 S m m x m x m p p P P p p n P w w x m n p P P p p p p E E w w v E E v E V U w E v A E A E G G Y Y &.&.$.$.$.Y L L $.$.$.+.G G N N N N @.@.#.#.Z Z Z L %.%.%.%.@.@.L Z N N + W T T *.*.%.%.L Z Z Z @.%.%.@.L +.S S S S 0 0 N N =.=.@.@.L Z @.@.@.@.%.@.L L 0 0 p p r r D D D D +.+.L +.#.#.H H M M < < p p m m + + H H G M G G Y $.V V 9 9 + + p p 0 9 m m v v u q q v #.#.Z L L L L L A H p p 9 0 L L #.#.@.@.@.@.@.%.@.@.L Z S S ] ] -.-.N N L L *.*.=.=.@.@.@.@.@.%.L L W W W W - - *.*.*.Z @.@.$.+.*.*.+.+.$.$.;.;.;.;.-.-.H H G M G L +.L +.+.+.L +.$.G G E E U U G G E E E v A E V V U U U w p p E E w w v v p p P P S S n n n n p p n n n p m m x m 0 0 m x ' r . . y y p p o o 9 9 g g t t ! ! ! ! ! ! ! ! ! ! + + ) ) @ @ @ $ & & , , < < - - , > ; ; ; ; } } } ; & & @ @ $ @ @ @     & & .   @ @ $ @ @ @ # @ . . + @ . . @ # . . % .       . .     . ",
".   5 5       .   %     $ @ . . # @ . . # # . % @ # % % # # 5 5         . % @ @ % % } } } ; } ; } } , > > > > , , > & = @ @ @ @ ) ) # # ! ! ! ! ! ! 4 ! ! ! t t g g o o o o o o - - . . 0 0 m x m m w w S S n p P P p p P P p p P P P P U w v E p p u v p p u v p p v v E v A E w w G G E A G G &.&.$.$.V X Y Y L L L L +.G @.@.@.@.%.@.@.@.L L L L @.@.%.%.%.@.Z Z @.%.$.$.+.L L L @.@.$.+.@.@.@.%.%.%.Z Z @.%.+.L N N  . .@.@.@.%.@.@.@.@.%.@.@.@.%.%.N N [ [ & & N < #.#.Z L L L L Z Z L L L 0 0 x x 9 0 a - W + H H G M G L X X +.L 0 0 . . < < p p -.-.H H G M L L L L Z #.#.#.Z L 0 0 [ [ + + @.@.#.#.@.@.=.=.@.@.@.@.@.@.%.@.S S >.>.@.@.*.*.Z *.%.%.%.%.Z *.%.@.L L L L L L #.#.L L @.@.@.%.Z Z $.$.+.L *.*.Z *.%.%.%.@.+.M #.#.G G L L $.$.Z Z $.$.$.Y V V G G H H H H A v E v U U E v u w w w n p v v p p u w n p u w n n p p n p n n m x n n m m m x m x 9 9 + + r ' o o p n 0 0 h h 7 7 4 4 ! ! ! ! ! 4 ! ! @ # | | | | # $ 3 3 ' ' Q > , > - - > > ; } ; ; } } = = * * @ # # $ = & 5 5 5 5 $ $ @ @ $ @ . % # @   . @ @ . . @ @ .     . .   . .     ",
"    5 5       .   %     @ @ . % @ @ . . # # . % # @ % % # # 5 5     .   %   @ @ % % } } } } ; } ; } , > > > > , > > & = @ @ # @ ) ) + # ! ! ! ! ! ! 4 ! ! ! t t g g o o o o o o - - . . 0 0 m x m m w w S S p p n P P p P P p p P P P P U w v v p p v v p p v v p p E v A E A E w w G G E E G G w &.$.$.X X Y Y L L L L G G @.@.@.@.%.@.@.@.L L L L @.@.@.%.%.%.Z *.@.@.$.+.*.L L L @.@.$.$.%.@.@.%.%.%.L Z @.@.$.+.N N  . .@.@.@.%.@.@.@.@.@.%.@.@.@.%.N N [ [ & & N < #.#.Z L L L L Z L L L L 0 0 m x 0 0 - - + + H H G G L L X X +.+.0 0 . . y < p p -.-.H H M M M L L L #.#.#.#.Z L 0 0 a [ + + @.@.#.#.@.@.=.=.@.@.@.@.@.@.%.@.S S >.>.@.@.*.*.Z *.%.%.%.%.Z *.@.@.L L L L L L #.#.L L @.@.%.%.L Z $.$.+.L *.*.*.Z @.%.%.%.M M #.#.G G L L $.$.Z Z $.$.Y $.V V G G H H H H E v E v U U E E w w w w p p E E p p u w n p u w n n n p p n p p m x n n m m m m x 9 9 x + + r ' o o p n 0 0 h h 7 7 4 4 ! ! ! ! ! ! 4 ! @ # | | | | $ @ 3 3 ' ' > > > , - - , > } } ; ; ; } = = * * @ # # # = & 5 5 5 5 $ @ # # $ $ . % # @ . . @ @ . . @ @     . .   . . .     ",
"5 5 .   5 5 . . .   % % . . $ @ . . @ @ @ @ # @ @ @ @ @ # @     & & . . & 5 * *     6 6 ; ; ; } ; ; ; ; , , , , ' ' & & @ $ | | | | # # ! ! ! ! ! ! ! ! ! 4 7 7 h h 9 9 n n x x - - z z 9 x x m m m P P P P m m n n m m n P P P p p P P w w w w w w p p w w E E v E E v X V E v A E X X X X X X M G G G L L $.$.+.L X X +.+.Z Z L Z Z Z L Z Z Z Z L Z Z *.*.+.L @.@.Z Z *.*.Z *.%.%.*.*.Z *.%.@.*.*.*.Z @.%.*.*.%.@.*.*.@.@.@.@.=.=.@.%.=.=.@.@.=.=.@.@.@.@.N N N N L L @.@.L L L #.Z Z #.#.G +.L +.W W W + P P 4 4 G G L L L L *.*.*.Z 0 0 + + > > z + ) ) H H L L L M @.@.L L @.@.L L @.@.N N L Z %.@.@.@.@.@.=.=.@.%.%.@.%.%.%.@.@.%.%.@.%.%.%.%.Z *.*.*.Z *.%.@.@.@.%.%.*.*.%.@.*.*.Z *.%.@.@.#.L L #.#.Z L L L L Z @.%.L L L L L L G G G L *.*.Y Y Y Y G G X X X X E v X X X X w U U w ,.,.U U ,.,.w w p p w w n p w w p p w w m m n p p P p p m m n p 0 0 m x 0 r . . > > n n x m m 9 8 8 t t T T ! ! ! ! ! ! 4 ! + + ) ) $ @ @ @ = = , , < < - - , , ; ; ; } } } ; ; = & @ # $ @ # #     & &     @ @ # # . % # #   . # @ . . @ @ . . .         . .   % . ",
"5 5     5 5 . . .   % % . . @ @ . . @ @ @ @ @ # @ @ @ @ @ @     & & . . & 5 * *     6 6 ; ; ; } ; ; } ; , , , , ' ' & & @ $ | | | | # # ! ! ! ! ! ! ! 4 ! ! 7 7 h h 9 9 n n 9 x a - z z 9 x x x m m P P P P m m n P m m n n P P p p P P w w w w w w p p u w E v A E A E V V E v A E X X X X X X G G G G L L $.$.+.+.X X +.+.Z Z Z L Z Z Z Z Z L Z Z Z Z *.*.+.L @.@.#.Z *.*.Z *.%.%.*.*.*.Z @.%.*.*.*.Z @.%.*.*.@.@.*.*.%.@.@.@.=.=.@.%.=.=.@.@.=.=.@.@.@.@.N N N N L L @.@.L L Z Z L Z Z #.L +.L +.W W W + P P 4 4 G G L L L L *.*.*.*.0 0 + + > > z + ) ) H H L L L G @.@.L L @.@.Z L @.@.N N L Z @.@.@.%.@.@.=.=.@.%.@.@.@.%.@.@.%.%.@.%.%.%.%.%.Z *.*.*.*.Z @.%.@.@.%.%.*.*.%.%.*.*.Z *.%.@.@.#.L L #.#.L L L L L L @.%.L L L L L L +.G +.L *.*.Y Y Y Y G G X X X X E E X X X X U U w U ,.,.w U ,.,.w U p p u w n p u w n p w u m m n p p P p p m x p p 0 0 m x 0 r . . > > n n m m 9 9 8 8 t t T T ! ! ! ! ! ! 4 ! + + ) ) $ @ @ @ = = , , < < - - , , ; ; ; } } } ; ; & & @ @ $ @ # #     & &     @ @ # # . % # # % . + @ . . @ @ . . . .     . .     % . ",
"    5 5         . %     $ @ . . # @ . % @ # # @ # @ % % # # 5 5 .       . . @ @ % % } } } } } ; } } > > > , ' ' , , = = @ $ $ '.) ) + + ! ! ! ! ! ! 4 ! ! ! t t d d 9 9 p m o o a a . . 0 0 m m x S P P P P p p m x n n P P P P P P p p p p w u P P U w v w v E w w V V E E G G V V E E X X E E X X M L $.$.L L G G G +.L +.+.Z Z L Z Z +.L *.@.@.@.%.@.*.*.%.@.@.@.@.@.$.$.Z *.%.%.%.%.%.@.@.%.*.*.%.@.*.*.%.%.%.%.%.@.%.%.%.%.%.%.=.=.@.%.=.=.*.*.%.@.@.@.@.@.Z #.@.@.@.@.Z #.Z Z L Z Z +.L L G G G +.v v u w W W G G L L *.*.Z *.%.@.0 0 3 3 L L L +.L L #.#.Z L L M @.@.@.@.@.%.@.@.L L @.@.L Z %.@.@.@.=.=.@.@.@.@.@.@.%.@.@.%.=.=.@.%.=.=.@.@.@.@.@.@.@.@.%.@.@.@.%.@.@.%.%.@.@.@.%.@.=.=.#.#.Z L L L #.#.Z L @.@.#.Z *.Z $.+.L +.G G L L $.$.$.Y V X Y Y X X Y $.G G E E E E H V V X X X w U U U p p w u p p w w p p w w P P p p P P p p m x m m m x m m 9 9 0 0 . . ' ' m m o o r r d d 7 >.T T ! ! ! ! ! ! ! ! $ @ | | | b $ @ 3 & ' ' > > < < > > - - } } ; } ; } = & * * @ # $ # & & .   5 5 $ $ % % $ # % % $ # . . @ @ . . @ @               . & & ",
".   5 5     .   %       @ @ . . # @ % % # # @ @ # @ % % # # 5 5         . . @ @ % % } } } } ; ; } } > > > , ' ' , , = = @ $ $ $ ) ) + + ! ! ! ! ! ! ! 4 ! ! t t d d x x m m o o a a . . 0 0 m m S S n n P P p p m m n n P P P P P P p p n p u w P P U w v w E v u w V V E E G G H H E v X X E v X X L L $.$.+.L G G G L +.L +.#.L L #.Z +.L *.@.@.@.@.%.Z *.%.@.@.@.@.@.$.$.Z *.%.%.@.%.%.%.%.@.*.*.@.%.*.*.%.@.%.%.@.%.%.%.%.@.%.%.=.=.@.%.=.=.*.*.%.@.@.@.@.@.#.#.@.@.@.@.#.#.Z Z Z Z L +.L L G G G +.v v w w W W G G L L *.*.Z *.%.@.0 0 3 3 L L L L L Z #.#.L L L M @.@.@.@.%.@.@.@.L L @.@.Z L @.@.@.@.=.=.@.@.@.@.%.@.@.@.%.@.=.=.@.%.=.=.@.@.@.@.%.@.@.@.%.@.@.@.@.@.%.@.@.@.%.@.@.@.=.=.#.#.Z L L L #.#.L L @.@.L Z Z Z L +.L L G G L L $.$.Y $.X X Y $.X X Y $.G G E E E E V V X X X X w U U U p p w u p p w w n p w w n n p p P P p p m m x m m m m x 9 9 0 9 . . ' ' m m o o r r d d 7 >.T T ! ! ! ! ! 4 ! ! $ @ | | | | $ @ & & ' ' > > < < > > - - } } } ; } } = & * * @ # # # & & .   5 5 $ $ % % # # . % @ @   . @ @ . . @ @               . & & ",
"5 5 .   5 5 . .     % % % . $ @ . . @ @ @ @ @ # @ @ # @ @ @     5 & .   & 5 * *     6 6 ; ; } } ; ; ; ; , , , , ' ' & & $ @ | | | | # # ! ! ! ! ! ! ! 4 ! ! 7 7 h h 9 9 o o m m > > . . x x 9 x m m x S p p m x n n m m n n P P p p n P w w n p p p u w E E w w v E w U E E X X E E E v X X E E v A G G L L G G L L L L L #.Z +.Z Z L Z Z Z Z L #.#.L L L Z %.@.@.%.*.*.@.%.%.%.@.%.%.%.=.=.=.=.*.).%.%.@.%.).).%.%.%.@.%.%.*.*.%.@.@.@.=.=.=.=.@.%.=.=.@.@.@.%.%.@.%.@.@.%.L L L L Z *.%.@.G G L L L L G G E v T T G G @.@.$.Y L Z Z L 0 0 + + V V G +.L #.L L L M L L @.@.$.Y @.@.*.*.@.@.@.%.@.@.%.%.%.@.%.%.=.=.@.@.@.@.%.%.@.%.%.%.%.@.%.@.@.%.%.@.%.%.%.@.@.%.%.%.@.%.%.%.%.@.*.*.%.@.L L @.@.%.%.%.%.@.@.%.@.L Z @.@.L L L L L L L #.G G G G G G G G E E v A E A G G X X G M E v X X E E U U w w w w p p w w p p n p n n m p P P p p P P p p P P m m x m x 9 9 r 3 F < < o o 9 9 9 9 8 8 l l ! ! ! ! ! ! ! 4 ! ! + + ) ) $ @ @ @ = = , , < < - - , , ; ; ; ; } } ; ; & & @ # $ # @ @     5 5 .   @ @ # # B % # # . . + @ . . @ # . . .   & & . .         ",
"5 5     5 5 . .     % % . . @ @ . . @ @ $ @ # # @ # @ # @ @     5 & .   5 5 * *     6 6 ; ; } } ; ; ; ; > , , , ' ' & & $ @ | | | | # # ! ! ! ! ! ! ! 4 ! ! 7 7 h h 9 9 o o m m > > . . x x x m m m S S n p m m n n m m P P P P p p P P w w p p p p u w E E w w E E v U E E X X E v A E X X E v A E G G L L G G L L L L Z Z L Z Z Z Z L Z Z L Z Z #.L L #.Z @.@.%.%.*.*.%.%.%.%.%.@.%.%.=.=.=.=.).).%.%.@.%.).).%.%.%.%.@.%.).).%.%.@.%.=.=.=.=.%.%.=.=.@.@.@.%.@.@.@.@.%.@.L L L L *.*.@.@.G G L L L L G G E E T T G G @.@.$.Y Z Z L L 0 0 + + V V G +.L #.L L L G L L @.@.$.Y @.@.*.*.@.@.@.%.%.@.%.%.%.@.%.%.=.=.@.@.@.%.@.@.%.%.%.%.%.@.@.%.%.%.%.@.%.%.%.%.@.@.@.%.%.@.%.%.@.@.*.*.@.@.L L @.@.%.%.%.%.%.@.@.%.Z Z @.%.+.L L L L Z Z Z G G G G G G G G E E E E E v G G X X M G E v X X E E U U U w w w p p u w n p p p n P p p P P p p P P p p P P m m x m x 9 9 r F F < < o o 9 x 0 9 8 8 l l ! ! ! ! ! ! ! 4 ! ! + + ) ) # @ @ # = = , , < < - - , , ; ; ; } } ; ; ; & & @ # $ # @ @     & 5 .   @ @ # # B % # # . % @ @ . . @ @ . . . . & & . .         ",
"    5 5 .       . %     @ @ . . # @ % % # # @ # # # . % # # 5 5 .       . . @ @ % % } } ; } ; } } } > , > > ' ' > , = = $ @ # $ ) ) + + ! ! ! ! ! ! ! 4 ! ! t t 8 8 9 9 9 9 o o > > 3 3 x x 9 x 0 0 S S S S m m x m p P P P P P P P p p P P w w p p u w n p E v A E A E E v A E X X X X X X G G X X L L L +.L L +.L #.#.L L L Z L L @.%.L L %.@.L L @.@.L L @.@.%.%.@.%.%.@.@.@.%.%.@.%.%.@.@.%.%.%.=.=.=.=.@.@.*.*.=.=.@.%.=.=.@.@.=.=.=.=.=.=.%.@.=.=.%.%.@.%.%.%.%.@.*.*.%.@.Z Z @.%.@.@.#.Z L L @.@.G G G L T T L L @.%.@.@.$.+.*.*.0 0 3 3 V V @.@.%.%.@.%.L L @.%.@.@.@.@.@.%.@.@.@.%.=.=.@.%.@.@.@.%.%.@.=.=.=.=.%.@.%.%.@.%.=.=.@.@.@.%.%.%.=.=.@.%.%.%.%.%.@.@.%.%.%.%.Z Z %.%.%.@.*.*.L L =.=.@.@.%.@.Z Z @.@.L L Z Z L L Z L L +.G G E E +.G X X X V &.&.X X &.&.Y Y E E E E E E E E p p w w p p w w P P p p P P P P P P P P P P p p m m p p 0 0 0 0 ' ' 0 0 . . ' ' x x x m ' ' d d >.>.T T ! ! 4 ! ! ! ! ! @ + | | | * $ $ & & ' ' > > < < > > - - ; } ; ; } } = & * * # # # @   &     5 5 $ $ % % # # % % # @ . . @ @ . . @ @ .             . & & ",
".   5 5         % %     @ @ . . @ @ % % # # @ @ # # % % # # 5 5         . . @ @ % % } } } } ; ; } } > > > > ' ' > , = = @ @ # $ ) ) + + ! ! ! ! ! ! ! 4 ! ! t t 8 8 9 9 9 x o o > > 3 3 x x m x 0 0 S S S S m m m m P P P P P P P P p p P P w w p p w w p p E E E E E E E E E E X X V X X V G G X X L L Z L +.G +.G #.#.L L Z L +.L %.%.Z L @.@.L L @.@.L L %.@.@.%.%.%.%.@.@.%.%.%.%.%.%.@.%.%.%.@.=.=.=.=.@.@.Z *.=.=.@.%.=.=.@.@.=.=.=.=.=.=.@.@.=.=.@.%.@.@.%.%.%.@.Z *.@.@.L Z %.%.%.@.Z Z L L %.@.G G +.G T T L L @.%.%.@.+.G *.*.0 0 3 3 V V @.@.%.%.%.@.L L @.%.@.@.%.@.@.@.%.@.@.@.=.=.@.%.@.@.@.%.@.@.=.=.=.=.%.%.%.@.%.%.=.=.@.%.%.%.%.@.=.=.@.%.%.%.%.%.@.%.%.%.%.%.Z Z %.%.@.@.*.*.L L =.=.@.%.@.@.Z Z @.@.Z L L Z L +.L L L +.G G E E +.G X X X V &.&.X X &.&.Y Y E E E E E E E E p p w w p p w w P P p p P P P P P P P P P P p p m m p p 0 0 0 0 ' ' 0 0 . . ' ' x x x m ' ' d d >.>.T T ! ! ! ! ! ! ! ! z + | | * * $ $ & & ' ' > > y < > > - - } } ; ; } } = = * * # # # @ & &     5 5 $ $ % % # # . % # @ . . @ @ . . @ @           . .   & & ",
"5 5     5 5 % . .   % %   . @ @ % . @ @ @ @ # # # @ @ @ # @     & &   % 5 5 * *     6 6 } ; ; } } ; ; ; , , , , ' ' & & # # * | | | + + ! ! ! ! ! ! ! 4 ! ! t t d d 0 0 o o o o > > # # 0 0 3 F m m P P P P p m m m m m w w p p p p P P w w p p w w p p w w w w E E E E E E E E X V E E +.+.G +.G G X V +.G +.G G G +.+.L L +.G L L Z #.#.#.L L @.@.#.#.L Z %.@.Z *.*.*.%.%.*.*.%.%.%.%.@.%.%.%.%.%.%.@.=.=.*.*.=.=.=.=.=.=.@.%.@.@.@.@.%.@.@.@.=.=.@.%.@.@.Z L %.@.%.%.%.@.*.*.%.%.%.@.%.%.*.*.*.*.L L L Z L +.T T E E @.@.L Z *.*.$.$.0 0 3 F +.G +.L %.@.Z Z @.@.@.@.%.%.%.%.@.@.*.*.%.%.%.@.@.@.%.@.@.@.%.%.=.=.@.%.%.%.=.=.=.=.%.%.%.@.@.%.%.%.@.%.%.%.%.%.%.%.%.%.%.@.%.%.%.%.@.@.@.@.%.@.@.@.%.@.@.%.Z Z @.@.Z Z @.%.L L Z L G G +.G E E +.L Y Y G G +.G X X &.&.G G E E E E E E V V E E U U p p w w p p p p p p p p P P p p m m P P m m P P m S 0 0 S x - - r r z z > > n n m m 9 9 8 8 >.>.! ! ! ! 4 ! ! ! ! 4 @ @ 2 2 # @ | | = = , , , , > > < < } } ; } ; } ; ; & & # @ $ @ @ @     5 5   . @ @ # # % % @ @ . . @ @ . . # @ . .   . .   . .     % . ",
"5 5     5 5 % .     % %   . @ @ % . @ @ @ @ # # @ @ # @ @ @ .   & & % . & 5 * *     6 6 ; ; } } ; ; ; ; , , , , ' ' & & # # * | | | + + ! ! ! ! ! ! ! 4 ! ! t t d d 0 0 o o o o > > # # 0 0 3 F m m P P n n m m m m m m w w p p p p P P w w p p w w p p w w w w E E E E E E E E V V E E +.L G G +.G X V +.+.G +.G G +.G +.L G G +.L #.#.#.#.L L @.@.#.#.L Z @.@.*.*.*.*.%.%.*.*.%.%.%.%.%.@.%.%.%.%.%.@.=.=.*.*.=.=.=.=.=.=.@.@.%.@.@.@.%.@.@.@.=.=.@.%.%.%.L L @.%.@.%.%.%.Z *.%.%.%.%.%.@.*.*.*.*.L L Z Z L +.T T E E @.@.L Z *.*.$.$.0 0 3 F +.+.L L %.@.Z Z %.@.@.@.%.%.%.%.@.@.Z *.@.%.%.@.@.%.%.%.@.@.%.%.=.=.@.%.@.@.=.=.=.=.%.%.@.@.%.%.%.%.@.%.%.@.@.%.%.%.%.%.@.@.%.%.@.%.@.@.@.@.@.%.@.@.@.%.@.@.Z Z @.@.Z Z %.%.L L Z L G G G +.E E +.L Y Y G G +.G X V &.&.G G E E E E E E V V E E U U p p w w p p p p p p p p P P p p m m P P m m p n S S 0 0 S x - - r r z z > > n n m m 9 9 8 8 >.>.! ! ! ! ! 4 ! ! 4 4 @ @ 2 2 # @ | | = = , , , , > > < < } } ; } ; } ; ; & & @ @ @ $ @ @     5 5     @ @ # # % % @ @ . . @ @ . . # @ % . .   .   . . .   . . ",
"    5 5         . %     % %   . @ @ . % # # . % # # % % # # & & & & .   % . @ @ . % ; ; } } ; ; ; } > , > > ' ' , , = & $ $ s $ ) ) # # ! ! ! ! ! ! ! ! ! ! l l g g 9 9 x x o o a a z z ' ' b b < < < < S S m m 9 S m m m m p p P P p p P P w w p p w w w w E v E E H H E E E E E E V V V V G G +.G +.G +.L +.L V V G G G +.Z Z L L @.@.L L L L Z #.Z Z @.@.@.@.).).%.%.%.@.%.%.*.*.%.%.@.@.%.%.%.@.=.=.@.@.%.@.=.=.=.=.%.%.@.%.%.%.=.=.@.%.=.=.@.%.@.@.@.%.%.@.Z *.%.%.%.%.=.=.%.%.%.@.%.%.%.%.*.*.%.@.Z L L L 3 3 G G +.L @.@.L Z *.*.0 0 3 F +.+.@.@.L Z *.*.@.@.%.@.=.=.@.%.%.%.@.@.%.@.@.@.%.@.=.=.@.@.=.=.@.%.=.=.@.%.@.@.@.%.=.=.@.%.@.@.@.%.%.%.%.@.=.=.@.@.%.@.@.@.%.@.@.@.@.%.@.@.@.%.L L Z L @.@.%.@.L L @.%.@.%.Z Z G G +.G E E +.G G +.G $.G G Y Y E E &.&.E E E E E E E E E E E E U U v E w w E v p p v E P P w w m m P P S S m m m m m m < < [ [ b b r r + + < < m m o o ' ' d d >.>.4 4 4 ! ! ! ! 4 ! ! @ + ) ) * * $ $ 3 3 ' ' > > < < > > - - [ [ } ; ; } = & * * $ $ # #         5 5 $ $ % % # @ % % @ @ . . @ @ . . . .     . .   . . .     ",
"    5 5         . %     % % % . @ @ . % # # % % # # % % # # 5 & & &   .   % @ @ % . ; ; } } ; ; ; } > > > > ' ' , , = = $ $ s $ ) ) # # ! ! ! ! ! ! ! ! ! ! l l g g 9 9 x x o o a a z z ' ' b b r < < < S S m m S S m m m m p p P P p p P P w w p p w w w w E v E E H H E E E E E E V V V V G G +.G +.+.G +.L +.V V G G +.L L Z Z L @.@.L L L L #.#.L Z %.@.@.@.).).%.%.%.%.@.%.*.*.%.%.@.@.@.%.%.@.=.=.@.%.@.@.=.=.=.=.@.%.%.%.@.%.=.=.@.%.=.=.@.%.@.@.%.@.@.@.*.*.%.%.%.%.=.=.%.%.%.%.@.%.%.%.*.*.%.@.L L Z L 3 3 G G L L @.%.L L Z *.0 0 3 F +.+.@.@.Z *.*.*.%.@.@.%.=.=.@.%.@.@.@.%.%.%.%.@.@.%.=.=.@.@.=.=.%.%.=.=.%.%.@.@.%.@.=.=.@.%.%.@.@.%.%.%.%.%.=.=.%.@.@.%.@.@.@.%.@.@.@.@.@.%.@.@.L L Z L @.@.@.%.L L @.%.@.%.Z Z G G +.G E E +.G G +.G $.G G Y Y E E &.&.E E E E E E E E E E E E U U v v w w E v p p v v P P w w m m P P S S m m m m m m < < [ [ b b < r z + < < m m o o ' ' h h >.>.4 4 ! 4 ! ! 4 4 ! ! @ + ) ) * * $ $ 3 3 ' ' > > < < > > - - [ [ } ; } } = = * * $ $ $ #         5 5 $ $ % % @ @ % % @ @ . . @ @ . .   .       . .   . .     ",
"5 5     5 5 . .     % % .   % % . . @ @ % % @ # # @ @ # @ @     = = . . 5 5 * * 5 5 6 6 ; ; ; } } ; ; ; , , , , ' ' & & # # * | | | + + ! ! ! ! ! ! ! ! ! 4 t t d d r r o o x x > > # # 0 0 3 F [ [ - - P P S S m m m m P P m m p p P P w w p p w w p p w w w w H H E E E E E E E E E E X X E E +.G G G +.L +.G +.L +.+.L Z L L @.@.L Z L L Z #.Z Z Z L Z Z *.*.%.%.%.%.%.%.Y Y %.%.%.@.%.%.%.%.%.@.%.%.=.=.%.@.=.=.@.@.=.=.%.@.=.=.=.=.@.@.=.=.=.=.=.=.=.=.@.%.%.%.@.%.=.=.%.%.%.%.*.).=.=.*.*.%.@.@.@.%.@.L +.[ [ G G @.@.%.@.*.*.*.*.0 0 3 3 @.@.%.%.%.%.@.%.%.%.%.@.=.=.@.@.=.=.=.=.=.=.@.%.=.=.@.%.@.%.%.%.=.=.@.%.=.=.@.%.=.=.%.%.%.@.%.%.%.%.%.@.=.=.*.*.%.%.%.%.@.@.%.%.%.%.*.*.%.@.@.%.%.@.Z Z %.@.Z Z @.@.@.@.Z Z L +.L L +.G H H E E +.L G G G +.G G G +.E E E E E E V X &.&.X X &.w E v E U U v v w P P p p P P P P P P P P P P m m p p m m [ [ 3 3 < < < y + + < < p p 0 9 9 x 8 8 t t T T ! ! 4 ! ! 4 ! 4 + @ 2 2 @ @ | | = = , , < < - - > , ; ; } ; ; } ; ; & & @ @ + @ @ @ % . 5 5 .   # @ @ # % % @ @ . . @ @ . . @ @ .   . .     . .   .   . ",
"5 5 .   5 5 . . .   % %     % % % . @ @ % % @ @ # @ @ @ @ @ .   = = . % 5 5 * * 5 5 6 6 ; ; ; } ; ; ; ; , , , , ' ' & & @ # | | | | + + ! ! ! ! ! ! ! ! ! 4 t t d d r r o o x x > > # # 0 0 3 F [ [ - - P P S S m m m m P P m m p p P P w w p p w w p p w w w w H H E E E E E E E E E E V X E E +.G G G L L L +.G +.G +.Z Z L L @.@.L Z L L L Z #.Z Z Z Z L *.*.%.%.%.%.%.%.Y Y %.%.%.%.@.%.%.%.%.%.@.%.=.=.@.%.=.=.@.@.=.=.@.@.=.=.=.=.@.@.=.=.=.=.=.=.=.=.@.@.@.%.%.%.=.=.@.%.@.%.).).=.=.*.*.@.@.%.@.@.@.+.L [ [ G G @.@.%.@.*.*.*.*.0 0 3 F @.@.%.%.%.%.@.%.%.%.%.%.=.=.@.@.=.=.=.=.=.=.@.%.=.=.@.%.%.%.@.%.=.=.@.%.=.=.@.%.=.=.%.%.%.@.@.%.%.%.%.@.=.=.*.*.@.%.%.%.@.%.%.%.%.%.*.*.%.@.@.%.@.@.L Z @.@.L Z @.@.@.%.Z Z G +.L L G G H H E E L L +.G G G +.G G G E E E E E E V X &.w X X &.w E v E U v E w w P P p p P P P P P P P P P P m m p p m m [ [ 3 3 < < < y + + < < p p 0 9 9 x 8 8 t t T T ! ! 4 ! ! ! 4 4 @ @ 2 2 @ @ | | = = , , < < - - , , ; ; } ; ; } } ; & & @ @ @ @ # @ . . 5 5 .   @ @ # # % % @ @ . . @ @ . . @ @ .     . .     . .   . . ",
"    5 5         . .     % %     @ @ % % @ @ % % @ # . % # # & & = &       . @ @ . . ; ; } ; ; ; } } , > > > > , , , = = $ $ s $ ) ) # # ! ! ! ! ! ! ! ! ! ! l l 8 8 9 9 x x o o a - . . ' r r ' 0 0 m m m m p p P P p p P P p p P P p p P P w w p p w w w w w U U v v E U U v v E E X V V V G G +.G G +.G +.+.L L +.Z Z L Z @.@.#.#.@.@.L +.@.@.L Z @.@.*.*.*.*.*.*.@.%.).).%.%.*.*.).*.*.*.*.*.*.*.@.@.%.@.=.=.%.%.@.@.%.%.=.=.=.=.=.=.@.%.=.=.=.=.=.=.=.=.=.=.=.=.=.=.%.%.=.=.%.@.=.=.=.=.=.=.*.*.*.*.L L Z L [ [ L L Z L %.%.*.).*.*.N N [ [ L L L +.Z Z %.@.@.@.@.@.%.@.=.=.%.%.%.@.@.%.%.%.%.%.%.@.@.%.%.%.*.*.=.=.=.=.@.%.@.@.=.=.%.%.%.@.@.%.=.=.).*.%.%.@.%.%.@.%.%.%.@.*.*.@.@.%.%.%.@.L +.@.@.Z L L Z Z L +.L L L Z #.Z Z Z L H H G G +.G G G G G +.G E E G G E E X X V X X X V X X X &.w U U w w E v P P w w P P w w P P w w P P p p S S P P S S S S ' ' ' ' + + < < o o o o 0 0 d d >.>.4 4 ! ! 4 ! 4 ! ! ! @ + ) ) * * $ $ 3 3 ' ' , , , , - - - - } } ; ; } } = = * * $ $ # #     . . 5 5 $ $ % % @ @ . . @ @ % . @ @ . . .       . . .     . .   ",
"    5 5         . .     % %     @ @ % % @ $ % % @ # . % # # 5 & & &       . @ @   . ; ; } ; ; ; } } > > > > , , , , = = $ $ $ s ) ) # # ! ! ! ! ! ! ! ! ! ! l l 8 8 9 9 x x o o - - . . ' r ' ' 0 0 m m m m p p P P p p P P p p P P p p P P w w p p w w w w U U U v v E E U E E E E V X V V G G +.G +.G +.G L L +.G Z Z L Z @.@.Z #.@.@.L +.@.@.L Z @.@.*.*.*.*.*.*.@.%.).*.%.%.*.*.*.*.*.*.*.*.*.*.@.@.@.%.=.=.@.%.%.%.@.%.=.=.=.=.=.=.@.%.=.=.=.=.=.=.=.=.=.=.=.=.=.=.%.%.=.=.%.@.=.=.=.=.=.=.*.*.*.*.L L L Z [ [ L L Z Z @.%.*.*.*.*.N N [ [ L L Z L L Z @.@.%.@.@.@.%.@.=.=.@.%.%.%.@.@.@.%.%.%.%.@.%.%.%.%.*.*.=.=.=.=.@.%.@.@.=.=.@.%.@.%.@.%.=.=.*.*.%.%.%.@.%.@.%.%.%.%.Z *.@.@.%.%.%.@.L +.@.@.L L L Z Z L +.L L L L Z #.Z Z L H H G G +.G G G G G G +.E E G G E E X X X V X X X X X V &.w w U U w v E P P w w P P w w P P w w P P p p S S P P m x x S ' ' ' ' + + < < o o o o 0 0 d d >.>.4 4 ! ! ! 4 4 ! ! ! @ + ) ) * * $ $ 3 3 ' ' , , , , - - - - } } } ; ; } = = * * $ $ # #     . . 5 5 $ $ % % @ @ . . @ @ % . @ @ . . . .     . . .     .     ",
"5 5     5 5 . .     % %     % % . . @ @ % % @ @ # @ @ @ + @ .   = = % . & 5 * * 5 5 6 6 ; ; } ; ; ; } ; > > > > ' ' & & # # | | | | # # ! ! ! ! ! ! ! ! ! 4 7 7 d d r ' o o x x - y + + 0 0 r r S S S S m m m m P P m m P P P P p p P P w w p p w w w w w w w w E E U w E v X X E E E E G G X V +.G +.G G +.V V L L Z L @.@.L L Z #.Z Z @.@.L Z @.@.@.@.@.%.%.@.).*.*.*.*.*.*.*.*.*.*.*.%.%.%.@.*.*.*.*.%.%.%.%.=.=.@.%.@.%.=.=.=.=.%.@.@.%.%.%.=.=.@.%.%.%.@.%.*.*.%.%.=.=.*.*.@.%.).).%.%.*.).L L !.!.P P 0 0 T T H H #.#.L L +.Z Z Z 0 0 3 F E E U w S S @.@.%.%.%.%.@.%.%.%.=.=.@.%.=.=.@.%.%.%.%.@.%.%.%.%.%.@.%.%.%.%.@.%.=.=.@.%.=.=.%.%.*.*.L L %.@.*.*.%.@.@.%.@.@.@.%.%.%.*.*.%.@.@.%.@.%.L Z Z L Z Z %.@.Z Z %.%.L L L Z L +.L +.V V G G V V G G +.G G G E E X X &.&.E E U w E E U w V V w w w U U U U w P P p p P P p p P P P P m m P P m x P P S S S 9 ' ' . . > > o o x x 9 9 8 8 t t T T ! ! 4 ! ! ! ! 4 + @ ) ) @ @ | | = = > , < < - - , , } } } ; ; } ; ; & & $ @ # @ @ # . . 5 5 . . @ @ # # % % % % % . . .   . . .       .     . .     . . ",
"5 5     5 5 . .     % %     % % % . @ @ % % @ @ # @ @ @ + @     = = . % 5 5 * * 5 5 6 6 ; ; } } ; ; } ; > > > > ' ' & & # # | | | | + + ! ! ! ! ! ! ! ! ! 4 7 7 d d r ' o o x x y y + + 0 0 ' r S S S S m m m m P P m m P P P P p p P P w w p p w w w w w w w w E v w w E v X X E E E E +.G X X L +.G +.L +.V V +.L L Z @.@.Z L #.#.L Z %.@.Z L %.@.%.@.@.%.%.%.).*.*.*.*.*.*.*.*.*.*.*.%.@.@.%.*.*.*.*.%.%.%.%.=.=.@.%.%.%.=.=.=.=.@.%.@.%.%.%.=.=.%.@.@.@.%.@.*.*.%.%.=.=.*.*.%.%.*.).%.%.*.*.L L !.!.P P 0 0 T T H H #.#.L Z L L Z L 0 0 3 F E E U U S S @.@.@.%.%.%.%.@.%.%.=.=.@.%.=.=.@.%.%.%.%.%.@.%.%.%.%.%.@.%.%.%.%.@.=.=.@.%.=.=.@.%.*.*.L L %.%.*.).@.@.%.@.@.@.%.@.@.@.*.*.%.@.@.%.@.%.Z Z L Z Z Z %.@.Z Z %.%.L L Z L +.L +.+.V V +.G V V G G +.G G G E E X X &.&.E E U w E v E U v V &.w w w U U U w P P p p P P p p P P P P m m P P m m P P S S 9 9 ' ' . . > > o o 0 9 9 x 8 8 t t T T ! ! ! 4 ! ! ! 4 @ @ ) ) @ @ | | = = > , < < - - , , } } ; } ; } } ; & = @ @ + @ @ # . . 5 5 . . @ @ # # % % % % % . . . .   . .     . .     . .     . . ",
"    5 5         . . .   % %   . @ @ % % @ @ % % # # % % # # 5 & & & .     . @ @ . . ; ; ; } ; ; } } > , ; ; > , , , = & $ $ $ s ) ) # # ! ! ! ! ! ! ! ! ! ! t t 8 8 9 9 x x m m - - . . ' r 0 0 0 0 m m 9 S P P m m P P P P P P P P p p P P w w p p w w w w w U U w E v X X E E E E E E E E X X V X +.G +.G G +.+.G +.L G G L L L L Z #.Z Z Z L Z Z @.@.%.%.%.%.*.*.%.%.*.Z ).).*.*.@.%.@.%.%.%.@.%.%.%.*.*.%.@.*.*.%.@.@.%.@.%.=.=.=.=.%.%.@.%.%.%.=.=.%.@.@.@.@.%.%.%.%.@.=.=.@.%.=.=.*.*.%.%.S S T T 3 3 < < 3 3 G G @.@.L L $.$.*.*.0 0 [ [ < < T T W W @.@.*.*.%.%.*.).@.%.%.@.@.%.@.@.=.=.@.%.%.%.%.@.%.%.%.%.%.@.%.%.%.%.%.%.=.=.@.%.=.=.@.%.@.%.).*.*.*.Y Y %.%.%.%.%.@.%.%.%.%.%.@.=.=.*.Z Z L Z Z Z Z Z L +.L L +.L L G +.G +.V V G G E E +.G G G G G E E E E E E &.&.X X X X &.w E E p p E E U w E E p p w w P P p p P P p p m m P P n P P P S S S S m x 0 9 . . < < m x o o 9 9 d d >.>.4 4 ! ! 4 ! ! ! 4 ! @ + ) ) * * $ $ 3 3 ' ' , , , , - - - - } } ; ; } } = = * * @ $ # # & & . . 5 5 $ $ % % @ @ . . @ @       .     . .       . .     . .   ",
"    5 5         . .     % %     @ @ % % @ # % % # # % % # # 5 & = & .     . @ @ . . ; ; ; } ; ; } } > > ; ; > , , , = = $ $ $ s ) ) $ # ! ! ! ! ! ! ! ! ! ! t t 8 8 9 9 9 x x m - - . . r r 0 0 0 0 m m 9 S P P m m P P P P P P P P p p P P w w p p w w w w w U U w E E X X E E E E E E E E V X V V L +.G +.L +.+.+.L L G +.L L Z L #.#.L Z L L L Z @.@.@.%.@.@.*.*.%.%.*.*.).).*.*.%.@.%.@.%.%.%.%.%.@.*.*.@.@.Z *.@.%.%.%.%.@.=.=.=.=.@.%.@.%.%.%.=.=.%.%.%.@.%.%.%.@.%.%.=.=.@.%.=.=.*.*.%.%.S S T T 3 3 < < 3 3 G G @.@.Z L $.$.*.*.0 0 [ [ < < T T W W @.@.Z *.@.%.*.*.%.%.%.%.%.@.@.%.=.=.%.%.%.@.%.%.%.%.%.@.%.%.%.%.%.%.%.@.=.=.@.%.=.=.%.%.%.@.*.*.*.*.Y Y %.%.%.%.%.%.@.%.%.%.%.%.=.=.*.Z Z L Z Z Z Z L L Z L +.L +.+.+.G +.G V V G G E E +.G G G +.G E E E E E E &.&.X X X X &.w E E p p E E U w E E p p w w P P p p P P p p m m P P P P P P S S S S m x 9 9 . . < < S x o o 9 9 d d >.>.4 4 ! ! 4 ! ! ! 4 ! @ + ) ) * * $ $ 3 3 ' ' , , , , - - - - ; } ; ; } } = = * * $ $ # # & & . . 5 5 $ $ % % @ @ . . @ @ .   . .     % .       . .   . .     ",
"5 5     5 5 . .     % %     % % . . @ @ % % @ @ # @ @ @ @ $     = = . % 5 5 * * 5 5 6 6 ; ; ; } ; ; ; } > > , > ' ' & & # # | | | | + + ! ! : : ! ! ! ! ! 4 ~.~.d d r ' o o 0 9 > > # # 0 0 ' r S S S S m x m m P P m m P P P P p p P P w w p p w w w w w w w w E E U w E E X X E E E E E E E E G G +.L +.L H H G G +.G +.L L Z L +.L L Z Z L +.L Z Z L @.@.@.%.=.=.%.%.*.*.*.*.%.@.@.%.@.%.%.@.=.=.%.@.%.@.=.=.=.=.%.%.@.@.%.@.=.=.@.%.@.%.%.%.=.=.@.@.=.=.%.@.=.=.=.=.=.=.%.%.=.=.=.=.=.=.*.*.%.@.;.;.;.< H H T T G G @.@.Z L L Z Z Z 0 0 3 F +.G - - #.#.L Z %.%.%.@.=.=.*.*.%.%.%.%.=.=.@.%.%.%.@.%.@.@.%.%.%.%.@.%.%.%.%.%.%.%.@.%.=.=.%.%.%.@.*.*.%.%.Z *.@.@.%.%.%.%.@.%.%.%.*.*.%.@.*.*.L Z Z L +.L L +.@.@.L Z L L Z Z L +.X V +.G V V G G +.G G G E E &.&.X X E E E E E E w w w w E E U w E V &.w U U w w P P w w P P w w p p P P m m m m 9 S P P S S S S ' ' . . > > o o 9 9 x x 8 8 t t T T ! ! ! ! ! ! ! 4 + @ 2 2 @ @ | | = = , , < < - - , , } } ; ; } ; ; ; & & $ @ # @ @ +     5 5 % . @ @ @ # . . % % % . . .       . .     .     . .     . . ",
"5 5     5 5 . .     % %     % % . . @ @ % . @ @ # @ @ @ @ $ .   = = . % 5 5 * * 5 5 6 6 ; ; } } ; ; } ; > > , > ' ' & & # # | | | | + + ! ! : : ! ! ! ! ! 4 ~.~.d d r ' o o 0 9 > > # + 0 0 r r S S S S m m m m P P m x P P P P p p P P w w p p w w w w w w w w E E U w E V X X E E E E E E E E G G G +.L +.V V G G +.G +.L L Z L +.L L Z Z G +.Z Z L Z @.@.@.@.=.=.@.%.*.*.*.*.%.@.%.%.%.@.%.@.=.=.@.@.@.@.=.=.=.=.%.%.@.@.%.@.=.=.@.%.%.%.@.%.=.=.@.@.=.=.@.%.=.=.=.=.=.=.%.%.=.=.=.=.=.=.*.*.%.@.;.;.;.< H H T T G G @.@.L L Z #.Z Z 0 0 3 F +.G - - #.#.L Z %.%.%.@.=.=.*.*.%.%.%.@.=.=.@.%.%.%.%.@.%.%.%.%.%.@.%.%.%.%.%.%.%.%.@.%.=.=.%.%.%.%.*.*.@.%.*.*.@.@.%.%.%.%.@.%.%.%.*.*.%.@.*.*.*.L L Z L L +.G @.@.L Z L L Z Z Z L V V G G V V +.G G G +.G E E &.&.X X E E E E E E w w w w E E w w V V w w w U w w P P w w P P w w p p P P m m m m 9 S P P S S S 9 ' ' . . > > o o x x 9 9 8 8 t t T T ! ! ! ! ! ! ! 4 + @ 2 2 @ @ | | = = , , < < - - , , } } ; ; } ; ; ; & & @ @ + @ @ @ .   5 5 . . @ @ # # . . % % % . . .       .     . .     . .     . . ",
"    5 5         . .     % %     @ @ % % @ # % % # # % % # # & = & & .   . . @ @ .   ; ; } ; ; ; } } > > ; ; , , , , = = $ $ @ @ ) ) # # : : ! ! ! ! ! ! 4 4 7 7 g g 9 9 9 x x 9 - - . . r < 0 0 0 0 m m S S P P m m P P n P P P P P p p P P w w p p w w w w w U U w v E X V E E X X E E X X V X X E +.L G G +.G +.G G +.+.G L Z Z L @.@.Z Z L Z Z Z @.@.L Z @.@.@.%.%.%.Z *.@.%.%.%.@.%.*.*.%.%.%.%.@.@.@.%.%.%.%.@.%.%.@.@.=.=.@.%.@.@.%.@.@.@.%.@.@.@.%.%.@.%.@.%.=.=.%.%.=.=.@.%.=.=.@.%.%.%.@.@.%.@.L +.G G 3 3 L L Z #.Z L Y $.*.*.0 0 3 3 L +.L L Z Z %.@.Z *.%.%.%.%.@.%.%.%.=.=.@.%.@.@.%.%.%.%.@.%.%.%.%.%.%.%.%.@.%.%.%.%.%.@.%.%.%.%.*.*.@.%.%.@.%.%.*.*.%.@.@.%.@.%.*.*.*.*.*.*.%.%.L L L +.G G L L +.G +.+.G +.L +.L L +.G H V +.G G G G +.&.&.&.&.E E X V w w E v X E E E U w E v E E U U w w w w p p w w P P w w p p p p m m P P m m P P S S S S 9 9 0 0 # # ' ' x x 9 9 ' ' h d >.>.4 4 ! ! ! ! ! ! ! ! @ + ) ) b | $ $ 3 3 ' ' > , , , - - - - [ [ } ; ; } = = * * $ $ # @ & & . . 5 5 # # % % @ @ . . @ @   . . .   . .       . .     . .     ",
"    5 5         . . .   % %     @ @ % % @ # % % # # . % # # & = & &     . . @ @ .   ; ; ; } ; ; } } > > ; ; , , , , = = $ $ @ @ ) ) # # : : ! ! ! ! ! ! 4 4 7 7 g g 9 9 x x S 9 - - . . < < 0 0 0 0 m m S S P P m x P P P P P P P P p p P P w w p p w w w U U U w w E v X X E E X X E E X X X X E E +.G +.G G +.+.G +.G +.G L Z Z L @.@.Z Z Z L Z Z @.@.L Z @.@.@.%.%.%.*.).@.%.%.%.%.@.*.*.@.%.%.%.@.%.%.%.%.%.@.%.%.%.@.@.=.=.@.%.@.@.@.%.@.@.@.%.%.%.%.%.%.%.@.%.=.=.@.%.=.=.@.%.=.=.@.%.@.%.%.%.@.@.L L G G 3 3 L L Z #.Z L $.$.*.*.0 0 3 F +.+.L L Z L @.@.*.*.%.%.%.%.%.%.%.%.=.=.%.@.@.@.%.%.%.@.%.%.%.%.%.@.%.%.%.%.%.%.%.%.%.@.%.%.%.%.*.*.@.%.%.@.%.%.*.*.%.@.%.@.@.%.*.*.*.*.*.*.%.%.L Z L L +.G G L +.G +.L +.+.+.L L +.G +.+.V +.G G G G G &.&.&.&.E E X V w w E v E E E E U w E E E E U w w w w w p p w w P P w w p p p p m m P P m x P P S S S S 9 9 9 0 # # ' ' 0 0 m 9 ' ' h d >.>.! 4 ! ! ! ! ! ! ! ! + + ) ) | | @ $ 3 3 ' ' > , , , - - - - [ [ } ; } } = = * * $ $ # # & &   . 5 5 # # % % @ @ . . @ @     .   .     . .     . .     .     ",
"5 5 . . 5 5   . .   % %   . @ @ .   % % % B @ @ % % @ @ % % .   5 & . .     * * 5 5 6 6 ; ; } ; ; ; } ; > > , > ' ' & & # # * * ) ) + + ! ! : : ! ! ! ! ! ! ~.~.d d r ' o o 9 9 > > z z 0 0 o o m m 9 S 0 0 0 0 m m m m P P m m P P m x P P m m w w p p v U U w w w w U V V E E E E E E V X V E X V G G Y $.G G $.$.+.L L Z L L Z L #.L L Z L +.Z Z L +.@.@.L Z @.%.%.@.@.%.@.@.%.%.@.@.%.@.Z Z =.=.@.%.@.%.%.%.=.=.@.%.=.=.%.%.=.=.@.%.@.%.%.%.=.=.%.%.=.=.%.@.=.=.%.%.=.=.=.=.=.=.%.@.=.=.@.%.@.%.).*.L L V V [ [ H H @.@.L L L L Z Z 0 9 . . G G +.L @.%.%.%.@.%.*.*.@.@.%.@.=.=.%.%.@.@.=.=.@.%.@.%.%.@.@.%.@.@.%.@.=.=.=.=.%.@.@.%.@.@.@.%.@.@.@.@.Z Z @.@.@.@.%.%.@.@.Z Z L Z Z Z @.@.Z L @.@.L L L L +.L L Z L L L Z #.Z L $.G G +.+.H H L L +.G G G E E G G &.w E v E E E E X V E E U w E V w w p p m m P P n P P n n P P P S x x m x S o o x x m m 9 S m m 9 0 . . - - o o x x r r 8 8 t t ! ! ! ! ! ! ! ! : : # # ) ) @ @ s $ = = , , < < - - , , ; ; } ; ; } } ; & & @ @ @ @ @ @ % . 5 5   . @ @ # # % % % % % . . .     . .       . .     . .     . ",
"5 5 . . 5 5   .     % % % . @ @     % % % B @ @ % % @ @ % .     5 & . . .   * * & 5 6 6 } ; ; } ; ; ; ; > > , , ' ' & & # # * * ) ) + + ! ! : : ! ! ! ! ! ! ~.~.d d ' ' o o x x > > z z 0 0 o o m m m 9 S 0 0 0 m m m m P P m m P P m m P P m m w w p p w U U w w w U U V V E E E E E E V V E E X X G G Y $.G G Y $.+.L L Z L L Z Z L Z Z Z Z L Z Z L +.@.@.Z *.@.%.%.@.@.%.@.@.@.%.@.@.@.@.Z Z =.=.@.%.@.%.%.%.=.=.%.@.=.=.@.%.=.=.@.%.@.%.%.%.=.=.%.@.=.=.@.@.=.=.%.@.=.=.=.=.=.=.@.%.=.=.@.%.%.%.*.*.L L V V [ [ H H @.@.Z L L Z Z Z 0 9 . . G G +.L @.%.%.%.%.@.*.*.@.@.%.%.=.=.%.@.@.@.=.=.@.%.@.%.%.%.@.@.@.%.@.@.=.=.=.=.@.%.%.%.@.@.%.@.@.%.@.@.Z *.@.%.@.@.%.%.%.@.L Z Z L Z Z @.@.Z L @.@.Z L L Z +.L L Z L L Z Z Z L Z Z G G +.+.H H L L +.G G G E E +.G w w E v X E E E X X E E U w E V w w p p m m P P n P P n P P P P S x x m x S o o x x m m 9 S m m 9 0 . . - - o o x x r r 8 8 t t ! ! ! ! ! ! ! ! : : # # ) ) @ @ s $ = = > , < < - - , , ; ; ; } ; } ; ; & & $ @ @ @ @ @ . . 5 5   . @ @ # @ . % % % % . . . .     .     . .       . .   . . ",
". . 5 5 . . 5 5 . % .   % % . . . % . . # @ . % # @ . % # # 5 5         % % @ @   . ; ; } ; ; ; } } > > ; ; ' ' > , = = $ $ $ $ c c # # : : ! ! ! ! ! ! 4 4 t t 8 8 ' ' x x 9 m - - 3 3 9 9 x x 0 0 m m m m P P m m P P m m P P n P P p P P p p p p U U w w E E U w U U w w E E E E G G E E E E V X G G +.G +.L X X G G G +.G +.+.G L L L Z Z L Z Z Z Z L Z Z Z L Z @.%.%.@.%.%.Z Z @.%.@.@.%.%.%.%.@.%.%.%.=.=.@.%.%.%.%.%.@.@.@.%.=.=.@.%.%.%.@.%.@.%.%.%.@.%.%.%.%.%.@.%.=.=.@.%.%.%.*.*.%.@.*.*.*.*.G G +.+.3 3 L +.@.@.%.@.L Z %.%.0 0 [ [ L +.L L Z *.@.@.L Z %.@.%.%.@.@.@.@.%.@.%.%.=.=.@.%.=.=.@.%.@.@.%.@.@.@.%.@.@.@.%.%.@.@.%.@.=.=.@.@.%.@.L Z @.@.@.@.%.%.*.Z %.@.Z Z %.@.@.%.@.@.L L L Z L +.L L +.L L Z L L Z L G G +.L +.G G +.E H G G E E E E E E V X E E X V &.w X X V X X X U U w w P P w w P P P P P P m m 9 0 x x m x n n m m n n r r 0 9 9 0 x x z z < < 0 9 o o ' ' d d t t 4 4 4 ! ! ! ! ! ! ! + + | | * * # # & & ' ' , , > , > > > > } } } ; ; } = = * * $ $ $ #         5 5 # # % % % % . . @ @ .   @ @ .   . . .     . .   . . .   ",
". . 5 5 . % 5 5 % % .   % % % . % %   . # @ % % $ # % % # # 5 5         % % @ @ . . ; ; } } ; ; } } > > ; ; ' ' > , & = $ $ $ $ c c # # : : ! ! ! ! ! ! 4 4 t t 8 8 ' ' x x 9 m - - 3 3 x 9 9 0 x 0 m m m m P P m m P P m m P P P P p p P P p p p p U U w w E E U U w v w w E v X E G G E E E E V V G G +.G +.L X X G G G G +.G G G L L Z #.Z Z Z L Z Z Z L Z Z Z Z %.%.%.@.%.%.Z Z @.%.@.@.@.%.%.%.%.@.%.%.=.=.@.%.%.@.%.@.@.@.@.@.=.=.@.%.%.%.%.@.@.%.%.%.%.%.%.%.%.@.%.%.=.=.@.%.%.%.*.*.%.%.*.).*.*.G G +.+.3 3 L +.@.@.@.@.L Z @.%.0 0 [ [ +.L L Z *.*.@.@.L Z @.@.@.%.@.%.%.@.%.%.%.@.=.=.@.%.=.=.@.%.@.@.@.%.@.@.%.@.@.@.%.%.%.@.@.%.=.=.@.%.@.@.Z Z @.@.@.@.%.%.*.Z @.@.L Z @.@.@.%.@.@.L L L Z L L Z L +.L L Z Z L L +.G G L +.G G +.G E H G G E E E E E E V X E E X V w w V X X V X X U U w w P P w w P P P P P P m m 9 0 m x x m n n m m n n r r 0 9 0 0 S x z z < < 0 9 o o ' ' d d t t 4 4 ! ! ! ! ! ! ! ! + + | | * * # # & & ' ' , , > , > > > > } } ; ; } ; = = * * $ $ $ #         5 5 # # % % % % . . @ @     @ @ .   . .     . .   . . . .   ",
"5 5 . . .     .       .     % %     @ @ % . @ @ % % @ @ . %     & & . .     * * & 5 6 6 ; ; } ; ; ; } ; > > > > ' ' & & # # * | | | + # ! ! ! ! 4 ! ! ! ! 4 7 7 8 8 ' ' x x 9 9 > > . . 9 9 + + m m m m m m m m m m m m m m m m m m S S m m S S p p w w E E E U w w P P p p w w E E E E E E w U G G +.G $.$.$.+.$.$.+.G $.$.G G G G +.G +.L L L @.%.L L L +.G +.Z Z L Z @.@.@.@.@.%.@.@.@.%.@.@.@.@.Z Z %.%.@.@.%.@.@.%.=.=.@.%.@.%.%.%.@.%.%.%.=.=.@.%.@.@.@.%.%.%.%.@.=.=.%.%.%.@.%.%.%.%.L L Z *.L L Z L #.L [ [ E E @.@.Z *.@.%.Z Z p p & & L L Z #.@.@.L Z Z L *.*.%.@.%.@.@.@.%.%.%.%.@.%.@.@.%.%.@.%.%.%.=.=.%.@.=.=.%.%.=.=.%.%.%.@.%.@.=.=.@.%.@.@.L Z @.@.@.%.@.@.@.%.@.@.L L Z Z L +.L Z +.L *.Z L L L Z L +.G +.V V +.L G G +.G E E G G +.G G G G G X X E E E E E E X X p p w w w w E E p p w w P P P P S S P P S S P n m m P P m S o o x x 0 0 m m > > m m . . > > o o x x 0 9 8 8 t l ! ! ! ! ! ! ! ! : : @ + ) ) @ @ $ s = = > , < < - - , , ; ; ; } ; } ; ;     @ @ @ @ @ @ . . 5 & .   % % @ @ % . % % % . . .   . . .   . . .     . .     . . ",
"5 5 . .     % .       .     % %     @ @ % % $ # . % @ @ % .     & & . .     * * 5 5 6 6 ; ; } ; ; ; ; ; > > > > ' ' & & # # * | | | + + ! ! ! ! ! ! ! ! ! 4 7 7 8 8 ' ' 0 0 m 9 > > . . 9 9 + + m m m m m m m m m m m m m m m m m m S S m m S S p p w w E E E U w w P P p p w w E v X E E E U U G G +.G $.$.$.$.+.$.G G Y $.G G G +.G G G L L L @.%.L L L L +.G Z Z Z L @.@.@.@.%.@.@.@.%.@.@.@.%.%.L Z %.%.@.@.%.@.@.%.=.=.@.%.%.%.@.%.%.%.%.@.=.=.@.%.%.@.@.%.%.%.%.@.=.=.%.%.%.%.@.%.%.%.L L Z *.L L L Z L +.[ [ E E @.@.Z *.@.%.Z Z p p & & L L Z #.@.@.Z Z Z L *.*.%.@.@.%.@.@.%.%.%.@.%.@.@.@.%.%.@.%.@.%.=.=.%.%.=.=.%.@.=.=.%.%.@.@.%.@.=.=.%.@.@.%.Z Z @.@.%.@.@.@.%.@.@.@.L L Z L +.L L Z +.L *.Z L L *.Z +.G +.L V V L +.G G +.G E E G G G +.G G G G X X E E E E E E X X p p w w w w E E p p w w P P P P S x P P S S P n m m P P S S o o x x 9 9 m m > > m m . . > > o o x x 9 9 8 8 t l ! ! ! ! ! ! ! ! : : @ + {.) @ @ $ $ = = , , < < - - , , ; ; ; ; } ; ; ;     @ @ @ @ @ @ . . 5 &     % % @ @ % . % % . . . . . . . .   . . .     . .     . . ",
"  . 5 5   .     . . .     % . .   . . . # @ . % % . % % + @ 5 5         % % @ @   . ; ; ; } ; ; = = > > ; ; , , , , = = $ $ $ # ) ) @ + : : ! ! ! ! ! ! ! ! t t 8 8 9 9 9 0 x m } } . . ' r b b r < < < m m m m m m m m m m m m 9 S m m 9 S m m S S p p p p U v w w w w p p v U E E H H E E H H G G +.G G G L L X X G G E E +.G E E +.L G G +.G +.L L L L +.Z L L +.Z Z Z L %.@.%.@.@.@.%.@.@.@.%.@.@.@.L Z %.@.@.@.=.=.@.@.%.@.%.@.=.=.@.%.=.=.%.%.%.%.%.@.%.%.%.%.%.@.%.%.%.%.%.%.%.@.Z *.*.*.L L @.%.L Z Z L W W H H L L L Z #.Z %.%.m m & & L +.@.%.%.@.@.%.$.$.@.@.*.*.%.@.@.%.@.@.@.%.@.@.%.%.%.@.*.*.=.=.@.%.@.%.%.%.=.=.@.%.@.@.%.@.%.@.Z Z L Z @.@.Z Z @.%.@.@.@.@.%.@.L Z @.@.+.G +.L +.+.+.L G G +.G E H +.G +.L +.+.E E H H V V G G V V G G X V +.G E E E E X X E E w w w w P P X X &.w U U P P m m S S m m S S p P m x P P n n P P 0 0 o o < < y - c c r r + z > y 9 9 o o ' ' d d t t ! 4 ! ! ! ! ! ! ! ! # # | | * * # # & & ' ' , , , , > > > > = = } ; } } & & * * $ $ $ #     5 5 & & @ @ % % @ @ .   % . .   @ @     . .   . % . .     . .   ",
"% . 5 5 . .     . . .   . . % .   . % . $ @ . % % . % % $ # 5 5         % % @ @ . . ; ; } } ; ; = = > > ; ; , , > , = = $ $ $ # ) ) @ + : : ! ! ! ! ! ! ! ! t t 8 8 9 9 0 0 m x } } . . ' r b b r < < < m m m m m m m m m m m m 9 S m m 9 S m m S S p p p p U v w w w w p p w U E E X V E E V V G G +.G G G L L V X G G E E G G E E L L +.G G G L L Z L +.L +.+.+.+.L Z L L @.%.@.%.@.@.%.@.@.@.%.@.@.@.L Z %.%.%.@.=.=.%.%.%.%.%.@.=.=.@.@.=.=.@.%.@.%.%.%.%.@.%.%.%.%.%.@.%.%.%.%.%.@.Z *.*.*.L L %.@.Z Z L L W W H H L L L Z #.Z %.%.m m & & L +.@.%.@.@.%.@.$.$.@.@.Z *.@.%.%.@.@.@.%.@.@.@.%.%.%.%.*.).=.=.@.%.@.%.%.%.=.=.%.@.@.%.@.@.@.%.Z Z L Z @.@.Z Z %.@.@.@.@.@.@.%.L L %.@.G +.G +.L +.L L G G G +.E H +.G +.L +.+.E E H H V V G G V V G G V V +.G E E E E V X E E U w w w P P X X &.w U U P P m m S S m m m x P P S S n n P P P P 0 0 o o < < y - c c r r z z y y 9 9 o o ' ' h d t l ! 4 ! ! ! ! ! ! ! ! # # | | * * # # & & ' ' , , , , > > > > = = ; ; ; } & & * * $ $ $ #     5 5 & & @ @ % % @ @ .   . %     @ @     . .   . % .   . .   .   ",
"    % .       .     . .   . # @     % . % % % . . . @ @ . %   . & & . . .   * * 5 & 6 6 ; ; } ; } } ; ; , , > > ' ' & & $ # | | | | # # ! ! 4 ! ! ! 4 ! ! 4 t t d d r ' x x S 9 > > # # 0 0 . . [ [ 9 9 x m m m m m m m S S 0 0 m x m m P P S S P P P P w w w w E E w w w U w w E v E E E E w w V X E E +.G E E +.G E E E E V X G G L L L +.E E +.G G G L L Z L +.L L Z Z L Z Z @.@.Z L %.@.%.@.@.%.L Z %.%.*.*.%.%.%.%.%.%.@.%.%.%.@.%.%.%.*.).@.%.%.%.=.=.%.%.%.@.%.@.%.%.*.).*.*.*.*.%.@.L L %.@.G L L Z L +.[ [ +.L L Z L +.%.%.L L o o 3 3 L +.@.#.@.@.@.%.@.@.@.%.@.@.@.@.@.%.@.@.%.@.=.=.=.=.@.%.@.%.%.%.@.%.%.%.%.%.@.@.=.=.@.%.@.%.%.%.@.@.Z Z @.@.Z Z @.@.L Z @.@.L L @.%.L Z L L +.G Z Z Z L L +.G G +.G E H +.+.E E +.G w w w w E E H H E E G G E E E E V X E E w w w U U w w w w w w w p p p p m m P P S S o m 9 S P x x m n n m m m m 9 S a a ` ` 9 9 ' r . . > > o o x x 0 9 8 8 l l 4 4 ! ! ! ! ! ! ! ! + + ) ) @ @ $ $ = = , , < < - - , , ; ; } } = = } ;     @ @ # @ $ @     & = 5 5 % % @ @ . . . % . . # @ . . . .     . . & & . . .     . ",
"    % .       .     . . .   + @     % . % % . % .   @ @ % .   . & & . .     * * & 5 6 6 ; ; ; } } } ; ; , , > > ' ' & & @ # | | | | # # ! ! ! 4 ! ! ! 4 ! 4 t t d d r ' x x S 9 > > # + 0 0 . . [ [ 9 9 m m m m m m m m S S 0 0 m x m m P P S S P P P P w w w w E v w w w U U w E E E E E E w w V V E E G G E E G G E E E E X X G G L L L +.E E +.G G G L L L Z L +.L L Z Z L Z @.@.L Z @.@.@.%.@.@.Z Z %.@.).*.%.%.%.@.%.%.@.%.%.%.@.%.%.%.*.).@.%.%.%.=.=.@.%.@.%.%.%.@.%.*.*.*.*.*.*.%.@.Z L @.@.L L Z L +.L [ [ L L Z L L L @.%.L L o o 3 3 L +.#.#.@.@.@.%.@.@.@.%.@.@.@.@.@.@.@.@.@.%.=.=.=.=.%.%.@.%.%.%.%.%.@.%.%.%.%.@.=.=.@.%.@.%.%.%.@.@.Z Z %.@.Z Z %.@.Z Z @.@.Z L @.@.L Z L L +.L *.Z L Z Z L G G +.G E H +.+.E E +.G w w w w E E H H E E G G E E E E X X E E U w U U U w w w w w w w p p p p m m P P x x m x S S S S S 9 n n m m m m 9 S a a ` ` 9 9 ' r . . > > o o 9 9 x x 8 8 l l 4 4 ! ! ! ! ! ! ! ! + + ) ) @ @ $ s = = , , < < - - , , ; ; } } = = ; ;     @ @ @ @ @ +     & = 5 5 % % + @ . . . % . . $ @ . . .     . . . & & . .     . . ",
". .     . . .   . .       % % .   . .     % % . @ @ . % $ $             % . @ @ .   ; ; } } ; ; = = > > > > > , , , = = @ $ $ $ ) ) + + ! ! ! ! ! ! ! ! ! ! t t 8 8 9 9 0 x m m > > . . ' ' x x 0 0 S x m m 9 S m x x m 0 0 m m S S P P m m m m m m p p p p U w w w E E w w w U U w E E E E E E G G G +.E E V V E E X V E E E E E E +.L V V V V G +.G +.G G +.L L +.Z Z Z L Z Z L Z Z Z Z L %.%.L Z %.%.*.*.@.%.%.@.%.@.@.@.@.@.%.%.%.%.@.%.%.%.%.%.%.%.%.%.@.%.%.%.@.@.L +.*.*.*.*.%.%.@.@.%.@.@.@.w w E v G G 3 3 G G Z Z L Z Z G @.@.9 9 & & G G N N E E @.%.%.%.@.%.%.%.@.@.L Z %.@.%.%.=.=.=.=.@.%.*.*.%.@.@.%.@.@.%.@.=.=.@.%.%.%.@.@.%.@.L Z @.@.%.%.=.=.*.Z %.%.L L Z Z L Z @.@.+.G +.L +.+.+.L G G L L G G +.G E H +.G U U w v E E +.L G V V V V V G G V X E E w w V X U U V X &.w E E U w p p P P p p m m P P P P m x S S S S m x n n m x x m m m p p 0 0 0 0 # # < < 0 9 9 9 ' ].d d l t ! ! ! ! ! 4 ! ! ! ! # # ) ) * * # # & & ' ' , , > , > > > > } } } } = = & & * * @ $ # # & & 5 5 & & # # . % @ @ . % @ @ . . @ $     . .   . . .     . .   . ",
"  .       . .   . . .   . . % .   .     . % % . @ @ % . $ $             % % @ @   . ; ; } } ; ; = = , > > > > , , , = = @ $ $ $ ) ) @ + ! ! ! ! ! ! ! ! ! ! t t 8 8 9 9 9 0 x m > > . . ' ' 0 0 m 9 x x m x S o x x m m 0 0 m m S S P P m m m m m m p p p p U w w w E v w w w U w w E E E E E E G G +.G E E E V E E V V E E E E E E +.+.V V V V +.G +.G G +.L L L +.Z Z Z L Z Z Z L Z Z Z Z %.%.L Z %.%.*.*.%.%.%.@.@.%.%.@.@.%.%.%.%.%.@.%.%.%.%.%.@.%.%.%.%.%.@.@.@.%.L +.*.*.*.*.%.%.@.@.@.%.%.%.w w E v G G 3 3 G G Z Z L Z Z G @.@.9 9 & & G G N N E E @.%.%.%.@.@.%.%.@.@.L Z %.@.%.%.=.=.=.=.@.%.*.*.%.@.@.%.@.@.%.@.=.=.@.%.@.@.@.%.%.%.L L @.%.@.%.=.=.*.Z %.%.L L Z Z L Z @.@.+.+.G +.L +.L L G G +.L +.G G G X V +.G U U w v E E L L V X V V V V +.G V X E E w w X X U U V X w w E v w w p p P P p p m m n n P P m m 9 S m x x x n n m x m m m m p p 0 0 0 0 # # < < 0 9 9 9 ' ].d d t t ! ! ! ! ! ! ! ! ! ! @ # ) ) * * # # & & ' ' , , > , > > > > } } } } = = & & * * # $ # # & & 5 5 & & # # . % @ @ . . # @ . . @ @       . .   . . .   . .     ",
"    % .   . . . .   . .     $ #     . . % % @ @ % % $ # @ @ % . & & . .     * * & 5 6 6 ; ; } } } } } ; , , > > ' ' & & @ $ | | | | # # ! ! 4 ! ! ! 4 ! 4 4 7 7 d d 0 9 m m 9 0 > > # # r r 0 9 m m 9 S m m m m 9 S 0 0 m m 9 S m m m m P P m m P P P P w w p p w U w w E v w U E E E E +.G G G G G U U V V G G L L G G G +.G G E E H H G G E E L L +.L +.+.V V L +.L L Z *.L L @.@.L Z @.@.L L %.@.%.@.@.%.*.*.%.@.L L %.%.*.).@.%.Z Z %.%.@.%.%.%.@.%.=.=.%.%.=.=.*.Z *.*.*.*.%.@.@.%.%.%.L L P P ] ] S S - - [ [ H H @.@.L Z @.@.L L m m & & ;.;.!.!.-.-.L L @.%.@.%.=.=.@.%.%.%.@.%.@.%.%.%.=.=.%.@.*.*.*.*.@.%.%.@.%.%.%.@.=.=.@.%.@.@.@.%.@.@.Z *.@.%.%.@.@.@.@.%.Z Z L L @.%.L L L L G G +.G +.L +.+.+.L G +.G +.V V w w G G E E G G G G +.G E E G G E E E E U U U w w w E E p p w w w w U w m m p p P P P P p n n p m m n n m m m m m m m m m m n n 9 9 x x ' ' . . > > o o x x 9 9 8 8 l l ! ! ! ! ! 4 ! ! ! ! # + 2 2 @ @ $ s = = , , < < - - , , } } ; ; & = } ; & & | | @ @ @ @ .   5 & 5 5 % % @ @ . % @ @ . . @ @ . . . .     . . .     . .   . . ",
"    % . .     %       %     + @       . % % # @ % % $ # @ @ . % & & . .     * * 5 5 6 6 ; ; } } } } ; ; > , > > ' ' & & @ $ | | | | # # ! ! 4 ! ! ! 4 ! 4 4 7 7 d d 9 9 x m 0 0 > > # # r r 0 0 m x m 9 m m m m 9 S 0 0 m m 9 S m m m m P P m m P P P P w w p p w U w w E v w U E E E E G G G G +.G U U V X G G L L G G G G +.G E E E V G G E E L L L +.G +.V V +.L G L L Z L +.%.@.Z L @.@.L L %.@.%.@.@.%.*.*.%.@.L L @.%.*.*.%.%.*.Z %.%.@.%.%.%.@.%.=.=.@.%.=.=.*.*.*.*.*.*.@.@.%.%.%.@.L Z P P ] ] S S - - [ [ H H @.@.Z L @.@.L L m m & & ;.;.!.!.-.-.L L %.@.%.@.=.=.@.%.@.%.%.%.@.@.%.%.=.=.%.@.*.*.*.*.%.%.%.%.@.%.@.@.=.=.@.%.@.@.@.%.@.@.Z Z @.%.@.%.%.@.@.%.Z Z L Z @.@.+.L L +.G G L +.G +.L L G +.L +.G +.V V w w G G E E G G G G G +.E E G G E E E E U U w w w w E E p p w w w w w U m m p p P P n n P P p p m m P P m m m m m m m m m m n n 9 9 9 x ' ' . . > > o o x x 0 9 8 8 l l ! ! ! ! ! ! ! ! ! ! # + 2 2 @ @ $ $ = = , , < < - - , , } } } ; = = } } = & | | @ @ @ @     & & 5 5 % % @ @ . % @ @ . % @ @ . . . . .     . .     . .   . . ",
". .     . .     . . % . . .   . @ @ . . @ @ % % # # % % # $             % % @ @ . . ; ; } } ; ; } } > > > > > , , , = = $ $ $ # ) ) + + : : ! ! ! ! ! ! ! ! t t 8 8 9 9 x x 9 9 } } . . ' ' x x 9 9 x x m x S S m m m m p p p p S S P P m m P P P P p p P P w w w w w w p p E E v E E E E E V H G G E E U U G G V V G G E E E E E E +.G E V +.L G L +.G +.G G +.+.+.L Z L L %.@.%.@.@.%.*.Z Z L Z Z @.@.Z Z @.%.L L Z L @.@.%.%.%.@.*.*.@.%.*.*.%.@.@.%.@.%.%.%.@.@.%.@.@.%.@.@.@.@.=.=.@.%.@.@.$.$.-.-.{.{.+.L 3 3 V V +.L Z Z L +.L L 0 0 3 & - - + + ) ) %.%.%.@.=.=.@.%.=.=.*.Z %.%.%.@.%.@.%.@.@.@.*.*.@.%.*.*.=.=.@.%.@.%.%.%.@.@.+.L L Z @.@.%.@.L Z @.@.L L @.%.L Z L Z Z L @.@.+.G +.L G G +.L V V +.G +.G G +.E E H H E E E E V X L L V X V V E E V V U U v v w w w U w w E v p p w U p p p p m m p p n n p p m m n P m x p p m m w w m m p p 0 9 9 x x 0 0 0 # # ' ' x x 9 9 ' ' d d t t ! ! ! ! ! ! ! ! ! ! + + ) ) * * # # 5 & , , - - , , ; ; ; ; } } ; } = = = = * * $ $ # # & & 5 5 & 3 # # % % # @ % % @ @ . . @ @ .   . . .     . .   . .     ",
"% .     . .     . . . . .   . . @ @ . . @ @ . % # # . % $ $             % % @ @   . ; ; } } ; ; } } > > > > > , , > = = $ $ $ # ) ) + + : : ! ! ! ! ! ! ! ! t t 8 8 9 9 x x 9 9 } } . . ' ' 0 0 m 9 x x x m x S o x m m p p p p S S P P m m P P P P p p P P w w w w w w p p v E E v E E v E H H G G E E U U G G X V +.G E E E E E E G G V V G +.L L G +.L G G +.L +.L Z Z L @.@.@.@.@.%.Z Z L Z Z L @.@.Z Z %.%.L L Z Z %.@.@.@.%.%.*.).@.%.Z *.%.@.%.@.@.%.%.@.@.%.@.@.%.@.@.%.%.@.=.=.@.%.@.@.$.$.-.-.{.{.+.L 3 3 V V L +.Z Z L +.L L 0 0 3 & - - + + ) ) %.%.%.@.=.=.@.%.=.=.*.*.%.%.%.%.%.@.%.@.@.%.*.*.@.%.*.*.=.=.%.%.%.@.%.%.@.@.L +.Z Z @.@.@.@.Z Z %.@.Z L @.@.L Z *.Z Z L @.@.+.+.L L G +.L +.V V L +.G G G +.E E V V E E E E H H L L V X V V E E H H U U v v w w U U w w E E p p v U p p p p m m p p P P p p m m n P m x p p m m w w m m p p 9 9 x x 0 0 0 0 # # ' ' x x 9 9 ' ' h d t t ! ! ! ! ! ! ! ! ! ! + + ) ) * * # # & & , , - - , , ; ; ; ; ; } } } = = & = * * $ $ # # & & 5 5 & & # # % % $ # % % @ @ . % @ @ .   . .     . .   . . .     ",
"      .     @ @ % . @ @ % . @ @   . @ @ % % @ @ . % @ # @ @ . % & & . .     * * 5 5 6 6 } ; ; } ; ; ; ; , , > > ' ' 5 & # # | | | | + + ! ! ! ! ! ! ! ! ! 4 7 7 d d ' ' x m 9 0 > I . . 9 0 ' ' m m 9 S m m 0 0 S x 9 9 n n m m m m x x m m m m p p p p w w p p E E p p w w w w E E v E E v E E E E E E V V E E +.G E E E E E E G G G G L L L +.G G +.G +.+.G +.G +.L +.L Z Z L Z Z Z Z %.%.Z Z L Z Z Z @.@.Z Z L Z Z Z *.*.%.@.@.%.*.*.%.@.%.@.@.%.@.@.%.%.*.*.@.%.%.@.=.=.@.@.@.%.%.%.@.@.L L ).*.L L @.%.E E 3 3 V V @.@.L Z @.@.L Z 0 9 3 3 V V +.L L Z Z Z Z L %.%.=.=.%.@.%.%.%.@.=.=.@.%.%.@.*.*.@.%.%.@.%.%.%.%.=.=.%.%.%.@.%.@.%.@.Z L @.@.@.@.%.@.*.*.Z Z @.%.@.%.Z Z Z L Z L L L +.G G L +.G G G X V +.G E V +.G V V +.G G G H H E E H H V H H V H H G G E E E E E E E E w U w w p p v E p p w w m m w w P P P P m m o o x x m m 9 9 x x 0 0 0 9 9 0 0 0 ' ' . . > > 9 9 x x ' ' 8 8 l l 4 4 ! ! ! ! ! ! ! ! @ + 2 2 $ $ $ $ = = > > , , - - > > ; ; } ; & = } } = & | | | | @ @     5 5     @ @ # # . % @ @ . . @ @ % .   .       .     . .     .   ",
"      .     @ @ . . @ @ . % # @ . . @ @ % % # @ . % # # @ @ . % & & . . .   * * 5 5 6 6 ; ; } ; ; ; ; ; , , > > ' ' 5 & + + | | | | + + ! ! ! ! ! ! ! ! 4 4 7 7 d d r ' x m 9 0 > I . . 9 0 ' ' x m 9 9 x m 0 0 m x 9 9 n n m m m m m 9 S m m m p p p p U w p p v U p p w w w w E v E E E E E E E E E E V H E E G G E E E E E E +.G G G L L L +.G G G +.G +.+.G +.+.G +.Z Z Z L Z Z Z Z %.%.Z Z Z L Z Z @.@.Z Z Z L Z Z *.*.%.@.@.%.*.*.%.%.@.@.%.@.@.%.@.@.*.*.@.%.%.@.=.=.@.@.%.%.%.@.@.@.L L *.*.L L %.@.E E 3 3 V V @.@.Z L @.@.L Z 0 9 3 3 V V +.L L Z Z Z Z Z @.%.=.=.@.%.@.%.%.%.=.=.%.@.%.%.*.*.%.@.%.%.%.@.%.%.=.=.%.%.%.@.%.%.@.@.Z L @.@.@.@.@.%.*.*.*.L %.%.@.@.L Z Z Z L L L Z G G +.L +.G G G V V G +.V V G G V V G G G G H H E E H H V H H V V V G +.E E E E E E E E w w w w p p v v p p w w m m w w P P p n m m o o x x m m 9 9 9 x x 0 0 0 9 0 0 0 ' ' . . > > 9 9 x x ' ' 8 8 l l 4 4 ! ! ! ! ! ! ! ! + @ 2 2 $ $ $ $ = = > > , , - - > > ; ; } ; = = } } = & | | | | @ @     5 5   . @ @ @ # . % @ @ . . @ @ % . % . .     %     . . .   .   ",
"  . .   . . . . @ @ . % @ @ . % @ @ . . @ @ . . @ @ . % @ $ 5 5     .   % % @ @ . . ; ; } } ; ; } } > > > > , , , , = = $ $ # $ ) ) # # ! ! ! ! ! ! ! ! ! ! l t 8 8 9 9 0 x m m I I R R ' ' x x 9 9 x x 0 9 9 9 ' r 9 9 0 0 m m 9 S P P m m P P n P w w p p w w w w w w w w E E w w E E E E V H E E H H V H G G G G +.G E H +.G G G +.G G G L L X V +.G G G L L +.G G L L L @.%.L L @.@.L Z @.@.#.Z %.@.%.%.@.%.L L @.%.*.L @.@.%.@.%.%.%.%.%.%.%.@.%.%.*.*.*.*.%.%.%.%.%.%.%.@.@.%.@.@.L L *.*.L L %.@.L L +.G 3 3 L +.Z Z @.@.Z L @.@.9 0 = = G G Z #.*.*.%.@.L L %.%.%.@.@.%.@.@.%.@.%.%.%.@.*.*.@.%.%.%.%.@.*.*.=.=.@.%.%.%.=.=.@.%.=.=.%.@.@.%.=.=.%.%.@.@.%.@.@.@.%.@.%.%.L L Z L G G +.L +.G G +.V V G G X V +.G E V +.G +.G V H E E G G E E H H E E G G V V E E E E v E E v w w p p w w p p U U P P p p P P w w m m P P m S m m 9 S m m 0 0 o o x m o o ' ' 0 0 # # ' ' 0 0 m 9 ' ' d e t t ! ! ! ! ! ! ! ! ! ! @ # ) ) | | @ @     , , > > , > ; ; ; ; } } } } = = = & * * $ # # # & &     5 5 $ $ % % # # % % $ # . . @ @ . . . .   . . .     . .     ",
". . .   . . . . @ @ % . @ @ . % @ @ . . @ @ . . # @ . % @ $ 5 5       .   % @ @ .   ; ; } } ; ; } } > > > > , , , , = = $ $ # $ ) ) @ # ! ! ! ! ! ! ! ! ! ! l t 8 8 9 9 9 0 x m > I R R ' ' 0 0 m 9 x x 9 9 x x ' r 0 0 0 0 m m S S P P m m P P P P w w p p w w w w w w w w E E w w E v E U V V E E H H V H G G +.G G G V V G G +.G +.L X G L L V V L +.G G L L +.G G L L L %.@.Z L %.@.Z Z @.@.*.Z @.%.@.%.%.@.L L @.%.L Z @.@.@.%.%.%.%.%.@.%.%.%.%.%.*.*.*.*.@.%.%.%.@.%.%.@.@.@.@.%.L L *.*.L L %.@.L L G G 3 3 L +.Z Z %.@.Z L @.@.9 0 = = G G #.#.*.*.%.@.L L %.%.%.%.@.@.%.@.@.%.@.%.@.@.*.*.%.@.%.%.%.@.*.*.=.=.%.%.%.@.=.=.@.%.=.=.@.@.%.@.=.=.%.%.@.@.@.%.@.@.@.%.%.%.L L Z Z G G L L G G G +.V V G G V V G G V V L +.G G H H E E G G E E H H E E G G X V E E E E U v E E w w p p w w p p U U P P p p P P w w m m P P m S m m 9 S m m 0 0 o o x m o o ' ' 0 0 # # ' ' 9 9 x x ' ' e e l t ! ! ! ! ! ! ! ! ! ! # # ) ) | | @ @     , , > > , > ; ; ; ; ; } } } = = & = * * # $ # # & &     5 5 $ $ % % # # % % # @ . . @ @ . .   .     . . .     .     ",
".     %     # @ . % @ @ % . @ @ . . @ @ % % % % % % @ # # @ .   5 & . .     * * & 5 6 6 ; ; } ; ; ; ; ; , , > > , ,   . $ $ * * | | + @ ! ! ! ! ! ! ! ! 4 4 7 7 d d ' ' m m 9 0 > > . % 9 9 ' r m m 9 S m m 0 0 9 9 0 0 m m m 9 S m m m p p P P p p p p w w p p w w p p v v E E v E w w E v X E E E v E V V E E G G G +.G G E E +.L V V L +.G +.G +.G G +.G G +.L +.G G +.L L Z @.@.L L @.%.L Z Z Z L Z @.@.Z Z @.@.%.@.@.@.*.*.%.@.%.@.@.%.@.%.%.%.*.*.*.*.*.*.@.%.%.%.=.=.%.@.%.%.L Z @.@.%.@.L +.$.$.+.G V V 3 3 U U @.@.L Z L L Z Z 0 9     +.L L Z L L Z L %.%.%.@.%.%.%.%.%.@.%.%.=.=.@.%.*.*.*.*.%.%.@.@.=.=.@.%.=.=.%.@.@.%.L Z @.@.@.%.%.%.%.@.%.%.%.%.%.%.Z Z =.=.*.Z Z L G G +.+.G +.G G V V G G +.G +.L X V +.G V V G G E E G G E E +.G E E E H E E H H E E v E E v E E v E E v p p p p p p p p p p w w p p P n m m o o x x m m 9 S m m 0 0 o o x x 0 9 ' ' . . > > 9 9 9 0 x 0 8 8 t t 4 4 ! ! 4 ! ! ! ! ! # # 2 2 $ $ # $ & & , > < < - - > > ; } } ; = = } ; & & | | | | @ @     5 5   . @ @ # # % % # # % . @ @ . . @ @ .     .     . .     . . ",
"      .     @ @ . . @ @ . % @ @ . . @ @ % % % % % % @ $ @ @ .   5 & . .     * * & 5 6 6 ; ; ; } ; } ; ; , , , > > , .   $ $ * * | | + + ! ! ! ! ! ! ! ! 4 4 7 7 d d ' ' x m 9 9 > > % % 9 9 ' r m m 9 S m m 0 0 0 0 m 0 m x m 9 m m m m p p P P p p p p w w p p w w p p v E E v E E w w E v X E E E v v V V E E G G G G +.G E E G +.V V G +.G +.L +.V G G +.G G G L L G L L L +.@.@.L Z @.%.Z Z L Z Z Z @.@.Z Z %.@.@.@.%.%.*.*.%.%.%.@.%.%.%.%.%.%.*.*.*.Z *.*.%.%.%.%.=.=.@.%.@.%.L L @.%.@.%.L L +.$.$.+.V V 3 3 U U @.@.Z L L Z Z Z 0 0 .   +.L L Z L L Z L %.%.%.%.@.%.%.%.%.%.@.%.=.=.%.%.*.).*.*.@.%.@.@.=.=.@.%.=.=.%.@.%.%.L Z @.@.@.@.%.%.%.%.@.%.%.%.%.%.Z Z =.=.Z Z Z L G G +.+.+.G +.G V H G G +.G +.L X V +.G V V G G E E G G E E G G E E H H E E H H E E v E E v E E v v E E p p p p p p p p p p U w p p p P P m o o x x m x S o x m 9 9 o o 9 9 x x ' ' . . > > 9 9 9 0 x 0 8 8 t t 4 4 ! ! ! ! ! 4 ! ! + @ 2 2 $ $ @ $ & & , > < < - - > > ; } ; ; = = } } = & | | | | @ +     & 5   . @ @ # # % % # # . % @ @ . . @ @     . .     . .       . ",
"  . .   . . . . @ @ . % @ @ . . @ @ . . @ @ % . @ @ . % $ $ 5 5         . % @ @ .   ; ; } } > > } } > > > > ' ' > > & & | | @ @ ) ) # # ! ! ! ! ! ! ! ! ! ! l t 8 8 9 9 9 0 x m > } . . ' r 9 9 x x 9 9 9 9 x x 9 9 o o x m n n m m n n m m p p P P n p P P p p p p E E v v E E v w E E U w E E E E H H V V G G E E H H E E H V V V G +.G G L L V V G G G G G +.G G G +.G G L L L L @.@.Z Z @.@.@.@.Z Z +.G %.%.%.@.@.%.Z Z @.%.$.$.@.@.@.%.%.@.%.%.@.%.*.*.*.*.*.*.%.%.@.%.%.%.Z Z *.*.L L L L L L *.*.L +.V V 3 3 v v L L L *.L L %.%.0 0 & & G G @.@.Z Z *.*.*.L %.%.Z Z @.@.@.%.@.@.*.*.%.@.*.*.*.*.L L %.%.*.*.%.@.Z Z *.*.*.*.@.@.Z Z =.=.@.@.@.%.@.@.%.%.*.Z +.L L Z +.L G G G +.G G L +.+.V G G V V +.G G G G +.E E V V V V E E E E G G V V E E E E E E E v v E E E H H H H E E E E w w m m p p p p p p p p p p m m n n x x x m m x x m x x m x ' ' 9 9 r r 0 0 # # ' ' 9 9 9 9 ' ' e e 7 7 ! ! ! ! ! ! ! ! ! ! # # | | | | # @     ' ' - - , , ; ; } ; ; } } } = & = = * * $ # # # & &     5 5 $ $ % % # # . % $ @ . . @ @ . . . . .   % . .     .     ",
". . .   . . . . @ @ . % @ @ . . @ @   . @ @ . . @ # % % @ $ 5 5     .   % % @ @ .   ; ; } } > > } } > > > > ' ' > > & & | | @ @ ) ) # # ! ! ! ! ! ! ! ! ! ! l t 8 8 9 9 9 9 m m } } . . ' ' 9 9 9 9 9 x x 9 9 9 9 x o o m m n n x m p n x m p p P P p p P P p p p p v v E v v E v U E E U U E E E E H H H H G G E E H H E E H V V V G G G +.G L V V G G G G +.G G G G L G G L L L L %.@.Z Z @.@.@.%.Z Z +.G %.%.%.@.@.%.Z Z @.%.$.$.@.@.@.%.%.@.%.%.%.%.Z *.*.*.*.*.%.%.@.%.%.%.Z Z *.*.L L L L L L Z *.L +.V V 3 3 v v L L L *.L L %.%.0 0 & & G G @.@.Z Z *.*.L Z @.%.Z Z @.@.@.%.@.@.*.*.%.@.*.*.*.*.L L %.%.*.*.%.@.*.Z *.*.*.*.@.@.Z Z =.=.@.@.@.%.@.@.%.%.*.Z +.L Z Z +.L G G G +.G G L L V V G G V V +.+.G G G G E E V V V V E E E E G G V V E E E E v E E E E v E E V V H H E E E U w w m m n p p p p p p p p p m m n n x x m x x x m x x x x m ' ' 9 9 r r 0 0 # # ' ' 9 9 9 9 ' ' e e 7 7 ! ! ! ! ! ! ! ! ! ! # # | | | | # @ .   ' ' - - , , ; ; } ; } } } } = = = = * * # $ $ @ & &     5 5 $ $ % % # # % % @ @ . . @ @ . . . .     % . .     .     ",
"      . .   @ @ . . @ @ . . @ @ . . @ @ % % @ @ % % # # @ @ .   & & . .     * * 5 5 } } > > ; ; ; ; ; ; , , , , , ,     $ $ * | | | + + ! ! ! ! ! ! ! ! 4 4 7 7 d d 9 9 m m x 9 > > . . 9 9 # # o o o o 9 9 ' r x x 9 9 m m m x m m x m n n m m n n x m p n P P w w v v w w v E E E E v E E v v E v U w E E E E G G v v V V w w G G V V +.G G G G G V V +.+.G G V V +.G L L L L *.L @.@.@.%.+.G L L L L L L L L @.@.@.%.@.@.*.*.*.*.L Z @.%.@.@.@.%.*.*.Z *.$.$.*.Z *.*.*.*.*.*.L L X X $.$.$.$.L L +.G L L G G 4 4 E E Z Z +.L Z Z *.Z 9 9     Z Z *.Z L L $.$.L L L L L L $.$.@.@.@.%.@.@.L Z %.%.Z *.@.@.@.%.%.@.*.*.*.*.*.Z %.%.Z L %.%.%.@.%.%.Z Z @.@.Z *.L +.L L L L L +.L L L G L L G G G G +.G G +.G G G +.E E H V E E E E v E G G E E G G E E H H E E v v E v H H E A v v w w w w p p P P m m n p m m n p m m m x m S p p m m x m S x x m x x 9 9 9 9 a a ' ' . . > > 9 9 9 9 x 9 8 8 t t 4 4 ! ! ! ! ! ! ! ! + + ) ) $ $ # $ & & , , , , - - Q > } } ; ; & = } ; & & | | | | @ @     5 5     @ @ # # % % # # . . @ @ . . @ @ .     .     . .     . . ",
"    . .     @ @   . @ @ . . @ @ . . @ @ % % @ @ % % # # # @     5 & . . .   * * 5 5 } } > > ; ; ; ; ; ; , , , , , ,     $ $ * | | | + + ! ! ! ! ! 4 ! ! 4 4 7 7 d d 9 9 m m 9 9 > > . . 9 9 # # o o o o 9 9 ' r x x 9 9 m m x m m m x m n n x m p P m m n p m P w w v E w w v E E E E E v E E v E E U w E E E E G G v v V V w w G G V V G +.G G G G V V +.+.G G V V +.G L L L L Z *.@.@.@.%.+.+.L L L L L L L L %.@.@.@.%.@.*.*.*.*.L Z %.%.@.%.%.%.Z *.Z *.$.$.*.Z *.*.*.*.*.*.L Z X X $.$.$.$.L L +.G L L G G 4 4 E E Z Z +.L Z Z Z *.9 9     Z Z *.Z L L $.$.L L L L L L $.$.@.@.@.@.%.@.L Z @.%.*.*.@.@.@.@.%.%.*.*.*.*.*.*.@.%.Z L %.%.@.@.@.%.Z Z @.%.*.*.L Z L L L L L L Z +.+.+.L L G G G G G +.G L G G G +.E E V V E E E E v E G G v E G G E E H H E E E E E v H H E A v v w w w w p p P P m m p n m m n p m m m m x S p p m m x m S x m m x 9 9 9 9 9 a a ' ' . . > > 9 9 9 9 x 9 8 8 t t 4 4 ! ! ! ! ! ! ! ! + + ) ) $ $ $ $ & & > , , , - - Q > } } ; ; & = } } = & | | | | @ @ .   5 5     @ @ # # % % # # . . @ @ . . @ @       .       . .     . ",
". .   . . . . . @ @ . . @ @ . . @ @ . . # # % % @ # % % $ $ 5 5       .   % @ @     O O ; ; > > } } > > > > ' ' > , & & # @ s $ ) ) # # ! ! ! ! ! ! ! ! ! ! t t 8 8 9 9 9 9 x m } } . . ' ' # # y y y y r r x x 9 9 m x 0 0 m m 0 0 m m m x n n m m P P m m n p m m w w m m w w p p v v E v H H E E E E E E G G v E V V H H G G V V V V G +.G +.G G +.G L +.G G V V L +.+.G L L L L L Z L L L L L L L L L +.@.@.Z Z *.Z +.$.@.@.L L Z *.L L Z *.*.*.@.@.*.*.*.*.*.*.%.@.Z *.L L $.$.L L L L L L G G L L +.G G G 3 3 H H Z Z *.Z L Z @.%.0 0 3 3 H V Z Z +.G L Z Z +.L Z Z Z *.*.L L @.%.@.@.@.%.*.*.*.*.*.*.*.*.*.*.*.*.L Z @.%.*.*.*.*.*.*.@.@.Z Z *.Z $.$.@.@.+.G %.%.+.G L +.+.G L +.+.+.G G G G L L G G G +.V V G G V V V V V V L L G G E E E E v E w w v E E v H H E E w w p p p p p p w w m m p p m m p n P P p p 0 0 m m m m x m m m o o 9 0 0 m > > } } c c 0 0 # # > > 9 9 o o ' ' e d 7 7 ! ! ! ! ! ! ! ! ! ! # # | | @ @ @ @ .   ' ' - - > > ; } ; ; ; } } } = = = = * * # $ $ @ & &     5 5 $ $ % % # # % % @ @ % . @ @ . . . . .   . .     . .     ",
". .   . . . . . @ @ . . @ @ . . @ @ . . @ # % % @ # % % @ $ 5 5         % % @ @     O O ; ; > > } } > > > > ' ' , > & & # @ $ '.) ) # # ! ! ! ! ! ! ! ! ! ! t t 8 8 9 9 9 9 x m } } . . ' ' # # y y y y r r x x x 9 9 m 0 0 m m 0 0 m m m m p n m m P P m m p n m m w w m m w w p p v v E v H H E E E E v E G G E E H V H H G G V V V V G G L +.G G +.+.G L +.G V V L +.+.+.+.L L L Z Z +.L Z L L L L L L +.@.@.Z *.L Z +.$.@.@.Z L *.*.L Z L *.*.*.%.@.Z *.*.*.*.*.@.@.Z *.L Z $.$.L L L L L L G G L L +.+.G G 3 3 H V Z Z *.Z L Z @.@.0 0 3 3 V V Z Z +.G Z Z +.L Z Z Z Z *.*.L L @.@.@.%.@.@.*.*.*.*.*.*.*.*.*.*.*.*.L Z %.%.Z *.*.*.*.*.@.@.Z *.L Z $.$.@.@.L +.@.@.+.G L +.+.+.L L +.+.G G G G L L G G +.L V V +.G V V V V V V L L G G E E E E v E w w E v v E H H E E w w p p p p p p w w m m p p m m p n P P p p 0 0 m m m m m m x m o o 9 0 9 9 > > } } c c 0 0 # # y > 9 9 o o ' ' e d 7 7 ! ! ! ! ! ! ! ! ! ! # # | | @ @ @ @     ' ' - - > > } ; ; } ; } } } = = = & * * # $ # # & & .   5 5 $ $ % % # # % % @ @ % . @ @ . . . . .   . .     . .     ",
"    . .   . . .   . @ @ . . @ @ . . @ @ % % # @ % . # # @ @ . . & & . % .   * * 5 5 } } > > } ; ; } ; ; , , , , , ,     $ $ | | | | + + ! ! ! ! ! ! ! ! 4 4 7 7 d d 9 9 m m 9 9 > > # # ' ' . . & & & & m m 0 0 m m x 9 9 m 9 0 0 0 m x n n m m P P m m p n p p w w p p p p p p w w p p w w p p v E E E E v E E v E U U H H E E G G E E G L G G G G +.G L L V V +.G G G G +.+.G L +.+.L L *.G +.L L L L Z L L L @.@.Z Z L L Z Z *.Z $.$.$.$.$.$.*.*.*.*.*.*.*.*.L Z L L *.Z *.*.@.@.@.%.*.*.G G L Z X X H H H H T T v v @.@.Z L L L +.+.0 0     V V E E G G L L L Z +.$.@.%.%.@.%.%.Z Z @.%.$.$.@.@.@.@.@.%.@.@.@.@.Z L *.*.@.@.*.*.$.$.@.@.Z Z %.@.L L L L +.G L +.@.@.Z L G G L L +.G G G X X G G G +.G G V V +.G V V G +.V V V V E E H V G G V V E E V V E E E U v v w u P P m m m m n p p p p p p p P P m m p p p p m m m x m m m !.m m x m m m 9 9 [ [ c c < < ' ' # # > > o o 9 0 9 9 8 8 t t ! ! ! ! ! ! ! ! ! ! + + ) ) # $ $ $ & & , , , , - - > , } } ; ; = = } } .   | | | | + @ .   5 5     @ @ # # % % # # . . # @ . . @ @ . . @ @     . .   . . . ",
".   . .     . .   . @ @ . . @ @ . . @ @ % % # @ % . # # # @ . . & & % . .   * * 5 5 } } > > } ; ; ; ; ; , , , , , ,     $ $ | | | | @ + ! ! ! ! ! ! ! ! 4 4 7 7 d d 9 9 m m 9 9 > > # # ' ' . . & & & & m m 0 0 m m x 9 9 m 0 0 0 0 m x n n m m P P m m p p p p w w p p p p p p w w p p w w p p E E E E v E E v E E U U H H E E G G E E +.+.+.G G G G +.G L G V G G G G G +.+.+.G L +.+.Z Z +.+.L L L L Z L L L %.@.Z Z +.L Z Z L Z +.$.$.$.$.$.*.*.*.*.*.*.*.*.Z Z L L *.Z *.*.@.@.%.%.Z *.G G L Z X X H H H H T T v v @.@.Z L L L L +.0 0     V V E E G G L L Z Z +.$.@.%.%.@.%.%.Z Z @.@.$.$.@.@.@.@.@.%.@.@.@.%.+.L *.*.%.@.*.*.$.$.@.@.Z Z @.@.L L L L +.+.L L %.@.L L G G L L G G G +.X X G G G G +.G V V +.G V V +.L V V V V E E V V G G V V E E H H E E v v v E v u P P m m m m n p p p p p p p P P m m p p p p m m x m m m !.!.m m m x m m m 9 [ [ c c < < ' ' # # > > o o 9 0 9 9 8 8 t t ! ! ! ! ! ! ! ! ! ! # + ) ) @ $ $ # & & , , , , - - > > } } ; ; = = } }     | | | | + @ .   5 5     @ @ @ # % % # # % . @ @ . . @ @ . . @ @ .     . .   . . ",
". .     . . .   @ @ . . @ @ . . @ @ % . # # % % # $ $ @ @ $ 5 5         % % | | . . > O ; ; > > } } > > > > ' ' > > & & @ @ @ $ ) ) # # ! ! ! ! ! 4 ! ! ! ! t t 8 8 9 9 9 9 x m } } . . ' ' > > 9 9 0 0 0 0 m m x m m m 9 9 m m 9 9 m m x m n n m m n p p p u u P P p p P P n n m m P P P P p p v v V V E E G G V V H H H H E E E E V V +.G G G v E V V +.G G +.G G G G G G L Z L L %.@.L L L L L L %.%.+.L Z Z *.Z L Z $.$.L Z Z *.*.L $.$.*.Z *.*.@.%.Z *.*.*.L Z L L L L @.@.L L %.@.L L L L G G P P p p ;.;.3 3 v v L Z +.L V V +.L , , & & U U U U -.-.+.G L +.@.@.Z *.*.*.*.L Z Z +.$.Z Z +.$.@.@.@.%.*.*.L L Z *.@.@.@.@.Z Z *.Z L L L L Z *.@.@.@.@.Z L G +.L Z L L L L G G G G X X G G E E H H E E G G V V +.G V V G G E E H H E E G G E E H V U U U v p p w w p p P P m m p p p p p p P P p p m m n n p p m m m m n n S S m m x m m m !.!.o o 9 0 9 r y y ' ' # # > > 9 9 o o ' ' d d l t ! 4 ! ! ! ! 4 ! ! ! # # # @ @ @ @ @     , , - - > > ; ; ; ; & = } } = = & & * * $ # # # & &     5 5 $ $ % % # # % % # @ . % @ @ . . @ @ . . .       . .   . ",
". .       . .   @ @ . . @ @ . % @ @ % . # # % % # $ @ @ $ $ 5 5         % % | | . . O I ; ; > > ; } > > > > ' ' > > & & @ @ $ $ ) ) # # ! ! ! ! ! 4 ! ! ! ! t t 8 8 9 9 9 9 m m } } . . ' ' > > 9 9 0 0 0 m m m x x m x x 9 m m 0 0 m m m x n n x m p p p p w u P P p p P P P p m m n n S P p p v v V V E E G G H H H H V V E E E E H V G G G G E E H V G G +.G G G G G G G L Z L L %.@.Z L L L L L %.%.+.+.L Z Z Z *.Z L $.L Z Z *.*.L $.$.*.Z *.*.%.@.*.*.*.*.L L L L L L @.@.Z L %.%.Z L L L G G P P p p ;.;.3 3 v v Z Z +.L V V +.L , , & & U U U U -.-.+.G L +.@.@.Z Z *.*.L Z Z *.$.$.L Z $.$.@.@.@.@.*.*.L Z L *.@.@.@.%.Z Z Z Z +.L Z L Z Z @.@.@.@.Z L G +.L L L L L L G G G G X X G G E E H H E E G G V V +.G V V +.G E E H V E E G G E E V V U U U v p p w w p p P P m m n p p p p p P P n p m m P P p p m m m x n n S S m m x m m m !.!.o o 9 9 ' r y y ' ' # # > > 9 9 o o ' ' d d t t ! 4 ! ! ! ! ! 4 ! ! # # @ @ @ @ @ @     , , - - > > ; ; } ; = = } } = = & & * * # $ # # & &     5 5 $ $ B % # # % % @ @ . % @ @ . . @ @ . . . .   . . .     ",
"    . . . . @ @ . . @ @ . . @ @ % . # @ % % # # @ @ $ $ # # . % 5 &   .     * * 5 5 6 6 > > } ; ; ; > > ' ' > , ' ' & & $ $ * * ) ) + + ! ! ! ! ! ! ! ! 4 4 7 7 d d ' ' o o 9 0 > > + + 0 0 r r x x 0 0 m m 0 0 m x 0 0 m x x m m m x m p p m x n n x m p p m m n p p p p p p p p p p P p p P P w w w w E v E E G G V H G G v E V H E E H H E A H H E A G G G +.G G V H G G +.G +.L L +.M M G G @.%.Z L L L G G L L L L L +.L L %.@.L L L Z +.$.Z Z Z *.Z L *.*.L Z $.$.L Z Z Z *.Z L Z @.@.Z *.P P W W 3 3 v u T T w w L L G G G +.+.L 0 0 3 3 - - W W W W X X %.%.Z Z Z Z +.L @.@.Z #.Z Z +.L Z Z Z Z Z Z *.Z @.@.Z L %.%.%.@.%.@.Z L L L G G +.L L L L L L L L L L +.$.+.+.+.L L +.G G L G G G G E E V V H H H H E E v v E E E E v E G H E E E v p p v v w w p p P P p p p p v v w w p p m m n p m x n p o o m m x m o o m m m x 9 9 m x 0 0 m x 0 9 m m 9 9 0 0 r ' . . > > o o 9 9 9 9 d d l l ! ! 4 ! ! 4 ! ! : : # # ) ) $ $ $ $ & & , , , , ; ; ; ; } ; } } = = } }     @ @ @ @ $ @     & &     @ @ # # % % @ @ . . @ @ . . @ @   . # @     . .     . . ",
"    . . . . @ @ . . @ @   . @ @ . . @ @ % % # # @ @ @ $ $ # % % & 5 . .     * * 5 5 6 6 > > } ; ; ; > > ' ' , , ' ' & & $ $ * * ) ) + + ! ! ! ! ! ! ! ! 4 4 7 7 d d ' ' o o 9 0 > > # + 0 0 r ' 9 9 9 9 m m 0 0 m x 0 0 x x m m m m x m p p m x n n m m n p m m p p p p p p p p p p p P p p P P w w w w E E E E G G H H G G v E V H E E H V E A H H E A G G G G +.G V H G G G G +.L L L M M G G @.%.Z Z +.L G G L Z L L +.G L +.@.@.Z L L Z *.$.L Z Z Z *.Z *.*.L Z $.$.L Z Z Z Z *.Z L @.@.Z *.P P W W 3 3 v u T T w w L L G G +.L +.L 0 0 & & - - W W W W X X %.%.Z L Z Z +.L @.@.Z #.Z Z Z +.L Z Z Z Z Z Z Z @.@.L L %.@.@.@.@.%.+.L L L G G L L L L L L L L L L L +.$.+.+.+.L L +.G +.G G G G G E E H V H H H H E E E E v E E v E E H H E E v v p p v v w w p p P P p p p p v v w w p p m m p n m x n p o o m m m x o o m m m m x 9 9 m 0 0 m x 0 9 m m 0 0 0 0 r ' . . > > o o 9 0 9 9 d d l l ! ! ! ! ! ! ! ! : : # # ) ) $ $ $ $ & & , , , , ; ; ; ; } } ; } = = } }     @ @ @ @ $ @     & &     @ @ # # % % @ @ . . @ @ . . @ @   . @ @     . .     . . ",
". .     @ @ . . @ @ . . @ @ . . @ @ % . # # % % $ $ $ @ $ $             % % | | . . O O } ; > > } ; ' ' > , ' ' , , = = @ @ @ @ 2 2 @ @ ! ! ! ! ! ! ! ! ! ! t t 8 8 9 9 9 9 m m - - . . ' r 0 0 0 0 0 m 0 0 m m r r x x 0 9 m m m m u u n n m m m m n p m m p n x m p p u u v v w w p p P P n p w w v E w w E v E E G G H H H H E E V V H H G G E A H H E E G G V V L L +.G L L L L @.@.L L L +.+.G L +.+.+.L L L +.L L +.G *.Z L L *.Z $.L *.*.Z Z *.Z L Z $.*.L +.Z Z +.L @.*.L +.Z Z +.L @.@.Z L - - T T v A F F v v L L L L L +.+.L ' ' 3 3 v v ;.;.V V Z *.L +.Z Z L L %.@.L L L Z Z Z +.L Z Z Z *.*.L %.@.Z *.*.*.L L L L L L L L G G G +.G G +.L L L L L L +.L L +.+.$.$.L +.$.$.G G G +.E E V V E E L L E E G G E E E E v E G H H H H H v v w w w w w w w w w w p p E v w w w w P P p p p p m m m m n p o o p p m m o o 9 0 9 9 0 0 m x 0 0 m m 0 0 9 9 9 9 0 0 # # y y 9 9 9 9 ' ' e d t t 4 4 ~ ~ ! ! ! ! ! ! @ + | | | | # #     ' ' > > > > } } ; ; & = ; ; = = & = * * $ # # $ & & 5 5 5 5 $ $ % % @ @ . % # @ % . @ @ % . @ @ . . % .     . .     ",
". .     # @ . . @ @   . @ @ % . @ @ % . # # % % $ $ @ @ @ $         .   % % | | . . O O } ; > > ; ; ' ' > , ' ' , , = = @ @ @ @ 2 2 @ @ ! ! 4 ! ! ! ! ! ! ! t t 8 8 9 9 9 9 x m - - . . ' r 0 0 0 0 0 0 m 0 m m r r x x 0 9 m m x m u u n n x m m m n p m m p n m m n p u u v v w w p p P P n p w w E v w w v E E v G G V V V H E E H H H H G G v A H H E E G G V H L L +.G L L L L @.@.L L +.L G +.L Z +.L L L L +.L L +.G *.Z L +.*.Z *.L *.*.Z Z Z *.Z L *.*.L +.Z Z L L *.*.Z L L Z L L %.@.L L - - T T v A F F v v L Z L L +.+.L +.' ' 3 3 v E ;.;.V V Z *.L +.Z Z L L @.@.Z L L Z Z *.L L Z *.*.*.*.L %.@.Z Z *.Z L L L L L L L +.L G G L G G L L L L L L +.L L L +.+.$.$.$.L +.$.G G G +.E E V V E E Z L E E G G E E E E E v H H H H H H v E w w w w w w w w w w p p v v w w w w P P p p p p m m m m p n o o p p m m o o 9 0 9 9 0 0 m x 0 9 m m 9 0 9 9 9 9 0 0 # + y y 9 9 9 9 ' ' d d t t 4 4 ~ ~ ! ! ! ! ! ! + + | | | | # #     ' ' > > > > } } ; } = = ; ; = = & & * * $ # # $ & & & 5 5 5 $ $ % % @ @ . % # @ . . @ @ % . @ @ . .   . .   . .   . ",
"    . .   . @ @ . . @ @ . . @ @ . . # @ % % # # @ @ $ $ @ # % % & 5 . . .   * * & 5 6 6 > > } ; > , > , ' ' > , ' ' & & $ $ * * ) ) + + ! ! ! ! ! ! ! ! T T >.>.d d ' ' m m x 9 y y z z y y y r x x 9 9 m x x x 9 9 9 9 9 9 r r x m o o p p P P u u n p o o m m n n m m v v p p v v p p v v w w v v w w w w p p E v G G G +.E E V V H H G M H H H H E v v E E E G G L L L L +.G L L L L G M G G @.%.L L +.+.V V +.G G G G +.L Z +.$.$.L +.$.L L Z *.L L *.*.X X Z Z +.$.Z Z +.L @.*.$.$.*.*.*.L %.@.Z L L L E E T T v A L L G G L L G G 0 0     +.L E E Z Z Z +.L Z L +.L Z L L L L L L L Z +.$.@.%.L L %.@.L L L Z Z Z Z *.L L L L G G G +.G G Z L L +.L Z +.+.L Z G G G +.+.+.$.$.G G G G E E E E U w E E V V G G G G X V E E H H E E v v E v w w p p v v v v E v U w v v p p w w P P p p P P n p m m n p o o p p m m m m x x 9 9 9 0 m x 0 9 m m 9 9 9 9 r r 0 0 < < # # y > 9 9 9 9 ' ' 8 8 t t ! ! ! 4 ! ! ! ! : : # # ) ) $ $ $ $ & & , , , , ; ; ; ; } ; } } } } } ;     @ @ @ @ $ @     & &     # # # # B % @ @ . . @ @ . . @ @ . . @ @   . . .   . . . ",
"    . .   . @ @ . . @ @ . . @ @ . . @ @ % . # # @ @ $ $ $ @ % % 5 &   .     * * & 5 } } > > } ; > , > , ' ' , > ' ' & & @ $ * * ) ) + + ! ! ! ! ! ! ! ! T T >.>.d d ' ' m m x 9 y y z z y y y r x x 0 0 x x x 9 9 m x x x x r r x m o o p p n n u u n p o o m m n n m m v v p p v v p p v v w w v v w w w w p p v v G G G +.E E V V H H G M H H H H E E E E v v G G L L L L G +.L L L L G M G G @.@.Z L L +.V V G +.G +.L +.L L $.$.+.L $.$.L Z $.*.L +.*.*.X X Z Z +.$.Z Z L L Z *.$.$.*.*.L Z @.@.Z L L Z E E T T v A L L G G L L G G 0 0     +.+.E E Z L L L Z L L +.L Z L L L L L L L Z +.$.@.%.L L %.@.L L L Z *.L Z Z +.L Z L G G G +.G G L L G +.L L +.+.L +.G G G +.+.+.$.$.G G G G E E E E U U E E V V +.G G G V V E E H H E E v v E v w w p p v E v v E v U w v v p p w w P P p p P P n n m m p p o o p p m m x m S x m 9 9 9 m m 0 0 m m 0 0 9 x r r x x < < # # > > 9 9 9 9 ' ' 8 8 t t ! ! ! 4 ! ! ! ! : : # # ) ) @ $ $ $ & & , , , , ; ; ; ; } } ; } } } ; }     @ @ @ @ @ $     & &     @ # # # B % @ @ % . @ @ . . @ @ . . @ @     . .     . . ",
". .     . .   . @ @ . . @ @ . . @ @ % . # @ % % # $ $ @ $ $             % % | | . . O O } ; > > } ; ' ' > , ' ' , , = = # @ @ @ 2 2 @ @ ! ! ! ! ! 4 ! ! ! 4 l l 8 8 ' ' 9 9 x x - - z z y - < < 9 9 9 9 0 0 m m 0 0 0 0 < < 9 9 9 9 9 x 9 0 o o 9 x n p m m n p p p p p n n p p p p w w p p w w w w E v p p w w w v G G E E E E E E V H E E H H v v E v U w v v E E Z L G G +.L +.L %.@.L L M G +.G L +.+.+.L L L L L +.L G L L +.+.L +.G +.*.*.L Z *.*.$.$.$.$.$.$.$.$.L +.$.*.*.L Z Z L L Z *.@.@.@.@.G G G +.W W E E G G G G G +.+.+.0 0 3 3 H H Z L G G Z Z +.L Z Z Z L L Z L +.L Z G G L Z Z Z *.Z L Z @.@.+.G L +.+.+.+.L G G +.L G +.G +.G G G G G G +.L Z G L +.G G G +.G G G G v E E E U w E E v v E v E E H V E E E E E E V H v v E v p p w w p p w w p p p p P P w w w w p p m m p p p p p p m m x m m m o o 9 0 m m 0 0 0 0 9 9 m m 0 0 0 0 m 0 0 0 r ' ' ' # # > > 9 9 0 0 ' ' e d t t ! ! ! ! ! ! 4 ! ! ! # + | | | | # #     ' ' > > > > } } } ; = = } ; = = & & | * # $ $ $ & & & 5 5 5 $ $ @ @ # # % % @ @ . . @ @ . . @ @ . .   . .   . .     ",
". .     . . . . @ @ . . + @ . . @ @ % . # @ % % $ $ @ # @ $           . . % | | . . O O } ; > > ; ; ' ' > , ' ' , , = = @ $ @ @ 2 2 @ @ ! ! ! ! ! 4 ! ! 4 4 t l 8 8 ' ' 9 9 x x - - z z y - < < 9 9 x x 9 9 m 0 0 0 0 0 < < 9 9 x 9 9 9 9 0 o o 9 x p p m m n n p p p p p n n p p p w w p p w w w w v E p p w w w U G G E E E E E E H H v v V V E v v E v U w v E E Z L G G G +.+.L %.@.L L M M G +.L L +.+.L +.L L L L G G L L +.+.L +.G +.*.*.L Z *.*.$.$.$.$.$.$.$.$.$.L Z *.*.L Z Z L L L Z @.@.@.%.G G G +.W W E E G G G G G G +.+.0 0 3 3 H H L L G G L Z Z +.L Z L Z Z Z +.G Z L G G Z Z Z *.Z L Z Z @.%.+.G L +.+.+.+.L G G +.L +.G L +.G G G G G G L L L +.G +.L G G L G G G G E E E E w w v E E v E E E E V H v E E E E v H H v v E v p p w w p p w w p p p p P P w w w w p p m m n p p p p p m m x m m m o o 9 9 m m 0 0 0 0 9 9 m m 9 9 0 9 9 9 0 0 r ' ' ' # # > > 9 9 0 0 ' ' d d t t ! ! ! ! ! ! ! 4 ! ! + + | | | | # #     ' ' > > > > } } } ; = = ; ; = = = & | * $ $ $ $ & & 5 5 5 5 $ $ $ @ # # % % @ @ . . @ @ . . @ @ . . . .   . .       ",
"    . .     @ @ . . @ @ . . # @ . . @ @ % % # # # @ @ $ $ # % % & = . .     * * & 5 6 } > > } ; > , > , ' ' , , ' ' & & $ $ * * ) ) + + ! ! ! ! ! ! ! ! T T >.>.d d ' ' 9 9 ' r y > # + > > ' ' ' ' ' ' ' r r r 0 0 0 0 0 0 0 m 0 m 9 9 o o o o m m n n n p m m n p p p u w w w E v u u v v p p w w p p w w P P w U U U v E E E E v E E v E U w E v w w E v E E v v E v G G G +.G L G G L L G G L L +.G +.G G G +.L L Z L L +.+.$.$.X X Z L L Z *.*.L L L L +.$.L Z Z +.L Z L L *.*.L Z @.@.Z L L Z Z +.L Z E E W W E v L M E E G G G G 0 0   . +.G L +.+.L +.L Z Z Z Z *.Z L L L Z +.G L L L +.L Z +.+.@.@.@.%.Z Z G G +.L G G L L G G G +.G G G G V V +.G G G +.L G +.$.$.X X G +.V V V V w U E E E E E E w w E v w w V V E E E E U w E v P P w w p p w w p p p p p p w w p p w w p p p p m m n p p p p p m x n n m m m x 9 9 m m 9 0 9 m 9 0 9 0 0 0 r r 0 0 ' ' > > . . > > 9 9 9 9 x 9 e e t t ! ! ! ! ! ! ! ! : : # # ) ) @ $ $ $ & & , , , , ; ; ; ; } } } ; } } } }     @ @ @ @ @ @     & &     # # # $ % % @ # . % @ @ % % @ @ . . . % .     . .   . . ",
"      .     # @ . . @ @ . . # @ . . @ @ % % # # # @ @ $ $ # % % 5 &   .     * * 5 5 6 6 > > } ; > > , > ' ' , , ' ' & & $ $ * * ) ) + + ! ! ! ! ! ! ! ! T T >.>.d d ' ' 9 9 r r > > + # > > ' ' ' ' ' ' r r r r 0 0 0 0 0 0 0 0 m m 9 0 o o o o m m n p p p m m n p p p u w w w v E w u u v p p w w p p w w P P w U U U E E E E v E E v E U w w E v w w E E E E v E E v G G G +.G L G G L L G G L L G G +.G G G +.L L L Z L L +.$.$.X X L L L L *.*.L Z L L $.$.L Z $.+.L Z L L *.*.L +.@.@.Z L L Z L L L L E E W W E v L M E E G G G G 0 0 . . +.G L +.+.L +.+.L Z Z Z Z Z +.L Z L G G L L L +.L L +.+.@.@.@.%.Z Z G G L L +.G L L G G +.L +.G G G X V G G G +.+.L G +.$.$.X X +.L V V V V w U E E E E v E w w v v w w V V E E E E w w v E P P w w p p w w p p p p p p w u p p w w p p p p m m P n n p p p x x n n m m m m 9 0 o m 9 0 9 m 0 0 0 0 0 0 < r 0 0 ' ' > > . . > > 9 9 0 0 9 9 e e t t ! ! ! ! ! ! ! ! : : # # ) ) @ $ $ $ & & , , , , ; ; ; ; } } } } ; } } }     @ @ # @ @ @     & &     # # $ $ % % @ # % % @ @ % % @ @ . . % %       .     . . ",
"  . .     . . . @ @ . . @ @ % . # @ % . # @ % % # $ $ @ $ @ %           % % | | % % O O ; } > > ; ; ' ' , > < ' , , = = @ @ @ @ 2 2 @ @ ! ! ! ! ! ! 4 ! ! ! t t 8 8 ' ' 9 9 r 9 [ [ z z y > < < < < < r 0 0 < r r r x x r r x x 0 0 x m 9 0 o m 9 9 o o m m n p m m p p p p v v p p v v v E v E p p p p n P w w p p w w w w E E E E v E w w v v E E v E E E H V U w E v E E G G G G L L G G +.G G G G +.G G G G G G L Z L L Z Z +.G G +.G +.L L $.$.*.*.G G L Z L L Z Z +.$.Z Z L L L Z L L +.L L +.+.L +.L H H + + E E G G G G V V +.+.0 0 3 3 H H L L +.+.$.$.+.G L +.L L Z L +.G G L +.L $.$.G G L L L L %.@.Z L L L L L L +.G G G G G +.G L G G G G V V +.G +.G L +.X X $.$.X X G G v E E E E E G G E E E E w w E v E E v E E E E v w w w w p p p p n P p p p p w w p p v v w w p p P P n p m x p p p p o o m m n p m m m m x 9 m m 9 9 m x r < 0 0 r ' ' ' y y ' ' # # > > 9 9 9 9 ' r d d 7 7 4 4 ! ! ! ! ! ! ! ! # + | | | | # #     ' ' > > > > } } ; ; } } ; ; } = = & * * $ # @ $ 5 5 & 5 5 5 $ $ @ @ # # % % @ # % % # # % % # @ . . @ @ . . @ @     ",
". .     . .   . @ @ . . @ @ % . # @ % . # @ % % # $ $ @ $ $             % % | | % % O O ; ; > > } ; ' ' > , ' ' , , = = @ @ @ @ 2 2 @ @ ! ! ! ! ! ! ! 4 ! ! t t 8 8 ' ' 9 9 r 9 [ [ z z y > < < < < r r 0 0 < r r r x x < r x x 0 0 m m 0 0 m m x 9 o o m m n p m m n p p p u v p p v v v v E v p p p p P P w w p p w w w U E E E E v E w w v v v E E E E E V V U w E v E E G G G G +.L G +.G G G +.G G G G G G G G +.L L L L *.+.G G +.L +.L L $.$.*.*.G G L Z L L Z Z +.L Z L L L Z Z +.L Z L +.+.L Z L L H H + + E E G G G G V V G +.0 0 3 3 H H L L L +.$.$.L +.$.L L L Z L +.G +.G L +.$.$.G G L L L L %.@.L L L L L L L +.G G G G +.G G +.G G G G V V G G G +.L V V X $.$.X X G G E E E E E E G G E E E E U w E E v E E E E v E E w w w w p p p p P P p p p p w w p p v E w w p p P P p p m x p p p p o o m m n p m m x m m 9 m m 9 9 m x < < 9 9 ' ' ' ' y y ' ' # # > > 9 9 9 9 r ' d d 7 7 4 4 ! ! ! ! ! ! ! ! # + | | | | # #     ' ' > > > > } } ; ; } } ; ; } = = & * * # $ @ $ 5 5 5 5 5 5 $ $ @ @ @ # % % @ # % % # # % % @ @ . . @ @ . . @ @     ",
"    . .     @ @ . . @ @ . . @ @ . . @ @ % % $ # @ @ $ $ # # % % & = . .     * *     6 } ; ; } ; > > , > ' ' , , ' ' & & $ $ * * ) ) # # ! ! ! ! ! ! ! ! 4 4 7 7 d d > > 9 9 r r } } # # y y + + 0 9 9 9 x x r r 9 9 9 9 m o 9 9 0 0 m x o o 9 x p p o o n n p p v v w w w w p p p p p n v v w w w w P P p p p p w w w w E v u v v E v U v v E v H H E E G G H H H H E A G G V V G +.+.G G G V V +.L G G +.L H H Z L G G L L +.+.Z Z +.G Z L $.$.Z L $.$.L Z Z +.Z Z +.L Z L $.$.Z L L L @.@.Z L L Z E G L L E E W W v v L +.E E G G G +.0 0   . G G G +.G $.G G L L G G +.L +.G +.G L +.+.L +.+.Z Z +.L Z Z Z L +.G G G +.L H V G G +.G G G G +.G G E E G G V H G G +.G L L X X G G V X G G E E E E v E V V E E E E v v E v U w w w p p w w w w E v u v w w P P w w p p w w p p w w p p p p P P p p m m n n m m o o o o o o 9 0 m m m x m m 9 0 0 0 r < 0 9 9 9 } } > > . . } } 9 9 ' r ].].f f t t ! ! ! ! ! ! ! ! : : @ # ) ) $ $ $ $ & & , , , , ; ; ; ; } } } ; ; } ; ;     * * * | # #     & &     # # $ $ % % @ # % % @ # % % @ @ . . . % . . % % . . % % ",
"  . .       @ @ . . @ @ . . @ @ . . @ @ % % # # @ @ $ $ # # % % & &   .     * *     6 6 } ; } ; > > , > ' ' , , ' ' & & $ $ * * ) ) # + ! ! ! ! ! ! ! ! 4 4 7 7 d d > > 9 9 r r } } # # > y z + 0 9 9 9 x x r < 9 9 9 9 m o 9 9 9 9 x 9 o o 9 x p p o o p n n p v v w w w w p p p p p P v v w w w w P P p p p p w w w w E v v E v U v v v E v U H H E A G G V V V V E E G G V V +.+.+.G G G V V +.L G G L L H H Z L G G L L L +.L Z +.L G L $.$.L Z $.$.L Z Z L L Z L L +.L $.$.L L L L @.@.Z L L L G G L L E E W W v v L +.E E G G G G 0 0   . G G G G +.$.G G L L G G L L +.G +.+.G L +.+.L +.+.Z +.L Z L L L +.G G G +.L V V G G G G G G G G +.G E E G G V H G G G G +.L X X G G V X G G E E E E E v H H v v v E v U v E U w w w p p w w w w v E E v w w P P w w p p w w p p w w p p p p n P p p m m P n m m o o o o o o 9 9 m m m x m m 9 0 0 0 r < 0 9 9 9 } } > > . . } } 9 9 ' r ].].f f t t ! ! ! ! ! ! ! ! : : @ # ) ) $ $ $ $ & & , , , , ; ; ; ; } } ; ; ; } } ;     * * | | # #     & &     # # $ $ % % @ # % % @ # . % @ @ . . % % . . . % . . % . ",
"@ @ . . @ @ . . @ @ . . @ @ . . @ @ @ @ # # % % # # @ @ # $ % . .       % % | | % % } } } } > > ; ; , , , > ' ' > , = = @ @ @ @ ) ) # # : : ! ! ! ! 4 ! 4 ! l t 8 8 ' ' r r 9 9 [ [ z z y > # # y > a a ' ' 9 9 r r x x 0 m m x 9 9 n n m m m m n n p p m m n p p p p p n p p p p p p p p p w w p p p p P P w w w w E E w w U U U w E v w u A H v v V V E E G G E E H H G G G +.G G G G G G +.L V V G G G +.G G G G L L +.+.L Z G G $.$.G G $.$.L +.$.$.$.$.Z Z +.$.Z L $.$.*.Z +.G L L L L L L G G G G V V E E W W E v G G G +.E V G G ' ' 3 3 E E H V E X $.$.+.G L L G G L +.+.G L +.G G $.$.G G G G L L G L +.G L L +.G G +.G G G +.G G +.L G G G +.E V G G G +.G G V H $.$.X V G G v v V V w U E E E E E v E E v E U w w w w w w w p p w w v v E v U w w w p p p p P P n p P P w w P P p p m m m m o o p p m m o o 0 0 m m 0 0 m m r r 0 0 ' ' 9 9 - - } } | | > > + # > > ' ' 9 9 r ' d d t t 4 4 4 ! ! ! ! ! ! ! + + | | | | # # & & ' ' > > > > } } ; } ; } ; } ; } 5 5 * K # $ # @ & & 5 5 5 5 $ $ @ @ @ # % % @ # % % # # % % # @ % % . % % . % %     ",
"# @ . . @ @ . . + @ . . @ @ . . @ @ @ @ # # % % # # @ @ @ $ % .         % % | | % % } } } } > > ; ; , , , > ' ' , , = = $ @ @ @ ) ) # # : : ! ! ! ! 4 ! ! ! l t 8 8 ' ' ' r 9 9 [ [ z z y > # # > > a a ' ' 9 9 r ' 9 9 m m x x m x n n m m m m n n n p m m p n p p p p p p p p p p p p p p w w p p p p P P w w w w v E w w U U U w v v w u A H v v H H E E G G E E H V G G +.G G G +.G G G G L H H G G G G G +.G G +.L G +.L Z +.G $.$.G G +.$.$.L +.$.$.$.L Z $.$.L +.$.$.Z Z +.+.L L L L L L G G G G H H E E W W E v G G G G X V G G ' ' 3 3 E E V V H X $.$.G G L L +.G L +.G L +.+.+.G $.$.G G G G L L L L G G Z L G G G +.G G G +.G G +.L G G G G X V G G G G G +.E V $.$.X V G G E E V V w U E E E E E E v E E v E U w w w w w w p p w w v E E v w w w w p p p p P P n p m P w w P P p p m m m m o o p p m m o o 9 9 m m 9 9 m m r r 0 0 ' ' 9 9 - - } } | | > > # + > > ' ' 9 9 r ' d d t t 4 4 ! ! ! ! ! ! ! ! + + | | | | # # & & ' ' > > > > } } } ; ; } } ; 6 6 5 5 * * $ $ @ @ & & 5 5 5 5 $ $ @ @ # # % % @ # % % # # % % @ @ . % % . % . % %     ",
"    .       . . . . @ @   . @ @   . # # % % # # % % # $ $ @ % % & & . . .   * K     6 6 ; ; } ; > > > O , , ' ' ' ' & & # $ * * | | + + ! ! ! ! 4 ! ! ! 4 4 7 7 d d ' ' 9 9 0 0 } } # # y y & & . . - - r r 0 0 0 0 m x m m 0 0 m m m m x m p p p p m m n p m m m m x m p n m m n n m m p p p p p p w w w w P P w w w w w w E v U U X X U U U v E E U w E E E E v E E v G G V V G G G G +.G V V G G V X +.G G G Z L G G G L G G L +.G G G +.X X Z L $.$.$.$.G G G +.G G +.L +.L Z L L L Z Z +.L V +.;.;.V V w w T T w w L L H H H H V V 0 0     V V < < w w V V +.L G V G +.G G L Z L L +.+.V V G G V V L +.V V G +.G L +.+.H V G G H H G G H H G G E E G G V H L M H H G G E A G G E E E A v E E E w w v E w w E E U v E E U w U w P P p p p p v v p p v v p p w w P P P P m m p p p p p p n P u u n p P P S S n n m m m m 0 0 m m 0 0 9 0 < r 0 0 r ' . 3 + + > > > > . . > > 9 9 r ' ' ' 8 8 t t ! ! ! ! ! ! ! ! : : + @ ) ) $ $ $ $ = = , , , , ; ; > > O } } ; } ; } }     @ @ | | # #     & 5 . . @ $ @ $ % % @ # % % @ @ % % # # % % @ @ % % % % . . . % ",
"    . .     . . . . @ @ .   | @ . . # # % % # # % % # $ $ @ % % & = . .     * K     6 6 ; ; ; } > > O > , , ' ' ' ' & & @ $ * * | | + + ! ! ! ! 4 ! ! ! 4 4 7 7 d d ' ' 9 9 0 0 } } # # y y & & . . - - r r 0 0 0 0 x x m m 0 0 m m m m m m p n p p m m n p m m m m m x n n m m n p m m p n p p p p w w w w P P w w w w w w E v U U X X U U U v E E w w v E E v E E E E G G V V G G G G G G V V G +.V V +.G G G Z L G +.L G G G G +.G G +.L X X Z L $.$.$.$.G G G +.G G +.L +.+.L Z L L L Z Z +.L V ;.;.V V w w T T w w L L H H H H H V 0 0     V V < < w w V V +.L G V +.G G G +.L L L L +.V V +.G V V +.+.V V G +.+.G L +.V V G G H H G G H H G G E E G G H H M G H H G G E A G G E E E A E E E E w w E E U w E E v E E E w u U w P P p p p p v v p p v v p p w w P P P P m m p p p p p n P p u u n p P P S S n n x m m m 9 0 9 m 0 0 0 0 r < 0 0 r ' . 3 + + > > > > . . > > 9 9 ' ' ' ' 8 8 t t ! ! ! ! ! ! ! ! : : + @ ) ) $ $ $ $ = = > , , , ; ; > > O } } ; } } ; }     @ @ | | # #     5 5   . @ $ $ $ % % @ # % % @ @ % % @ # % % @ @ % % . % . . . % ",
".   . . @ @ . . @ @ . . @ @ .   @ @ . . @ @ . % # $ @ @ @ $     .       % % @ @ % % } ; } } > > ; ; > , , , 0 0 , > = = # @ @ @ ) ) @ @ 4 4 ! ! ! ! ! ! ! ! t t 8 8 ' ' r r 9 9 } } # # ' ' 9 9 r r 0 0 r ' ' ' r r 0 0 0 0 m x 0 9 m m 9 x n p o n n p m m n n m m p p n n p n x m p P n n u u p p w w p p w w P P p p p p v v w w E E U w E E v E v v w w v E E E E v G G G +.E E G G G +.+.+.V V G G +.G G G G +.G M G G G G V V +.G V X G G +.G L +.+.+.$.$.X V G G G +.+.+.+.G L +.G G +.L 0 0 ;.;.- - T T W W w w V H G G E E G G < < 3 3 < < < r T T X X G G G G V V +.G G G L Z X X G G +.+.L Z G G +.G L +.G G +.L L +.V H H H E E H H H H G G V H G G E E G G E A G G G G G G E E E E U w u u v u u v v v v E v E w w P P p p P P p p P P p p p p p p P P n p m m P P P P w w P P w w P P p p S S m m m x n n 0 0 0 0 m 0 0 9 r ' 0 0 > > < < > > 9 9 y y ' ' # # y > 9 9 9 9 ' ' d d t t 4 4 ! ! ! ! ! ! ! ! + # | | @ @ # # & & ' ' , > > , ; ; ; ; } ; } ; = = 5 5 * * $ $ # @ & &     5 5 @ @ @ @ @ # . % # # % % @ # % % @ @ . % % . % . % % . % ",
". . . % @ @ . . + @ . . @ @ .   @ @ . . @ @ % % # # + @ @ $   .         % % @ @ % % ; } ; } > > ; ; > , , , 0 0 , , = = # @ @ @ ) ) @ @ 4 4 ! ! ! ! ! ! ! ! t t 8 8 ' ' r r 9 9 } } # # ' ' 9 9 r ' 9 0 ' ' ' ' ' r 0 0 0 0 x m 9 0 9 m x x n p P P n p P m p n m m n p P P n p P m n n p n u u n p w w p p w w P P p p p p v v w w E E U w E E E U v v w w E E v v E v G G G G E E G G G +.+.+.V V G G G G +.G G +.G M G G G G V V G G X X G G G +.L Z +.+.$.$.X V G G G G +.+.+.+.L L G G G +.0 0 ;.;.- - T T W W w w V H G G E E G G < < 3 3 < < < r T T X X G G G +.V V +.G G G L L X X G G +.+.L L G G G +.+.+.G G L L +.+.V H H H E E H H H H G G H V G G E E G G E A G G +.G G +.E E E v w w w u u v v v v v E v E E U w P P p p P P p p P P p p p p p p P P n p m m n n S P w w P P w w P P p p S S m m m m n n 0 0 0 0 m 0 0 9 r r 0 0 > > < < > > 9 9 y y r ' # # > > 9 9 9 9 ' ' d d t t 4 4 ! ! ! ! ! ! ! ! # # | | @ @ @ # 5 & ' ' , > > , ; ; ; ; } } ; ; = = & 5 * * $ $ # @ & &     5 5 $ @ @ @ # # . % # # % % @ # % % # @ . % % % . % . % . . ",
"    @ @ . . @ @ . % @ @ . . @ @ . . # @ % % # # # @ # $ @ @ . % & = . .     * K     6 6 ; ; } } > > > > ' ' ' ' ' ' & & $ $ * * # @ # # ! ! ! ! ! ! ! ! 4 4 7 7 d d ' ' 9 9 0 0 > > b b < < < y y < < < 0 0 r ' 9 0 < r 0 0 m x m m x m m m !.!.o n x m n n m m p p n n n p m m n n x m p p p p w w P P w w P P p p P P w w p p w w V X E E U w E E U w E E v E H H H H G G E E G G G G +.G G G G G G +.G G E E G G A H G G E E G G A E G G H H G G G +.G $.G G G +.G G +.L G G L L +.+.L +.G +.G G - - ) ) p p 3 3 p p G G E E H H V V 0 0     T T -.-.T T v A G G V V +.G V X G G G +.G G E X L L G G +.L +.G V V V V V V V V G G E E E E E E G G H H G G H H +.G H H G G E A +.G E V H H w u u v u w E v E E v E w w v E w w w w p p w w P P p p p p p p p p n P m m n n x m P P P P p p p p m m S S m m 0 0 n n 0 0 m m 0 0 m m 0 0 0 0 0 0 9 9 ' r ].' < < ' ' > > . . } } 9 9 r ' ' ' 8 8 t t ! ! ! ! ! ! ! ! ! ! + + ) ) $ $ $ $ = = > , , , > > > > ; ; ; } } ; 6 }     @ @ @ @ # #     & 5 . . @ $ $ $ @ @ @ $ % % # # % % # # % % # @ . . % .   . . % ",
"    @ @ . . @ @ . % @ @ . . @ @ . % $ # % % # # @ @ # $ @ @ % % & &   . .   * K     6 6 ; ; } } > > > > ' ' ' ' ' ' & & # $ * * # @ + + ! ! ! ! ! ! ! ! 4 4 7 7 d d ' ' 9 9 0 0 > > b b < < < y < < < y 0 0 r ' 9 0 < < 9 9 x 9 m m x m m m !.!.o n x x n p m m n p p p p p m x n n m m p p n p w w P P w w P P p p P P w w p p w w X V X E U U E E U w E E v v V V H H G G E E G G G +.G L G G G G G G +.G E E G G E A G G E E G G A E G G V V +.G G G $.$.G G G +.G G +.L G G L L L +.+.L +.G +.G - - ) ) p p 3 3 p p G G v E V H V V 0 0 .   T T -.-.T T v A G G V V L +.V V +.G G G G G V X L L G G G +.+.G V V H V V V V V G G E E E E E E G G V V G G H H +.G H H G G E A G +.H V H H u u v u w w E v E E v E w w E v w w w w p p w w P P p p p p p p p p P P m m P P m m P P P P p p p p m m S S m m 9 0 o n 0 0 m m 0 0 m m 0 0 0 0 0 0 0 9 ' ' ' ' y < ' ' > > . . } } 9 9 ' ' ' ' 8 8 t t ! ! ! ! ! ! ! ! ! ! + + ) ) $ $ $ $ = = > , , , > > , > ; ; ; ; } } ; 6 3   @ @ @ @ # #     5 5 . . @ $ $ $ @ @ $ $ % % # @ % % # @ % % @ @ . . % % . . . % ",
"% . . % @ @ % . # @ .   | @ . . @ @ @ @ @ $ % % # $ $ @ $ $             % % @ @ % % ; } ; } ; ; ; ; > , , , 0 0 , , = = @ $ @ @ ) ) @ @ 4 4 ! ! ! ! ! ! ! ! l t 8 8 ' ' ' r 9 9 } } # # < < < y < y 0 0 > y 0 9 r < < 9 r r x x 0 9 m m 9 0 9 m 0 0 m m x m n n n n p p p n n p m m n n n n u w w w w w P P p p P P w w p p w w w w E v w w E E E E E v E E v V E E L L G G G +.+.+.+.L E E V V H H G G v E G G G +.G G V H G G V V V V V V +.G V V G G G L $.$.X X +.+.G G G G G G +.G G G +.L L G G G X V E E W + p p v v G H U U H H < < 3 3 E E H V E E +.L V V G G G G +.G V H G G V V +.G G G H H H H G G H H V V H H H H E E H H E E H V H H G G V V +.G G G M G H H H H E E G G E E E E w u v v E v E A v E u u w w w w P P w w p p w w m m w w P P w w P P P P m m P P P P w w P P p p m m m m 0 0 m m 0 0 9 x 0 0 m m 0 0 9 0 ' ' 9 9 - > ' ' 9 9 0 0 > > ' ' # # y > ' ' 9 9 r ' d d t t 4 4 ! ! ! ! ! ! ! ! # # | | + @ @ # & & ' ' , > > , ; ; > > } O ; ; = = & & * K # $ @ @ 5 5     5 5 @ @ # # $ $ @ @ $ # % % @ # . % @ @ % % . % . % . % % . ",
".   . . @ @ . . # @ .   | @ . . @ @ @ @ @ $ % % # $ @ @ @ $         .   % % @ @ % % ; } } O ; ; ; ; , , , , 0 0 , > & = $ @ @ # ) ) @ @ 4 4 ! ! ! ! ! ! ! ! l t 8 8 ' ' ' ' 9 9 } } # # y < < > y y 9 9 y y 9 9 y < < 9 r r x x 0 0 m x 0 9 m m 9 0 m x m m p n P P p p P P n p P m n n n p n u w w w w P P p p P P w w p p w w w U E E U w E E v v v E v U H V E E L L G G +.L +.G +.+.E E V V V V G G v E G G G G +.G V H G G V V H V V V +.G V V G G +.L $.$.X X G +.G G G +.G G +.L G G L L G G G +.E V E E W + p p v v G H U U H H < < 3 3 v v V V E E L +.V V G G G G G +.E V G G V V G G G G V V V V G G H H V V H H V V E E H H E E H H H H G G H H G G G G G L H H H H E v G G E E E E w u v v v E v A v E u u u w w w P P w w p p w w m m u w P P w w P P P P m m P P P P w w P P p p m m m m 0 0 m x 0 9 m x 0 0 x m 0 0 0 0 ' ' 9 9 - > ' ' 9 9 0 0 > > ' ' # # > > ' ' 9 9 r ' d d t t 4 4 ! ! ! ! ! ! ! ! # # | | + @ # # & & ' ' , > , , ; ; > > } ; } ; = = & & * * $ $ @ @ 5 5 .   5 5 @ @ @ # # $ @ @ # # % % # # . % @ @ % % % . % . % . % . ",
"  . @ @ . . @ @ . . @ @ . . @ # # @ # # % % # $ @ @ $ $ + + . % & & . .     * *     6 6 ; ; } ; > > > > ' ' ' ' ' ' & & $ $ * * * | @ + ! ! ! ! ! ! ! ! 4 4 7 7 d d ' ' 9 9 ' r a a # # ' ' ' ' ' ' ' ' ' ' - - r < < > r r r r 0 0 x x 9 9 0 0 0 0 0 0 p p P P n p w n n p m m n p P P n p P n w w w w p p p p w w w U w w U w X X w w v E w w E E E E H H v E Z L G G G +.G G G G V E G G V V G G +.G G G G G G G H V G G G G +.L V V G G H V L +.V V +.G V V G G +.G G L V H G G H H L L G G L L G G V V w w 3 3 p p v v v v v E v U < < # # v v E v G G V V V V V V G +.V V V V V V V V V V G G v E G G V X +.L V V V V E E H H v v V H E E G G H H G G H H H E E v H H E A H H E E E A v E E E E E v A v E E E U w w w w w p p P P w w P P p p P P w w p p p p P P w w p p p p P P n p m P p p S S m m 0 0 S S N N m m 0 0 0 0 < < ' ' < < ' ' > > ' ' > > < < y y . . } } 9 9 ' ' ' ' 8 8 t t ! ! ! ! ! ! ! ! ! ! # # ) ) $ $ $ # = = > , , , ; ; > > ; ; ; ; ; } } }     @ @ # @ # # .   5 5   . $ $ @ $ @ @ @ $ % % # # % % # # % % . % . . % %   . . % ",
"    @ @ .   | @ .   | @ . . + + @ @ # # % % # @ @ @ @ $ # # . % & & . . .   * *     6 6 ; ; } ; > > > > ' ' ' ' ' ' & & $ $ * * | | + + ! ! ! ! ! ! ! ! 4 4 7 7 d d ' ' 9 9 r ' a a # # ' ' ' ' ' ' ' ' ' ' - - r < y y < r r r 0 0 m x 0 9 0 0 0 0 0 0 p p P P n p P n p p m m n p n n p p p n w w w w p p p p w w w w w w w w X X U w E E U w E E v v H H E A G L G G +.L +.G G G E E G G V V G G G G +.G G G G G V H G G G G +.+.V V G G V H G +.V V G +.V V G G G +.+.+.V H G G H H L L +.G +.L G G H H w w 3 3 p p v v v v E E U v < < # # v v v E G G V V V V V V G +.V V H H H H V V V V G G v E G G V V +.G V X V V E E H H E E V H E E G G V H G G H H H E E E H H E A H H E E E A v E E E v v E A v E E E w w w w w w p p P P w w P P p p P P w w p p p p P P U w p p p p P P n p P n p p S S m m 0 0 S S N N m m 9 0 9 0 < < ' ' < < ' ' > > ' ' > > < < y y . . } } 9 9 r ' ' ' 8 8 t t ! ! ! ! ! ! ! ! ! ! # # ) ) $ $ $ # = = , , , > ; ; > > } ; } ; } } } O     # @ $ # # #     5 5   . $ $ # $ @ @ $ @ % % # # % % # # % % . % . . % %   . . % ",
". . % . @ @ . . @ @ . . @ @ + @ # # @ @ $ $ @ @ $ # # # $ $ . .         % % @ @ . % } } } } } ; ; ; , , , , 0 0 , , & = @ @ # @ ) ) # # : : ! 4 ! ! ! ! ! ! t t 8 8 ' ' ' ' 0 0 } } + + > > ' ' ' ' ' ' < < < r r < 0 9 r r 0 0 ' r x m r r x m x x m m m m p n P P p n x m p P n n n p n P P p p p p p P P w w P P w w U w v E w w w w w w w U U H H H E E H H H H G G E E G G V V +.G E E G G G G +.G E E +.G E E G G E E G G E E H H G G L L L +.+.L X X G G G +.+.G G G +.L G G G +.G G G G V V V V E E w w W W w w w w v E w w E E , , & 3 v U V V V V V V E E H V H H G G v E V H X X G G E E H V H H H H H H G G v E E E v v V V E E V V E E V H H H G G E A G G E A H H E E v v E v E E E E v A E E E E w w w w P P E E P P w w p p p p P P n p P n p p P P p p p p w w P P P P m m n p m m p n m S m m 0 0 m m 0 0 m m 0 0 0 0 r < r r r ' ' ' ' ' ' ' < < ' ' # # y > ' ' 9 9 r ' d d ~.~.4 4 ! 4 ! ! ! ! ! ! + + | | @ @ @ # 5 & ' ' > > O > ; } ; ; = = ; ; = = = & * K # $ @ @ 5 5     5 5 @ @ # # @ $ $ @ @ # % % # @ % % # @ % . . %   . % % . % ",
"  . . . @ @ . . @ @ .   | @ @ @ # # @ @ $ # @ @ # $ # # $ $ . .     .   % % @ @ % % } } } } ; ; ; ; , , , , 0 0 , , = = @ @ @ # ) ) @ # : : ! 4 ! ! ! ! 4 ! t t 8 8 ' ' ' r 9 9 } } # # y > ' ' ' ' ' ' y < r r r < 0 9 r r 0 0 < r m m r r x m x x x m m m n n p n P n x m p P n n p p P P n p p p p p n P u w P P w w U w E E U w u w w w w U U H H H E E H V H H G G E E G G V H G G E E G G G G G G E E +.G E E G G E E G G v E V H G G L L +.G +.+.X X G G G +.+.+.G G G +.L G +.G G G G G V V V V E E U w W W w w w w E v w w E E , , & 3 U U H H H V V V E E V V V V G G E E H V X X G G E E V V H H H H H H G G E E E E v E V H E E H H E E V H H H G G E A G G A H H E v v E v U v E E E E A A v E E E w w w w p n E E P P w w p p p p P P p p P P p p P P n p p p w w P P P P m m n p m m p n m S m m 0 0 m m 0 0 m m 0 0 9 0 < < < r r ' ' ' ' ' ' ' < < ' ' # # y > ' ' 9 9 ' r d d ~.~.4 4 ! 4 ! ! ! ! ! ! + + | | + @ @ # & & ' ' > > O > ; } ; ; = = ; ; = = & & * * $ $ @ @ 5 5     5 5 @ @ @ # # $ @ @ # # % % # # % % @ @ % . . %   . % % % . ",
"    @ @   . @ @ . . @ @ . % + @ @ @ $ $ @ @ @ $ $ @ $ $ @ $ . % & & . .     * * . . = = } } ; } > > > O , , ' ' ' ' & & $ $ * * | | # @ 4 4 4 4 ! ! ! ! ! 4 7 7 d d > > 0 0 ' ' } } # # ' ' ' ' ' ' ' r 9 9 < < 0 0 r r 9 0 0 0 x x 0 0 m m 0 0 0 0 0 0 p p p n m m x x n n m m p p n n n P x x n p m m p p m m p p P P w w w w w w P P U U w w E E E E E E E E G G H H E E U U G G E E V V E E G +.V V G G E E V V E E V V E E G G V V G G E E G +.V V G G V V G G G G G G H V G G H H G G E E v E E E V H p p 3 3 p p v v p p v U U U < <     E E E E V X X X E E U U V V E E V X E E V V E E E E v v V H E E H H V V H H v v E E E E H H E E H H E E V V E E E E E v A A A v v A E E G G H H E E E E E v u u u u p p w w w w w w w w w w P P p p n n P P P P U w m m P P m m P P x m P P S S P P m m P n m m m m x S m m 0 0 0 0 ' ' 0 0 r < 0 0 0 0 0 0 ' ' 9 9 < <   . } } 9 9 ' ' ' ' 8 8 t t ! ! ! ! ! ! ! ! : : # # ) ) $ $ $ $ = = , , , , ; ; > > } } } ; } } } O     @ $ @ @ # #     5 5 . . $ $ $ $ $ # # $ % % # # % % # # % % % . . . % % . . . % ",
"    @ @ .   | @ . . @ @ % % # # @ @ $ $ $ @ @ $ $ $ $ $ # $ . % & & % .     * * . . = = } } } O > > > > , , ' ' ' ' & & $ $ * * * | @ @ 4 4 4 4 ! ! ! ! 4 4 7 7 d d > > 0 0 ' ' } } # # ' ' ' ' ' ' r r 9 0 < < 0 0 r < 0 0 0 0 x x 0 0 m m 0 0 0 0 0 0 p p n n m m x S n n m m p p n n P P x m p p m m p p m m p p P P U w w w w w P P U w w w v E E E E E E v G G V V E E U U G G E E V V E E G G H V G G E E V X E E V X E E G G V V G G E E +.+.V V G G V V G G G G G G V H G G V V G G E E v E E E H H p p 3 3 p p v v p p v U U U < <   . E E E E X X X X E E U U V V E E V V E E V V E E E E E v V H v v H V V V H H E v v E v v A H E E H H E E H H v E E E E v A A A v A A E E G G H H E E E E v A u u u u p p w w w w w w w w w w P P p p n n P P P P w w m m P P m m P P m m P n S S P P m m n n m m m x S S m m 0 0 9 9 ' ' 9 0 < < 0 0 0 0 0 0 ' ' 0 9 < < . . } } 9 9 ' ' ' ' 8 8 t t ! ! ! ! ! ! ! ! : : # # ) ) # $ $ $ = = > , > , ; ; > > } } } } } O } }     @ $ @ @ # #   . 5 5 . . $ $ $ # $ # # $ % % # # % % # # % % % . . . % % . . % % ",
"% %     % % .   | @ . . $ @ @ @ # # @ @ # $ $ @ $ $ $ $ $ # . %     .   % % @ @ % % } 6 = = ; ; ; ; , , > > 0 0 , , = = | | @ @ ) ) # + : : ! ! ! ! ! ! T T >.>.8 8 ' ' ' ' ' r } } . . > > y y y > 0 0 r r 0 0 r < 0 0 0 0 m m 0 0 x m m x S m m x S m m m x m m x S m m x n n m m n n m x n P x m w w S S m m x m w w p p w w ,.,.w w w U U U v v E v v v E v v E V H E v G G A E H V U U E E V V G G V V V V E E E E E E G G E E +.G V H G G E E E E U U E E V V G +.G G G G H H +.G V V H H E E E E v A w w W W p p v U v v E v v E , ,     U U V H E v V V E E E E E E V V E E V V X X X V U U U v v v E v v E H H v E H H v E E E E E v E v v E E E E V V E E H H V H G G V E E E u u E E p p v A u u E E p p w w P P U v p p v U p p n n m m P n S m P n S m P P m m n P 0 0 m m S S m m m x S m m m p p S S m m m m x S 0 0 0 0 < < ' ' r < 0 0 < < ' ' ' ' ' ' # # > > ' ' ' ' Q Q d d ~.~.4 4 ! ! ! ! ! ! ! ! + + | | $ @ @ # & & ' ' , > > , ; ; > > 6 6 ; ; = = & & * * $ $ @ @ 5 5     5 5 @ @ # # # $ @ @ # # % % # # % % # @ . . % % . . % % % . ",
". % %   % % % . @ @ . . @ @ @ @ # # @ @ @ $ $ @ $ $ $ @ $ $ % %         % % @ @ % % 6 6 = = ; ; ; ; , , > > 0 0 , , = = | | @ @ ) ) # + : : 4 ! ! ! ! ! T T >.>.8 8 ' ' ' ' ' r } } . . > > y y y > 0 0 r < 0 0 < < 0 0 0 0 m m 0 0 m m S x x m m x S m m m m m x S m m x x n P m m P P m x n P m m w w S S m m m m w w p p w w ,.,.w w w U U U v v E E E E v A E E V V E E G +.E E H V U U E E V V G +.V V H H E E E E E v G G E E G G V V G G v v E v v U E E V H +.G G G G G V V G +.V V H H E E E E E E w w W W p p v U v v E v v E , ,     U U V H E v V V E E E E E E H V E E V V X X X V U U U v v E v v E v H H v E H H E v E E E E v E v v E E E E V H E v V V H H G G E E E E u u E E p p v A u u E E p p w w P P U v p p v U p p n n m m P P m m n P m m P P m m P P 0 0 m m S x m m x S m m m m p p S S m m m m m x 0 0 0 0 < < ' ' r < 9 9 < < ' ' ' ' ' ' # # > > ' ' ' ' Q Q d d ~.~.4 4 ! ! ! ! ! ! ! ! + + | | @ @ # # & & ' ' > > > > ; ; > > } } } ; = = & & * K # $ @ @ 5 5 .   5 5 @ @ @ # # $ $ @ @ # % % # # % % @ @   . . % . . . % %   ",
".   % % . . @ @   . # @ % % # # @ @ $ $ $ $ $ # $ $ $ $ $ $ % % & & . .     * K   . & = ; } ; } > > > > , , , , ' ' & & $ $ | | # @ $ $ 4 4 : : ! ! ! ! ! ! 7 7 d d ' ' 0 9 ' ' I I # # < < # # 9 9 9 9 < < < < y y > y 0 0 0 0 x m 0 0 m m x m m m x S n n m m n n m m m m 0 0 x x 0 0 x m m m p p m m x m m x n P p p w u p p u u p p v A u u u E E v v E w w E E E E H V E E E E v A E H E E +.G E E V V E E E E U U G G E E G G V V G G E E G +.E E E E v A G G V V G G V V G G E E H H H V V H E A A v p p 3 3 m m E E E E v u p p ' ' . . v v A H A A H H V H v v G G E E E E E E G G E E H H U w v E U w v E H H w v v v v v E v E v v E E E E v V H v E H H E E V V E E G G V V V H w w E v w w E v p p w w w w w w p p A E p p p p m m x m m x m m x m p p S x x m m m x m m x m m S S P n m x n P m x x m n n m x x x m x r r r r r < 0 0 < < 0 0 9 9 & & > > # # } } ' ' ' ' ' r 8 8 >.>.T T ! ! ! ! ! ! : : # # 2 2 $ $ # $ & = > > > , ; ; > > } ; ; ; } } ; 6 5 5 $ $ $ $ $ $ % . 5 5 . . @ # # $ @ # $ $ % % @ + % % # # . . @ @ . . $ @   . . . ",
"    % % . . @ @ . . @ @ % % # # @ @ $ $ $ $ $ # $ $ $ $ @ $ % % & 5 . . .   * K . . = = } ; } } > > > > , , , , ' ' & & $ $ | | # @ $ $ 4 4 : : ! ! ! ! ! ! 7 7 d d ' ' 0 9 ' ' } I # # < < # # 9 9 9 9 < < < < y y y > 0 0 0 0 m m 0 0 m m m x m m x m n n m m n n m m m m 0 0 9 x 0 0 x m m m p p m m x m m x n n p p w u p p w u p p v E u u E E v v v E w w E E E E H V E E E E E v G H E v +.G E E V V E E E E U v G G E E G G V V G G E E +.G V E E E E v G G H H G G V V G G E E H H H V V H A A v A p p 3 3 m m E E E E v u p p ' ' . . v v A H A A A H H H v E H G E E E E E E G G E E H H w w E E U w E E H V v E U v v E v E v A E E v E E E V H E E H H E E V V E E G G H H H H w w E v p w E v p p w w w w w w p p E v p p p p m m x m m x m m m m p p m x x m m m m x S m m x x S P n m x n n m x x m P n S m x x m x r r r < < < 0 0 < < 0 0 9 9 & & > > # # } } ' ' ' ' ' ' 8 8 >.>.T T ! ! ! ! ! ! : : # # 2 2 $ $ # $ & = > > , > ; ; > > } ; ; ; ; } } } 5 5 $ $ $ $ $ $ % . 5 5 . . @ # # $ @ # $ $ % % $ # % % # # .   @ @ . . $ @ . %   . ",
"% % .   % %   . @ @ % % @ @ @ @ $ $ @ $ $ $ @ @ # $ $ $ @ $ . %         . % @ @ % % 6 } & = } ; ; ; > , , > ' ' , , = = @ @ @ $ * * # # : : ! ! 4 4 ! ! T T >.>.8 8 ' ' ' ' ' ' & & # @ } } | b - - } } - - < < y y r r r < 0 0 0 0 0 9 9 9 m m x S m m x x m m x m p P 0 0 x m m x x m x x n P m m m m x S m m m m p n n n p p p n n p w u E E u u E A A v E E E E v E E E E E E E H V V V H H E E V V E E E E u w w U E E E E G G G G G G V H E v E E E E V H H H +.G E E G G E E V V E E G G V V E v m m q q + + o o v v E v p p w u > > . . q q v v 9 9 D D v v E v v E H V E E E E E E V H v v w w E v v v w w E v v v G G E E v v v v E E v v H H E E H H v v A H A E V H v v A H E E v v w w w w p p v E p p n p p n v v p p p n P P n p m m x m m m p p p p p p m m m m 0 0 m m m m x m m m m m x m p P x x n p 0 0 m x r < < r r < < y y > r r } } } } b b < <   . } } ' ' 9 9 > > d d ~.~.! ! ! ! ! 4 4 4 4 4 @ @ | | * * @ @ & & , , > > > > } ; > > } } ; } } 6 & & * * $ $ @ @ 5 5 . . 5 5 $ $ # # $ $ $ @ # # % % # # @ @ # #   . % % . . @ # % . ",
"% % .   % % . . @ @ % % @ @ @ @ $ $ @ @ @ $ @ @ # $ $ $ $ $ % %         . % @ @ % % 6 } & = ; ; ; ; > , > > ' ' , , = = @ @ @ $ * * # # : : ! ! 4 4 4 ! T T >.>.8 8 ' ' ' ' ' ' & & # @ } } | b - - } } - - < < < y y r < < 0 0 0 0 0 0 m 9 m m x S m m x x m m m x P P 0 0 x m m x x x m x n n m m m m m x m m m m n p n n n p p n n p u u E E v u E A v v E v E v E E E E E E v v A H V V H H E E H H E E E E u w U U E E E E G G G G G G V H E E E E v u H H V H +.G E E G G E E V V E E G G H H v E m m q q + + o o v v v E p p w u > > . . q q v v 9 9 D D v v E v v E H V E E E E v A E H v v w w v v E v p w E v v v G G E E E E E E E E E v H H E E H H v v H H v E H H v v A H v E E E w w w w p p v v p p p p n p v v p p p p P n p n m m m x m m p p p p p p m m m m 0 0 m m m m x m m m m m m x P n m x n n 0 0 m x < < r r r < < < y > r r } } } } b b < <   . } } ' ' 0 9 > > d d ~.~.! ! ! ! ! ! 4 4 4 4 @ @ | | | * @ @ & & , , > > > > ; ; > > } O ; ; } 6 & & * K # $ @ @ 5 5 . . 5 5 $ $ # # $ $ $ # # $ % % # # $ @ @ # . . . % . . @ # . % ",
"    % % .   @ @ . % @ @ . % @ # @ $ $ $ $ $ $ # $ $ # $ @ $ % % & & . %     * *   . & = } ; } } > , > > , , , , ' ' & & $ $ | | | | @ @ 4 4 : : ! ! 4 4 T T 7 7 d d ' ' 9 0 ' ' 6 6 # # > > . . 3 3 - - ' ' r < r r r ' 9 0 ' r 9 0 0 0 m m 0 0 x m 0 0 m m S x P P m m m m x S m m x x n n P P p p m m n n m m n n m m p p m x p p n n P w w U E E E E E v A E E E v v E E E E E E E E H H v E E E E E V H v v v E p p v E v v G G E E G +.v v E v v v E E E E G G V V H V E E H V E E V V E E p p m m o o - - 3 3 m m E v v w u u p p > > # @ < < n n < < n p v E p p V V U U G G U U E E v v w w p p G G E E E E w w E v v E E E w w E E w w E E E E H H E E E E v E +.G E E v v w w v A A v E v p p w u p p v v p p n p p n p p P P P p m m o o m m p p o o p p m m m m 0 0 x m m x p p m m m m 0 0 9 x 0 0 m m S x m x r < 0 0 r < 0 0 < r r < < < & & . . ' ' a a # # } } ' ' ' ' ' ' 8 8 >.>.T T ! ! ! ! ! ! : : # # 2 2 # @ @ $ = = > > , , ; ; > > } ; ; ; } ; } } 5 5 $ $ # $ $ # . . 5 5   . # # # $ $ # @ $ % % % % % % $ @ % % # # % . $ # % . $ # ",
"    % %     @ @ % % @ @ % % # # @ @ $ $ $ $ $ # $ $ # $ @ $ % % & & % . .   * K   . = = ; } } O > > > > , , , , ' ' & & $ $ | | | | @ @ 4 4 : : ! ! 4 4 T T 7 7 d d ' ' 0 9 ' ' 6 6 # # > > . . 3 3 - - ' ' r < r r r ' 9 0 ' r 0 0 0 0 x m 0 0 m x < 0 x m m x P P m m m m m x S m m x n n P P p p m m n n m m n n m m p p m m p p P P w w w U E E E E E E v A E E v v E E E E E E E E H H v E E E E E V V E E v v p p E E E E G G E E G +.v v v E E v E E E E G G V V H V E E V V E E V H E v p p m m o o - - 3 3 m m E v u u u u p p > > # @ < < n p < < n p v v p p V V U U G G U U E E v v w w p p G G E E v v w w v v E v v E w U E E w w E E E E H H E E E E E E G +.v v v v w w v A v v E v p p w u p p v v p p p p n p p p P P n n m m o o m m p p o o p p m m m m 0 0 x m m m p p m x m m 0 0 x m 0 0 m m S x m x r r 0 0 < r 9 0 < r r < < < & & . . ' ' a a # # } } ' ' ' ' ' ' 8 8 >.>.T T ! ! ! ! ! ! : : # # 2 2 $ # $ $ = = > > , , ; ; > > ; ; } ; } } } } 5 5 $ $ # $ $ $ . . 5 5   . # # # $ # # @ # % % % % % % $ $ % % # # % . # # % . $ # ",
"% %     . % . . @ @ . % @ @ @ $ # $ @ @ $ $ $ @ $ $ $ # $ # . %       . % % | | % % 6 } & = ; ; ; ; > , > > ' ' , , = = @ @ @ $ | * # @ : : ! 4 : : ! ! T T >.>.8 8 ' ' ' ' ' r } } . . < < y > y y < < y < ' ' < < r r r r x x 0 0 0 0 0 0 0 9 0 0 m x x x m m m m P n S m m m x m p P x m p p m m n n m m m m m m P P m m p p n p p p n n w w w w E E u w E v v v E E E E v A E E E E E E v A E E E E E E v v w w v U E E V V E E E E E E E E w w H H V H H H v E H H v E E E E v V V E E v v - - 3 F # # p p + + o o p p v v p p u u O O . . [ [ + + b b p p n p v v v E v E E E V H v v E E E E v v v v v v U w H H w w E v v E v E n w E E E E v E v v E v v E H V H H v E w w w w p p p p n p v v u u E E p p p p n p v w P P p p m m o o m m p p o o p p n n p p m m x m m m n n m m m m S S m x 0 0 x x m x r 0 0 0 m 9 r r 0 0 < < r r r < < r r ' ' ' Q > r ' # # > > ' ' ' ' Q > f f >.>.! ! ! ! ! ! : : 4 4 $ @ | | * * @ @ & & , , > > O > ; } > > } ; ; ; 6 6 & & * K # $ # @ 5 5 . . 5 5 $ $ # $ # $ % % # # % . # # # # $ @ % % % % % % # # . . ",
"% % .   % % . . @ @ % % # @ @ @ @ $ # @ $ $ @ @ # $ $ $ $ $ . %         . % | | % % 6 } & = ; ; ; ; , , > > ' ' , , = = @ @ $ $ * * $ # : : ! 4 : : 4 ! T T >.>.8 8 ' ' ' ' ' r } } . . < < > > y y < < y < ' ' r < r r r r x x 0 0 0 0 0 0 0 9 0 0 x m x x m m m m P P m m m m m m P P m m p p m m n n m m m m m m P P m m p p n n p p n n w w w w E E u w U v v E v v E v v E v v E v E E E E E E E E E E v v w w v U E E V V E E v E E E E v u w H H H V H H E E V V E E v E v v V V E E v v - - 3 F # # p p + + o o p p v U p p w u O O . . [ [ + + b b p p p n v v v E v E v v V V E E E E E E v v v v v v w w H H w w E v v v v E p u v u E E v E v v v E v v H H V H v E u w U w p p p n p p v v w u v v p p p p p p w w P P p p m m o o m m p p o o p p p n p p m m x m m m n n m m m m S S m x 0 0 m x x x 0 0 0 0 x m r r 0 0 < < < r r < < r r ' ' ' > > ' ' # # > > ' ' ' ' Q > f f >.>.! ! ! ! 4 ! : : 4 ! $ @ | | | * @ @ & & , , > > > , ; ; > > } ; ; ; 6 6 & & * * $ $ # @ 5 5 . . 5 5 $ $ # # $ $ % % # # % . # # # # $ @ % % % % % % # @ . . ",
"    % % . . @ @ % % @ @ % % # # @ @ $ $ $ $ $ $ # $ # $ $ $ % % = & . .     * K   . = = 6 } } } > > > > , , > , ' ' & & $ $ | | | b @ @ 4 4 : : ! ! : : T T ~.~.d d > > ' ' ' ' 6 6 # # ' ' > > ' ' < < ' ' < < ' ' > > N N N r 9 S N N S S 0 0 0 0 0 9 m m x m m x m m m m m x P n m m P P m m m m x m p o 9 9 m m x m p P x m w w P P p p n n w u u w E v w w E v v E E E u w v v E v v E v E E E w w E E w w w w w w E E E E E E E v H H v v E v U v E A A v V V E E V X X X E E E E H V U U U v v w w w m m 3 3 S S v v p p E E u w , , # # p p [ [ v v p p E E v v V X w w V V U U E E u w v H w w E v v v v v w w v v w w E v w w v v w w v v w w E E U w w w E v V H E E E E v v v E v v E v p p v U w p p p m m p p n n n p m m o o 9 9 o o o o p p m m x m m m m m m m p p m x p P x m m m x S m m x x m m r r x m m x 0 0 < r r r < < < r r ' ' ' > y y > y > # # } } ' ' ' ' ' r 8 8 >.>.: : 4 ! : : ! 4 : : # # | | $ $ $ $ = = > > > , ; ; > > } ; ; } } ; 6 } 5 5 $ $ $ # $ $ . . 5 5   . # # # $ # $ # # % % . % % % # # . . $ @ . . $ @ . . $ @ ",
"    % % . . @ @ % % @ @ % % # # @ $ $ $ $ $ $ # $ $ $ # $ $ % % & 5 . .     * K . . & = } } } } > > > > , , , > ' ' & & $ $ | | | | @ @ ! 4 : : ! 4 : : T T ~.~.d d > > r ' ' ' 6 6 # # ' ' > > r ' ' < ' ' < < ' ' > > N N N r S S N N S S 0 0 0 0 0 9 m m m x m m x m m m m m P n m m P P m m m m m x p o 9 9 m m x m p P x m w w P P p p n n w u w w E v p w v v E v v E w w E v v E E E E E E v w w E E u w w w w w E E E E E E E E H H E v v E v v E A A v V V E E V X X X E E E E V H v U U E w w w w m m 3 3 S S v v p p E E u w , , # # p p [ [ v v p p E v v E X X w w V V U U E E w w V V w w E v v E v v w w v v w w E E w w v v w w v v w w v v w w w w E v V H v v E E v v v v E v v U p p v v p n p p m m p p n n p p m m o o 9 9 o o o o p p m m x m m m m m m m p p m m n P x m m m m x S m m x x m r r x m x x 0 0 r r r < < < < r r ' ' ' > y y > y > # # } } ' ' ' ' ' ' 8 8 >.>.: : ! ! : : 4 4 : : # # | | $ $ # $ = = > > , , ; ; > > } ; ; ; } ; } } 5 5 $ $ $ $ # $ . . 5 5   . # # # $ $ # # # % % % % % % # # . . $ # % . # # % . @ @ ",
"% %     @ @ % % @ # % % @ @ @ @ $ $ @ @ $ $ @ @ # $ $ $ $ $ % %     . . % % | | . % 6 } } } > > } } , , > > ' ' , , = = @ @ $ $ 2 2 $ $ : : ! 4 : : 4 ! ! 4 >.>.8 8 ' ' ' ' ' ' & & . % > > y y < y y < y y ' ' > y < < y y r < N N ;.;.;.N 0 0 r < S S m x m m x S m m m m m m x m p P x m w n m x p p m m m m 0 0 x m m m n n P P p p P P U w w w w u u w u u p p v v E v v E w w E v w w E v w w w v w w E E w w E v v E E v v v E E v v E v E E E E v E E E E E v A E E X X X V E E E E v A E E E E u w p p + + m m w w w w w w w w > > . . n n v v E v v E v E A A X X E E U U E E w w E v w w E v w w v v E E u E u w U v v v v v p p E v w w v u w w E E E E v E w w E v v v H H v E E v v w p p n p p p n p p n m m p p o o p p m m m m m m p p o o o o m m p n m m n p m m m m S S m m S S m x 0 0 x m 0 0 0 0 0 0 9 m 0 0 m x y y < r y y ' ' > > y y > y > > # # > > r ' ' ' > > f f ~.~.T T : : ! ! : : : : $ @ | | @ @ # # & & , , > > > , ; ; > > } ; } ; 6 6 & & * * $ $ + @ 5 5 . . 5 5 $ $ # # $ $ % % # # % . # # $ @ # # . . % % . . $ @ . . ",
"% %     $ @ % % # # % % @ @ @ @ @ $ @ @ $ $ # @ @ $ $ $ $ $ % %     . . % % | | % % 6 } } } > > } } , , > > ' ' , , = = @ @ $ $ 2 2 $ $ : : ! 4 : : ! ! 4 4 >.>.8 8 ' ' ' ' ' r & & . % > > y y < y < < y < ' ' > y < < y y r < N N N ;.N N 0 0 r < S S S m m m S S m m m m m m x m p P x m w n x x p p m m m m 0 0 m m x m p P P P p p n P w w w w u u u w u u p p u v v E v v U w E v w w v v w w w v w w E E u w v v E v E v u v E E E v E v E E E E v v E E E E E v A E X X X V E E E E E v A E E E w w p p + + m m w w w w w w w w > > . . n n v v v E v v E v E A X X E E U U E E w w E v w w v v w w v v E v E E u w v v v E v v p p E E w w v u w w E E v E E E w w E v v v H H E v E v v w p p p n p p p n p p m m n p o o p p m m m m m m p p o o o o m m P P m m p p m m x m m x m m S S m x 0 0 x x 0 0 0 0 0 0 m 9 r 0 x m y y < r y y ' ' > > y y > > y > # # > > ' ' ' ' > > f f ~.~.T T : : ! ! : : : : @ @ | | @ @ # @ & & , , , > > > ; ; > > } } ; } 6 6 & & * K # $ + @ 5 5 . . 5 5 $ $ # # $ $ % % # # % . # # @ # # # . . % % . . $ # % . ",
"    % % . . @ @ @ @ # # % % + @ @ @ $ $ $ $ $ $ $ # $ # $ $ % % & & $ @     * *   . & = ; ; ; } ; ; > > , , , , ' ' & & $ $ | | | | @ @ : : : : ! ! : : T T {.{.d d > > ' ' ' ' } } # # > > - - > > y > y y > y ' ' r < r r < < r r r < 0 0 r < 0 0 0 0 m m 0 0 m m x m p P x m w n x m P n m m o o m m p n 9 9 m m m x m m x m n p p n n P P n w w p p v v p p U w w w v E E E v E w w E v w u v E w w E E w w E v w w v v E E E E E v v E v v E v w w E v v E E E p p v A E E V V U U E E v U E E E E E A p p + W m m w w w w w w P P > > # @ p p v U v w E v v v w w E v ,.,.E E u w v v w w u w w w v v w w v v p p E E v E E E w w w w p p w w w w E E v v E v p p v v p p v E E E E A w u u v p p p p n p p p m m P P n n p p m m o o m m o o o o p p m m P n m m n n m m m m m m P n m m x x 0 0 x x 0 0 r r r < < r r < 0 0 r < y y - - < < < < y < - - > > > y # # } } ' ' Q Q ' ' 8 8 >.>.: : 4 ! : : : : l l # # | | $ $ $ $ = = > , , , ; ; > > } ; ; } } ; 6 } 5 5 $ $ $ $ $ # . . 5 5 % % # # $ $ $ # @ $ % % $ @ . % @ # . . $ @ . . $ @ . . $ # ",
"  . % % . . @ @ @ # # # % % @ # @ @ $ $ # $ $ $ # $ $ # $ $ % % & & @ @     * K   . = = ; ; } ; ; ; > > , , , , ' ' & & $ $ | | | | @ @ : : : : ! ! : : T T {.{.d d > > ' ' ' ' } } # # > > y - > > y > y y y > ' ' r < r r < < < r r < 0 0 r < 0 0 0 0 x m 0 0 m m x m p P x m w n x m n n m m o o m m n n 9 9 m m x x m m m m p p n n P P n n w w p p v U p p w w w w E E E E v E w w E v w w v v w w E E w w v v w w v A v E E E E E v v E v E E w w v v v E v v U p E E E E H V U U E E w U E E E E E A p p + W m m w w w w w w P P > > # @ p p v E p w E v v v w w E v ,.,.E E u w U v v w u w U w v v w w E v p p v A E E E E w w w w p p w w w w E v v v E v p p E v p p v E E E A A u u v u p p p p p n p p m m P n n n p p m m o o m m o o o o p p m m n n m m n p m m x m m m n n m m x S 0 0 x m 0 0 r r < < < r < < 0 0 < N y y - - < < y < < < y - > > > y # # } } ' ' > Q ' ' 8 8 >.>.: : 4 ! : : : : l l # # | | $ $ # $ & = > , , , ; ; > > } ; ; ; } } ; 6 5 5 $ $ $ $ $ $ . . 5 5 % % # # $ $ # # @ # % % # # % % # # . . $ # % . # # % . # # ",
"% %     # @ % % # # # @ @ $ @ @ $ $ # @ $ $ $ # # $ $ $ $ $ % %       % % % | | % % 6 } } O ; ; } } > , > > ' ' , > = = @ @ $ $ 2 2 $ $ : : 4 4 : : ! ! 4 4 >.>.8 8 ' ' ' ' ' r } } . . > > > y } } > > y > > > y y < r y y y < ;.;.N N N r 0 0 r < S S 9 9 9 9 S S P n m m P P m m p n m m m m m m o o m m x m m x m m m m n n p p u u p n w w p n n p p n w w p p v v w w v A v v E E w w v v v v v v w u w w w w E v v E H H v v E v v v v v w w u w p p E v w w p p w w H H v E V X w w w U v v E v p w P P W W m m P P w w p p p p - - . . P P U v w w E v p w w w w w X X X V E E w w w w p n E E p p w w v v u v w w u v w w E v w w u w w w v v w w v v w w E E u w v v w w E v p p w u p p p n p p p n p p p p n n P P m m o o m m o o 9 9 o o m m o o m m p n 9 m m x 0 0 m m P P m m S S m x 0 0 x x r < 0 0 < r r r y y 0 0 r < y N y y y < r y < < y - > > # # } } ' ' ' ' > Q 8 8 ~.~.T T : : 4 ! : : : : @ @ | | $ @ # # & & ' ' , > > > } ; > > } } ; ; 6 6 5 5 * * $ $ @ @ 5 5 % % . . $ $ # $ $ $ % % @ # % % # # @ @ $ # . . @ @ . . @ # % . ",
"% % .   + @ % % @ # $ @ # # @ @ $ $ # @ @ $ # # $ $ $ $ $ $ % %     . . % % | | . % 6 } ; } ; ; } ; , , > > ' ' , > = = @ @ $ # 2 2 $ $ : : 4 4 : : ! ! ! 4 >.>.8 8 ' ' ' ' ' ' } } . . > > y > } } > > > y > > y y < r y < < < ;.;.N N N N 0 0 < r S S 0 9 9 9 9 S P P m m n P m m P n m m x m m x p o m m x m m x m m m m n n n p u u p n w w p n p p n p v w p p v U v w E E U v v v w w v v E E E v w w w w w w E v v E H H v v v E v v v v w w w u p p E E w w p p u w H V E E V X w w w U E E v v w w P P W W m m P P U w p p n p - - . . n P v v w w v A p p w w w w X X X V E E w w w w p n E v p p w w v v u v w w v v w w E E u w u w w w v v w w v v w w E E u w v v w w v v p p u u p p p p n p p p n p p p n n P P p m o o m m o o 9 9 o o m m o o m m P n m m x m 0 0 m m P P m m S S m x 0 0 x x < < 0 0 < N r r < y 0 0 < r r r y y < r y < < < - - > > # # } } ' ' ' ' > Q 8 8 ~.~.T T : : ! ! : : : : @ @ | | @ @ # # & & ' ' , > > > } ; > > } } ; ; 6 6 5 5 * * $ $ @ @ 5 5 . % . . $ $ # $ $ $ % % @ # % % # # @ @ # # . . # @ . . # @ % . ",
"    % % . % @ @ % % # # % % @ # @ @ $ $ @ $ $ # $ $ $ @ $ $ % % & 5 . . 5 & * K   . = = ; ; ; } ; ; > > > , , , , , & & $ $ | | | | @ @ 4 4 : : ! ! : : T T ~.~.d d > > 0 0 r < J J s s > > y > > > r ' y y < r y < < < N N ;.N N N ;.N N N N r S S S S S S S S m m m m P P m m n p m m m m x x o o m m o o m m o o 9 9 n n o o p p n n n p p n n p p n u u p p w w U w v v v v v A v v v v w w v E v E E E w w v v w w E v p w v v v E v v U w u u n p U w p p w w p p v A U U V X ,.,.w w P P w w w w p p S S + + 0 0 w w P P P P m m > > # # m m P P w w P P p p n p X X w w E v w w w w p p v v v E v v E v E A u w w w p p w w w w E v w w u v w w v v U w v E v E E E E v E E w w U v w w E v p p p n p p p n p p p n n n p p m m o o 9 9 o o m m p p m m m m x m m m m m m m m m x m m x x x r r x x r r 0 0 < y r r < < < r < < < r y y < r y < y y < r y ' - - # # } } ' ' ' ' > > k k >.>.: : ! ! : : : : : : # # 2 2 $ $ $ $ & & , , , , ; ; > > } ; ; ; ; } ; }     $ $ $ $ # @ .   5 5 . . @ # $ $ $ # # # % % # # % % # # . . # # . . # # % . @ @ ",
"    % % . . # @ % % # # % % # # @ @ $ $ @ $ $ # $ $ $ $ @ $ % % & & . . & 5 * *   . = = ; ; 6 } ; } > > > , , , , , & & $ $ | | | | $ # 4 4 : : ! 4 : : T T ~.~.d d > > 0 0 r < J J s s > > y > > > ' ' > y < < < r r < N N ;.N N N N N ;.N N N S S S S S S S S m m x m p P x m p p m m m m x x o o m m o o m m o o 9 x n P o o p p n n p p n p p p n p u u p p w w U w v E E E H A v v E E w w v v E v E E w w v v w w E v p w v v v v E v p w u u p n w w n p w w p p v A U U V X ,.,.w w P P U w w w p p S x + + 0 0 w w P P P P x m > > # # m m P n n w P P p p p n X X w w E E u w w w p p v v v v E v v E v E w w w w p p w w w w E v w w u v w w u v w w v v v v E E v E E E U w U v w w v v p p p p p p p n p p p n p p n p m m o o 9 9 o o m m n p m m m m x m m x m m m m m m m m x x m x r r 9 S r r 0 0 < y r r < < < r < < N N y y < r y < y y y < r ' - - # # } } ' ' ' ' > > k k >.>.: : ! ! : : : : : : # # 2 2 $ $ $ $ & & , , , , ; ; > > ; ; ; ; ; } } O     @ $ $ # @ $ .   5 5 . . @ # $ $ $ # # # % % # # . % # # . . # # . . $ @ . . $ @ ",
"% %     . % % % @ # % % @ # % % # $ @ @ # $ $ $ # $ @ $ s $ % %       . . . | | . % } 6 6 O } ; ; } , , > > , , > > & & $ @ @ $ 2 2 # # : : ! 4 : : ! ! T T >.>.8 8 > > ' ' ' ' & & B B - - > > a a > > y y < y < < < r r < N N N ;.N N N N S S 0 9 S S 0 9 m m x S S x x m n n m x x x m m m m x x m x x 9 o o m x o o o o p p n n p p p n u u p p w u p p w u p p v v w u E E v v E v p p v E v v v E w w v v w w E E w w w u u w u v p p w w p p v U v w w w E v v E w w V X p p ,.,.P P P P P P w w m m P n W W m m P n n p p n p p } } # # 0 0 n p n n p p n n P w w w w U v w X X p p w w w w v v w w E v w w E v p p E E w w v v u w E E w w w w u w v v E E v v w w v v w w u v p p w u p p p p n p p p m m P n m m n p m m m m x m m m x m m m m m o o 9 9 m m 0 0 m m m m m x 0 0 m m 0 0 9 x 0 0 0 0 r r r < < < 0 0 r < r r < < < r < < N < < y > y - - < y # # > > ' ' ' ' > Q 8 d ~.~.T T : : ! ! : : : : * | | * | | @ #     , , > > > > ; ; > > ; } } ; = = & 5 * K # $ $ @     . . & 5 $ $ # # # $ % % # # . % @ $ % % # # . % # # % . @ # % . ",
"% %     % % % % # # % % # # % % # $ @ @ $ @ $ @ $ $ $ @ $ $ % %   .     . . | | % % } 6 6 O } ; } O , , > > , , > > & & @ @ # $ 2 2 # # : : 4 4 : : ! ! T T >.>.8 8 , > r ' ' ' & & B B - - > > a a > > > y y < r < < r r < N N N N ;.N N N S S 0 0 x S 0 0 m m x S S x x x n p x x m x x m m x S m m x x 9 o o m x o o o o p p n n p p n n w u p p w u p p w u p p E v w u E E v v E E p p v E v v E E u w v v p w E v w w w u u w u v p p w w p p v U v w w w E v v v w w X X p p ,.,.P P P P P P w w m m P P W W m m P P p p n p p n } } # # 0 0 p p P P p p n P w w w U v w w w V X p p w w w w v v w w v U w w v v p p E E w w v v w w E E w w w w u w v v v E E v w w v v p w E v n p u u p p p p n p p p m m n n m m n p m m m m x m m m m x m m m m o o 9 9 m m 0 0 m m m m m x 0 0 m m 0 0 m x < 0 0 0 r < r r r < 0 0 < r r r y < < r r < N < < y > y - - - < # # > > ' ' ' ' > > f d ~.~.T T : : ! ! : : : : | | * | | | @ #     , , > > > > ; ; > > } } ; ; = = 5 5 * K # $ $ @     . . & 5 $ $ # # $ $ % % # # % % @ $ % % # @ . % # # % . @ @ . % ",
"    % % % . @ @ % % @ # % . @ # @ @ $ $ @ $ $ $ $ # $ $ $ $ % % & &   . 5 5 * K . . = = ; ; 6 } ; ; ; ; , , > > , ,     $ $ | | | | @ @ 4 4 : : ! ! : : T T ~.~.d d > > r ' ' ' } } # # > > . . 0 0 r ' > y r r r < < < r r r < < N N N S S N N S S 0 0 S S S S S x x S m m m m m x 0 0 n n 9 0 x m 0 0 m m 0 0 m x S x o o o o p p n n p p n n u u p p p p p n p p p n w w p p v v w w u u p p v v w u v v w w v v w w E v p w v v v v w v p p w w w U v w w w v E p p U U U w w w ,.,.w w P P P P S S p p m m + + 0 0 w w P P w w P P > > # # m m m m p n m m p p p n u w w w w w w w w w p p w w p p v v w w E v w w v v E E v v w w u v w w w w p p v v v v E E u w w w p p w w p p p p n p v w p p p n p p p n m m p p m x p P 9 9 m m 0 9 o o m m o o 9 x 9 9 9 9 m m 0 0 x m 0 0 x m 0 0 m m x x m x r r 0 0 r < 0 0 < r r r < < < r < < N r y > 0 0 r ' & & > > # # } } ' ].' ' ' ' 8 f >.>.: : 4 ! : : : : : : # # 2 2 $ @ $ $ = & > > > , > > > > ; ; ; ; } } 6 6     @ $ $ # # $ % % 5 5 . . $ # $ $ $ # $ $ $ # # # . % # # % % # # . . % % % . . . ",
"    % % % . @ @ % % $ @ . % @ # @ @ $ $ $ # $ $ $ # $ $ $ # % % & &   . 5 5 * * . . = = } ; ; } ; ; ; ; , , > O > ,     $ $ | | | | @ @ 4 4 : : ! ! : : T T ~.~.d d > > ' ' ' ' } } # # > > . . 0 0 r ' y y < r r r < < < r < N N r N N S S N N S S 0 9 S S S S S S x S m m m m x x 0 0 n n 9 0 x x 0 0 x m 0 0 m m x S o o o o p p n n p p n n w u p p n p p p n p p p w w p p v v w w u u p p v v w w v v w u v v w w E v p w v v v v u v p p w w w w E v w w v E p p w U U w w w ,.,.w w P P P P S S p p m m + + 0 0 w w P P w w P P > > # # m m m m p p m m p p p p w w w w w w w w w w p p w u p p E E u w v v w w E v E E v v w w v U w w w w p p v u v v v v w w w w p p w w p p p p p n u u p p n p p p n p m m p p m x p P 9 9 m m 9 9 o o m m o o 9 9 9 9 9 9 m m 0 0 m m 0 0 m m 0 0 m m m x m m r r 0 0 < r 9 0 < r r r < < < r < < N r > > 0 9 ' ' & & > > # # } } ' ].' ' ' ' f f >.>.: : 4 ! : : : : : : # # 2 2 $ @ $ $ & & , > , , , > > > ; ; ; ; ; } 6 6     $ $ $ # @ $ . % 5 5 . . $ # $ $ $ @ $ $ $ # # # . % # @ % % # # . . % % . . . . ",
"% % . . % % % % # @ % % @ # % % @ # @ @ # $ $ $ $ $ @ $ @ $ . %           % | | % % 6 6 } } } ; ; } > > > > , , , > & & @ @ @ $ 2 2 # # : : 4 4 : : ! ! T T >.>.8 8 > > N N ' ' & & . % } } # # } } & & - - ' ' < < r r < N N N N N ;.N N N N N N r S S 0 0 m m S x P P 0 0 m m 0 0 x m 0 0 0 0 0 m 9 r 0 9 9 9 9 m m m 0 0 n n P P p p P n n p p n w u p n p p n p p p m m n p p n v v w w v v u w v v w w v E p p v v n p v v v E v v p p n p p P u w p p U v w w w w ,.,.w w P n w w p p w w P P 0 0 p p > y z z m m P P w w P P P P ; ; @ @ r r x m x x n p p n u u ,.,.w w p p w w n p u w P P w w P P U v n p E v n p u w w w E v p p w w p p v w p p v U v w w w p n w w n p p p P P p p n p p p n p p p n p p p n n p p m m m m 0 0 m m o o o o m m 9 9 9 9 9 9 9 9 m m m x 0 0 0 0 x x m x x 9 0 0 0 0 < r 9 0 < r r r r < 0 0 < < r r ' ' ' ' [ [ 3 3 | | > > # # } } ' ' ' ' > > f d ~.~.T T : : ! ! : : : : | | | * | | @ $     , , > > > , ; ; } ; = = } } = = & 5 * * $ $ $ @     . . . . $ $ @ # # $ $ @ $ $ $ @ # # . % # # . % # # % . # # % . ",
"% % % . . % % % @ @ % % @ # . % # # @ @ # $ $ $ @ $ $ $ $ $ % %           . | | % % 6 6 } } } ; } O > > > > > , , > 5 & @ @ @ $ 2 2 # # : : 4 4 : : 4 ! T T >.>.8 8 > > r < ' ' & & . % } } # # } } & & - - ' ' < < r r < N N N N N N ;.N N N N N N S S 0 0 m m S S P P 0 0 m m 0 0 x m 0 0 0 0 0 0 m 9 r 0 x x 0 0 x m 9 9 n n P P p p P n p p n p v w p n n p p n n p m m p p n p v v w w v v w w v v w w v E p p u v n p E E u E v v p p n p p P u w p n E E w w w w ,.,.w w n n w w p p w w P P 0 0 p p > y z z m m P P w w P P P P ; ; @ @ < r m m x m p P p p w u ,.,.w w p p w u p p w w n n w w n n v v n p E E p p w w w w v v p p w w p p w u p p v E p w w w p p u w p n p p n n p p p n p p p n p p p n n p p n n p m m m m 0 0 m m o o o o m m x 0 0 0 0 0 m 9 m m x S 0 0 0 0 m x x x x x 0 0 0 0 r r 0 0 < r r r r < 0 0 < r r r ' ' ' ' [ [ 3 3 | | > > # # } } ' ' ' ' Q > e e ~.~.T T : : ! ! : : : : | | * | | | @ $     , , > > > , ; ; ; } = = } } = = 5 5 * K $ $ @ #     . . . . $ $ $ @ # $ $ @ $ $ # # # # . % # # . % $ # . . $ @ . . ",
"% % # @ . % $ # % % # # % % # # % % # $ $ $ # $ $ $ # $ $ $ % % & &   . 5 5 * K . . & & ; ; } 6 ; ; } ; , , > > , ,     # $ | | | | @ @ 4 4 : : ! ! : : T T ~.~.d d > > ' ' > y & & # # > > . . 3 & - - < < < r r < N N r r r < r r r < r r r < 0 0 < r 9 S S S m m m S x x 0 0 x m 9 0 x m 0 0 x x r r m m 0 0 m m m x o o o o n p p n n p p n n p n n p p n p p n p p p n p p w u p n v v w u u E E v v v p p w u p p u v w w v v n p u u p p p p m m p p p p u u p p w w P P P P P P w w p p - - [ [ [ [ 0 0 + + 0 0 p p n p p p m m > > # # [ [ [ a a [ m m q q p p w w P P w w p p p p p n p p P n p p P P w w P P v v w w w w p p w w p p w w n p w u p p u w p p w w n p U w P P p p p p w u p n p n m m p n m m p p n n p n m m p p m m o o 9 9 m m 0 0 x m 0 0 m m 0 0 x m 0 0 m m 0 0 m m 0 9 9 9 r r 0 0 < r r r r < < r < < r r < N < y y - . . % . > > } } . . } } ' ' Q Q > > 8 8 >.>.: : 4 ! : : : : : : # # 2 2 @ $ @ @ & & > > > , > > O > ; } } O & & 6 6   . $ $ * * $ @ % % 5 5 % % # # $ @ # $ $ $ $ # $ $ % % # # % % # # % % % % . . % . ",
"% % # @ . % $ # % % # # % % # # % % # $ $ $ $ # $ $ $ # $ $ % % & &   . 5 5 * K   . & & ; ; } ; } ; ; ; , , > > , ,     $ $ | | | | @ @ 4 4 : : ! ! : : T T ~.~.d d > > ' ' y y & & # # > > . . 3 & - - < < < < < r r < N N r r r r < r r r r < 0 0 < r S S S S m m m x S S 0 0 m x < 0 x x 0 0 x m r r x m x x m m x S o o o o p p p n p p n p p p n p p p n n p p p n p p p n w u p n v v w u v v E v v U p p w u p p v v u w v u p p w w p p p p m m n p p p u u p p u w P P P P P P w w p p - - [ [ [ a 0 0 + + 0 0 p p n p p p m m > > # # [ [ [ a [ [ m m q q p p w w P P w w p p p p p p p p P P p p n n P w w P v v w w w w p p w w p p w w p p w u p p u w p p w w p p U w P P p p n p v w p n p p m m p n m m p p P P n n m m p p m m o o 9 x 9 m 0 0 m m 0 9 m m 0 0 x m 0 0 m m 0 0 m m 0 0 m 0 < r S 0 < r r r y < r r < < < r < < y y - - . . % . > > } } . . } } ' ' Q Q > > f 8 >.>.: : ! ! : : : : : : # # 2 2 @ $ $ @ & & O > - , > > O > } ; } } 3 = 6 6 . . # $ * * $ $ % % 5 5 . % # # @ $ # # $ $ $ # # $ % % # # % % # # % % % % . . % . ",
"# # % % # # $ @ @ $ $ @ @ $ @ @ # # # @ @ $ # $ @ $ $ $ $ $ % % . .       % | | % % 6 6 = = } ; } O > > > > > , , > & & @ @ # $ 2 2 # # : : ! 4 : : ! 4 T T >.>.d d > > > > ' ' & & # # > > y > > - ' ' > y r r r < < r < < < r r < N N N N N r r < S S 0 9 m m S S m m 0 0 x m 0 0 x x 0 0 x m 9 0 9 9 9 9 m m 9 9 o o m m o o m m n p m m P P m m p n n n p p n p p p n p w u p n u u p p v v w w v v p p w w n p w u p p v v p p w w p p p p m m P P m m p p n n n p P P w w P P U w w w w w p p a a [ [ m m # # 9 0 x m p p o o p n } } # # F F [ [ 3 3 p p n n u q p p n p p p w w P P p p n n p p P P u w P P U v p p v E p p p P p p w w p p u w p p v U p p w w p p w w p p w w P P p p p n p p p n p n m m p p m m p p m m o o m m o o m m x m m r 9 9 9 9 m m 9 9 m m 9 0 x m m x x m 0 0 9 x ' ' 0 9 ' r r < < < r < < N r r r < < r < y 0 0 ' ' ' ' Q > > > # # } } ' ' ' ' } O d d ~.~.T T : : ! ! : : : : | | | | * | $ $     , , > > , - ; ; } ; = = } O & & 5 5 * K $ $ | |     . % . . # $ # # @ $ $ # # $ $ # # # # @ $ $ $ # # @ % % # # % . ",
"# # % % # # # @ $ $ $ # $ $ # @ @ # @ @ # $ @ $ $ @ @ $ # $ % % . .     . . | | % % 6 6 = = } ; } } O > > > > , > > & & @ @ @ $ 2 2 # # : : 4 4 : : 4 ! T T >.>.d d > > > > r ' & & # # > > > y - - ' ' y y < r y < r r < < < r < < N r r < < r r r S S 0 9 m m S S m x 0 0 x x 0 0 m x < 0 m m 0 0 x 9 9 9 m m 0 0 o o m m o o m m P n m m n p m m P P n n n p p n p p p p w u p p w u p p v U w w v v n p w w n p w u p p u v p p w w p p p p m m P n m m n p n n n p P P w w P P w w w w w w p p - a a [ m m # # 9 0 m m p p o o n n } } # # F F [ [ & & p p n n u q p p n p p p w w P P p p n n p p P P u w P P v v p p v U p p p P n p w w n p w w p p v U p p w w p p u w p p w w P P p p p p n p p p p n m m p p m m p p m m o o m m o o m m m m 0 0 x 9 0 0 m m 0 0 m m 0 0 m m S x m x 9 9 9 9 ' ' 0 9 ' r r r < < < r < < N r r < r r < y 9 9 ' ' ' ' > Q > > # # } } ' ' ' ' } O d d ~.~.T T : : ! ! : : : : * | | | * | $ $     , , > > , - ; ; ; } = = ; } = = 5 5 * * $ $ * |     % . % . $ $ # # $ $ # # $ $ $ # # # # # $ $ # # $ @ % % # # . . ",
"@ @ $ $ @ @ $ $ # $ $ $ # # $ $ @ # $ $ $ @ $ $ $ $ $ $ @ $ @ $ .   . . 5 5 * * % % & = } } ; } ; ; ; ; > > > > > ,     # # | | | | @ $ 4 4 : : ! 4 : : T T ~.~.d d } } > > y y } } b | > > < < r ' > > r ' y y r ' > y < < < y y r < N N r r < < r < < S S S S S x 0 0 m x < 0 x x 0 0 0 0 0 0 0 0 0 9 0 x x 0 o o 9 9 o o 9 9 m m m x p p m m n n m m P P n n p p n p p p n p p p p p w u p p v v p p w w P P p p p n w w n p p p P P p p m m P P m m p p n P p p n n w w P P n p P P w w P n p p n n p p 9 9 z z ' ' m m x m p p m m > > # # m m o o q q p p n p o o p p n p p n p p p n p p n n m m n p m m p p P P p p n P p p n p U w p p p p P P p p n p w w p p w w n p w w P P p p n n p p p n p p m m p p m m p n m m o o 9 9 m m 9 9 o o 9 9 m m ' ' 0 9 0 0 0 0 0 9 0 x x x m x x m x x r r 0 0 0 0 < r < < r r < N N N N N < < y y r < N N ' ' > y < ' > > # # & & ' ' > > y > f 8 >.>.: : ! 4 : : : : : : # # 2 2 @ @ | | & & , > , , > > > , } ; } } 3 = 6 6 . . * * * * $ $ % % % . . % # @ $ $ $ # $ $ $ # $ $ $ # $ $ $ # @ $ % % # # $ @ @ # ",
"# @ $ @ @ @ $ $ $ # $ $ $ # $ $ @ # $ $ $ @ $ $ $ $ $ $ $ @ $ $     . . 5 5 * K % % = & } } } 6 } ; ; } > > > > > ,     # # | | | | # @ 4 4 : : ! ! : : T T ~.~.d d } } > > y y } } b | > > < < ' ' > > ' ' < y r ' y y < r y < r r r < < r < < r r r < S S S S S x 0 0 x m 0 0 x x 0 0 0 0 0 0 0 0 0 0 9 m 0 9 o o m x o o 9 9 m m m m p p m x p P m m P P n n p p p n p p p n p p p p u w p p v v p p w w P P p p p n w w p p p p P P p p m m P P m m p p n P p p P P w w P P p p P n w w n n p p P n n p m 9 z z ' ' m m x m p p m m > > # # m m o o q q p p p n o o p p n p p p n p p p n p n n m m n p m m p p P n n p P P p p n p U w P p n p P P p p n p w w p n u w n p w w P P p p p n n p p n n p m m p p m m n n m m o o 9 9 m m 9 9 o o 9 9 m m ' ' 9 0 0 0 0 0 0 9 0 x x x x m x x m x r r 0 0 0 0 r < r r r r < < < r < < N < y y < r r r r ' y y ' ' > > # # & & ' ' > > y > 8 8 >.>.: : ! 4 : : : : : : # # 2 2 $ @ | | & & , > , , > > O > } } O & 6 = 6 6   . * * * * $ $ % % . . % % # $ $ $ $ $ @ $ $ # $ $ $ # $ $ # # @ $ % % # # @ @ # # ",
"# $ $ # $ $ $ # @ $ # # # $ @ $ $ $ $ # $ $ $ # * | $ $ * * % % # # . . % % | | @ + 6 6 = = ; ; } } > > ; ; > > ; ; & & $ $ $ $ 2 2 $ @ : : ! 4 : : ! ! T T >.>.8 8 , > > > y > R R $ $ } } > > y > > y > > > > > y > y y - - < y y y < r y < y - - < < N N S S 0 0 < r S S 0 0 < < 0 0 < y r ' ' ' m x r < 0 9 9 9 9 9 9 9 9 9 x m n n n n p p m m x m m x m m S x x m m m p p n p p p n p p p n n w w p p p p p n n p p n n p m m P P m m m m m m m m m m p n m m P P m m P P m m p p P P p p p n p p m m 0 0 + + 0 0 m m P n m m m m } } # # ' ' o o m m p p m m m m P P p p m m p p p p n p p P p p m m P P S S P P n n P P P P p p P n p P m m P P m m p p P P n p P P p p m m n n m m P P m m p n m m P P m m m m S x x m 0 0 9 9 9 9 m m 0 9 9 9 9 9 0 0 r < y ' < < 0 0 < < m m 0 0 x 9 r r 0 0 < y r < - - < < - - < y y y y - - - - < < < ' ' > y < < a a [ a | | } } > > ' ' 6 6 8 8 ~.~.T T ! ! ! ! : : : : $ @ | | | * $ $     , , > O , , ; ; ; ; = = } O = = 5 5 * * $ $ | | . . # # % % | | @ $ | | # # # $ $ # $ $ # @ $ $ @ # $ @ # # + # $ # ",
"$ $ # # $ $ # # # $ # # $ $ # # # $ @ # # $ $ # | * $ $ * * % % # # . . . % | | @ + 6 6 = = } ; } } > > } ; > > ; ; & & @ $ $ $ 2 2 $ @ : : 4 4 : : ! ! T T >.>.8 8 > > > > y > R R $ $ } } > > y > > > y > > > > > > y - - y y < y < < y > y y y - N N ;.N S S 0 9 r r x x 0 0 r < 0 0 < y r ' ' ' 9 x r < 0 9 9 9 9 9 9 9 9 9 m x P n n n p p m m m x S m m x x m m m m x p p n n p p n n p n p p w u p p p p p n p p P P P p m m P n m m x m m m 9 m m m p n m m P P m m P P m m p p P P p p p p p p m m 0 0 + + 0 0 m m P P m m m m } } # # ' ' o o m x p p m m m x P P p p m m p p n p p p n P p p m m P P S S P P P P P P P P p p n P p p m m P P m m m p P P p p n P p p m m n n m m P n m m n p m m P n m m x m x x m m 0 0 9 9 9 9 m m 9 0 9 9 9 9 0 0 < r ' ' r < 9 0 < r m m 0 0 x 9 r r 9 0 < y y < y - < < - - < < - y y - - - y y < r y ' y y < y - a a [ | | } } > > ' ' } } 8 8 ~.~.T T ! ! ! ! : : : : @ @ | | | * $ $     , , > O , > ; ; ; ; & = } } = = 5 5 * * $ $ | | % . @ # % % | | @ $ | | # # $ $ # $ $ $ @ # @ $ @ # $ $ # # # # $ @ ",
"# # @ $ @ $ $ $ # # # $ $ # @ @ # $ | | @ $ | | $ $ | * * | * * $ @ @ $ . . * * % % = & } ; } } ; ; ; } > > - - > >     @ # | | | | @ @ : : : : 4 4 : : T T {.{.d e } } > > y > & & | | & & [ [ } } } } > > } } - - } } - - } } - - } } > > } } [ [ } } > y y > y < < r r < N < y < - - - - - - < < < < r r < < < r < < N < y < 0 0 9 0 0 0 0 0 m m 0 0 x m 0 0 0 0 9 9 m m m m p p o o o o o o p p o o o o m x n P m m m m S S m m 0 0 9 x 0 0 m m 9 9 o o m m x m m x m m S x p p m m m m x x x m r r 0 0 > > z z 0 0 p p m m m x x 0 } } # # r ' 9 9 o o 0 0 x x S S P n S x x m m m p p n n m x 0 9 9 9 9 9 9 9 9 0 0 0 0 x m 0 m m x m m x x x 0 0 x m m x o o m m o o 9 0 m m 0 0 0 0 0 9 9 9 9 9 9 9 0 0 x m 0 0 x x r r 0 0 < y ' ' ' ' 9 9 ' ' ' r r < < < > > ' ' < y ' ' r < r r < < < < y > - - 3 3 a a [ [ - - [ [ - - - a a - - [ - - } } } - [ [ a } & & $ @ & & ' r > > > > 8 8 >.>.T T 4 ! : : 4 4 : : # # ) ) $ $ $ $ & & , > , , ; ; > > } } } O } } O & & . | | | | $ @ @ # # # $ s s $ | | @ $ $ # # # $ @ + @ $ # $ $ $ # $ $ $ # $ $ # $ ",
"# # $ @ @ # # $ # # # $ s # @ $ $ @ | | @ $ | | $ @ | * | | * | $ @ @ $ . . * * % % & = } } } ; ; ; } } > > - - > >     @ # | | | | @ @ : : : : 4 4 : : T T {.{.e e } } > > y > & & | | & & [ [ } } } } > > } } - - } } - - } } - - } } > > } } [ [ } } y y > y < < < r r < N < y < - - - a - - < < < < r r r < < r < < r < < ;.0 0 0 0 0 9 0 0 m m 0 0 x m 0 0 0 0 9 9 m m m x p p o o o o o o n p o o o o m x n n m m m m S S m m 0 0 m x x x m m 9 9 o o m m m x S m m x x m p p m m m m x x m m r r 0 0 > > z z 0 0 p p m m m x 9 9 } } # # ' ' 0 9 o o 9 0 x m x S P n 9 x m m m m p p P P m m 0 0 0 0 x 0 0 0 0 0 9 m 0 9 m m x m m m m x x m r 0 x m m x o o m m o o 9 9 !.m 0 0 0 0 9 9 9 9 9 9 9 x 0 0 x m 9 9 9 9 ' r 9 0 < y ' ' ' ' 9 9 ' ' r r < < r < > > ' ' < y ' ' < < r r < < r < > > - - 3 3 a a a [ a - [ [ - - - a - - - [ - - } } - a a [ } } & & $ @ & & ' r > > > > 8 8 >.>.T T ! ! : : 4 4 : : # # ) ) $ $ $ $ & & , > , , ; ; > > } ; } } } O } } . . | | | | $ @ @ # # # s s $ $ | | @ $ $ # # # $ @ # # $ # $ $ $ @ $ $ # $ $ @ # $ ",
"# # # # # # . % # # @ # # $ @ # # $ # # @ $ $ $ | | $ $ * * | | | | + @ % B * * # # } } } ; } ; } } > > - - > > } } & & $ $ # $ 2 2 # # l l 4 4 W W 4 4 : : >.>.8 8 O O > > ' ' & & & & } } > > } } - - - a y y > y < < > > > y r ' ' r r ' ' ' > > > y > > y > > > < < y y r < y y < y - - y r y y N N < < r ' > y < < y < ' 0 < r 0 0 < < 0 0 0 0 0 0 < r 0 0 ' ' 0 0 ' ' 0 9 ' ' 9 9 0 0 0 0 r r 0 0 ' ' 0 9 0 x x m x x m x r r 9 S r r 9 S r r 0 0 r ' r r r < r r r < < r N r 0 9 < < < < y > y y > > y > + + m x n P m m m m o o > > # # 6 } > > > > ' ' < < < r r r r r r < < r < < r < < < 0 0 0 0 0 0 9 9 m m 9 9 m m 0 0 0 9 0 0 x x 0 0 0 0 0 0 m m 0 0 x x 0 0 0 9 ' ' ' r r ' ' r < < r < r ' 0 9 0 0 0 0 0 0 0 9 ' ' ' r ' ' 0 0 ' r r r < < r r > > < < y y ' ' y y < < y > < < > > y y y - < < y y < < y y < < y - < y - - - y y > < y y - - y } } } a . . } } > > > > > > d d ~.~.T T ! ! 4 ! : : : : + + | | | | $ #     > , , > > > } ; } ; = = ; ; } = = & * * $ $ | | @ @ # $ # # | | @ $ | | @ $ | | # $ # $ # # @ $ # @ $ $ $ @ $ $ @ # ",
"$ @ # # # # % % # # # # # # # # # $ # # @ $ $ $ | | @ $ * * | | | | $ @ B B * * # # 6 6 6 } ; ; ; } > > - - > > } } & & $ $ # $ 2 2 # # l l 4 4 W W 4 4 : : >.>.8 8 O O O > ' ' & & & & } } > > } } a - - y y y > > < < > > - y ' ' ' r < ' ' ' > > y y > > y y > > y < < y < < y < < < y - r y y y < < < < < r y y y < y y 0 0 r r 0 0 < y 0 0 0 9 0 0 r r 0 0 ' ' 0 0 r ' 0 0 r ' 0 9 0 0 0 0 < r 0 0 r ' 0 0 x x x m 9 S x x r r x x r r 0 9 r r 0 0 r ' r r r < r r r < r r < r 0 0 < < r < < y > y y > > > + + x x n n m m m m o o > > # # } } > > > > ' ' < < r < r r r < r r r r r < r r r < 0 0 0 9 0 0 9 9 m m 9 S m m 0 0 0 0 9 0 x x 0 0 0 0 9 0 m m 0 0 x x 0 0 9 9 ' ' r < ' ' ' r < < < r ' ' 0 9 0 0 0 0 0 0 0 9 ' ' r r ' ' 0 0 ' ' ' r < < r r > > < < y y ' ' y y y < y > < < y > y y y - < y y y < < - < < < y - y y - - y y > > > y y - - - } } a - . . } } > > > > > > d d ~.~.T T ! ! 4 ! : : : : + + | | | | # #     , , > > > > ; } ; ; = = ; ; } } & & * * $ $ | | @ @ $ @ $ # | | $ $ | | @ $ | | # $ $ $ # # $ @ @ @ $ $ @ # $ $ @ # ",
"| | | | @ @ | | $ $ | | @ $ | | # # # $ @ # # $ s # $ $ # # $ $ # # | | $ $ c c % % & & 6 } ; } > > } ; > > ; ; > >     $ # | | | | @ @ : : : : : : : : T T ~.~.d d I I ' ' y > & & } } > > > > ' ' < < r < r ' ' r < < r r ' ' 0 9 0 0 0 9 0 0 r r r < r 9 9 9 9 9 ' ' 0 0 0 0 m m 0 0 m m S S m m 9 0 0 0 9 9 m m 0 0 0 9 0 0 o o m m o o m m m m 9 0 m m S x m m S x x m x x m x x x o o m m m m m x x m x x m m m m n n x x m x x 9 o o o o m m r r 0 9 9 9 m m S x o o 9 9 m m 9 9 m m 9 0 0 x x x o o 9 9 3 3 ' ' x x m x x m x x > > # # 9 9 9 9 9 9 9 9 9 9 0 0 0 9 ' r n n x m n n x m m m m m o o m m o o m m o o o o o o m m o o m m o o x m m m m x m m m m m m 0 0 x m m x m x x m n n x m o o m m m m S x o o x x o o x 9 o o x m m m r r 0 9 0 0 0 9 ' ' 0 0 r ' 0 9 r ' 0 9 r r x x 0 0 0 0 r r x x r r r < r r 0 0 r ' 0 9 ' ' r ' < < ' ' y y ' ' r ' > > & & ' ' y > > > 8 8 >.>.: : ! ! : : 4 4 : : # # ) ) @ $ # $ & & > > > , ; ; > > } ; } 6 } ; } 6 5 5 $ @ | | @ $ @ @ # # $ s # # $ s # $ | | @ $ | * @ $ * * @ $ | | $ $ | | $ $ | | ",
"| | | | @ @ | | $ $ | | @ $ | | # # # $ @ # $ $ # # # $ $ # $ $ # # | | @ $ c c % % & & 6 6 } ; > > } ; > > ; ; > >     $ # | | | | @ @ : : : : : : : : T T ~.~.d d I I ' ' y > & & } } > > > > ' ' r < < r ' ' r ' > < < r ' ' 0 9 9 9 9 9 0 0 r ' r < 0 9 9 9 9 9 ' ' 0 9 0 9 m m 0 0 m m S S m m 9 9 0 0 9 9 m m 0 0 9 9 9 0 o o m m o o x m m m 0 0 m m S x m m S x m m m S x x x m o o m m m m m S x m m x x m m m n n x m m m 9 0 o o o o m m r r 0 9 0 9 m m 9 S o o 9 9 m m 0 0 m m 9 0 9 9 9 9 o o 9 9 3 3 ' ' x x x m x x m x > > # # 9 9 9 9 9 x x 0 0 9 0 0 0 9 ' r n n x m n n x m m m m m o o x m o o m m o o o o o o m m o o m m o o x m m m m m x m m m x m 0 0 x x m x m m x m n n m m o o x m m m 9 S o o x m o o x 9 o o m m m m r r 0 9 0 9 9 9 ' ' 0 9 r r 0 9 ' ' 0 9 r r x x 0 0 0 9 ' r x x r r r r r < 0 0 r ' 0 9 ' ' ' r < ' ' ' < y ' ' ' ' y > & & ' ' y > > > 8 8 >.>.: : ! ! : : 4 4 : : # # ) ) $ @ $ $ & & , > , , ; ; > > } } ; } 6 } } ; 5 5 $ @ | | @ $ @ @ @ # $ s # # s s s $ | | $ $ | * @ $ * * @ $ | | $ $ | | $ $ | | ",
"$ @ $ # | | # # | | $ $ | | @ $ * * | | | * * | | * * | * * | * * * # $ * * * * # $ 6 6 6 } ; ; 6 } > > - - > > } ; & & @ $ $ @ 2 2 # # l l 4 4 W W 4 4 : : >.>.f f > > > > > > . . > > > > ' ' y y ' ' y y < < y > y < < r < r ' ' ' r < < r ' ' ' 0 9 r r 0 9 0 0 0 9 0 0 m m 0 0 0 0 0 9 0 x 0 0 x x 0 0 x m 9 0 9 m 9 0 9 m 0 0 x m 9 9 m m 9 S P P P P P n m m P P m m P n x m m m 9 S o o m m p n P n n p m m n n m m m m o o p p o o p p o o p p o o o o m m o o m m n n o o p n m m p p x x m m o o o o F F 0 0 0 9 n n 0 0 0 9 } } & & o o o o m x o o r r x x r r x x n n n p n n p n 9 9 p p p p q q o o p p m m m m o o o o m m n p o o o o m m p p m m p n m m !.m x m m m m x p p !.m o o x x o o m m m m 0 0 0 9 0 x x x 0 0 o o 9 9 m m 9 S m m 9 0 9 m r r 0 9 r r 0 9 ' ' 0 9 0 0 0 9 r r r < r y ' r r r 0 0 r ' 0 9 r r r < r y ' ' r < ' ' y y ' ' > > & & > > ' ' y > d d ~.~.T T : : 4 ! : : : : @ + ) ) | | @ #     , , > > > > } ; } ; = = } } & & & & * * $ $ | | $ @ | * * | * K | | * * $ $ | | $ @ | | $ $ $ @ # $ $ # @ @ # # % % ",
"# @ $ # | | $ @ | | # $ | | @ $ * * | | | * | | * | | | * | | | * * # $ * * * * # # 6 6 } ; } ; } } > > - - > > } } & & $ $ $ $ 2 2 # # l l 4 4 W W 4 4 : : >.>.f f > > > > > > . . > > > > ' ' < y ' ' y y < y > > < < y < < r ' ' ' r < < r ' ' ' 0 9 r r 9 9 9 9 9 0 0 0 x m 9 0 0 0 9 0 x x 0 0 x m 9 0 m m 0 0 m m 0 0 x m 9 0 m m 9 S m m S x P P P P n n m x P P m m P n x m m m m x o o m m p p P n n p m m n n m m m m o o p p o o p p o o p p o o o o m m o o m m n n o o p n m m p p m x x m o o o o F F 0 0 0 9 n n 0 0 0 9 } } & & o o o o m x o o r r x x r r x x n n n n p n n n 0 9 p p p p q q o o p p m m m m o o o o m m p p o o o o x m p p m m p p m x m m S S m m m m p p m m o o 9 9 o o m m m m 0 0 0 9 0 x x x x 0 o o 9 9 m m 9 9 m m 9 0 9 9 ' r 0 9 ' r 0 9 ' ' 0 9 0 0 0 0 9 r r r > y ' r r r 0 9 r r 0 9 ' r r r > y ' ' r < ' ' y y ' ' y > & & > > ' ' > > d d ~.~.T T : : 4 ! : : : : @ + ) ) | | $ #     , , > > > > } ; } ; = = ; } & & & & * * $ $ | | @ @ * * | * K K | | * * $ @ | | $ $ | | $ $ @ $ $ # $ $ # @ # # % % ",
"% % # # . % # # @ $ # $ $ @ # @ $ # | | $ @ | | $ $ * * | | * * @ $ | | b | K * 5 5 5 5 6 } & = > > } } > > ; ; > >     @ # | | | | @ @ W W W W : : W W T T {.{.e e I I > > > > & & } } > > # # 9 0 0 0 r ' < < < < y > y < y y ' ' < < # # 0 0 0 9 ' ' m x 0 9 x m 0 0 0 9 r r N N W W m m 0 0 m m 0 0 m x r r 0 9 ' ' 0 9 ' ' y - m m r r x x x m x x o o 9 9 p p x 9 r ' 0 0 o o 9 9 m m 9 9 P P m m p p P P o o < < m m 0 0 n n m m o o m x o o 0 0 0 0 r y 9 x o o o o o o o o 0 0 m m 0 0 x x > > 9 9 9 9 & & ' ' o o 9 9 o o x 9 } } . . m m > > 9 9 9 9 m m S x o o x x o o m m 9 S < < m m m m p p p p p p p p p p m x m m r ' 0 9 o o p p m m o o x m n n p p o o > > o o < y p p p n m m m m p n x m n n 0 0 0 9 r r ' ' 0 9 0 x x m o o x x m x x 9 < < 0 9 > > 9 9 9 9 r r 0 9 ' ' r r ' ' r r ' ' r r } } r r > y r r ' ' r r < < r ' y y 0 9 r ' & & - - y > & & ' ' > > O > 8 8 >.>.: : 4 ! : : ! 4 : : + + ) ) $ @ # $ & & > > , , ; ; > > } ; } 6 } } } ; 5 5 | | * * | | | | | | | | $ $ s s $ # # # B B # # % % % % % % @ $ % . % % . . % % ",
"% % # # . % # # # @ $ $ @ # @ @ $ # | | @ $ | | $ $ * * | * * * + @ | | b | * * 5 5 5 5 6 } & = > > } } O > ; ; > >     @ # | | | | $ @ W W W W : : W W T T {.{.e e I I > > > > & & } } > > + # 9 0 0 0 r ' < < y < > > < < y < > ' < < # # 0 0 0 0 r ' 9 9 x 0 x m 0 0 0 9 r r N N W W m m 0 0 m m 0 0 x x r r 0 0 r ' 0 9 ' ' - - m m r r x x m x x m o o 9 9 p p 9 9 ' ' 0 0 o o x 9 m m 0 0 P P m m p p P P o o < y m m 0 0 n n m m o o m x o o 0 0 9 9 y y x x o o o o o o o o 9 9 x m 0 9 9 9 ' > 9 9 9 9 & & ' ' o o 9 9 o o x x } } . . m m > > 9 9 9 9 m m 9 S o o 9 9 o o x m 9 S < < m m m m n p p p p p p p p p m m m m ' ' 0 9 o o p p m m o o x m n n p n o o > > o o > y p p p n m m m m P n x m n n 0 0 0 0 9 r r ' 0 0 x x x x o o x x m x x 9 < < 0 9 > > 9 9 x x r r 0 0 r ' r r ' ' r r ' ' r < } } r r y y < r r ' ' r r < ' ' y y 9 9 ' ' & & - - > > & & ' ' > > O > 8 8 >.>.: : ! ! : : 4 4 : : + + ) ) $ @ $ $ & & > > , , ; ; > > } } ; } 6 } } } 5 5 | | * * | | | | | | | | $ $ s s # # # # B B # # % % % % % % @ @ % . % % . . % % ",
"# # % % $ # @ # # # # # # # # # $ s # $ $ $ # # $ $ $ @ | | @ $ | | @ $ | * | | % . 6 6 & & 6 6 } ; > > - - > > } } & & $ $ $ # 2 2 # # l l 4 4 W W 4 4 W W >.>.8 8 > > > > ' ' . . > > - - | | & & & & & & y y > > y < y y < y > > a a | | y y & & ' ' r r x x r r 0 0 r < 0 9 - - F F < < 3 3 < < 0 9 < < 0 9 0 0 x m < < [ [ [ [ 0 0 [ [ m m 0 0 m m 0 9 o o m m o o 3 3 o o [ [ o o m m o o m m P P m m P P a a 9 9 y < & & x x m m x x x m 0 9 9 9 ' > 9 9 ' ' } } 9 9 o o 9 9 9 9 9 9 o o 0 0 9 9 ' ' } } & & 0 0 9 9 o o x 9 m x & & & & } } n n > > 9 9 9 9 o o x m o o m m m x a a p p - - m m n p n p m m p p o o p p - - 9 9 y < [ [ m m o o m m m m x m o o 9 9 y y < y > } 0 0 x m 9 x n n x m n n m m < < y < } } > > 9 9 9 9 m m 9 S o o 9 9 9 0 [ [ > > | | 0 0 r ' 0 9 r r 0 9 0 9 9 9 r < } } & & | | y < 0 9 ' ' r < ' ' ' ' < y y y & & & & c c > > } } a } > > > > > > d d >.>.T T : : : : : : : : b b ) ) | | @ #     , , > > > > } } } ; 6 } } } 6 6 & & * * $ $ | | $ $ | | @ # @ $ B B # # B B # # . % # # % % # @ . . . % % % @ $ . . ",
"# # % % # # @ # # # # # # # # # $ s # $ $ $ $ # @ $ $ $ * | $ $ | | @ $ * * * | . . 6 6 & & 6 6 } } > O - - > > } } & & @ $ $ # 2 2 # # l l 4 4 W W 4 4 W W >.>.8 8 > > > > ' ' . . > > - - | | & & & & & & > y y > < < y > y < > > } a | | y y & & ' ' r < x x r r 0 0 < < 0 9 - - F F < < 3 3 < < 0 9 < < 0 9 0 0 x m < < [ [ [ [ 0 0 [ [ m m 9 9 m m 9 0 o o m m o o 3 3 o o [ [ o o x m o o m m P P m m P P a a 9 9 r < & & x x m m m x m m 9 0 9 x > > 9 9 ' ' } } 9 9 o o x x 9 9 9 9 o o 0 0 9 9 r ' } } & & 0 0 x x o o 9 9 9 9 & & & & } } n n > > 9 9 9 9 o o x m o o m m m x a a p p - - m m n p P n m m p p o o p p - - 9 9 r < [ [ m m o o m m m m x x o o 9 9 y < < < } } 9 9 m m S x o n m m p n m m < < < y } } > > 9 9 9 9 m m 9 S o o 9 9 9 9 [ [ > > | | 0 0 r ' 9 9 ' r 9 9 9 9 9 0 < < } } & & | | y < 0 9 ' ' ' r < ' ' ' ' y y < & & & & c c > > } a } } > > > > O O d d >.>.T T : : : : : : : : b b ) ) | | $ #     , , > > > > ; } ; ; } ; } 6 } 6 & & * * $ $ | | $ $ | | # # $ $ B B # # B B # # % % @ # % % # @ . . . % % % @ @ . . ",
"@ # # # # # # # # # # # # # $ $ # # $ s # $ $ $ # # | | $ @ | | # @ | | * | | K 5 5 & & 6 } ; } ; ; } } > > - - > >     # # * * | | # @ W W W W : : W W T T {.{.e e I I > > > > & & } } ' ' . . z z & & > > > > < < y < > ' < < r ' - - . . z + & & x 9 r < r r 0 9 0 9 9 x 0 0 r r + + ) ) - - y < < < 0 0 0 0 0 0 r r 0 9 > > F F b b r r 0 9 m m S x o o x x o o x m 3 3 ) ) 3 3 9 9 p n m m p n m m o o 9 9 } } | | ) ) ' ' x m m S x m m x o o 9 9 3 & | | + + y y 0 9 9 9 9 9 9 0 m m S x } } | b b | ' ' & & > y o o o o o o 9 9 } } . . & & | | | | 0 0 m m m m n p m m n n o o & & | b b | m m p p m m p p x m n p 0 0 [ [ c c ) ) 0 0 o o m m o o 9 9 9 9 9 9 x x F F ) ) y y m m o o o o 9 9 n n x m m m & & ) ) c c r r 0 9 0 9 9 x m m 0 0 m m ' ' . . c c a a r r r < r ' 0 9 r r 9 9 9 9 r < . . ) ) y - r r ' ' r r ' ' ' r < ' ' y y y . . # # > > } a } I & & ' ' > > O > 8 8 >.>.: : ! ! : : : : l l + + ) ) $ $ $ $ & & > > > , ; ; > > } ; } } O } } O & & b | | * # # @ $ # # s s $ # # # B B # # . . B B . . % % % % @ @ % % @ @ % % # # ",
"# # # # # # # # # # # # # # # $ # # # $ $ # @ $ # # | | $ $ | | @ # | | | | K * 5 5 & & 6 } ; } ; ; } } > > - - > >     $ # | * | | @ # W W W W : : W W T T {.{.e e I I > > Q Q & & } } ' ' . . z z & & > > > > y < < y ' ' r < ' ' - - . . + + & & x 9 r r r < 0 0 0 0 9 x 0 0 r r + + ) ) - - r < < < 0 0 0 0 0 0 r ' 0 9 > > F F b b r r 0 9 m m 9 S o o 9 9 o o m m 3 3 ) ) 3 3 9 9 p n m m p n m m o o 9 9 } } | | ) ) ' ' x m x x m x x m o o 0 0 & & | b + + y y 9 9 9 9 9 x x 0 m m x x } } | b b | ' ' & & y y o o o o o o 0 0 } } . . & & | | | | 0 0 m m m m p n m m p n o o 3 & | b b | m m p p m m p p x m p p 0 0 [ [ c c ) ) 0 0 o o m m o o 9 9 9 9 9 9 x x F F ) ) - y m m o o o o x 9 n n x m m m & & ) ) c c r r 0 9 0 9 9 x m m 9 S m m ' ' . . c c a a r r r < r ' 0 0 r ' 0 9 0 0 r < . . ) ) - - r r ' ' r r ' ' ' ' r < ' ' y y . . # # > > } a } I & & ' r > > y > 8 8 >.>.: : ! ! : : : : l l + + ) ) $ $ $ $ & & , > > , ; ; > > } } } } } O } } 3 & | | * * # # # $ # # s s $ # # # B B # # . . B B . . % % % % @ @ % % @ $ % % @ # ",
"# # # # # # # # $ $ # # $ s # @ | | $ $ @ $ # $ $ s @ # b | $ $ | | @ $ * * * | 5 5 6 } & = } ; } 6 > > > y > > ; ; 3 & $ $ | | 2 2 # # l l 4 4 W W 4 4 W W >.>.8 8 O > > > ' ' . . } } } a - - } } > > > > y y > > y < y y y < y > ' ' y > < < r < r ' < < 0 9 < r 0 9 ' r 0 0 r < S x - - N N r r 0 9 0 9 9 x 0 0 0 9 0 0 9 9 r < S x 0 0 0 9 0 9 m m 0 0 x x m m o o x 9 9 9 9 9 o o x m m m m m m m 0 0 m m x 9 m m 9 9 o o o o n n x m x x 0 0 9 x o o x 9 r < m m 0 0 m m 0 0 0 0 x x x x 9 9 9 0 > > 9 9 F F r ' 9 0 0 0 x x x 0 } } & & o o ' ' r ' 9 9 9 9 o o x x n n o o o o r r 0 9 m m o o m m p p p n p p o o p p 9 9 9 9 m m o o m m m m 0 9 o o x 9 m m 9 x x m 0 0 x m 9 0 m o x m m m x x m x x m x m 9 0 9 0 r ' r r r ' 9 9 9 9 9 0 0 0 m x r r ' ' r ' 0 9 ' ' 0 9 ' ' 0 0 r ' 0 9 ' ' < < y < < 0 r ' r r ' ' r < < y ' ' ' ' < y y > < r y > < y } } 6 6 > > > > > I e e >.>.T T : : : : : : : : | | | | | | # @     , , > > > > ; } ; ; } } ; } 6 } & & * * s s | | $ # s s $ # $ $ B B # # % B # # % % @ $ % % # # % % @ @ % % # # % % ",
"$ # # # # # # # @ $ # # $ $ @ # | | $ $ @ $ @ # $ @ $ @ | | $ $ * | $ $ * * * | 5 5 6 } = = } ; } 6 > > > > > > ; ; 3 & # $ | | 2 2 # # l l 4 4 W W 4 4 W W >.>.8 8 O > > > ' ' . . } } } } a - - } > > > > > y > > < < < y < < > > ' ' > > < < y < r r r < 0 0 r r 0 9 r r 0 0 r < S S - - N N N r 0 0 0 9 0 x x 0 0 0 0 9 0 0 r r x x 0 0 0 9 9 9 m m 0 0 9 x x m o o x 9 9 9 9 9 o o m m m m x m m m 0 0 x m 9 0 m m 9 9 o o o o p n x x m x 0 0 x x o o 9 9 r r x m 9 S m m 0 0 0 9 0 x x x 9 9 9 0 > > 9 9 F F r ' 9 9 0 0 9 x 9 9 } } & & o o ' ' r ' 9 9 9 9 o o 9 9 n n o o o o r r x x 0 m o o m m n p n n p n o o p n 9 9 9 9 m m o o x m m m x 9 o o x 9 m m S x x x 0 0 x x 0 0 o o x m m m x 9 m m S x m m 0 0 0 9 ' ' r r ' ' 9 9 9 9 9 0 0 0 x x r r r ' ' r 0 0 r ' 0 9 ' ' 0 0 r ' 0 9 ' ' < < < y ' 0 r ' r r ' ' ' r < y ' ' ' ' < < y > r r > > y y } } 6 6 > > > > > I e e >.>.T T : : : : : : : : | | | | | | $ #     , , > > > > } } } ; } ; } 6 } 6 & & * * s s | | $ # s s # @ $ $ B B # # B B # # % % @ # % % $ # % % @ @ % % # # % % ",
"# # $ $ # # # $ $ # # $ $ # # @ $ # | | $ $ | | $ @ | | $ $ | | @ # | | * * K K 5 5 5 & } ; & & > > } } > > , , , , & & $ $ | * | | + @ : : W W 4 4 : : T T {.{.j j I I > > Q > & & & & > > } } > > > > y > > > ' ' ' ' ' ' ' ' r ' > > r ' > > ' ' ' ' 0 9 r ' 0 9 ' ' 0 0 r ' 9 0 r ' ' ' r < 0 0 r ' 0 9 0 0 0 0 9 0 x x 0 0 9 9 9 9 9 0 9 9 m m 9 9 m m 9 9 m m 9 9 m m x 0 o o x m o o m m o o m m o o 0 0 m m 0 0 m m 0 0 x m 9 0 9 m r 9 m m 9 x m m 0 0 x 9 r < o o o o 9 9 ' ' < r r r o o 9 9 9 9 9 9 & & r r x x 0 0 o o < r } } . . m x r r 0 9 0 9 x x 0 0 o o 9 9 p n m m m m o o o o m m o o 9 9 o o m m o o m m m x 9 9 o o m m n p o o o o m m m m x m o o m m o o 9 9 m m 9 9 x m x x m m 0 0 x x 0 0 9 x 0 0 9 9 ' ' r r ' ' r r ' ' 0 0 0 9 0 x ' ' 0 9 ' ' 0 9 0 x 9 9 ' r 0 0 r ' < r r ' 0 9 r r 9 9 ' ' r ' > > ' ' < < r ' ' ' > > > > } I I } } 6 & & ' ' > > > > 8 8 >.>.W W : : : : : : t t @ $ c c $ # @ $ & & > > , > - - > > } } } ; } } ; } & 5 | * * * | | | | $ @ s s # # $ $ $ # @ # B B # # % % @ # % % @ # % % # # % % @ # ",
"# # $ $ # # $ $ $ # # $ # # # @ $ $ | | $ $ | | $ $ | | $ $ | | @ # | | * * K K & 5 5 & } } & = > > } } > O , , , , & & $ $ | * | | # @ : : W W 4 4 : : T T {.{.j j I I > > Q > & & & & > > } I > > > > > > > > ' ' ' ' ' ' ' ' ' ' y > r ' > > ' ' ' ' 0 9 ' ' 0 0 ' ' 0 9 ' ' 0 9 ' ' ' ' r < 0 0 r ' 9 0 0 0 0 9 0 0 9 9 9 9 9 9 9 0 0 0 9 9 x m 9 9 m m 9 9 m m 9 9 m m 9 9 o o m m o o m m o o m m o o 0 0 m m 9 S m m 0 0 m m x 9 9 9 9 9 m m 9 9 m m 9 0 9 9 r < o o o o 9 9 ' ' < r r r o o 9 9 9 9 9 9 & 3 < r x x 0 0 o o r r } } . . m x r r 0 9 0 9 9 x 0 9 o o x 9 n n x m m m o o o o m m o o 9 9 o o m x o o m m m m 9 9 o o m m n p o o o o m m m m x m o o m m o o 0 9 m m 9 9 x x 9 x m m 9 9 m x 0 0 x x 0 0 9 9 r ' < r r ' r r ' ' 9 0 0 0 9 x ' ' 0 9 ' ' 9 9 9 9 9 0 < r 0 0 r ' r r ' ' 9 0 r r 0 9 ' ' r ' > > ' ' r < ' ' ' ' y > > > I I } } } 6 & & ' ' > > > > 8 8 >.>.W W : : : : : : t t @ $ c c $ $ @ $ & & > > > > - - > > } ; } 6 } } } 6 5 5 | * | * | | | | $ $ s s # # $ $ $ # # # B B $ # % % @ # % % # # % % # # % % # # ",
"# # # # $ $ @ $ @ $ # # $ s # # | | $ $ | | $ @ | | $ $ | | $ $ $ @ @ # * * K * 5 5 6 } & = } ; } 6 > > > > ' ' , > & & | * | | c c # # l l : : W W 4 4 W W {.{.8 8 > O O > ' ' . . c c c c d d d d c c # # # # # # # # # # # $ + @ . . # # . . # # . . # # z z # # # # # # # # # # # # # # + + z z + + @ # . . z + . . # # . . z + . . + + . . z + . . @ $ . . . . 3 3 . . 3 3 . . . . + + . . z + . . . . . . . . 3 3 . . 3 3 . . 3 3 . . 3 3     & & . . . . z z # + . . & & . . . . z z F F # # . . . . & & | b 0 0 r ' 0 9 ' ' 0 0 & & # # z z & & F F F F z z . . . . & & & & & & . . 3 3 3 3 & & & & & & . . 3 3 3 3 3 & & & [ [ 3 3 & & . . 3 3 + + . . z + . . @ + F F F F & & . . . . . . 3 F + + . . + + + + z z . . + z z # + # . . z + . . @ + . . z + + + . . . . z + . . @ + . . . . . . # + F . z z . . # # z z # # # # . . . . + + # # c c c c d d c c c c J J Q Q Q Q O O d e {.{.T T ^.: : : W W : : | | | | | | # #     > > ; ; > > } ; ; ; = = ; ; 6 6 & & K K | | | | $ $ | | # # s s # # s s # # # # B B # # % % @ # % % # # % % $ # % % ",
"# # # + $ $ $ @ $ $ $ # # $ # $ | | $ $ | | $ $ | | $ $ | | $ $ @ @ @ @ * * * * & 5 6 } = = } } ; } > > , > ' ' > > & & | * | | c c # # l l : : W W 4 4 W W {.{.8 8 > O O > ' ' . . c c c c d d d d c c # # # # # # # # # # # # $ @ . . # # % . # # . . $ # z z # + # # # # # # # # # + + # z + + z z + # + . . + + . . # # . . + + . . + + . . + + . . # @ . . . . & & . . 3 3 . . . . z + . . + + . . . . . . . . 3 3 . . & & . . 3 3 . . & & .   & & . . . . z + + + . . & & . . . . z + F F # # . . . . & & | b 0 0 r ' 9 0 ' ' 0 9 & & # # z z & & F F F F z z . . . . 3 3 3 3 & & . . & & & & & & 3 3 & & . . & 3 3 & & & & & [ [ 3 3 3 & . . 3 3 + + . . + + . . z + F F F F & & . . . . . . F F # # . . # # + + z z . . z + + + + # . . z + . . @ + . . z z # + . . . . z + . . + + . . . . . . + + . . z z . . # # z z # # # # . . . . # # # # c c c c d d c c c c J J Q Q Q Q O O d e {.{.T T : : : : W W : : | | | | | | # #   . > > ; ; > > } } ; ; = = ; ; 6 6 & & K K | | | | $ $ | | # # s s # # $ s # # # # B B # # % % @ # % % # # % % $ # % % ",
"# # $ $ + # $ $ # # # $ # # @ # $ $ | | $ $ | | $ $ | | $ # | | @ # | | | | * * & & & & 6 6 = = ; ; } } > > > > > > & & $ $ | * 2 2 @ $ W W W W : : W W W W {.{.8 8 6 6 ' ' y > & & c c & & & & & & 3 & . . . . 3 3 & & & & 3 & } } & & & & 3 3 /./.& 3 3 & & & [ [ 3 & [ [ & & [ [ [ [ } } a [ [ > [ [ } } [ [ a - } } > > } a } - } } } ; } } a } } } - - } } - - } } - - ; } ; } } } a } [ [ } } a [ } } } } - - ; } } ; ; } } } [ [ } } } 6 O O } } > O O } - - } } > > } } > > } } a [ & & } } & & & & . . | | y - 0 0 r < ' ' y y } } c c a } & & - - } } } } & & } } a } > > } a } I } } > > } } > > } } - - } } } } [ [ > > } } a } [ [ [ [ & & } } [ [ > > } a > > } I > > } } > > > > > > ; } - - } } - - } } /.a a [ } } [ [ O } [ [ a } } } y - } } - a [ [ [ a & & [ [ & & [ [ & & [ [ & 3 3 & & & [ [ 3 3 & & & & & & . . 3 3 & & } } & & & & & & & & & & | | & & Q Q O O O > f f >.>.+ W : : : : : : W W $ $ c c @ $ $ $ & & , > > > ; } ; ; } } } ; } 6 } } & 5 | * * * | | | | # $ | | $ @ s s # # $ # $ # # # . % # # B B $ @ % % # # . % # # ",
"# # # $ # # $ $ # # $ $ # # @ # # $ | | $ # | | $ $ | | $ # | | # @ | | | | * | & & & & 6 } & = ; ; } } > O > > > > & & $ $ | * 2 2 @ $ W W W W : : W W W W {.{.8 8 6 6 ' ' > > & & c c & & & & & & & 3 . . . . & & & & & & 3 & } a & & & & & 3 /./.& & & 3 & & [ [ 3 & [ [ & & [ [ [ [ } } [ [ a a [ [ } } [ [ - - a } > > } } - - } } } ; } } } } } } - - } } - - } } - - } } ; } } } } } a [ } } a [ } } } } - - } } ; ; } } } } [ [ } } } } > O } } > O } } - - } } > > } I > > } } a [ & & } } & & & & . . | | y - 0 0 r < ' ' < y } } c c } } & & - - } } } } & & } } } } > > } } } } a } > > } } > > } a } - } } a } [ [ > > } a } I & [ [ [ & & } } [ [ > > } a > > } I > > } } > > > > > > } } - - ; } - - } } a a [ [ } } [ [ ; } [ [ - a } } - y a } - a [ [ [ a & & [ [ & 3 [ [ 3 3 [ [ 3 3 & & & & [ [ & & & & & & & 3 . . & 3 & & } } & & & & & & & & & & | | & & Q Q O O O > f f >.>.W W : : : : : : W W $ $ c c $ $ $ $ & & > > > > } } ; ; } } } } } ; } } 5 5 | * | * | | | | $ $ | | # # s s # # # $ # # # # B % # # B B $ @ % % # # % % # # ",
"# # # + $ $ @ $ $ $ $ # # $ $ # | | $ $ | | $ $ | | $ $ | | $ $ @ @ # $ * * * | & & & & & = } ; } 6 > > > > ' ' > > & & | * | | c c $ @ t t W W W W : : W W {.{.8 j I O > > r ' & & # # & & } } & & } } } } } } } } > > /.} > > > > > > } } > > } /.> > - - y y } } a - - } > > - - r < > > < < < < y < > > < < y < r ' ' r 0 0 r < ' ' ' r 0 0 ' ' 0 0 ' ' 0 9 ' ' ' ' r < 0 0 0 0 0 9 0 0 0 0 ' ' 0 0 , , ' ' < < r ' > , < < y > , , , > ' ' ' ' r ' ' ' r ' ' ' ' r 0 0 9 9 ' ' ' ' y > ' ' y > ' ' < y } > | b r < [ a r ' - - y < & & # # - - ' ' r ' > < > > > > < < ' ' ' ' r ' > > ' ' ' ' 0 0 r ' 0 9 ' ' ' ' > > ' ' ' ' r ' ' ' 0 0 > > ' ' 0 0 0 0 ' r 0 0 ' ' 9 9 ' ' 0 9 ' ' 9 9 r ' 0 9 0 0 9 9 ' ' ' r r ' ' r r ' ' r y < < r ' ' 0 0 r ' ' ' y y < < > > < y } > < < y > y y - a > > } a > > } } a [ } } - - a a } } a } } } & & } } & & } } a } } } | | } } > O ' ' } O 8 8 {.{.T T l l : : W W W W | | | | | | # #   . > > ; } - - } ; ; ; = = } 6 & & & & K K | | | | $ $ | * $ $ | | # # s s + # $ $ B B # # B B # # B B # # B % $ # % % ",
"# # + # $ $ # # $ $ # # $ # # $ | | $ # | | $ $ | | # $ | | $ $ @ @ # $ * * | | & & & 5 3 3 } ; } 6 > > > > ' ' > > & & | * | | c c $ @ t t W W W W : : W W {.{.8 j O O > > ' ' & & # # & & } } & & } } } } } } } } > > } } > > > > > > } } > > } /.> > - - y y } } - - a } > > - - y < > > < < < < < y > y < y < < r ' ' ' 0 0 r < ' ' ' ' 0 9 ' ' 0 9 r ' 0 0 r ' ' ' < < 0 0 0 9 0 0 9 9 0 0 ' ' 0 0 , , ' ' < y 0 ' > , < < y > , , , > ' ' ' ' ' r ' ' ' ' ' r < ' 9 9 9 9 ' ' r ' > > ' ' y > ' ' y y > > b b r < [ a ' ' y - < < 3 3 # # - - ' ' ' r < < > > > > < < ' ' ' ' ' r > > ' ' ' ' 0 0 r ' 0 9 ' ' ' ' > > ' ' ' ' ' r ' ' 0 0 > > ' ' 9 0 0 0 ' ' 0 0 ' ' 9 9 ' ' 9 9 ' ' 9 9 r ' 0 9 9 9 9 9 ' ' ' r < ' ' r r ' ' r r < ' r r ' 9 0 r ' ' ' < y y < > > y y > > y < y > < y } a > > } a > > } a a a } } - - a } } } a } } } & & } } & & } } } } } } | | } } > O ' ' > O 8 8 {.{.T T l l : : W W W W | | | | | | # #     > > ; } - - } ; ; ; = = } 6 & & & & K K | | | | $ $ | | # $ | | @ # s s # # $ $ B B # # B B # # B B # # . % $ # % % ",
"% % # # % % # # % % # # @ $ # $ # + | | $ $ | | $ $ | | $ $ | | # $ * * * | K K 5 & & 5 = = & & ; ; } 6 > > > > > >     $ $ | * * * | | W W l l : : W W W W {.{.f f I I > > Q > . . | | } } a } > > } } a } & & } } } } > > > > > > } I > > } } > > } a y y > > y < y < ' ' < < r ' < < 0 0 ' ' 0 9 r r 9 9 ' ' 0 9 0 0 9 9 r ' 0 0 r ' 9 0 ' ' 0 9 0 0 9 9 0 0 0 9 0 x x x 9 0 0 x 0 0 0 0 0 0 0 0 0 9 0 0 9 9 0 9 ' ' 0 0 ' ' r ' > < ' ' ' ' 0 0 r < ' ' r ' ' r 0 9 0 9 x 0 0 0 r ' r r r < 0 0 0 0 r < > > # # } } r < < y ' ' ' r } } s s > > ' ' m m r ' r r r < 0 0 r r 0 9 ' r 0 9 ' ' 0 0 r ' 0 9 ' ' 0 9 0 0 ' ' ' r 0 0 ' ' 0 9 0 0 9 9 ' ' 0 9 9 0 0 9 0 0 0 0 9 0 x x 0 0 9 9 9 9 o o 9 9 o o 9 9 9 9 9 x x 0 ' ' 0 9 ' ' ' r r ' 9 0 0 0 0 9 ' ' r r y < ' ' y > ' ' ' ' r ' > < < < < - > y y - y - a a > > - - y y } } > > [ [ } } } } } a } } } } & & s s & & > > > > > O 8 j ~.~.W W : : l l : : t t @ @ 2 2 $ $ @ $ & & } } - - } } ; ; 6 } } } = = } } & & * * * * | | * | $ $ | | @ $ # s # # $ # # # # $ B B @ # . % # $ % % @ # % % @ $ ",
"% % # # % % # # % % # # # @ $ $ # # | | # $ | | $ $ | | $ $ | | $ # * * | | K K & & & 5 5 = = & ; ; } 6 > > > > > >     $ $ | * * | | | W W l l : : W W W W {.{.f f I I > > > > . . | | } } a } > > } } } 6 & & } } ; } > > > > > , } } > > } } > > } a y y y > < < < y ' ' < < r ' < < 0 0 r ' 0 9 r r 0 9 ' ' r 9 9 9 9 9 ' ' 0 0 r ' 0 9 ' ' 0 0 0 0 0 9 0 0 9 9 9 9 9 9 9 9 0 0 0 0 0 0 0 0 0 0 0 0 9 0 0 9 0 0 ' ' 0 0 r ' ' r < < ' ' ' ' 9 9 r < ' ' ' r < ' 9 0 m x r 0 0 0 r ' r r r ' 9 0 0 0 r < > > # # } } < < y < > ' ' ' } O s s > > ' ' m m r ' r r y < 0 0 r ' 0 9 r r 9 9 ' ' 0 0 ' ' 0 0 ' ' 0 9 0 0 ' ' ' ' 0 0 ' ' 9 9 9 0 0 0 r ' 9 0 0 0 9 9 0 0 9 9 9 9 9 9 x x 0 9 9 9 o o 9 9 o o 9 9 9 9 9 9 9 9 ' ' 0 9 ' ' ' r r ' 9 0 0 0 9 9 ' ' ' r y y ' ' > > ' ' ' ' ' ' y y < < - - y > y - a - - } > > - - y y } } > > [ [ } } } } } } a } } } & & s s & & > > > > > O j j ~.~.W W : : l l : : t t @ @ 2 2 # $ $ @ & & } ; > - } } ; ; 6 } } } = = } } & & * * * * | | * | $ $ | | s $ s s # # $ $ # # # $ B B @ # . % $ # % % @ # % % @ @ ",
"# # % % # # % % # # % % # # $ @ $ # # + # $ $ # | | $ @ s | $ @ | | $ # | * * | . . 6 6 & & 6 6 = = } } ; } > > } } & & # $ # $ 2 2 $ @ t t : : W W 4 4 W W {.{.k k I I > O O > . . # $ } } a } } } > > & & } } a } } } } } > > O > > > > > > > > > > > > > < r < < r ' y < ' ' < < ' ' < < ' ' r < 0 0 < < r ' ' ' 0 0 0 0 9 x ' ' 0 9 r r 9 9 0 0 0 9 0 0 9 9 9 9 9 9 9 0 x x 9 9 9 m 0 0 0 0 ' ' 0 0 ' ' 0 0 r ' 0 9 ' ' 0 0 ' ' 0 9 r r 9 9 ' ' 9 9 ' ' 0 0 < < 0 0 ' ' 0 0 r ' 0 9 r r 9 x x m x 0 < < y < + + y - > > ' ' ' ' ' ' & & | | y < ' ' r ' 9 9 0 0 0 9 r r 0 0 r ' 0 9 0 9 9 9 0 0 0 0 ' r 9 0 9 0 0 9 r ' 9 9 ' ' 0 0 0 0 9 9 0 0 0 0 r ' 9 9 9 9 m m 9 9 o o x 9 o o ' ' 0 9 0 0 9 9 0 9 9 9 9 9 x x 0 9 9 9 9 9 9 0 0 0 x 9 r ' 0 0 ' ' r ' > < ' ' r < ' ' y > ' ' < y ' r r r r r - - y y } a > > } a > > - - a a } } } } & & } } } } a } } } } } s s 6 6 > > > > 6 6 d d ~.{.T T W W : : W W W W | | | | * * # # = = } 6 [ [ } ; = = 6 } = = } } & & & & * * $ $ @ # @ @ @ # B B # # B % # # . . B B . . % % % . . % % . % % . . % % % . ",
"# # % % # # % % # # % % # # $ @ $ $ # # @ $ $ # | | $ $ | | $ $ | | $ # * * * | . . 6 } & = } 6 = = } } } ; > > } ; & & # $ $ $ c 2 $ @ t t : : W W 4 4 W W {.{.k k I I I > > Q . . # $ } } a } } } > > & & } } a } } } } } > > y > > > > > > > > > > > > > r r r < ' ' r < ' ' y < ' ' < < ' ' < < 0 0 r < r r ' ' 9 0 0 0 0 9 ' ' 0 0 r ' 9 0 0 0 0 0 9 0 0 9 9 9 9 9 0 0 x 9 9 9 9 m 0 0 0 9 ' ' 9 9 ' ' 0 0 ' ' 0 9 ' ' 9 0 r ' 9 0 ' r 0 9 ' ' 9 9 ' ' 0 0 < < 0 9 ' ' 0 0 r ' 9 0 ' r x x m x x 9 < < y y + + y - > > ' ' ' ' ' ' & & | | y < ' ' r ' 9 9 0 0 0 0 r ' 9 0 r ' 9 0 0 9 9 9 0 9 0 0 ' ' 0 0 0 0 9 9 ' ' 0 0 r ' 0 0 9 0 0 9 0 0 0 0 r ' 0 9 0 9 m m 0 0 o o 9 9 o o ' ' 0 9 0 x 9 9 9 9 9 9 x x 0 9 9 9 9 9 9 9 x x 0 9 9 9 r r 0 9 ' ' r ' < < r ' y < ' ' y > ' ' y y ' r r r r r - - y y } a > > } a y > - - - } } } } } & & } } } } } a } } } } s s 6 6 > > > > } 6 d d ~.{.T T W W : : W W + W | | | | * * # # = = } 6 [ [ } } = = 6 } = = } } & & & & * * $ $ $ @ # @ @ # B B # # B % # # . . B B . . . % % . % % . % % % . . % % % . ",
"% % # # $ # z # # # # # # # # $ $ # # $ # # $ # # $ # $ $ # # $ $ # | | $ # * * 5 5 6 } 6 } ; } } } } } - - } } > > } } # $ | | $ @ | | l l W W : : W W T T {.{.f f } } > > > > & & | | } } . . 9 9 ' ' } } } a } } } } > > > > > > > > > > > > > > > > > y y > < < > > < < > > ' ' < < r ' ' ' 0 0 r r 0 9 0 0 0 0 ' ' 0 9 9 9 9 9 0 0 m m x 0 x m x x m m 0 0 m m 0 0 x m 9 9 m m 0 9 0 9 9 9 9 0 0 9 9 9 ' ' 0 0 ' ' 9 9 ' ' 9 0 r r 0 9 ' ' r ' r r 0 9 0 9 9 0 0 0 r ' < < < r r r 0 9 0 9 9 x < < 0 9 & & # # } } ' ' > > ' ' r ' & & | * > > 9 9 x x r ' x x r r 0 0 ' ' r < < r 9 9 ' r 9 9 ' ' 0 0 ' ' 9 9 ' ' 0 9 9 9 0 0 ' ' 9 9 < < r ' ' ' 0 0 9 9 0 0 9 9 9 9 9 9 9 x x 0 9 9 ' ' 0 9 0 x 9 9 9 9 9 0 9 9 9 9 0 0 0 0 0 0 9 9 9 9 9 0 ' ' 0 9 ' ' ' r < < 0 9 - y y < y > ' < < y < < - - y y - - y y - - > > } } } } & & - - } } } } a } 9 9 ' ' R R & & s $ 5 5 Q Q O I I } 8 8 {.~.W W : : l l ^.^.t t @ @ | | $ # @ $ } } } } } ; } } } } } 6 } } & = } } & = $ $ | | # # $ $ # # $ $ # # # # B B # # B % # $ . . # # . % # # B % # # @ $ # # ",
"% % $ @ $ # # # # # # # # # # $ # $ # # $ # $ $ $ # # $ $ # $ $ # # | | $ $ | * & 5 6 6 } 6 } 6 } } } } - - } } , > } ; # $ | | $ @ | | l l W W : : W W T T {.{.f f I I Q Q O O & & | | } } . . 9 9 ' ' } } } } a } } } > > > > > > > > > > > y > > > > < y y > < < > > < < y > ' ' r < ' ' ' ' 0 0 r ' 0 9 0 0 0 9 ' ' 0 9 9 9 9 9 9 0 m m x 0 x m 9 x m x 9 0 m m 0 0 x m 9 9 m m 9 0 0 9 9 9 9 0 0 9 9 9 ' ' 0 0 ' ' 0 0 ' r 9 0 r r 0 9 ' ' r ' r r 0 9 0 9 0 0 0 9 r r N N r r r < 0 9 9 9 9 9 < < 0 9 & & # # } } ' ' Q Q ' ' ' r & & | * > > 9 9 x x ' ' x x r r 0 9 ' ' r ' < < 0 9 r r 9 9 ' ' 0 0 ' ' 0 9 ' ' 0 9 0 x 0 0 ' ' 9 9 < < ' ' ' ' 0 0 9 9 0 0 9 9 9 9 9 x x 0 9 9 9 9 r ' 0 0 9 9 9 9 9 x x 0 9 9 0 9 0 0 0 0 9 9 9 9 9 9 9 9 ' ' 0 0 r ' ' ' < < 0 9 - y < < y > y < y < < < y - y y - - y y - - y > } } } } & & - - } } } } } 6 9 9 ' ' R R & & # $ 5 5 Q Q O I I } 8 8 {.~.W W : : l l : ^.t t @ @ | | $ # @ $ a } } } } ; } } } } } 6 } } & = } } 5 & s $ | | # # # $ $ # # $ $ @ # # B B # # B % # $ . . # # . % # # . % # # # @ $ # ",
"| | | | | | | | | * | | | * | | c c * * c c * * 2 c * | | * | | | | * | * * * K $ $ & & & & = = = & } } = = } } & = } } | * * | 2 2 @ @ t t : : W W 4 4 W W ~.{.8 8 6 } } 6 > > . . $ $ } } # # } } & & } } } } } } > > } } > > } } > > > > > > > > ' ' y y < y y > < < < < y < > > < < y > y < < r 0 0 < r r ' r ' 0 9 ' ' 0 0 ' ' 9 9 9 9 9 0 0 0 x m 9 0 9 m r 9 9 9 0 0 0 9 0 0 9 9 0 0 0 x 0 9 9 x r ' 0 9 0 0 0 9 ' ' 9 9 0 0 9 x x 0 0 9 x 0 m m r ' 9 9 9 9 9 x < < 0 9 ' ' ' r < r 9 9 & & [ [ & 3 . . | | > > ; } > > > > > Q & 5 $ $ . . > > + + ' ' r ' ' r r r 0 9 < < r ' ' ' 0 0 r ' 0 9 0 0 9 9 0 9 9 9 9 0 m m 0 9 0 0 ' ' 0 9 ' ' 9 0 ' ' 0 9 0 x m m 0 0 x 9 ' ' 0 9 0 x o o 9 9 9 9 9 9 9 9 9 9 0 0 r r 0 0 < r 0 0 ' ' ' r ' ' r r < < r ' y < < < y > , > > > ' ' y > ' ' y y < < y - y y y > < < > y > > - a a } } a } } } } } } & & & & c c } } s s & & } } > > } } e e {.{.T T W W : : W W W W | * | * | * | |     6 } & & ; } & & & = & & = &     5 5 K K | | | | $ $ | | $ s | | s s | | # $ | | # $ | | s s | | $ s | | $ $ | * @ $ ",
"| | | | | | | | * * | | * * | | c c * * c c * * c c * | * * | | | | | * | * * * $ $ & & & = = & & = } } = = } } & = } } | * * | 2 2 @ @ t t : : W W 4 4 W W {.{.8 j O } } 6 > > . . # $ } } # # } } & & } } } } } 6 > > } } > > } } > > > > > > > > ' ' < y y > y y < y < < y < > > < < > > y < < < 0 9 < < r ' ' ' 0 0 r ' 9 9 ' ' 0 9 0 0 0 9 0 0 m m 9 0 9 m r 9 x 9 0 0 9 9 9 0 r 9 9 0 0 x 0 9 9 x ' ' 9 0 0 0 9 0 ' (.9 9 0 0 x x 9 9 9 9 9 0 m m ' ' 0 9 0 x 9 9 < < 0 9 ' ' < r r ' 0 9 & & [ [ & 3 . . | | > > ; } > > > > Q Q 5 5 $ $ . . > > # # 9 ' ' r < ' r r 0 9 < < ' ' ' ' 0 9 ' ' 9 0 0 0 0 9 0 0 9 9 9 9 m m 9 0 0 0 ' ' 0 9 ' ' 0 0 ' ' 9 9 9 9 m m 9 9 9 9 ' ' 9 9 9 9 o o x 9 9 9 9 9 x x 0 9 9 9 r r 9 0 r N 0 0 ' ' r ' ' r r < < < r ' y < < < > > y > > > ' ' < y ' ' y y < < - - y y > > < < > y > > - a a } } } a } } } } } & & & & c c } } s s & & I I > O } } e e {.{.T T W W : : W W W W | * | * | * | |     6 } & & } } & & & = & & = &     5 5 * K | | | | $ @ | | s s | | $ s | | $ $ | | $ $ | | s s | | $ s | | # $ | | $ @ ",
"2 2 2 2 2 2 2 2 2 2 2 2 2 2 d d 2 2 2 2 2 2 2 2 2 2 2 2 2 2 2 2 2 2 C C C 2 e e $ $ $ $ % % $ $ B B $ $ _._.# # % . @ # c c 2 2 {.{.{.{.W W W W : : : : T T {.{.e e I } } I I } 5 5 | | J J # # # # . . - - } a a [ [ & } } } } > > > > ' ' y > > y y > > > > > < < > > < < y > y y > > < < y > ' ' y > ' ' ' ' ' r > > 9 9 ' ' 9 9 9 0 9 9 0 0 0 0 0 0 0 9 0 0 x 9 0 0 0 9 9 0 0 9 9 0 9 9 9 0 9 9 9 0 0 9 r ' 9 9 < ' 9 9 ' r < r r r 0 9 0 9 9 x < r 0 9 r r 0 9 < < ' ' ' ' ' ' > > ' ' < < ' ' . . . . > > s s I I ' ' > > ' ' > > & & s $ > > # # > > ' ' ' ' ' ' 0 9 r r ' ' y > 9 9 ' r ' ' ' ' 9 9 < r 9 0 r ' ' r < r 0 9 r ' r r < < r < ' ' 0 0 0 9 r 9 0 0 9 9 9 9 9 0 0 0 x 9 ' ' 0 9 r r 9 9 ' ' 0 9 ' ' 0 9 r r 9 0 ' ' 0 0 ' ' ' ' r ' ' ' > > ' ' ' ' > > > > > > > > ' r > > O > > } > > - - r < > y < < y - - - & & [ [ [ a & } } I + + # . 6 6 6 6 s s . . > > I I } } f f >.>.W W 4 4 : : : : l t ) ) ` i K K c K % % # $ % % '.'.% % s $ $ '.$ $ $ $ K * 2 2 2 2 K K :.2 2 2 2 2 2 :.2 2 :.:.2 2 2 c 2 2 2 c 2 c * * c 2 * * c 2 * * c 2 ",
"2 2 2 2 2 2 2 C 2 2 2 2 2 2 d d 2 2 2 2 2 2 2 2 C 2 2 2 2 2 2 2 2 C 2 C C 2 e e $ $ $ $ % % $ $ B B $ $ _._.# # % % $ # c c 2 2 {.{.{.{.W W W W : : : : T T {.{.e e I I I I } } 5 5 | | J J # # # # . . - - } a a a & & } } } } > > > > ' ' > > > y > > > > > > r < > > y < > > > y > > < < O > ' ' y > ' ' ' ' ' ' y > 9 9 r ' 9 9 9 0 9 9 0 0 0 0 0 0 9 0 0 0 x 9 0 0 0 9 9 9 9 9 9 9 9 9 9 0 9 9 9 9 9 9 ' r 0 0 ' ' 0 0 ' r < r r r 0 9 0 9 9 x < r 9 9 ' r 9 0 < < r ' ' ' r ' > > ' ' < < ' ' . . . . > > s s I I ' ' > > ' ' > > & & s $ > > + # > > ' ' ' ' ' ' 0 0 r < ' ' > > 9 9 ' ' ' ' ' ' 0 9 r < 0 0 ' ' < r r r 0 9 ' ' ' r r y < r r ' 0 0 0 0 0 0 0 0 9 9 9 9 9 9 0 0 0 x ' ' 0 9 r r 9 9 r ' 0 0 ' ' 0 9 r r 9 9 ' r 0 0 ' ' ' ' ' r ' ' > > ' ' ' ' > > > > > > > > r ' > > O > > } > > - - y < < y < < - - - - & & [ [ [ [ } } } } + + # . 6 6 6 6 s s . . > > } } } } f f >.>.W W 4 4 : : : : t t  .) ` ` K K c K % % $ $ _._.'.'.% % $ $ '.'.$ $ $ $ <.* 2 2 2 2 K K 2 :.2 2 2 c :.:.2 2 :.:.2 2 2 2 c :.c 2 2 c * * c 2 * * c 2 * * c c ",
"e e 2 2 e e 2 2 2 2 2 2 d e 2 2 e e 2 2 e e 2 :.e e 2 C e e :.2 e e 2 C e e e e K K * * * * * * * * s s | | # $ | | c c d d K c | b + + + W ^.^.^.: ! ! : : >.7 8 8 6 } } } > > R R # # & & & & & & [ [ 3 3 a a [ [ } } a } < < y > y < > > ' ' > > > > I /.> > > > > y > > < < y > y < > > ' ' r ' ' ' > > ' ' ' ' ' ' 0 9 9 9 9 9 9 9 ' ' 0 9 ' ' 0 9 ' ' 0 0 ' ' 0 0 ' ' 9 9 0 0 0 9 9 0 0 0 r ' 9 9 < ' 0 0 ' ' ' ' ' ' 0 0 ' ' r ' ' ' 0 9 r ' 0 0 ' ' ' ' r ' ' ' ' ' ' r < y > > > > ' ' > > 9 9 y > > > s s > O O > ' ' y y ' ' 5 5 $ # > > ' ' ' ' ' ' < y ' ' y > ' ' ' ' r ' ' ' 0 9 ' ' r < ' ' 0 9 r ' 0 0 r ' 0 0 r ' 0 9 ' ' < r ' ' 9 9 r ' 0 0 r ' 0 9 ' ' 0 0 0 0 9 9 ' ' 0 0 S 9 9 9 < r 0 9 ' ' ' ' r ' 9 9 < < ' r r ' ' ' r ' ' ' > > > > > > > > > > > y > > > > y - > > - a - - } } > > - - y y > > > > a a } } [ [ [ a & & } } & & [ [ } } } } | | & & I I > O } 6 d d ~.~.T T : : : : : : : : + + ) ) 2 2 2 2 :.2 s s K * s s K * | * * * <.<.K K * | 2 2 :.2 2 C 2 2 e e C C [.[.2 2 e e C C e e d d d d c 2 2 2 2 c 2 2 2 2 c 2 2 2 ",
"e e 2 2 e e 2 2 2 2 2 2 d e 2 2 e e 2 2 e e 2 2 e e 2 2 e e 2 2 e e 2 C e e e e K K K * * * * * * * s s | | s $ * | c c d d 2 c b b + + W W ^.^.: : ! ! : : >.7 8 8 6 } } } > > R R # # & & & & & & [ [ & & a a [ [ } } } I < < y > y < > > ' ' > > > > /./.> > > > < y > > < < > > y y > > ' ' r ' ' ' > > ' ' r ' ' ' 0 9 9 9 9 0 0 0 r ' 0 0 r ' 0 9 ' ' 0 0 ' ' 0 0 ' ' 9 9 0 0 9 9 0 0 0 0 r ' 9 9 < ' 0 0 ' ' ' ' ' ' 0 0 r ' ' r < ' 9 0 ' ' 0 9 ' ' ' r ' ' r ' ' ' ' ' y y > > > > ' ' > > 0 0 > > > > s s > O > > ' ' y > ' ' 5 5 $ # > > ' ' ' ' ' ' y y ' ' y > ' ' ' ' ' ' ' r 0 0 ' ' r < ' ' 0 9 ' ' 0 0 ' ' 0 9 ' ' 9 0 ' ' ' r ' ' 9 9 < r 9 0 r r 0 9 ' ' 9 9 0 0 9 x ' ' 0 0 9 9 9 9 < r 0 9 ' ' ' ' ' ' 0 0 r < ' r r ' ' ' ' ' ' ' y > > > > > > > > > > > > y > > - - > > - a - y } } > > - - y y > > > > } a } I [ [ [ a & & } } & & [ [ } } } } | | & & } } > > } 6 d d ~.~.T T : : : : : : : : W + ) ) 2 2 2 2 2 :.s s K * s s K * | | K * <.<.K K * * 2 2 2 2 C C :.2 e e 2 C [.[.2 2 e e C C e e d d d d c 2 2 2 c c 2 2 2 2 2 c 2 2 ",
"| | | * @ @ * * | * * | * * | * * * 2 2 * * c c * * c c * * c c | * 2 2 2 2 K K . . % . 5 5 % . & & & 5 6 J 5 & & & * * | * 2 c }.}.t t : : W W ! ! : : T T ~.{.e e 6 6 > O O } & & s $ 6 6 6 6 6 > & & [ [ & 3 [ [ [ [ > > > > > > > > > y > > > > } a y > a a > > > > > < y > ' ' y > ' ' ' ' ' ' ' r ' ' > > ' ' ' ' 9 9 ' ' 0 9 ' ' 0 9 ' ' 0 0 ' ' 9 9 ' ' 0 0 ' ' ' ' ' ' 0 0 ' ' 9 9 0 0 9 9 ' ' 9 9 ' r ' ' ' ' 9 9 ' r 0 9 < < r ' ' ' 0 0 ' ' r ' > < ' ' < < ' ' > > ' ' > > > > > > ' ' ' ' r ' > > s s I I > > > > < y - - & & s $ ' ' y > ' ' ' ' ' ' > > > > > > ' ' Q > ' ' O > ' ' ' ' 0 9 ' ' 0 0 r ' r r ' ' 9 0 r ' ' r ' ' ' ' ' r 0 9 ' r 0 0 ' ' 9 0 < r 9 0 ' ' 0 0 < r 9 0 r r 9 9 ' ' ' r r ' ' r r ' 0 0 r ' r < < < ' ' ' ' ' ' > > ' ' > > ' ' > > ' ' > > r ' > > > > ; } a a } } > > - - y > } } > > } } a - & & [ [ & 3 } } a [ } } = & # $ % R > > } I > I e f t t : : 4 4 W W 4 4 l t W W  . .c c c c * * 5 5 & & & 5 5 5 . . 5 5 % . % % B B * * 2 2 K * * * * * c c * * | * | | | * * | * * s s | * s $ | | $ $ | * s $ * * ",
"| * * * @ @ | * * | * * * * * * * * 2 2 * * c c * * c c * * 2 2 * * 2 2 2 2 K K . . . % 5 5 . . & 5 5 5 J 6 & & & & | * * | c c }.}.t t : : W W ! ! : : T T ~.{.e e 6 6 > O } } & & s s 6 6 6 6 6 6 & & [ [ & 3 [ [ [ [ > > > > > > > > > y y > > > a a > > a a > > > > > y > > ' ' y > ' ' ' ' ' ' ' ' r ' > > ' ' ' r 0 0 ' ' 0 9 ' ' 0 0 ' ' 9 9 ' ' 0 9 ' ' 0 0 ' ' ' ' ' ' 0 0 ' ' 0 0 0 0 9 9 ' ' 0 0 ' ' ' ' r ' 0 0 r < 0 9 < < ' ' ' ' 0 9 ' ' ' r y y ' ' < < ' ' > > ' ' y > > > > > ' ' ' ' ' ' > > s s } } > > > > y y y - & & s $ ' ' < y ' ' ' ' r ' > > Q Q Q Q ' ' > > ' ' > > ' ' ' ' 9 9 ' ' 0 0 ' ' ' r < ' 9 0 ' ' ' r ' ' ' ' ' ' 0 0 r < 0 0 r ' 9 0 < r 9 0 ' ' 9 0 r ' 0 9 r r 0 9 ' ' ' r ' ' r ' ' ' 0 9 r r r < r y ' ' ' ' ' ' Q > Q ' > > ' ' y > ' ' > > ' r > > > > } } a } } } > > - - y > } } > > } } - - & & [ [ & & a } [ [ ; } & & $ # R R > > } I > I f f t t : : 4 4 W W 4 4 t t W W  . .c c c c * * 5 5 5 & & 5 5 5 .   & 5 % % % % . B * * 2 2 K * * * * * 2 c * * * * | | | * | | * * s s | * s $ * | $ $ | * $ $ | * ",
"@ @ $ $ | * $ $ | * | * * * $ $ * * @ @ | * * | 2 2 * * 2 2 * * * | * * 2 2 * * . % 5 5 5 5 5 5 & & 6 6 & & } } & 5 | | c c * * t t W W t t T T : : : : : : ~.~.8 8 6 } } } O O R R # $ 5 & } } [ [ } } & & } } - - y > } - > > a a > > > > < < y > y y a a > > a } > > > > > y y > ' ' y > ' ' > > ' ' > > > > } I ' ' r ' r 9 9 0 0 0 ' ' 0 0 r < 0 0 r ' 0 9 ' ' ' ' < r ' ' < < 0 0 ' ' 0 0 ' ' 9 0 ' ' r ' < ' ' ' ' ' x 9 ' ' ' ' ' ' 0 9 ' ' ' r < < ' ' > > < < > > } } a } > > } } > > ' ' ' ' > > > > s s > > > > > > - - y > R R s s a a r ' > > > y } } > > } } & & & & > > > > ' ' < r ' ' r ' 9 9 ' ' r ' ' ' ' r r ' ' ' ' r 0 0 ' ' r ' < < r ' ' ' 0 0 r r 0 0 ' ' 9 9 ' ' 0 0 9 0 9 0 ' ' r ' < ' ' r < ' 9 0 ' r r ' y y < y } } > > > > ' ' > > ' ' > > ' ' > > Q > a } } } } 6 > > - - y > } - > > > > < y > > - - } } a } [ [ } } a [ } a & & } } | | & & I I > > } } e d ~.~.4 4 : : : : l l t l W W W W 2 2 * * K * J J 5 5 & & 5 5 5 5 R R & 5 . % % % * * K K c K $ $ * * | | | * s s | * $ $ | * s $ * * s $ | | $ $ s s # $ $ s $ $ ",
"# @ # $ | | @ $ * * | * * * $ $ * * @ @ * * | | 2 2 * * 2 2 * * <.* * * :.2 * * . % 5 5 5 5 & 5 5 & } } & & } } & 5 | | c c * * t t W W t t T T : : : : : : ~.~.8 8 6 } } 6 > > R R # $ & & } } [ [ } } & & } } - - y > } - > > } a > > > > < y > > y y - a > > } I > > > > > y > > ' ' > > ' ' > > ' ' > > > > } I ' ' ' r 9 9 9 9 0 0 ' ' 0 0 r < 0 0 r ' 9 0 ' ' ' ' < < r ' < < 0 0 ' ' 0 0 ' ' 9 9 r ' ' r ' ' ' ' ' ' 0 0 ' ' ' ' ' ' 0 9 ' ' ' r < < ' ' > > < r > > } a } I } > } } > > ' ' r ' > > Q > s s > > > > > > a - > > R R s s } a r ' > > > y - } > > } } & & & & > > > > ' ' r < ' ' ' ' 0 9 ' ' ' r ' ' ' r ' ' ' ' ' ' 0 0 r ' ' r y < 0 r r ' 9 0 r r 0 9 ' ' 9 9 ' ' 0 0 9 0 0 9 ' ' < r ' ' r ' ' ' 0 9 r r r ' y y y - a } > > > > ' ' y > ' ' > > ' ' > > > > a } } } } } > > - - > > a - > > > > > y > > - - } } } } [ [ } } [ [ [ a & & } 6 | | & & I I > > } I d d ~.~.4 4 : : : : l l t l W W W W 2 2 * * | K J J 5 5 & & & 5 5 5 R R & 5 % % % % | * * K c K $ $ * * | | | * s s | * $ $ | * s $ * * s $ * | $ $ s $ $ $ s $ $ $ ",
"$ # @ # s $ * * # @ * * $ $ * * * * * | * * | * * * 2 2 * * c 2 $ # | * 2 2 * * . . % . 5 5 5 5 5 & & 5 6 6 = & & & * K * * c c t t }.t : : : : : : : : ^.^.>.>.f f 6 6 I I } } 5 & | | 6 6 6 6 } } a [ } } } } > > > > O > > > a a } } > > } a > > } } > > } a > > > > > > y > > > > > ' r > > > Q > > > > I } } 6 > > ' ' ' ' 0 0 ' ' ' r < < ' ' < y 0 0 < < 9 9 ' ' 0 0 r < 0 0 ' ' 0 0 ' ' r ' ' ' 0 9 ' ' ' r ' ' ' ' ' ' ' ' r ' 9 9 r ' ' ' > > r ' > > > > > > } } & & & & # + & & } } > > 6 } > > } } s s I I ' ' y > < < > > & & | * } } a } > > } } } } . . & & # # # # } } > > } } ' ' y > ' ' ' ' ' ' ' ' ' r ' ' r r ' ' r ' ' ' ' ' ' ' 0 9 ' ' ' r r ' 9 0 r r 0 9 ' ' 9 9 9 0 0 0 r < > ' < y ' ' ' ' 0 0 ' ' r ' > > > > > > > > > > > > > > > > y > > > > > > > > > > > } } > > > > O > } } a - - } a a } } - - } a > > [ [ - - } a a a & & } } & & s $ 5 5 > > } I > I f 8 >.>.: : T T W W : : t t W W l t * * * <.s s 5 5 5 & & 5 5 5 R R & 5 % . . % %   | | 2 2 * * | | c c * * $ $ | | | | | | $ # s s s s | * $ $ | * $ $ | * $ $ | | ",
"$ $ $ # s $ * * # @ * * $ $ * * * * | * * * * | * * 2 2 * * 2 c @ @ | * 2 2 * * . . . % 5 5 5 5 & & 5 5 6 6 & & & & | * * | c c t t t t : : : : : : : : ^.^.>.>.f f 6 6 I I } } 5 & | | J 6 6 > & } [ [ a } } 6 > > > > > > > > - a a } > > } a y > a } > > - a > > > > > > Q > > O > > r ' Q > > > > > > > } } } 6 > > ' ' ' ' 9 9 ' r ' ' < < ' ' < y 0 0 r < 9 0 ' ' 0 0 r < 0 0 ' ' 0 0 ' ' ' ' ' ' 0 9 ' ' ' r ' ' ' ' r ' ' ' ' ' 0 0 ' ' ' ' > > ' ' > > > > > > } I & & & & # # = & } } > > } } > > } } s s } a ' ' y > < < > > & & * * } } a } > > } } } } . . & 3 # # # # } } > > } } ' ' y > ' ' ' ' ' ' ' ' ' ' r ' ' r r ' ' ' ' ' ' ' ' ' 0 0 ' ' < r ' ' 0 9 r r 9 9 ' ' 9 9 9 0 0 0 < < r ' y < ' ' ' ' 0 9 ' ' ' ' > > > > > > > Q > > > > > > > > > > y > > > > > > > > > I } > > > > > > } } - - a } } a a } } - a a > > a [ - - } a a a & & } } & & # $ 5 5 > > } I > I f 8 >.>.: : T T W W : : }.t W W t t * * * * s s 5 5 & & 5 5 5 & R R & 5 . % . . % % | | c 2 * * | | c c * * $ $ | | | | | | $ # s s s s | * $ $ | * $ $ | | # $ | | ",
"$ # $ $ # @ # $ * * s $ * * @ $ * * * * | * * * | * * | 2 2 * K * * * <.2 c | | % . 5 5 % % 5 5     5 5 & 5 = = & 5 | | 2 2 | * t t W W l t : : : : : : W W >.>.8 8 6 } } } O O R R # $ & & } } & & & & & & } } } } } a } } > > } } a a } } > > a } > > a } > > } } > > } } > > } } > > > > ' ' > > > > a } > > a } > > ' ' ' ' ' ' ' ' < < ' ' < < ' ' y < ' ' ' ' 0 0 r ' 0 0 ' r 9 9 ' ' ' ' ' < ' ' ' ' < r ' r ' ' ' ' ' ' < < ' ' ' ' ' ' y y ' ' > > > > ; } } } & & c c # # & & . . & & 6 6 > > a } } } K K 6 6 > > ' ' > > > y . . s s } } } } } } } } . . # # . . # # * * J J 6 } } } > > r N > > ' ' r ' ' ' ' ' < r y y 0 0 ' ' ' ' ' ' 9 9 ' ' r r ' ' r r r ' ' r r ' r r ' r 9 9 ' ' ' r < < ' ' < < r r ' r ' ' < < r ' } } a a } } > > > > ' ' > > > > > y > > > y ' ' > > > y > > > > > y > > } } - - } } } } } a a } } } a a } } } } a [ } } & & J J | | & & 6 } } > 6 6 f f ~.~.: : W W : : W W W W t t t t 2 2 | * * * 5 5 5 5 & & % % & 5 . . 5 5 . % % % * * 2 2 c c $ $ * * | | * | s $ * * | | * * s s * | $ $ | | $ $ $ # @ $ $ # @ $ ",
"@ @ # $ $ # @ $ * * s $ * * $ # * * * * * * * * * | * * 2 2 * K * * * * 2 2 * | % % 5 5 % % 5 5     5 5 & 5 = = 5 5 | | 2 2 * * t t W W l t : : : : : : W W >.>.8 8 } } } } O O R R $ $ & & 6 } & & & & & & } } } } a } } } > > } } } a a } > > a } > > } } > > } } > > } } > > } } > > > y ' ' > > > > } } > > } } > > ' ' ' ' ' ' ' ' < < ' ' < < ' ' < y ' ' ' ' 0 0 r ' 0 0 ' r 9 9 ' ' ' ' < < r ' ' ' < r ' ' ' ' ' ' ' ' < < ' ' ' ' ' ' y y ' ' > > > > ; } } } & & c c # # & & . . & & } 6 > > } } } } K K 6 6 > > ' ' > > > y . . s s } } } } } } } } . . # # . . # # * * J J I } } } > > < < > > ' ' ' ' r ' ' ' < r y y 0 0 ' ' ' ' ' ' 9 9 ' ' ' r r ' r r ' r ' r r ' r ' r r 9 9 ' ' ' ' < < ' ' < < < r r ' ' ' < < r ' } } a a } } > > Q Q > ' > > > > > > > y > > ' ' > > > > > > > > > > y > } } a - } } } } } O a } } } a } } } a } [ [ } } & & 6 J | | & & 6 } O O 6 6 f f ~.~.: : W W : : W W W W t t t t 2 2 * * * * 5 5 5 5 5 & % % 5 5 .   & 5 % % % . * * 2 2 c c $ $ * * | | | | s $ * * * | * * s s | | # $ | | $ $ # @ $ @ @ @ # $ ",
"$ $ # @ $ @ @ @ @ $ * * | * * * * * c c 2 2 c c | | 2 2 * | 2 2 @ @ 2 2 :.2 K * % . % %         & 5 . . & & & 5 5 & | * * | c c t t t t t t t }.: : l l W W {.{.8 8 & & O O I I 5 5 | | 6 6 J J } } & & [ [ & & 6 } & & } 6 } } } } & & 6 } & & a } } } a } } } > > } } > > } } > > a } > > > > > y } } } } O a > > } } ' ' ' ' 9 0 ' ' ' ' < < r < < r ' ' < < 9 9 ' ' 9 9 r < ' ' ' ' 0 0 < < ' ' y y r ' < < r ' ' ' ' r y y ' ' < y ' ' ' ' ' ' y y < < > > > y & & & 5 e e ' ' ' ].# # . . } } } } O > & & * * J J > > y < < > - - R R K K } } } } O a 6 6 | | . . o o . . # # . . } } } } > > > > ' ' ' ' ' ' ' ' ' ' ' ' ' ' ' ' ' ' > > y < < r ' r < < ' ' ' ' r r < < r ' ' ' 9 9 ' ' r r < < ' ' < < ' ' < < ' ' < < r ' > > a } & & 6 } O } > > > > > y } } > > } } > > > > > > > > > > > > > > } } } } } } O a & & 6 } [ [ & & [ [ [ [ & & } } a [ } } & & | | . . O O I } } } j j {.{.W W W W }.}.: : t t W W  . .K K c c * * R R & 5 .   . % % % 5 5 % % % % # # s s 2 2 K * * * | * K K | | * | | * 2 2 | | | * $ $ @ # $ $ $ $ $ $ $ @ s $ # $ ",
"$ $ @ @ # $ $ @ @ $ * * | | * * * * c c c 2 c c | | 2 2 | | 2 2 @ @ 2 2 :.2 K * % % % .         & 5 . . & & & 5 & & K * * | c c t t t t t t }.}.: : l l W W {.{.8 8 & & } O O I 5 5 | | 6 6 J J } } & & [ [ & & 6 } & & a } } } } O & & 6 } & & a } } } a a } } > > } } > > } } > > } } > > > > > y } } } } } } > > ; } ' ' ' ' 0 0 ' ' ' ' < < r < < < r ' ' < 9 9 ' ' 9 0 r < ' ' ' ' 0 0 r < ' ' y y r ' < < r ' ' ' ' ' y y ' ' < y ' ' ' ' ' ' y y < < > > > y & & & 5 e e ' ' ' ].# # . . } } } } O > & & * * J J > > y < y y - - R R K K } } } } } O & 6 | | . . o o . . # # . . } } } } > > > > ' ' r ' ' ' ' ' ' ' ' ' ' ' ' ' ' ' y > < < r < ' r < < ' ' ' ' r < ' < < r ' ' 0 9 r ' < r r < < ' < < ' ' < < ' ' < < ' ' > > } a & & 6 } O } > > > y > > } } > > } } > > > > > > > > > > > > > > O I } } } } O a & & } 6 [ [ & & [ [ [ [ & & } 6 [ [ } } & & * | . . } O O I } } j j {.{.W W W W }.}.: : t t W W  . .K K c c * * R R & 5 . % . . % % 5 5 % % % % # # s s 2 2 | * * * * | K K | | | * | | 2 2 | | * * $ $ # @ $ $ $ $ $ $ @ s $ $ # $ ",
"* * s $ * * $ $ | * $ @ * <.* * 2 2 $ $ # # @ @ @ @ # @ 2 2 | | * * * <.2 c | | # @ . . % . 5 5 % %         & & & 5 | | 2 2 * <. . .W W t t W W t t W W W W {.{.8 j 6 6 } } > 6 . . | | & & } 6 & & [ [ & & & & & & } } & & 6 } & & a } & & 6 } O } > > } } - a } } > > > y > > } } > > } } > > a } } } } } > > > y > > > > ' ' < < r ' > > < < > > < < < < 0 0 ' ' 9 0 < < ' ' < y 0 ' y y y < > > ' ' > > y < > > ' ' ' ' ' ' > > < < y > ' ' ' ' ' ' > > , > a } & & . . + + > > q q . . | | 6 J } } > > & & * K 6 6 } } > y y > > y % % K K } } > > a } & & | | I I q q 6 6 | | & & & & > > } } > > y > ' ' y y ' ' > > r ' < r ' ' < y > > > y ' ' < y < < r < ' ' ' ' ' ' ' ' 9 9 ' ' r r < < ' ' < y ' ' y y ' ' y y ' ' < < < < y > > > ; } } } } } O > } } > > } } > > > > > y > > > > a } > > } } > > } } } } } } O a & & } } & & [ [ & & 6 } & & a [ & & 6 6 | * 5 5 } } } } J J 8 8 {.{.W W }.}.W W }.t t t t t t }.c 2 | * K K 5 5 .   & 5 % % % . % % . . % B % . * * c K K K s $ K K * * * | @ # @ @ @ @ | | * | * * $ s | * s $ | * s $ * * $ $ ",
"* * s $ * * $ $ | * @ @ * <.* * 2 2 $ $ # # @ @ @ @ @ @ 2 2 | | | * * * 2 2 * | @ @ . . % % 5 5 % %         & & & 5 | | 2 2 | *  . .W W l t W W t t W W W W {.{.8 j 6 6 } } } > . . | | & & 6 } & & a [ & & & & & & } } & & } 6 & & } 6 & & } } } } O > } } } a a } > > > > y > } } > > } } > > } } } } } } > > > > y > > > ' ' < < r ' > > y < y > < y < < 0 0 < ' 0 0 < < ' ' r < < ' ' < r < > > ' ' > > < r > > ' ' r ' < ' - > < r > > ' ' ' ' r ' > > > > a } 5 & . . + + > > q q . . | | J J } } > > & & K K } } } } > y > > y < % % K K } } > > } } & & * | I I q q 6 6 | | & & & & > > a } > > > > ' ' y y ' ' > > ' ' y < ' ' < y > > > > ' ' < y < < < r ' ' < ' ' ' ' ' 9 9 ' ' ' r < < ' ' < y ' ' < y ' ' < y ' ' < < < < > > > > ; } } } } } O > } } > > a } > > > > > > y > > > } } > > } } > > } } } } O a 6 } & & } 6 & & [ [ & & } } & & [ [ & & } } * * 5 5 } } } } J J 8 8 {.{.W W }.}.W W t t t t t t t }.c 2 | * K K 5 5 . . & 5 % % . % % . . . B B % . * * c K K c s $ K K | * * | # @ @ @ @ @ | | * | * * $ s * * s $ * * s $ * * $ $ ",
"@ @ | * s $ * * $ $ * *  . .+ W 4 4 4 4 4 ! T T W W ) ) ) ) ` ` c c 2 2 2 2 K * # $ $ $ # @ # @ . . % % .   . . . . * * * | 2 2  . . . .t t t t }.}.}.}.W W {.{.e e & & O I I } R R | | 6 6 $ $ 0 0 ' ' } } } } O a 6 } } } & & [ a } } } a } } } } } } O > } } > > } } > > > > > y > > > > } } > > } } > > > > ' ' > > ' ' > > ' ' < < ' ' r < ' ' < < 0 9 < y 0 0 ' ' 0 0 < y ' ' ' < ' ' < r ' ' y < r < > > ' ' > > ' ' > > < < > Q < < y y ' ' y > < y - - } } & & & & * | > > 9 9 & & c c . . } 6 > > # # * * J 6 > > > > > y } } R R 2 2 . . ' ' J J 5 5 B B 6 6 o o & & # # R R } } } } y y > > < y > > ' ' Q Q y < > > ' ' > > > > > y > > > > < < > y ' ' y < < r ' ' ' ' < < r ' < < ' ' < y ' ' > > < < > > < < > > ' ' < y ' ' > > > > } } } } } } > > > > ' r > > > > > > > > y > > > } } } } } O > > y > > > } } } } & & 6 } & & & & & & 9 9 ' ' . . } 6 $ $ R R } I I } 6 6 k k {.{.W W W W l t t t t }.W W  . .2 2 2 2 K * % % + + @ @ % % + @ . . @ @ % % '.'.<.<.:.:.| * 2 2 ) ) ` `  . .+ W T T T T { { 4 4 W W ) ) * | | | $ $ | | $ $ K * ",
"@ @ * * s $ * * $ $ * *  . .+ W 4 4 4 ! ! ! T T W W ) ) ) ) ` ` c c 2 2 2 2 * * $ $ @ $ # @ # @ . . % % .   . . . . K * * * 2 2  . . . .t t t t }.}.}.}.W W {.{.e e & & } I I } R R | | 6 J $ $ 0 0 ' ' } } } } O a 6 } } } & & [ a } } } a } } } } } } > > } } > > } } > > > > > > y > > > } } > > a } > > > > ' ' > > ' ' > > ' ' < < ' ' r < ' ' < < 0 0 < < 0 0 ' ' 0 0 < < ' ' < y r ' r N ' ' < y y < > y ' ' > > ' ' > > < < > > < r y y r ' > > y < - - } } & & & & * | > > 9 9 & & K c . . 6 6 > > # # * * J 6 > > > > > > } } R R 2 2 . . ' ' J J 5 5 B B 6 6 o o & & # # R R } } } } y y > > < y > > ' ' > > y < > > ' ' > > > > > y > > > > < < < > ' ' < < r < ' ' ' ' y < ' ' < < r ' < < ' ' > > y < y > < < > > ' ' < y ' ' > > > > } } } } } } O > > > ' ' > y > > > > > > > y > > } } } } } } > > y > > > } } } a & & 6 } & & & & & & 9 9 ' ' . . 6 6 $ $ R R } I } } } } k k {.{.W W W W t t t t }.}.W W  . .2 2 2 2 * * B % # # @ @ % % # @ . . @ @ % % $ '.* * 2 :.| * 2 2 ) ) ` `  . .+ W T T T T { { 4 4 W W ) ) | | | | $ $ | | $ $ | * ",
"* * | | | * * <.<.* * * W W T T -.-.-.-.T T t t ` ` ` ` ` ` ` ` 2 2 2 2 :.2 * * $ $ % % # @     # # % % # # . . s $ | | :.:.* *  . .t t }.t W W t t W W W W ~.~.8 8 6 6 } } I I . . s $ & 5 $ $ 3 3 . . & & 6 } O } } } } } O a 6 } - - } } - - } } - a } } } a } } > > > y > > Q Q > ' > > > > } } > > } a > > y > > > > > ' ' y > r < > > < < > > r ' ' < ' ' < < r ' r < ' ' < y ' ' < < r ' ' ' ' ' < < r ' y > < y > > y > > > > < > > ' ' > > y < > > > > a } } [ . . # # } } 9 9 . . | | . . * | C C & & * K I I } } > > } } > > . . K K $ $ | | 2 2 6 6 s s } I ' ' 5 5 | | & & } } > > > > < y > > ' ' > > < y > > y < > > < < y > ' ' - > ' ' y y < r < < r ' ' < ' ' y < ' ' < r ' ' < < ' ' y < < < y > r < > > < < y > > > y > > y y > > > a } > > } } > > > y > > } } y > } } } } } } > > } } > > } } > > } I } } & & } } & & } } & & } } . . . . | * 5 & | | & & 6 6 > O J J 8 f ~.{.W W W W : : t t t t  . . . .2 2 * * 2 2 % % # # @ + s $ # # # # % % $ $ s $ K K | * 2 2 c c h h i ` ` i i `  . .W W ! ! -.-.T T T T | | * | | * $ $ K * $ $ ",
"* * * | | * * <.* * * * W W T T -.-.-.-.T T t t ` ` ` ` ` ` ` ` 2 2 2 2 2 2 * * $ $ % % @ #     # # % % # + . . $ $ | | :.:.* *  . .t t t }.W W t t W W W W ~.~.8 8 6 6 6 } } I . . s $ 5 5 $ $ 3 3 . . & & } } } } O a 6 } } } } } a - } } a - } } } a a } } } a } > > > y > > > > ' ' > Q > > } } > > } a > > > y y > > O ' ' > > y < > > r < > > ' ' < < r ' < y (.' r < ' ' r < ' ' < < ' ' ' ' ' ' r y ' ' y > > y > > < > > > < y > > ' ' > > < < > > > > a } } [ . . # # } } 9 9 . . | | . . * | C C & & K c I I } } > > } } > > . . K K $ $ | | 2 2 6 6 $ s } I ' ' 5 5 | | & & } } > > y > r < > > ' ' > > < y > > y < > > < < > > ' ' > > ' ' y y r ' < < r ' ' < ' ' y < ' ' < < < ' < < ' ' y y < < > y > < > > < < > > > > > y > y y > > > } } > > } } > > > y > > } } > > } } } } } } > > } } > > } } > > ; } } } & & 6 } & & a } & & } I . . . . | * & & * | & & 6 } O } } J f f {.{.W W W W : : t t t t  . . . .2 2 * K 2 2 % % # # @ + $ s # # # # % % $ @ s $ K K | * 2 2 c c h h ` ` ` i ` `  . .W W ! ! -.-.T T T T | | * | | * $ $ | * # $ ",
"* * <.* * | * <.) {.+ # ! ! ] ] ] ] -.-.) ) ` ` ` ` ` ` ` ` h h c c 2 2 * * | * $ $ # # + + ) {.4 4 ! 4 4 ! 4 4 T T t t ) ) ` `  . . . .t t t t }.}.}.}.}.}.{.{.8 8 & & O I 6 6 . . | | J J $ $ # # & & } 6 } } } } } O a I I } - - } } } } } } O I I } 6 } } } } O } } > > > > ' ' y > > > a } } } ; } > > > > > > > > > > > y < y > > r < > > < < y > ' ' r y y < < < ' ' < y ' ' < < r ' y > r ' ' ' ' ' Q > < < y > > > > > > > > > y y > > ' ' > > < y - - y > } } & & | | I I ' ' 5 & | | & & & & 6 6 R R s s } 6 > > > O O > } } & 5 c c } } & & J J R R # # & 5 9 9 . . $ $ & & > > 6 } > > > > < < > > < < > > < < > > < y y > < < > y ' ' > > r ' r < ' < y y ' ' y y ' ' y < ' ' < < ' ' y < ' ' > > < < > > < y > > < < > > > > > y > > > > > > a } } } > > > y > O > > a } > > } } } } } } } O a 6 } } } } > > a } } } } } } } } } > > } } # # * | & & 6 J $ s . . } 6 I I } I j j {.{.W W W W W W t t }.}.) ) ) ) 2 2 ` ` t t : : ! ! ! ! 4 ! 4 4 W W W + # # | | * * c c <.* 2 2 d d d d 2 2 h h ` ` ` ` T T -.-.] ] ! ! + # ) ) * * * * $ $ | * ",
"* * <.* * * * * ) {.+ + ! ! ] ] ] ] -.-.) ) ` ` ` ` ` ` ` ` h h c c 2 2 * * * K $ $ # # # + ) {.4 4 ! 4 ! ! 4 4 T T t t ) ) ` `  . . . .t t t t }.}.}.}.}.}.{.{.8 8 & & O I 6 6 . . | | J J $ $ # # & & } 6 } } } } } } O I } } a - } } } } } } O I } } } } } O I } } } > > > > ' ' > > > > } } } } ; } > > > > > > > > > > > > y < > > r < > > < < > > ' ' r y y < < < ' ' y < ' ' < < r ' > > r ' ' ' ' ' , > < < > > > > > > > > > > y y > > ' ' > > < y - - y > } } & & * | I I ' ' & & * | & & & & } 6 R R s s } 6 > > > O > > I I 5 5 c c } } & & J J R R $ # & 5 9 9 . . s $ 5 & > > ; } > > > > < < > > < < > > < < > > > y > > y < < > ' ' > > r ' r < ' < y y ' ' y < ' ' < y ' ' < < ' ' < < r ' > > < < > > r < > > r < > > > > > y > > > > > > } } } } > > > y > O > > } } > > } } } } } } } O a 6 } } } } > > } } } } } } } } ; } y > } } # # * | & & 6 J s s . . } 6 I I I } j j {.{.W W W W W W t t t }.) ) ) ) 2 2 ` ` t t : : ! ! ! ! 4 ! 4 4 W W W + # # | | | * 2 2 <.* 2 2 d d d d 2 2 h h ` ` ` ` T T -.-.] ] ! ! + + ) ) * * * * $ $ | * ",
"| * <.* * * K $ ` ` 3 3 { { ] ] -.-.: : ` ` {.` ` ` ` ` h h ` ` 2 2 c c 2 2 * * | | 2 2 + + 3 3 ! ! ] ] ] ] ] ] -.-.T T W W ) ) >.>.t t }.}.W W t t W W W W ~.~.j j } } } } O I . . s $ 5 5 5 5 5 & } 6 } } } } } } > > } } O O I } } a } } > > } } > > } } /./.} } > > > > > > > > > > } } > > a } y > > > y > > > > > > > > > Q > < y > > ' ' < y ' ' < < ' ' < < < < r < ' ' < < < y ' > < < > y ' ' y y ' ' > > > > - a > > y > > y > O ' ' > > < y > > O > a } } } & & # # } } ].].. . # # . . J J } } } } K * I I } I > > I I > > . . | | R R } I 5 5 5 5 $ s } 6 ' ' 5 & $ $ J J } } > > a } > > > > > > > y > < > > < y y > > > > > ' ' > y ' ' > > ' ' > > r < y y ' ' y y < < > > ' ' y y ' ' y y ' ' > > r < > > < y y < ' ' > > ' ' y > > y } } } } } } O > > > > y > > > > } } } } } } > > } } } } } } > > } } > > > > > > a } > > } } } } & & } } 6 6 J J * * 5 & } 6 > > 6 6 j j {.{.W W }.t W W  . .t t  . . . .c 2 . . 4 4 -.-.] ] ] ] -.-.{ { 3 3 W W 2 2 c c 2 2 c c c 2 2 :.d d 2 2 h h 2 2 h h ` ` t t -.-.] ] { { 4 4 W W 2 2 * * * * <.<.",
"* * | * * * * K ` ` 3 3 { { ] ] -.-.: : ` ` ` ` ` ` ` ` h h ` ` 2 2 c c 2 2 * * | | 2 C + + 3 3 ! ! ] ] ] ] ] ] -.-.T T W W ) ) >.>.t t }.}.W W t t W W W W ~.~.j j } } } } } O . . s $ 5 5 5 5 & & } 6 } } } } 6 > } > } } > O O 6 a } } } > > I I > > a } } /.} a > > > > > > > y > > } } > > ; } y > > > y > > > > > > > > > Q > < < > > ' ' < < ' ' < y ' r < y < < < r ' ' y < < < > > < < y < ' ' > y ' r > > , > - - > > > > > y > > ' ' Q > > < > > > > } a } } & & # # } } ].].. . # # . . J J } } } } K * I I } I > > } } > > . . | | R R } I 5 5 5 5 s s } 6 ' ' 5 & $ $ J J } } > > } } > > > > > > y > < < > > < y > > > y > > ' ' y > ' ' > > r ' > > r < < y ' ' < y < < > > ' ' y y ' ' y < r ' > > < y < > r < y < ' ' > > ' ' > > > > } } } } } } O > > > > y > > > > } } } } } } > > } } } } O I } > } } > > > > > > a } > > } } } } & & } } } } J J | * 5 & 6 6 > > 6 6 j j {.{.W W }.t W W  . .t t  . . . .c 2 . . 4 4 -.-.] ] ] ] -.-.{ { 3 3 W W 2 2 c c c 2 c c c 2 2 :.d d 2 2 h h 2 2 h h ` ` t t -.-.] ] { { 4 4 W W 2 2 | * * | * <.",
"* * * K * * 2 2 W W T T -.-.-.-.- - {.{.{.` d d ` ` ` ` {.{.` ` ) {.) ) {.) ) ) i ` ) ) W W 4 4 ] ] ] ] ( ( ( ( |.|.{ { 4 4 l l {.{.{.{. . . . .}.}.t t }.}.{.{.f f & & O I 6 6 R R | * J J 5 5 } } & & 6 } & & } } } } > > } I } } & & 6 } O } } /./.I > > > > > > } } > > > > > > } } > > } } > > } } > > > y > > > > > > > > < y y > ' ' < < ' ' < < ' ' > > < < > > ' ' < < y < > > y < r < ' ' < y ' ' y > (.' y > > > a - ' ' > > ' ' < y > y > > > > } } } } & & & & @ $ } } > > . . | | & & & & } 6 & & s s J J } } } } } } } O . . | | 6 6 6 6 J J 5 5 $ # J J ].].. . # # 5 & } } } } } } } } ' ' > > > y > > ' ' > > > > y - > > > y ' ' > > < y y < < < > > ' ' < < ' ' > y ' ' y < ' ' > > y < y > y < > > < < > > r < > > ' ' > > > > > > > > } } > > a } > > } } > O I } } } } } } } } } O > } } > > } } } } } } } } } } > > 6 6 O } & & & & & & & & . . | | & & I I } 6 J J 8 j {.{.W W W W t t W W >.>. . .{.{.l l 4 4 ] ] ] ] ( ( ( ( |.|.-.-.4 4 l l ) ) ` ` ` ` i ` ` ` {.` {.{.` ` ` ` h h h h d h {.{.+ + ] ] -.-.T T + W * | * * @ $ * * ",
"* * * * * * 2 2 W W T T -.-.-.-.- - {.{.` ` d d ` ` ` ` ` {.` ` {.) ) ) {.) ) ) ` ` ) ) W W 4 4 ] ] ] ] ( ( ( ( |.|.{ { 4 4 l l {.{.{.{. . . . .t }.t t }.}.{.{.f f & & O I 6 6 R R K * J J 5 5 } } & & } } & & } } } } > > } I } } & & 6 } O } } /.I I > > y > > > } } > > > > y > } } > > } } > > } } > > > > y > > > > > > > < r > > ' ' < y ' ' < < ' ' y > < < > > ' ' < < < < > > < < r < ' ' y > ' ' y > ' ' > > y > - - ' ' > > ' ' < y < y > > > > } } a } & & & & $ $ } } > > . . | | & & & & 6 } & & s s J J } } } } } } } O . . | | 6 6 6 6 6 J 5 5 $ # J J ].].. . # # 5 & } } } } } } I I ' ' > > > y > > ' ' > > > > - - > > > y ' ' > > y < y > < < > > ' ' < y ' ' y y ' ' y y ' ' > > < < > > y < > > < < y > r < > > ' ' > > > y > > Q > } } > > a } > > } } > > } } } } } } } } } O > } } > > > } I } } } } } } } } > O } } } } & & & & & & & & . . | | & & I I } 6 J J j j {.{.W W W W t t W W >.>. . .{.{.l l 4 4 ] ] ] ] ( ( ( ( |.|.-.-.4 4 l l ) ) ` ` {.` ` ` i ` {.` {.{.{.` ` ` h h h h h h {.{.+ + ] ] -.-.T T + W * | * * $ @ * * ",
"* * * * * * * K W W T T -.-.-.-.t t {.{.d d 2 2 ) ) + + + # W + ) ) W + # + + + + W T T W W T T ! ! ] ] ( ( 1.1./ / ] ] 4 4 l l i i  . . . .t t }.}.t }.t t ~.~.8 8 } 6 6 } } I . . | | R R 5 5 & & & & & & } } & & 6 } O } } /.& & O I 6 6 I I } 6 } /./.I > > a } > > } } > > } } > > } } > > } } > > > > > > > > ' ' > > > > > y < y > > ' ' < < ' ' y > < < > > < < > > y < > > < y y > < r y y ' ' > > ' ' < y < N - - > > > O < < > > ' ' > > > > } } } } [ [ } } & & # # & & ' ' . . | |   . & & 3 3 } } K K J J } } } } } } } } # # * | & & 6 } & J 5 & | | & & Q Q & & s $ & & } } } } } } > > > > y > y > y y > < ' ' > > > > > > ' ' y y ' ' < y r r > > < < < y ' ' y < ' ' > y ' ' y < ' ' > y ' ' < y < < y > < y ' > y y > > ' ' > > > > } } > O } } > > } } > > > > > > } } > > ; } > > } } > > O I } } & & & & & & } I } } a } & & & & & & & & & & & & * * 5 & J J } } 5 5 f f i i W W t t t t t t }.t  . .i i l t T T { { / / ( ( _ _ &.&.! ! 4 4 : : W W W W W W W + W + + + W W W W + + + + ` ` {.` ` i + W { { ] ] T T T T 2 2 | | * * * * ",
"* * * * * * * K W W T T -.-.-.-.t t {.{.d d 2 2 ) ) + + + # W + ) ) W W W + + + + W T T W W T T ! ! ] ] ( ( 1.1./ / ] ] 4 4 l l i i  . . . .}.t }.}.}.}.t t ~.~.8 8 } 6 6 6 } } . . | | R R 5 5 & & & & & & } } & & } } } } O a & & } } } } } I I } I /./.I > > } } > > } } > > } } > > } } > > } } > > > > > y > > ' ' > > > > > y < < > > r ' < < ' ' > > < < > > y < y > < < y > < < > > r < y - ' ' > > ' ' < y y < - - > > > > < < > > ' ' y > > O } } } } [ [ } } & 5 # # & & ' ' . . | |   . & & & 3 } } K K J J } } } } } } } } # # * | & & 6 } & J & & * | & & Q Q & & s $ & & } a } } } } > > > > y > y > y y y < Q ' > y > > > > ' ' < y ' ' < y < r Q Q < < < y ' ' y y ' ' y y ' ' < y ' ' y y ' ' y y < < > > < < > > > y > O ' ' > > > y } } > > } } > > } } > > > > > > } } > > } } > > } } > > O I } } & & & & & & 6 } } } } } & & & & & & & & & & & & * * 5 & J J } } 5 5 f f i i W W t t t t t t }.t  . .i i l t T T { { / / ( ( _ _ &.&.! ! 4 4 : : W W W W W W + + + + # + W W + W + + + + ` ` ` ) ` i W W { { ] ] T T T T 2 2 | | * * * * ",
") ) ) {.) ) i ` t t W W T T W W W W W W 4 4 l l T T 4 4 ! ! ! 4 T T 4 4 4 4 T T T T T T T T 4 4 T T W W ] ] |.|.] ] { { T T t t i i >.>.}.}.>.>.t t t t }.}.) {.f f & & } 6 } } R R K K R R R R } I 5 & } } & & O } & & 5 & & & a } & & } } O } > > } } /./.I } > > > > > > > > y > } } > > a } > > > > > > > > ' ' > > ' ' > > < y > > < y > > ' ' < y < < > > < < > y < < > > r < > > r < > > ' ' > > ' ' > > ' ' > > > > > > > > > > > y > > > > a } > > } } } } [ [ } } # # 6 6 > O . . | | & & & & 6 } & & s * R R } } } } } } J J . . K c 5 5 5 5 J J R R # # . . ' ' . . # # & 3 } } } } > > > O O > > > > y > > > > > > < < > > < < > y > ' > > < < y y < < > > y < > y ' ' y < ' ' > y ' ' < y ' ' y > ' ' y > y < > > < < > > ' ' > > r ' > > > > } } > > } } > > > > > y > > > > } I } } & & } } } } } O a 6 } } & & 6 } & & } } = & & & & & } } & & & & R R | | . . } 6 I I 6 6 f 8 {.{.t t t t }.t t t >.>. . .i i + W T T ] ] ] ] |.|.] ] 4 4 : : T T W W T T T T ! ! 4 ! T T : : T T 4 4 T T : : : : : : W W t t T T T T 4 4 t t  . .) ) ) ) {.{.",
") ) ) i ) ) i ` t t W W T T W W W W W W 4 4 l l T T 4 4 ! ! 4 4 T T 4 4 4 4 T T T T T T T T 4 4 T T W W ] ] |.|.] ] { { T T t t i i >.>.}.}.>.>.t t t t }.}.) {.f f & & } } } } R R K K R R R R } } & & } } & & } } & & & & & & } I & & } } O } > > } } /./.I } > > > y > > > > > > } } > > } } > > > > > > > > ' ' > > ' ' y > < < > > < y > > ' ' < < < y > > < < > > < < > > < < > > < y y > ' ' > > ' ' > > ' ' > > > > > y > > > > > y > > > > a a > > } } } } [ [ } } # # 6 6 > O . . | | & & & & } 6 & & * * R R } } } } } } J J . . K c 5 5 5 5 J J R R # # . . ' ' . . # # 3 & } } } I > > > 6 > > > y > y > > > y > > y < > > y < y > ' ' > > < < > y < < > > y < y y ' ' y y ' ' y y ' ' y y ' ' y > ' ' y > < y > > < < > > ' ' > > ' ' > > > > } } > > } } > > > > > > > > > > } I } } & & 6 } O } } /.I } } } & & 6 } & & } } = & & & & & } } & & & & R R | | . . 6 6 } } } } k 8 {.{.t t t t }.t t t >.>. . .` i + W T T ] ] ] ] |.|.] ] 4 4 : : T T W W T T T T ! 4 ! ! T T : : T T 4 4 T T : : : : : : W W t t T T T T 4 4 t t  . .) ) ) ) {.{.",
"+ + W W W + 3 3 T T T T T T T T T T T T ! 4 4 4 T T T T 4 ! 4 4 T T T T T T T T W W W W t t W W ) ) l l 4 ! ] ] { { ! ! W W t t i i t t >.>.t t }.}.t }.t t ~.{.8 8 6 6 6 6 } } . % | | R R 5 5 5 & & & & & & & & & } } & & & & & & & & & & 6 } } } } } & & } } } } > > > > > > > > > > } } > > > > > > > > > y > > > > > > > > y > ' < > O < < y < ' ' > > < y < < ' ' > > < < y > < < y > y < > > ' ' > O ' ' y > y y > > > > } a > > > y ' ' > > > > y > > - & & & & & 5 $ # & & ' ' # # | | . . J J 5 & } 6 K K J J J J > O & & 6 } # # b b & & 6 } R R R R | | 6 6 > > . . # # & & 3 & } } } O O > } } > > > > > > } } > > > y > > > > ' ' > > < y - - < < > > < < > y ' ' < y ' ' y y ' ' y > r ' < < ' ' > > < y > > < < > > r < > > > > > > > > > y > > } } > > > y > > > > > > y > > > } } } } } } } } & & } } & & & & & & 6 } & & } } & & 5 & & & & & . . & 5 * * 5 & J J } } & & e e ~.~.W W }.t t t t t t t ) ) {.{. . .T T ~ ~ ] ] ] ] 4 ! t t t l t t W W W W T T 4 4 4 4 4 4 T T T T 4 4 ! ! 4 4 T T T T T T 4 4 T T T T 4 4 4 4 T T T T + + 4 4 ",
"+ + W W + + 3 3 T T T T T T T T T T T T ! 4 4 4 T T T T 4 ! ! 4 T T T T T T T T W W W W t t W W ) ) l l ! ! ] ] { { ! ! W W t t i i t t >.>.}.t }.}.t }.t t ~.{.8 8 6 6 6 6 6 } % % | | R R 5 5 & & & & & & & & & & } } & & & & & & & & & & } } } } O a & & } } } } > > > > y > > > y > } } > > > > y > > > > > > > > > > y > > y > ' < > > y < r < > ' > > < y < < ' ' > > < < y > y < > y < < > > ' ' > > ' ' y > y y > > > y a } > > > > ' ' > > > > > > a - & & & & 5 5 $ # & & ' ' # # | | . . J J 5 & 6 6 K K J J J J } O & & } 6 # # b b & & } I . R R R | | 6 6 > > . . # # & & & & } } > O O > O } > > > > > > } } > > > > > y > > ' ' > > < < - - < < > > < < > y ' ' < y ' ' y > ' ' > > ' ' y < ' ' > y y y > > < y > > < < > > > > > > > y > > > > a } > > > > > > > > > y > O > > } } } } /.} } } & & } } = & & & & & } } = & } } & & & & & & & & . . 5 5 | * 5 & 6 J } } 5 & e e ~.~.W W t t t t t t t t ) ) {.{. . .T T ~ ~ ] ] ] ] ! ! t t t l t t W W W W T T 4 4 4 4 4 4 T T T T 4 4 4 ! ! 4 T T T T T T 4 4 T T T T 4 4 4 4 T T T T + + 4 4 ",
"{ { ! ! { { ! ! { { 4 4 T T ! 4 T T 4 4 T T T T T T 4 4 T T W W 4 4 W W W W W W W + ) )  .) ` ` ) ) c c  . .T T T T W W + W ) ) 8 8 ) ) )  . . .t t l t t }.` i 8 8 & 5 } } } } R R | | J J 5 & 6 6 . . & & . . & & & & } } } } > > } } } /./.I } /.& & 6 } O } } a } } ' ' > > > > > > y > } } > > > > > y } } > > > y > > > > < < > > > > > > ' ' > > y < y y ' ' y > ' ' > > < y > > r < > > ' ' > > ' ' > > ' ' > > ' ' > > > > > > > > > > , > a } > > } } J J = & & 5 # $ } } } > . . | | & & . . 6 6 & & * * 5 5 } } 6 6 } } & & . % K c } } J J J J 5 & $ $ 5 5 ' ' . . # # & 5 } } } } O I } } > > > y > > > > > > > > > > > > ' ' > > ' ' > > y < y y < < < y y < > > y < y > ' ' y > r ' < y ' ' ' ' ' ' > > > > > > > > > y > > > > > > > > > > > y > > } } > > > > y > > > > > } I } } & & } 6 & & } } } } } O & J } } 5 & J J 5 & & & R R 5 5 5 & & & & & | | . . } } J J J J 8 j >.>.}.t W W t t W W  . . .) 2.2.) ) b b T T T T -.-.+ W b b b b ) ) ) )  . . . .W W W W W W + W W W W W T T T T T T ^.^.T T : ^.! ! ! 4 4 ! ! 4 ! ! ! ! ! ! ! ! ",
"{ { ! ! { { ! ! { { 4 4 T T 4 4 T T 4 4 T T T T T T 4 4 T T W W 4 4 W W W W + W + # ) ) {.) ` ` ) ) c c  . .T T T T W W W W ) ) 8 j ) ) )  . . .t t t l t }.i i 8 8 & 5 } } } } R R | | 6 J 5 & 6 6 . . & & . . & & & & } } } } > > } } /./.I } /./.& & } 6 } } } a } } ' ' > > > > > > > > } } > > > y > > } } > > > > > y > > y < > > > > > > ' ' > > y < y y ' ' y > < ' > > < y > > < < > > ' ' > > ' ' > > ' ' > > ' ' > y > > > > > > > > > > } } > > a } J J = & & 5 $ $ } } } > . . | | & & . . } 6 & & * * 5 5 } } 6 6 } } & & % % K c } } J J J J 5 & $ $ & 5 ' ' . . # # & 5 } } } } O I } } > > > y > > > > > > > > y > > > ' ' > > ' ' > > < < < > y < < > y < > > y < y > ' ' > > ' ' < < ' ' ' ' ' ' > > > > > > > > > > > > y > > > > > > > > > > > a } > > > > > > > O > > a } } a & & } } & & } } 6 } } } J J } } & & J J 5 & & & R R 5 5 5 5 & & & & | | . . } } J J J J j j >.>.t t W W t t W W  . . .) 2.2.) ) b b T T T T -.-.W W b b b b ) ) ) )  . . . .W W W W W W W + + W W W T T T T T T ^.^.T T : ^.! ! ! 4 ! ! 4 ! ! ! ! ! ! ! ! ! ",
"! ! { { ! ! ! ! ! ! 4 4 4 4 4 4 W W 4 4 W W W W W W W W >.>.) )  .) >.>.) {.{.) ` ` ` ` h h i i h h d d W W T T W W W + {.{.` ` 8 8  . .>.>.t t t t }.}.}.t ` {.8 8 & & 6 } O } . . | | R R & & & & 6 J 5 & & & & & & & & & } } & & } } } /./.I } /./.} } /./.I } } > > > > > > > > ' ' > > > > } } > > } } y > > > > y > > > > > > > > a } > > y y < > y y < < > > r < > > > y > > y < y > < < > > ' ' > > ' ' y > ' ' > > ' ' > > > > > > y > } } y > } } } I & & 3 & R R B B } } > > # # * | . . } 6 Q Q & 5 * K 5 5 } } 6 6 & & 6 } # # * * 5 5 ' ' J J 5 & K K J J > > . . | | & & & & } I & & } } } } > > y > > > > > y > y > ' ' > > ' ' > > ' ' > > < < > > < < > > > > > y < y < y ' ' < < ' ' > > ' ' > > > > } } > > > > > > > > > > a } > > } } > > } } > > > > > y } } > y } } } } } } } } & & } } & & O I 6 6 I } J J 6 6 & & J J R R 5 & & & } 6 5 5 5 5 | | . . } } I I 5 5 e e {.{.W W W W W W  . . .) ) {.` ` h h ) ) ) ) W + T T + W h h h h h h ` ` ` ` ` ` ) ) ) ) ) )  . . . .W W t l W W W W W W W W ^.^.: : ! ! 4 ! 4 4 ! ! ! 4 ! 4 ! ! ",
"! ! { { ! ! ! ! ! ! 4 4 4 4 4 4 W W 4 4 + W W W W W W W >.>.) {.) ) >.>.) {.) ) ` ` ` ` h h i i h h d d W W T T + W W W {.{.` ` 8 8  . .>.>.t t }.t }.}.}.t {.{.f 8 & & } 6 } } . . | | R R & & & & J J 5 & & & & & & & & & a } & & } } /./.I } /./.} } } /.} } } } O > > > > > > y ' ' > > > > a } > y } } y > > > > > > > > y > > > > a a > > y < y > < y y < > > r < > > > y > > y < y > < < > > ' ' > > ' ' y > r ' > > ' ' > > , > y > > > } } > > } } } } & & 3 & R R B B 6 6 Q Q # # * | . . 6 6 Q Q & 5 K K 5 5 } } 6 6 & & 6 } # # * * 5 & ' ' J J 5 5 c K 6 J > > . . | | & & & & 6 } & & } } } } > > > > > > > > > y > > ' ' > > ' ' > > ' ' > > < < > > < < > > > > > > y < y > < ' y < ' ' > > ' ' > > > > a } > > > > > > > > > y } } > > } } > > } } > > > y > > } } y > } > } } O } } } & & } } & & } } 6 } } } J J J 6 & & J J R R 5 & & & 6 } 5 5 5 5 | | . . 6 6 Q I 5 5 e e {.{.W W W W W W  . . . .{.{.` ` h h ) ) ) ) W W T T + W h h h h h h ` ` ` ` ` ` ) ) ) ) ) )  . . . .W W t t W W W W W W W W ^.^.: : ! 4 ! ! 4 4 ! ! 4 ! 4 4 ! ! ",
"T T T T T T W W W W W W W W ) ) + +  . .+ + ) ) ) ) c c ) ) ` ` 2 2 ....2 2 e e f f j j 8 j 8 8 8 8 8 8 + # + W + # b b d d 8 8 + +  .) }.t  . .}.}.t t W W {.{.8 8 & 5 } } 6 } . . K c 5 5 . . ' ].> > & & . . 5 & % . & & & & & & & & } } & & } } 6 } } } & & } } } } > > } } - - - - > > } } } a } } } } a } > > > > > > } } > > } } } } } } ' ' > > ' ' > > ' ' > > r ' > O > > > > ' ' > > ' ' > > ' ' > > > > > > > > > > > > } } > > } } > > } } } } & & J J & 5 5 5 $ # I I > > . . | | s s $ $ . . s $ * * R R } I 5 & & & & & . % 2 2 . . % % s s B B $ $ 5 5 Q Q . . s $ R R & & & & J J J J } } } } > > } a > > > > y > > > ' ' > > > > > > - y > > < y > > > > > > > > > > ' ' > > ' ' > > ' ' > > > > } } O O I I > > > O O > > I > > } } > > } a } } } } > > } } } } } } O a & & } } & & 6 } & & a } & & 6 6 & & & & 5 5 5 & R R R R & & ' ' > > R R . . | | . . } 6 I 6 6 J 8 8 ~.~.W W W W t t t t >.>. . .{.{.j j e e c c | | @ @ | | 2 2 8 8 k k j j f f j j f e j 8 2 2 d d c c d d | | c c | | ) ) + + | | + # + # + + # + T T W W T T T T ",
"T T T T T T W W W W W W W W  .) W +  . .+ + ) ) ) ) c c ) ) i ` c 2 ....2 C e e f f j j 8 j 8 8 8 8 j 8 + + + # @ @ b b d d 8 8 + # {.) t t  . .}.}.t t W W {.{.8 8 & 5 } } } } . . K c 5 5 . . ' ].> > & & % . & & . . 5 & & & & & & & } } & & } } } } } } & & } } } } > > } } - - - - > > } } a a } } } } } } > > > > > > a } > > } } } } } } ].' > > ' ' > > ' ' > > ' ' > > > > > > ' ' > > ' ' > > ' ' > > > > > > > > > > > > } } > > } } > > } } } } & & J J & 5 5 5 s $ } } > > . . | | s s $ $ . . s $ * * R R } I 5 & & & & & % % 2 2 . . % % s s B B $ $ 5 5 Q Q . . s $ R R & & & & J J J J } } } } > > a } > > y > > > y > ' ' > > > > > > y y > > > y > > > > > > > > > > ' ' > > r ' > > ' ' > > > > a } O O I } > > > O > > I I > O } } > > } a } } } } > > } } } } } } } } & & 6 } & & a } & & 6 } & & } } & & & & & 5 5 & R R R R & & ' ' > > R R . . | | . . } 6 I 6 J J 8 8 ~.~.W W W W t t t t >.>. . .{.{.j j e e c c | | @ @ | | 2 2 8 8 k k j j f f j j f e 8 8 2 2 d d c c d d | | c c | | ) ) + + | | + # + + + # + + T T W W T T T T ",
"t t W W t t t t >.>.)  . .) )  .` ` )  .` ` ` ` h h h h 8 8 8 8 8 ....j j j j j j j k j 8 8 j j d d 2 2 c c {.i i i h h j 8 c c {.{. . .>.>.t t }.t }.}.W W ~.~.8 8 J J J J } } B B | | . . # # & & . . & & & & & & } } & & } } & & } } & & } 6 & & } } & & 6 } O } } /.I } } } a [ - - } } } } } } } a } } > > } } > > } } > > } } > > } } } } O > > > y y < < > > > y > > > > > > ' ' > > ' ' > > ' ' > > > > y > I > > y > > > > > > > > > > } } } /.& & & & & & 5 & R R B B } } ' ' # # | | . % # # $ $ 3 3 K K 5 5 } } 6 } & & 6 } # B * * R R $ # % % B B | * J 6 > > R R s s J J 5 & 6 } & & } } } } > > a - > > a } > > > > > > > > > > y > > > > > > < > > > y > > > > > > > > y > ' ' ' ' ' ' > > y > O } 6 O } } > > } } > > > O > > } } > > a } > > } } y > } } } a & & 6 } O } } /.& & } 6 & & } } & & } 6 } J } } } } } } & & J J . . 5 5 R R . . * * . . 2 c . . J J 6 6 & 5 e f {.{.W W t t t t  . . . . . .>.>.8 j j k 8 8 d d ` ` c c c c c 2 j j 8 8 j k 8 j j f 8 8 8 8 8 8 ....d d j 8 d d d d 2 2 ` {.) ) {.{.) ) ) ) + # ) ) W W t t W W ",
"t t W W t t t t >.>. . .) ) )  .` ` ) ) ` ` ` ` h h h h 8 8 8 8 8 ....j k k j j j j k k 8 8 j j d d 2 2 c c {.i i i h h 8 8 c c {.{. . .>.>.t t }.t }.}.W W ~.~.8 8 J J J J } } B B | * . . # # & & . . 5 & & & & & } } & & } } & & } } & & } } & & } } & & } } } } O a 6 } } } [ [ a - } } } } /.} a } } } > > I } > > } } > > a } > > } } } } > > > y > < < < > > > > > > y > > > ' ' > > ' ' > > ' ' O > > > y > > > > > > > > > > > > > > > } } } } & & & & & & & & R R B B } } ' ' # # | | . % # # # $ & & * K 5 5 } } 6 6 & & } 6 # B * * R R $ # % % % B * * J 6 > > R R $ s J J 5 & 6 } & & 6 } O } > > - - > > } a > > > y > > > > > > > > > > > > > y > > y < > > > > y > > > > > ' ' ' ' ' ' > > y > } } > O } } > > I I > > > 6 > > } } > > a } > > } } y > } } } } & & } } } } } } & & } } & & } } & & } } J J } } } } } } & & J J . . & 5 R R . . * * . . 2 c . . J J 6 6 & 5 e f {.{.W W t t t t  . . . . . .>.>.j j k 8 8 8 d d ` ` c c c c c 2 j j 8 8 j k 8 j j f 8 8 8 8 8 8 ....d d j 8 d d d d 2 2 ` ` ) ) {.) ) ) ) ) + + ) ) W W t t W W ",
"| | ) ) * | c 2 c c d d d d 8 8 e e j j j j j k k j 3.3.k k j j j k 8 j e e j j s s C 2 8 8 8 8 h d e e f d 8 8 j j k k * * 2 2 ) {.) )  . .>.>.t t }.t W W {.{.8 8 & 5 } } 6 } % % K c 5 5 $ # s s . . 6 6 5 5 } } & & } } } } } } & 5 } } } } O a & & } } } } > > } } } } } } } O a 6 } } } I - - } } > > } } > > - - > > /.} > > O } > O O } Q > > > ' ' > > ' ' y > > > > > ' ' > > ' ' y > ' ' > > > > O > ' ' > > ' ' > O > > > > > > a } > > } } a } & & & & & 5 5 5 $ s } } > 6 . . | | & & R R 5 & R R | * 5 5 } } & & J J & & . % K K J J & & 6 J % % | * R R Q Q B B $ $ R R & & & & } } } } > O O I > > > y > > } a > > > > > y > > > > > > > > > > > > > > y > > > > > > > > > > > ' ' > > ' ' > > I O O } > O I I > > } } > O O O > > a } > > } } } } } } } } O a 6 } } } } } } } } O a 6 } } & & } 6 & & } } & & 6 6 & & 6 6 & & 6 J 5 & . . s $ . . . . | * B B } } 6 6 J J j j {.~.t t W W }.}.t t  . .)  .{.{.c c 8 8 2 2 ....e e 8 8 d d e e e f 8 j 8 j e e [.[.j j [.[.3.3.3.3.j j j j 3.3.j j j j e e 8 8 e e e e 2 2 c c | | 2 2 | | ) ) ",
"| | ) ) * | c c c c d d d d 8 8 e e j j j k k k j j 3.3.3.k j j j j 8 j e e j j s s C 2 8 8 8 8 h d e e e d 8 8 j j k k * * 2 2 ) {.) )  . .>.>.t t t t W W {.{.8 8 & 5 } } 6 } % % K c 5 5 $ # s s . . 6 6 5 5 } } & & } } } } } } & 5 } } } } O a & & } } } } > > } } } } } } } O a 6 } } } } - - } } > > } } > > - - > > } } > > O } > O } } > > > > ' ' > > ' ' > > > > y > ' ' > > ' ' y > ' ' > > > > > O ' ' > > ' ' > > > > > > > > a } > > } a } } & & & & & 5 5 5 s s } I O O . . | | & & R R 5 & R R K * 5 5 } } & & J J 5 & % % K c J J 5 & & J . % | * R R Q Q B B $ $ R R & & & & } } } } > O O I > > > > y > } a > > > > > > y > > > > > > > > > > > > > > > y > > > > > > > > > ' ' > > ' ' > > I O } } } O I I > > } } > O O O > > } } > > } } } } /.} } } } O a 6 } } } } } } } } } O I } & & 6 } & & 6 6 & & 6 J & & 6 } & & 6 J 5 & . . s $ . . . . * * B B } } 6 6 6 J 8 j {.~.t t W W }.}.t t  . .)  .{.{.c c 8 8 2 2 ....e e 8 8 d d e e e e j j 8 j e e e f 8 j [.[.3.3.3.3.j j j j 3.3.j j j j e e 8 8 e e e e 2 2 c c | | 2 2 | | ) ) ",
"d d C 2 ........j j 8 8 8 8 ....8 8 8 j j j j k k j f f j j j j C C C 2 e e c c * * * * * | c 2 c c * * j j 2 c $ $ * * :.:.2 2 {.{.{.) {.{. . .t }.t t W W ~.{.8 j & & 6 J } } B B $ s R R R R & 5 } } 6 J 5 & & & } } & & } } & & & & & & } } & & & & & & } } } } } } /.} } } a [ } a & & } 6 } } a - I } > > } } > > } } > > } } y > } } } } O > ' ' > > ' ' > > > > > > > O > > ' ' > > > > > > > > > > > > > > ' ' > > ' ' > > > > > > > > } } > > } } } a & & 5 & . . # # 6 J > Q # # * | . . 5 5 & & J J K K J J & & & & 5 5 5 & # $ K K 5 5 J J 5 & % R K * 5 5 } O . . s $ 5 5 R R J J J 6 } } } } O > y > > > a } > > > > > > > > > > > y > > > > > > } } > > > > > O > O > > > > ' ' > > ' ' > > > > } } } } } I O O } } } > I I > > } } > > a } > > } } } } } O y > } } } } /.} } } & & } } & & & & & & 6 J & & 6 } & & 6 J J J 5 & & 5 } } 6 J & & & 5 5 & K c R R } 6 I I 5 5 f f {.{.t t t t t }.>.>.)  .{.{.{.{.d d 2 2 2 2 2 c c 2 c c c c 2 2 C C $ s * * * * c c 2 2 2 C 2 c j j 3.3.k j e e k k j j 3.3.j j k k 8 j 8 8 d e ....d d d h ` ` ",
"d d 2 2 ........j j 8 8 8 8 ....8 8 8 j j j j k k j f f j j j j C C C 2 e [.2 2 * K * * * | c c c c * * j j c c $ $ * * 2 :.2 2 {.{.{.) {.{. . .t }.t t W W ~.{.8 j & & 6 J } } B B $ s R R R R & 5 } } J J & & & & } } & & } } & & & & & & } } & & & & & & } } } } } } /.} } } [ [ [ a & & } } } } - - I } > > } I > > } } > > } } > > a } } } > > ' ' > > ' ' Q > > > > > > > > > ' ' > > > > > > > > > > > > > > ' ' > > ' ' > > > > > > > > a } > > } } I } & & & 5 . . @ # J J > Q # # * | . . 5 5 5 & & J K K J J & & & & & 5 5 & $ $ K K 5 5 J J 5 & R R K K 5 5 } O . . s s 5 5 R R J J 6 6 } } } } > > y > > > } a > > > > y > > > > > > > > > > > > > } } > > > > > > > > > > > > ' ' > > ' ' > > > > } } } } a } O O } } } > I I > > } } O > } } y > } } } } } O y > } } } } O } } } & & } } & & & & & & J J 5 & 6 6 & & 6 6 J J 5 & & 5 } } J J & & & 5 & & * K R R } 6 I I 5 5 f f ~.{.t t t }.}.}.>.>. . .{.{.{.{.d d 2 2 2 2 c c c 2 c c 2 2 c K C C s s * * * * 2 c 2 2 2 C 2 c j j 3.3.j j d e k k j j 3.3.j j k k 8 j 8 8 e e 8 ..d d h h ` ` ",
"j j 8 8 j j k k j j k j j j j j f e j j e e j j f f j j j j [.[.:.:.e e [.[.[.[.* * * * $ $ * | # # | | B B # $ B B 2 2 c c C C ` {.{.` ` {.{.` >.>.>.>.t }.{.{.f f R R } 6 I 6 . . * * 5 & J 5 J J R R & & . . 5 & & & & & & & } } & & } } & & } } & & } } & & } } & & 6 } O } } /.I } } } } a a } } } } } } } - - } } > > I I } } } } } O O } > > > O < < > > > > > > > > y > > > > > > > > O O > > > > > y > > > > > > > > > > > > > > > a } > > } } a } & & & & R R 5 5 s s } 6 I I B B | * R R . . J J 5 & K * 5 & 6 J 5 5 & 5 & & % % 2 2 & & & 5 5 5 % % s s R R > > B B $ $ R R & & & & } } } 6 } } I I > > > > > y > > > > > > > > > > ' ' > > > > } } > > > > y > > > > > > > > > > > > > > > ' ' y > Q > } } } } 6 6 } } } } O O } I > > } } > > } a } } & & 6 } O } > > } } } } } } } } & & } 6 & & } } & & 6 6 & & 6 J 5 & 6 6 5 5 5 5 5 5 } } & & J J 5 & * * B % I I J J J J j j ~.~.t t t }.{.{.)  .{.{.{.{.{.` C C e e 2 2 $ $ @ $ s s $ $ * * @ @ | | * | c 2 2 c e e c c 2 2 C 2 k j 4.4.j j d e j j ..f j j j k j j j k j j j j j j j j 3.3.",
"j j ..8 8 j k k j j j k k k j j 8 e j j e e j j f f j j j k [.[.:.:.e e [.[.[.[.K * * * $ $ * | # # | | B B # $ % B 2 2 c c C C {.{.` ` ` {.{.{.>.>.>.>.t }.{.{.8 f R R } 6 I 6 . . | * & & & 5 J J R R & & % . & & & & & & & & } } & & } } & & } } & & 6 } & & a } & & 6 } } } } } O a 6 } } } [ a } } } a } } - - } } > > } } } } } } O > } } Q Q O O < < > > > > > > > > > y > > > > > > > O O > > > > > > y > > > > > > > > > > > > > > } } > > } } } } & & & & R R 5 5 s s } 6 I I B B | * R R . . J J & & * * 5 5 J J 5 5 & & & & % % 2 2 & & & 5 5 5 % % s s R R > > B B $ s R R & & 5 & } } } 6 /.} I I > > > > > > y > > > > > > > > > ' ' > > > > } } > > > > > y > > > > > > > > > > > > > > ' ' > > > > } } } } 6 6 } } } } } > O } > > } } > > } } } } & & } } 6 } > > I } } } } } } } & & } } & & } } & & } } & & J J & & } 6 5 5 5 5 5 5 } } & & 6 J 5 5 | * % % I I J J J J j j ~.~.t t t }.{.{. . .{.{.{.{.` ` C C e e 2 2 $ $ $ $ s s $ $ * * @ @ | | * | 2 2 C 2 [.f 2 2 C 2 c c j j 4.4.j j d e j j j f j j 8 j k j j j ..j j j j j j j 3.3.",
"j j j j 8 f e e 2 2 2 2 j j j j j j j j j j j k j j 4.4.[.[.2 2 e e 2 2 [.[.2 2 2 2 K K * * s $ b | $ $ * | s s * * 2 2 e e 2 2 i i {.{.` i {.{.~.~.}.}.t t ~.{.j j & & 6 J } } % % | * . . & & R R R R . . & & & & & & & & } } & & } } } } & & } } } } } } O a 6 } } } } } > > } } } } & & 6 } O } } a I } > > } a - - } } } } } } } O I } } I > > > > > y > < < > > > y > > > > > > > > > > > > > > > > > > O > > > > > > > > > > > > > > > > } } > > } I } } 5 & & & . . # # J J > O # # $ $ R R 5 & & 5 & & | * 5 & 5 5 J J 5 & 6 J B B K K 5 5 & & R R R R | * 5 5 } } % % | * 5 5 R R J J 5 & } } } } > > > y > y y > < < > > > > > > > y > > > > > > > > > > > > > > > > > y > > > > > > > > > > > > > > } I > > I } } } J J } } } } O O } } > > } } > > a } } } } } > > > > > O } } } } O I } } & & 6 } & & a } J J } } J J J J & & 6 } & & & & R R 5 & . . & 5 K K % % 5 5 } } R R f f {.{.}.}.)  .{.{.` ` {.{.{.` ` {.e e d d [.C $ $ s s $ $ K K * * * * | | c 2 2 c e e C C e e c c e e 2 2 j j f e 8 j 8 j j j j f 3.3.[.[.[.[.[.[.4.4.C C [.e j 8 ",
"j j j 8 f f e e 2 2 2 2 j j j j j 8 j j j j j k j j 4.4.e f 2 2 e e 2 2 [.[.2 2 2 2 * K * * s $ | | $ $ * | s s * * 2 2 e e 2 2 i i {.{.` i {.{.~.~.}.}.t t ) {.8 j & & J J } } B % | * . . & & R R R R . . & & & & & & & & } } & & } } } } 5 & } } } } O a 6 } } } } } I } > > a } } } & & } 6 } } } a I } > > } a - - } } } } 6 6 > O } } } } y > > > y > < < > > > > y > > > > > > > > > > > > > > > > > > > > O > > > > > > > > > > > > - > } } > > } I } 6 & & 5 & . . # # J J } O # # $ $ R R 5 & & 5 5 & * * 5 & 5 5 J J 5 & 6 J B B * K 5 5 5 & R R R R | * 5 & 6 I B % | * 5 5 R R J J 5 & } } } } > O > y > y y > < < > > > y > > > > > > > > > > > > > > > > > > y > > > > > > > > > > > > > > > > > } } O > } } } } J J I I } I > O I } > > } I > > a } } } a } > > > > > > } } } } } } O a & & } } & & } 6 } J } } J J J 6 & & 6 } & & & & R R 5 & . . & 5 K K % % 5 5 } } % R f f {.{.}.}.)  .{.{.` ` {.{.` ` {.{.e e d d [.C $ $ s s $ $ K K * * * | | | c 2 2 c e e C C e [.2 2 e e C 2 j j f e j j j j j j j f 3.3.[.[.[.[.[.[.4.4.C C [.[.j j ",
"* <.2 2 <.* 2 2 :.:.[.[.C C e e [.[.4.4.4.4.4.4.[.[.[.[.[.[.[.e e e f f [.e e f h h d d 2 2 c 2 c c 2 2 * K 2 2 :.2 e e 2 c e e d d d d c c 2 2 * * c c W W {.{.8 8 R R } } J J . . | | & & . % R R R R & & & & 6 } 5 5 5 & R R } } & & } } } } > > } } > > } } } } } } } } } } } } O a 6 } } } } } I } > > } } > > } } } } J J } } } } O O J 6 > > I } > > > > > > > > > > > O O > > > Q Q > > > Q y > > > > > > > > > > > > > > > > > > > > > > > } } } I & & & & . . . . * | R R } 6 . . | | . . . . & & 5 & * * B % 6 6 J J 5 & 5 5 B B 2 2 & & & 5 5 5 % % s s B % I I # # $ s . % & & & & 6 } } } } } } } > > y > > > > y > > > > ' ' > > ' ' > > > > > > > > > > > > y > > > > > y > > > > > > > > > I I } > 6 I > O } } } } J J } } > > > > } } } } } } } } } } > > I I } } /.} } } } } } } O a 6 } } } } } & & 6 } R R 5 5 5 5 } } & & & & R R 5 & . . . % R R $ s % % 6 6 J J J J 8 f {.{.t }.* * c c * * 2 2 K K C C C C e e 2 C 2 2 K K 2 c c c 2 2 C 2 c c C C e [.[.e f f f e e [.[.[.[.e c 2 e e j j j j [.[.[.[.C C e [.:.:.2 2 * * :.:.<.* 2 2 ",
"K * 2 :.<.* 2 2 :.:.[.[.C C e e [.[.4.4.4.4.4.4.[.[.f e e [.[.[.e e f f [.e e f d d d d 2 2 c c c c 2 c c K 2 2 C 2 e e 2 c e e d d d d c c 2 2 K * c c W W {.{.8 8 R R } I 5 J . % | | & & . % R R R R & & & & } 6 5 5 5 & R R } } & & } } > } } > } } > > } } a } } } } O a 6 } } } } } } } } } } } 6 > > } } > > } } } } J J } } } } O O 6 6 > > } } > > > > > > > > > > > 6 > > > > Q Q > > > > y > > > > > > > > > > > > > > > > > > > > > > > } } } } & & & & . . . . | | R R 6 6 . . | | . . . . & & & 5 * K % % 6 6 6 J 5 & & 5 B B 2 2 & & & & 5 5 % % s s % % I I # # s s B % & & & & 6 } } } I I } } > > > > > y > > > > > > ' ' > > ' ' > > > } > > > > > > > > y > > > > y > > > > > > > > > > I I O O } } I O I O } } J J } } > > > > } } } } } } } } } } > > I I } } } } O a 6 } } } } } } } } } } } & & 6 6 R R 5 5 5 5 6 6 & & & & R R 5 & . . . % R R s s % % 6 6 J J J J f f {.{.t }.* * c c * * 2 2 K K C C C C e e 2 C 2 2 K K C 2 c c c 2 2 2 C 2 c [.[.e e [.f f e e e [.[.[.e e c c e e j j j j [.[.[.[.C C e [.:.:.2 2 * * :.:.K <.2 2 ",
"2 2 :.:.2 2 :.:.C C 2 c e e [.[.e e [.[.e e e e 4.4.e e 4.4.e e j j e e e [.2 2 d d c c * * $ $ * * $ $ $ s $ $ $ @ $ $ s $ $ $ c c | | | | | | c c | | }.}.{.{.f f J J } } } } B B $ s . . . . . . & & R R & & & & 6 J & 5 5 & & & & & & & } } } } } } /.} } } } } } } } } } } } } > > } } > > } } - a I } > > } a - - & & } } } } O I } } I } I I } I > > > y > > > > > O > > O } > > > > ' ' > > > Q Q > > > > > > > > > > > > > > > > > > > } } a } & & } } & & & & % % s $ R R I I # # $ s . . . . . . & & 2 2 . % R R & & & 5 5 & $ $ | * R R 5 & & 5 R R | * R R } 6 . % | * R R R R 6 6 & & 6 } } } } O I I - - } } > > > > > O > > > y > > > > > > > > > > > > > > > > } } > > } } > > > > > > I I O O } } O O } } I I 6 6 } } } } > > > O > O O I } } a } > > } } } } } } } O } a > > } } y > } a } O & & } } & & & & . . & & & 5 J J R R & & R R R R . . & & K K R R J J } } 5 5 e e ~.~.W W c c c c 2 2 * * <.<.K * * * $ $ $ $ $ @ s $ $ $ * * $ s * * $ $ * * c c e e [.e f f [.e f f e e f f e e e f [.[.[.[.[.[.[.[.2 2 2 C C 2 2 2 * K :.:.* K ",
"2 2 :.:.2 2 2 :.C C 2 c e e e [.e e [.e e e e e 4.4.[.[.4.4.e e j j e e e [.2 2 d d c c * * $ $ * * $ $ $ s s $ $ $ $ @ s $ $ $ c c | | | | | | c c | | }.}.{.{.f f J J } } } } B B $ s . . . . . . & & R R 5 & & & J J & 5 5 & & & & & & & } } a } } } } } } } } } O a } } } } a } > > } } > > } } a [ O } > > - a - - & & } } } } } I } } } } } } } I > > > > y > > > > O > > > O } > > > ' ' > > > > > > > > > > > > > > > > > > > > > > > > } } } a & & } } & & & & . % s $ R R I I # # s s . . . . . . & & 2 2 . % R R 5 & & 5 & & s $ * * R R & & 5 5 R R K * 5 R } } % % | * R R R R 6 6 & 5 } } } } } O I } y - } } > > > > > > > > > > y > > > > > > > > > > > > > > > } } > > } } > > > > > > } } } > } a } O } } } I 6 6 } } } } > > > O O O I } } a } } O > } I } } } } } } } a > > } } > > } } } } & & 6 } & & & & % . & & & 5 J J R R 5 & . R R R . . & & K K R R J J } } 5 5 e e ~.~.+ W c c c c 2 2 * * <.* * * * * $ $ $ $ $ $ s $ $ $ * | $ $ * * $ $ * * 2 2 [.[.e e f f [.e f f e e f f e e f e [.[.[.[.[.[.[.[.2 2 2 C 2 2 c c K K :.:.* * ",
":.:.C 2 2 2 [.e e e e e e e e e e e f f e e j j e e e f e e f e 2 2 c c * * c c * * *  .5 5 R R 5 5 . . 5 & 5 5 6 J & & & & B % | | * * | | c c b b ) ) W W {.{.d d & & 6 } J J . % K c R R . . 5 5 . . & 5 R R J J 5 & 6 } & & & & & & & & & & } } & 5 } } } } } O & & } } } } } } } } > > } } } } I } > } } } > > } } /.} J J } } } } } > I } } } } } > > > > > > > > > > I I > > } /.> > > > > Q Q > > > > > > > > > > > > > > > } } > > } } } } } } O I } } & J 5 & R R $ s 5 5 } } B B | * 5 5 5 5 I I . . K c B B & & R R & & R R B B K K 5 5 & & 6 J % % s $ % % I O # # $ s R R 5 & & & } } } } } I I I a a } } y > - - > > > > > y > > > > > > > > > > > > > > > > > } > > } } > O O I > > I } > O } } > O O I I O } } } } } } } O O I } O O I } } a } > > } } } } } } } } & & } } } } } } } } } } & & J J & & J J 5 5 & & & & 6 6 & & & & . . & 5 . . J J R R K K % % 6 6 J J 5 & j j {.{.t t | | ` ` 2 2 d d * * K K % % 5 5 J J R R 5 5 R R 5 5 % % . % R R $ $ * * * * 2 2 K K 2 2 2 2 [.[.f e f f e e e f f e f f 2 2 e e :.2 C C :.2 2 2 K K 2 2 ",
":.:.C 2 2 2 e e e e e e e e [.e e e f f f e j j e e e f e e e e 2 2 c c * * c c * * * | 5 5 R R 5 5 . . 5 & 5 5 6 J & & & & B % | | * * | | c c b b ) ) W W {.{.d d & & } 6 } J % % K c R R . . 5 5 . . & 5 R R J J 5 & 6 } & & & & & & & & & & } } & & } } } } O a & & } } } } } } } } > > /.} I } I I > > } } y > } } } } J J } } } } } > I } } } } } > > > > > > > > > > I I } > I I > > > > > > > > > > > > > > > > > > > > > > I } > > } } } } } } O I } } & J 5 5 R R s s 5 5 } } % B * | & 5 5 5 I I . . K K % B & & R R & & R R B B K K 5 5 & & J 6 . % s $ % % I O # # s s R R & & & & } } } } } I } } a a a } y > > - > > > > y > > > > > > > > > > > > > > > > > O } > > O } > O I I > > } } O O } I } O O I I O I } } } /.} O O I } O O O I } } a } > > I } } } } } } O & & 6 } } } } } - } } } & & J J & & J J 5 5 5 & & & 6 6 & & & & . . & 5 R . 6 J R R K K % B } } J J & & j j {.{.t t | | ` ` 2 2 d d * * K K % % 5 5 J J R R 5 5 R R 5 5 % % . % R R # $ * * * * 2 2 K K 2 2 2 2 e e [.[.f f f e f f f e f f 2 2 d e :.2 C C :.2 2 2 K K 2 2 ",
"[.[.[.[.[.[.e e e e e e [.e [.[.f f e e e e C 2 2 2 * * * | s s * * | | * * | * K K $ $ % % 5 5 % % .   5 5 5 & 5 5 5 & 5 5 . . c c 2 2 d d 2 2 ` ` z z t t {.{.f 8 & & & & 6 } # # * * . . . . . . 5 5 R R & & R R J J J J } } & & & & & & & & & & & & & & } } } } } } & & 6 } } } } O a 6 } } } } } } } } > > O } } } 6 6 } } I } } } } O > > 6 6 } } I } > > I } > > } } O > I I O > > > > > > > > > > > > > > > y > > > > Q > > > O } 6 > > } } } } 6 } a } 5 & & & % % # # R R I I # $ | | # # & & & & # $ 2 2 R R 5 & & 5 & 5 5 & $ $ | * # # 6 6 B B % % | * % % I I . . s $ 5 5 R R } 6 & & } } } } > > } } > > a } > > > > > > > > > > > > y > > > > > } } > > > O I > I I } O O } } O I I > > I } > O O I > > I } } I } } } I } } } } } } O I } } I } } } } } O I } } & & } 6 } } } } & & } } 5 & & & & & & & 5 5 5 & & & 6 6 & & 6 J R R 5 & R R 5 5 . . 5 5 c K R R } 6 6 6 R R f f {.{.}.}.| | | | d d d d C C 2 2 $ $ R R R R 5 5 % % 5 5 % % R R . % % % <.<.* * K K * * K * * K * * | * * K * * C C 2 c e e e e e e e e [.[.e e [.e C 2 C C 2 2 ",
"[.[.[.[.[.[.e e e e e e e e [.[.f f e e e e C 2 2 2 * * * | s s * * * | * * * | K K $ $ % % 5 5 % % .   5 5 & & 5 5 & & & 5 . . c c 2 2 d d 2 2 ` ` z z t t {.{.f 8 & & & & 6 } # # * | . . . . . . & 5 R R 5 & . R J J J J } } & & & & & & & & & & & & & & 6 } } } I } & & } } } } } } } } } O a 6 } } } } > > O } } } } } } } } } } } } O > > 6 6 I I I } > > I } y > } } > > I I > > > O O > > > > > > > > > > > y > > > > > > > > > O } > > } } } } } } a } & & 5 & % % # # R R } I $ $ | | # # & & & & # # 2 2 R R 5 5 5 & & 5 & & $ $ | * # # 6 6 B B B % * * B % 6 } . . s $ 5 5 R R 6 6 & & } } } 6 > > a } > > a } > > > > > > > > > > > > > y > > > > } I > > } O O > I I } O O } } O O I > > } } O O I } > > } } } } } } } I } } } } } } } } } } } } } } O a 6 } } } & & 6 } O } } /.& & } } & & & & & & & & & 5 & & & & 6 } & & 6 J R R 5 & R R 5 5 . . 5 5 c K R R } } 6 6 R R f f {.{.}.}.| | | | d d d d C C 2 2 $ $ R R R R 5 5 % % 5 5 % % R R . % % % <.<.* * K K * * * K * * * * | * * K * * C C 2 2 [.[.f e e e e e e [.[.e [.e 2 c C C 2 2 ",
"C C e [.[.[.[.[.C C C C C 2 C 2 K K * K s s * * # $ K * $ $ * | $ $ * * | * 2 2 2 C 2 c * * * * * * <.<.<.<.<.<.s s * * * K e e f d ....i ` b b l t t t W W i i 8 f R R J J & & . % K K R R # # ].].Q Q & 5 & & 6 J 5 & J J & & & & & & & & & & } } & & & & & & } 6 & & } 6 & & } } & & } } & & } 6 } } } } } a } } } } } } } O > O } } I I } I /.} } } > > } } > > O } > > I I O > O O > > > O > > } O O > O > > > > > y > > > > > > > > > } } } O } } 6 6 J & 6 6 & & R R s s 5 5 } } B B * * % % K c K K % . K c B % & & & 5 & & . . s $ 2 2 # # c c c 2 B % s s B B } } # # $ $ R R & & & & } } } } I I } 6 > > a a > > > > > > > > > > > > > > > > > > } } > > I I > > > O > > } } } O } } > > I I O } > } } > } } > O } } } } } } } I J J } } } 6 } } & & } } & & & & & & & & & & } } } } 6 } & & } } & & & & & & & & & & 6 } & & 6 6 & & J J & & ' ' ' ' % % % B * * % % 6 } J J & & 8 8 {.{.}.t ) )  . .) ) i i C C d e * * * * s s * * s s * * * * * K * * * * * * 2 :.K K 2 2 * * <.<.* * * <.s s * * s s * * * * K K K K 2 2 C 2 e [.C C e [.2 2 e e ",
"C C e e e [.e e C C C C C 2 2 2 K K K * s s * * $ $ | * $ $ | | $ $ * * * | c 2 2 2 c 2 * * * * * * <.<.<.<.<.<.s s * * * * e e f d ....` ` b b }.t t t W W i i f f R R J J & & % % K K R R # # ].].Q Q & & & & 6 J & & J J & & & & & & & & & & } } & & & & & & } } & & } } & & O } & & } } & & } 6 } } } } } } } } } 6 } } } O > O } } } } I I O } } } > > a } > > O } > > I I > > > O > > O } Q > } O > > > > > > > > > > > > > > > > > > } } } } O } } } & & 6 } & & R R s s 5 5 6 } B B * * % % K c c K . . K K % % & & & 5 5 & . . $ $ 2 2 # # c c 2 2 B % s s B B } } # # $ $ R R & & & & } } } I I I } 6 > > a a > > > > > > > > > > > > > > > > > > } } > > I I > > O O > > I } } > } } > > I I O } } } } > } } O O } 6 O I } } I I J J } } } 6 } } & & } } & & & & & & & & & & } } } } } I & & } } & & & & & & & & & & } } & 5 6 6 & & J J & & ' ' ' ' % % % B * * % % 6 } J J & & 8 8 {.{.t t ) )  . .) ) i i C C e e * * * K s s * * s s * * * * * * * * K * * * c c K K 2 2 * * * <.* * * <.s s * * s s * * * * * K K K c c 2 2 e [.C C e [.2 2 e e ",
"e e C 2 C C K K K K s s * * $ $ | | s $ | | s $ K * | | K K c c 2 2 C 2 [.f 2 C C 2 K <.<.<.* <.* * $ $ <.<.$ $ * * $ s :.:.[.[.d d d d ` `  . . .) t }.W W ` ` k k 5 5 & & J J B B * * % % | | 5 5 % % . . & & R R & & & & & & & & & & & & } } & & } } & & } } & & } } & & } } & & } } 5 & a } & & } } } } } 6 } } } } } 6 } } } } } } 6 } O O } } > O I } > > I } > O I } > > O O > > > O > > > O > > } } > > > > > > > > > > } } > > } I > > I } } a & & 6 } & & & & % % $ $ % % 6 J $ $ | | % % & 5 . . R R 2 2 B % . . & 5 R R R R s s * K R R 5 5 R R R R K K % B & & % B * * 5 5 R R J J 5 & } } } } > > O } > > a a > > > > > > > > > > > > > > a } > O } } Q > } O O > > } > > I I > > I } > > I I I O } } I O } } } I J J } } } } 6 } } } } } & & } } & & & & & & & & & & } } & & } } & & } } & & } } & & & & 5 5 J J & 5 5 & & & & & R R R R % % . . K * % % K K R R & & J J & 5 e e i i }.}. . . .) ) ) {.{.e e [.[.2 2 * * * * s $ s s s $ * * $ $ * * $ s K K K * e e e e e e 2 2 :.2 * * * * '.$ * * s s s s $ s * * s s * * * * c c 2 2 C C 2 2 ",
"e e 2 2 C C K K K K s s * * $ $ | | s $ | | $ $ K * | | K K K c 2 2 2 c e e C C 2 C <.<.<.<.* <.* * $ $ <.<.$ $ * * $ s :.:.[.[.d d d d ` `  . . .) t t W W ` ` k k 5 5 & & J J B B * * % % | | 5 5 % % % . & & R R & & & & & & & & & & & & } } & & } } & & } } & & } } & & I } & & } } & & } } & & a } } } } 6 } } } } } } } 6 } } } } } } > O } } O O I } > > I } O > } a > > O O O > > O O > > } > > } } > > > > > > > > > > } a > > } } > > } I } } & & } } & & & & . % $ $ % % 6 J $ $ | | % % 5 5 % . R R 2 2 B % . . 5 5 R R R R s s * K R R 5 5 R R R R K K % B & & % B * * 5 5 R R J J & & } } I } > > } I > > a a > > > > > > > > > > > > > > } } > O } } Q > } O > > > O } > } } > > I } > > I I I O } } I O } } O I J J } } 6 } J } } } } } & & } } & & & & & & & & & 5 } } & & } } 5 & 6 } & & } } & & & & & 5 J J & 5 & & & & & & R R R R % % . . * * % % K K R R & & J J & 5 e e i i }.}. . .) )  .) {.{.e e [.[.2 2 K * * * $ $ $ s $ $ * * $ $ * * $ s K K * * e e e e e e C 2 :.2 * * * * '.$ * * s s s s $ s | * $ s * * * * 2 :.2 2 2 C 2 2 ",
"* * * * * | | | $ $ $ $ $ $ s s $ s * * * * 2 2 C 2 [.[.[.[.e e 2 2 [.e 2 C e e :.:.K $ $ $ * * # # $ s B B $ $ % % # $ 2 2 d d 2 2 2 C  . . . .W W t t W W 2.2.f f 5 5 } } & & % % K c % % $ $ | | . . & 5 . . 5 5 % . & & & 5 J & . % & & & & & & & & } } & & } } & & & & & & } } & & & & & & & & & & } } & & } } } } } } } 6 } I I O } I I O } I } } > > } } } O I } } > I I Q > } I > > O } > > I } O > > O > > > > > > a } > > } } > > } } } } } } } } 5 & J J R R . . $ s % % R R s $ K K R R . . R R % . K * B B R R . . 5 5 . . $ $ 2 2 & & R R R R . % | * $ $ & & $ $ s s % % 5 & & 5 6 J 5 & } } } } } } } } > > } } O > > > > > > > > > } } > > I I > > I I > > > O O > > } > > } } > > } I } O } } } O } } > O } } } } 6 J } } } } } } & & & & & & } } & & & & & & & & & & } } & & } } & & } } 5 & & & . . & 5 & & & 5 J & & & % . 5 & . % $ $ | | . % % B * * % % 6 } 5 5 & & j 8 {.{.W W W W t }.+ + ) {.2 2 [.e 2 2 C C $ $ $ $ B B $ $ $ s $ # $ $ s $ s s <.<.e e e e e e e [.C C e e :.2 2 2 * K K K s s * * $ $ s s $ $ '.'.$ $ <.* | * * K ",
"* * * | | | | | $ $ # $ $ $ $ s $ $ * * * * 2 2 :.2 [.[.[.[.[.e 2 2 e e C C e e 2 :.* * $ $ * * # # # $ B B $ $ % % # $ 2 2 d d c 2 2 C  . . . .W W t }.W W 2.2.f f 5 5 } } & & % % K c % % $ $ | | . . & 5 . . & 5 . . 5 & 5 5 & & . . & 5 & & & & & & } } & & } } & & & & & & } } & & & & & & & & & & 6 } & & } } } } I } } } I I I O } I } } } } I I > > I } O } } } > O } I > > } I > > > O > > I I > O } O > > > > > > } } > > } I > > } } } } } } } } 5 & J J R R % . s s % % R R $ $ K K R R . . R R % . K K % B R R . . 5 5 % . $ $ 2 2 & & R R R R % . K * $ $ & & $ $ $ s % % & 5 5 5 J J 5 & } } 6 } } } } } > > } } O > > > > > > > > > } } > > I } > > I } > > } O O > > } > > I I > > } I } O } } O O a } O } } } } } 6 J } } } I } } & 5 & & & & } } & & & & & & & & & & } } & & } } & & } } & & & & . . & 5 & & & & & 5 J & . . & 5 . . $ $ | | % % B % | * % % 6 J 5 5 & & 8 8 {.{.W W W W }.}.+ + ) ) 2 2 e e :.2 C C $ $ $ $ B B $ $ $ s $ $ $ $ s s $ s * * e e e e e e e e C C e e :.2 :.2 K K K K s s * * s $ s s $ $ '.'.$ $ * <.| * * K ",
"| | $ $ s $ $ s | | s $ * * * * :.2 c 2 2 2 c c [.[.:.2 [.[.2 2 e e C C [.[.f [.* * $ $ s $ B B # # B % % B B % % % % % 2 2 c c e e c c >.>.t t t t W W }.t {.{.k k 5 5 5 & & J # # * * % % R R . . . . R R & & . . & 5 R R & & & & & & & & & & & & } } & & } } & & } } & & & & & & & & & & & & & & & & & & } } & & } } } a } } } } I I I } I O } } } } I I > > I } O O > } > > I } > > > O Q Q > > > > > O > > > > O > 6 } > > } } > > } 6 } } } I a } & 5 & & & & & & B B $ $ % B & 5 | | | | % B . . % % . . * K B % . . & & . . R R s s * K . . . . % % B % | * $ $ % . # # * * R R R R & & & & O I & & O } & & } } } I a a } } > > > > > > } I > > } } > > I } O > I I > > I } > > } I > O O } } } } } } I I 6 O O O } > O J 6 } 5 J J } } J J J J & 5 & & & & & & & & & & & & } 6 & & } } 5 & & & & & & & & & & & . . & 5 & & & & . % & 5 . . 5 5 % . & & R R R R 2 2 . . & 5 J J R R f f {.{.W W t t t t  . .)  .2 2 2 2 2 c * * * * % % $ @ B % # $ B B # $ $ $ * * s s e [.e e e e C C e e C C e e 2 2 C C 2 2 C C 2 2 K K * * <.* $ $ '.'.$ $ $ $ '.'.",
"| | $ $ $ s $ $ | | $ s * * * * 2 2 2 2 2 c c 2 [.[.2 2 e [.2 2 e e 2 C e e [.[.K * $ s $ $ B B # # B % B B % % % % % % 2 2 c c e e c c >.>.t t t t W W t t {.{.k k 5 5 & & J J # # * * % % R R . . % . R R & & . . 5 5 R R & & & & & & & & & & & & } } & & } } & & } } & & & & & & & & & & & & & & & & & & } } & & } } } a I } } } } I } } > } I } } } I } > > I I O } > } > O I } > > > O Q Q Q > > > > O > > > > > > } } > > } } > > } } } } } I a } & 5 & & & & & & B B $ $ B B 5 5 | | | | B B . . % . . . K K B % . . & & . . R R s s * K . . . . % % B % * * s $ . . $ # * * R R R R & & & & } } & & } } & & } } } I a a } } > > > > > > } } > > a } O > I I > > I I > > I I O > O I > O O } I } } } I I I I O O } } > O } } 6 } J J 6 } J J J J 5 5 & & & & & & & & & & & & } } & & } } & & & & 5 & & & & & & & . . & 5 & & & & . . & 5 . . 5 5 % . & & R R R R 2 2 . . & 5 J J R R f f {.{.W W t t t t  . .)  .2 2 2 2 c 2 * * * K % % $ @ B % # $ B B $ @ $ $ * * s s e [.e e e e C C e e C C d e C 2 C C 2 2 2 C C 2 K K K * * <.$ $ '.'.$ $ $ $ $ '.",
"$ $ s s $ s 2 2 2 c c 2 2 c :.2 K K C 2 2 2 C C 2 C C C 2 2 C C 2 c e e d e e f s s $ $ B % $ $ B % B B . % R % @ % % % * * :.2 2 2 C C  . .t }.W W }.}.}.}.~.~.8 8 . . & 5 & & % % 2 2 B % . % 5 & R R & & R R & 5 . . 5 & R R & & R R & & 5 5 & & & & } } J J } } & & & & & & & & & & } 6 & & } } & & } } & & } } & & } } } I I I } a } I I 6 } I } 6 I } } } > O O } I > } I > > } } O } } } O } } } > > } } > > I } } I & & } } } } } } } } a } & & & & 5 & & & . . . . K * % % R R | | c c B B . % R R . % K K s $ . . . % . R % . # # c c 5 5 % % . . $ s * * s s 5 5 s s s s % B R R & 5 J J & 5 } } J 6 } } } } 6 } } } > > I } O > } } > > > > > > O } } > I } } O } } I O I I > > I } } I } 6 } } } } } I a } } } 6 } I I J 6 6 6 & & J J & & J J & & & & & & & & & & & & & & } } & & } } & & & & & & & & R R & 5 R R R R R R & & R R & & R R & & & 5 R R B B * * % % 6 J & & & 5 j j ~.~.t t }.}.}.t t t >.>.c c d d 2 2 :.2 % % . % . . % % B % % B % % $ @ $ $ s s [.[.e [.2 2 [.[.[.e e e 2 2 2 C 2 2 C C C 2 2 C C 2 C C 2 2 :.2 * * <.<.# $ $ $ ",
"$ $ s s $ s 2 2 c c 2 2 2 c 2 2 K K C 2 2 2 C C 2 2 C C 2 2 C C 2 2 [.[.e e e f s s @ $ '.% $ $ B % B B % . % R % @ % B * * :.2 2 c C C  . .}.}.W W }.}.}.}.~.~.8 8 . . & 5 & & % % 2 2 B % . % & & R R & & R R 5 5 % . & & R R & & R R 5 & & 5 & & & & } } J J } 6 & & & & & & & & & & } 6 & & 6 } & & } } & & } } & & } } } } I I } } } I } } } } } } } } } } O O } I > > } I } > I } } O } } } O I I } > } } > > } } } } & & } } } } } I } O } } & & & & 5 & & & . . . . K * % % R R | | c c B B . % R R . % K K s $ . . . . R R . . $ # c c 5 5 % % . . # $ | * $ s 5 5 s s s s B B R R & 5 6 J & 5 } } } } } } } } 6 } } } > > I I > > I } > > > > > O } } } > } } > O I } > O I I > > I } } I J } I } } } I } } } } I I } } } 6 } 6 6 & & J J & & J J & & & & & & & & & & & & & & } } & & } } & & & & & & & & R R & 5 R R R R R R & & R R 5 & R R & & 5 5 R R B % * * % % 6 6 & & 5 5 j j ~.~.t t t }.t t }.t >.>.c c d d 2 2 :.2 % % . % . . % % B % % B % % $ $ # $ $ s [.[.e [.2 2 [.[.[.e e e 2 2 2 C 2 2 C C 2 2 C C 2 2 C C 2 2 :.2 * * * <.$ $ # $ ",
"2 2 K K C 2 K K 2 2 K K 2 2 c K 2 2 K K c 2 c K :.2 2 2 2 C C 2 e e C C e e e e * * $ $ $ $ % % % % B % % % R R % % s $ :.2 2 2 d d 2 2 ` {.W W t }.W W W W {.{.k k 5 5 5 & J J $ $ K K B B . % R R & & & 5 5 & R R & & R R & & % . & & R R & & R R & & & & } } & & 6 } & & & & & & & & & & & & & & } } & & & & & & 6 J & & } } J J } } } a I } } } } } 6 6 } I I 6 O O I I > > } I } O } } } I I O } O } } > > I I } } & & } } } 6 } } } } } } & & } } & & & & . . % . $ $ | * $ s R R K K K K # # % % B % . . C C % % B % 5 5 % . . . $ s K K % B % % B % B B * K s $ R R s $ 2 2 B B R R 5 5 R R J J 6 J O I J J } } 6 } } } & & } } } } > > } } > > I } > > I } O O } I I I } } I O I } O > } } } 6 O } a } 6 } J } 6 } J } 6 6 } } 5 5 & & R R & & 5 & & & & & & & & & & & & & & & & & } 6 & & & & & 5 5 & R R & & & 5 5 & . . & 5 & & & & R R & 5 R . & 5 . . . . K c . . & 5 J J R R f f {.{.}.}.t t }.t t t >.>.d d d d d e 2 2 $ $ % % % % % % % B % % # # B B $ $ $ $ f f [.[.[.[.2 2 e e C C e e C 2 2 2 2 2 C 2 2 C 2 C C 2 2 C 2 2 2 2 2 2 2 2 * * ",
"2 2 K K C 2 K K 2 2 K K 2 2 K K 2 2 K K c 2 K K :.2 2 2 2 C 2 2 e e C C e e e e * * $ $ $ $ % % % % B % % % R R % % $ $ 2 2 :.2 d d 2 2 ` {.W W t }.W W W W {.{.k k 5 5 5 5 J J $ $ K K B B . % R R & & & 5 5 & R R & & R R & & . . & 5 R R & & R R & & & & } } & & 6 6 & & 5 & & & & & & & & & & & 6 } & & & & & & 6 J 5 & } } J J } } } a } } O } } } } } } } } } O O } } > > I I O } } } O I } } } O I I > > O I } } & & } } } } } I } } } } & & } } & & & 5 . . . . $ $ | * s s R R K K K K # # % % % B % . C C % % % B 5 5 % . . . s s * K . % % B % B B B * K s s R R $ $ 2 2 B B R R & 5 R R J J 6 J } } J J } } 6 } } } & & } } } } > > } } O > } } > > I I O O } I } I I } } O } } } O I } } } 6 6 } } 6 } J } 6 6 } } } 6 } } & 5 5 & R R & & & & & & & & & & & & & & & & & & & & } } & & & & 5 5 & & R R & & & 5 & & % . & & & 5 & & R R 5 5 % . & 5 . . . . c c . . & 5 J J R R f f {.{.}.}.t t t }.t t >.>.d d d e e e 2 2 $ $ % % % % % % % B B % # # B B $ $ $ $ f f [.[.[.[.2 2 e e C C e e C 2 2 :.C 2 2 C 2 2 2 C 2 2 C C 2 2 2 2 2 2 2 2 K * ",
"K K C 2 2 2 :.2 K K 2 2 K K 2 2 K K 2 2 K K C 2 K K 2 C 2 2 e e 2 C e e e e f f 2 2 C 2 * * K K * * K K K $ * * s s C C :.2 d e c c d d  . .t }.W W t }.W W {.{.8 8 R R & & 5 & B B 2 2 B % % B 5 5 R R & & 5 & & & & 5 J & . R & & R R 5 & R R & & R R 5 & & & J J & & & & & & & & R R & & R R J J & & & & & 5 & & & & J J & & } } } } O I } } } I 6 } } } J 6 } O I I O } } I } O I } } } 6 } } > } 6 > O O } > > O I } I 6 } } } 6 } } } & & } } & & & & & 5 & & # # $ s f f $ $ % % | | c c B B $ $ R R % B :.:.B B R R R R R R % B $ $ 2 2 % % B % B B $ $ K K * * 5 5 s s * K s s R R % % & 5 & & } } J J } } } 6 } } } } } } & & > > } I > > 6 } } I 6 } O } } } O I } } } > } } O O } } I I 6 6 } I } 6 } } 6 } } 6 5 & J 6 & & & & R R & & 5 & J J & & & & . . & 5 & & & & . . 5 & & & & & R R & 5 R R & & & 5 & & R R 5 5 5 & & & 5 5 & & . . 5 5 . . . . % B * * B B J J & 5 5 5 j j ~.~.t t t }.}.t t t >.>.2 2 d d :.2 d e * * s s s s * * * | * * | * 2 2 K * 2 2 e e e f [.[.[.[.[.e e e 2 2 2 C C 2 2 2 C 2 2 C 2 2 2 2 C 2 2 2 K K 2 2 2 2 2 2 ",
"K K C 2 2 2 :.2 K K 2 2 K K 2 2 c K 2 2 K K C 2 K K 2 C 2 2 d e C C [.[.e e e f 2 2 C 2 * * * K K * K K K $ * * $ s C 2 2 2 d e c c d d  . .t }.W W t }.W W {.{.j 8 R R & & & 5 B B 2 2 . % % B 5 5 R R & & & & & & & 5 J & . R & & R R & & R R & & R R & & & & J J & & & & & & & & R R & & R R J J & & & & & 5 5 & & & J J & & } 6 } 6 } I } } } } } } } } } } } O } } O } } I } > I I I } 6 } } > } } > O } O > > } } } } } } } } } 6 } } & 5 } } & & & & 5 & & & # # $ s f f $ $ B % | * c c B B $ $ R R B B :.:.B B R R R R R R % B $ $ 2 2 % % % B B B $ $ K K K * 5 5 s s * K s s R R % % 5 & & & } } J J } } } } 6 } } } } } & & > > } } > > O } } } } O I O } } } I } } } O I O > > } O } } 6 6 } I 6 } J } 6 6 } } & & } } & & & & R R & & 5 5 J J & & & & . . & 5 & & & & . . & & & & & & R R & 5 R R & & 5 & & & R R & 5 5 & & & 5 5 5 & . . 5 5 . . . . % B * * % B J J & 5 5 5 j j ~.~.t t t }.t t t t >.>.2 2 d d :.2 e e K * s s s s * * * | * * * | 2 2 K * 2 2 e e e f [.[.[.[.[.[.e e 2 2 C C 2 2 :.2 C 2 2 C 2 2 2 2 2 C 2 2 K K 2 2 2 2 2 2 ",
"2 2 <.<.2 2 K * 2 2 * * c 2 <.* K K * K 2 2 K K C C 2 2 [.e C C [.[.e e f d e e 2 2 $ $ $ $ % % % . . . % % 5 5 % . . . c c * * c c 2 c >.>.W W t t }.}.W W ` {.k k & & 5 & & & $ $ K K B % % . . . 5 5 R R & & & 5 & & 5 5 & & & 5 5 & R R 5 5 . . & 5 . . 5 & & 5 & & & 5 5 & R R & & 5 5 & & & & J J & & & & & 5 & & & & 6 J & & } } } } I } } I I I J J 6 } } } O O I } } O } } > O O } } } I I O } I } > > } I > > } } I O } } } 6 } } } } & & } } & & J J . . . . f f c c $ $ R R | * c c $ s % % R R . % C C % % . . 5 & . . . . $ $ 2 2 % B B . # # $ # c 2 '.'.R R s $ 2 2 s s % B 5 5 & 5 6 J & & } } } } } } 6 } } } O } } } } } > O a } > > } } } } 6 } I I O } O O I I > O } } } } } } a } 6 } J } 6 6 } } 5 & } } & & & & R R 5 & R R 5 & & & } } & & & & & & & & & & & & & & & & R R & & R R & & R R & 5 R R & & R R & & 5 5 5 & R R & 5 . . R R . % % % K c % % 5 5 J J R R f f {.{.W W t t }.}.t t }.}.2 2 2 2 2 2 K K % % R R B B % % # @ % % # $ # # s s s $ f f [.e 4.4.e e 4.4.[.[.[.[.2 2 2 C C 2 2 2 C 2 2 2 2 2 :.2 K K 2 2 2 2 2 2 * K ",
"2 2 <.<.2 2 * * 2 2 * * c 2 <.<.K K K K 2 2 K K C C 2 2 [.e C 2 e [.d e e f e e 2 2 $ $ $ $ % % % % . . . % 5 5 % . . . c c * * c c 2 c >.>.W W t t }.}.W W ` {.j j & & 5 & & & $ $ K K B % % . . . 5 5 R R & & 5 & & & 5 5 5 & 5 5 5 & R R & 5 . . & 5 . . 5 & 5 5 & & & 5 5 & R R & & 5 & & & & & J J & 5 & & & 5 & & & 5 J J & & } 6 } } O } 6 } I O J J } I } } O O I I > } O I O O } I } } I I O } I } > > I } > > } } O } } } O I } 6 } } 5 & } } & & J J . . . . f f c c $ $ R R * * c c $ s % % R R . % C C % % . . 5 & . . . . # $ c c B B % % $ # # $ 2 2 '.'.R R s $ 2 2 s s % B 5 5 5 & 6 } & & } } } 6 } I I } } } } I } } } } > > O } > > } } } } } 6 } I a } O } > } > O } } } } } I } } 6 6 } } 6 6 } } & & J 6 & & & & R R & & R R & & 5 & } } & & & & & & & & & & & & & & & & R R & & R R & & R R & 5 R R & & R R & & 5 5 & & R R & 5 . . R R . % % B * * % % & 5 5 J R R f f {.{.W W t t }.}.}.t }.}.2 2 2 2 2 2 K K % % R R B B % % # # B % $ $ $ # s s s $ f f f [.4.4.e e 4.4.[.[.e e 2 2 2 2 C 2 2 2 2 C 2 2 2 2 2 2 K K 2 2 2 2 2 2 K K ",
"* * 2 2 * * K K * K K K * <.K K K K 2 2 K K C C C C e e C C e e 2 2 2 C 2 2 e e $ $ $ $ % % % % . . . % R R % . & & % % 2 2 c c c c K c }.}.+ W t }.W W W W {.{.8 8 R R J J & & % B * K R R B B . % . . % . 5 5 & & R R & & R R & & R R & 5 R . R R . . & 5 R R & & 5 & & & 5 5 & & 5 & & & 5 5 J J & & & & & 5 & & & & & & 6 & } } J 6 I I } } I I 6 6 } } } } I } } 6 I I } } > O } } } } } O I I O } O O } } } O I O O } } } O I } 6 } } } 6 } } & 5 J J R R & & $ # # $ e e '.'.% % $ s C C % B & 5 I I $ $ 2 :.% % 5 5 R R & & . . % B C C % B I I R R s $ * * s $ R R | * :.:.<.<.% % R R J J & & 6 } J J I } } } } 6 } } > > I } O > } } > > } } > > } } I I } } I I } } > O } O > } } } I I I } } } I } I } J J } } & & J J & 5 5 & 5 5 & & & & 6 J J J 6 } & & 6 } & & & & & & & & & & & & . . 5 & R R & & 5 & & & R R & 5 R R & & R R 5 & . . & 5 R R R R . % K * % B J J & 5 5 5 j j >.>.t }.W W }.t W W  . .c c 2 2 2 2 2 :.$ s % % % % B % % % # # B % # @ B B $ s 2 C e e 2 2 2 2 C C f f e e e e C 2 C C 2 2 :.2 2 2 C 2 K K 2 2 K * 2 2 K K 2 2 ",
"<.<.2 2 * * K K K * K K * * K K K * 2 2 K K C C C C e e 2 C e e C 2 C C 2 2 e e $ $ $ $ % % % % % . . % R R . % & & . % c c 2 2 c c K c }.}.W + }.}.W W W W {.{.8 8 R R J J & & % B K K R R B B . % . . . % 5 5 & & R R & & R R 5 & . R & 5 R . R R . . 5 5 R R & & & 5 & & 5 5 5 & 5 5 & & & 5 J J & & & & & 5 & & & & & & J & } 6 J 6 I I I } } I J 6 } } } } a } 6 } } I } } > O } } } } } O I I I O } O O } O } } } O O } } } I } 6 } } 6 6 } } & & J J R R & & # # $ $ e e '.'.% % $ s C C % B 5 5 } } $ $ 2 :.% % 5 5 R R & & . . B B 2 C B B } I R R s $ * * $ s R R * * :.:.<.<.% % R R J J & & } } J J } } I } 6 } } } O > I I > > I } > > I } O > } } I I } } I I } } > O I } O > O } I I } } } } } } } } 6 J } } & & J J & 5 & & 5 & & & 5 & } } & J } I & & 6 } & & & & & & & & & & & & . . & 5 R R & & & 5 & & R R & 5 R R & & R R & & . . & 5 R R R R % . K * B B J J & 5 5 5 j j >.>.}.}.W W t t W W  . .c c 2 2 2 2 2 :.$ $ B % % % % B % % # # B % $ # % B s s C C [.[.2 2 2 2 C C f f e e e e C 2 C C C 2 2 C C 2 2 2 K K 2 2 K * 2 2 K K 2 2 ",
"K K * * K K * K 2 2 * * 2 2 K * 2 2 2 2 [.[.C C e e C C C C 2 2 C C 2 2 [.e C C s s B B $ $ % % % B . . . % 5 5 & 5 $ # 2 2 K K c c c c  . .t }.t t }.}.+ W {.{.k k & & & & 6 J $ $ | * % % B % . . 5 & . . & 5 . . 5 & . . & 5 . R & & . . . . % . R R % . & & & 5 J & & & & 5 & & & 5 5 & & & & & 6 J & & } } & & & & & & } I J J } } } } } } & J } } } } 6 } & & J 6 } } I I 6 6 I I } } } I 6 6 } } } } I I O } O O } O I I a } } } 6 6 } } J J 6 6 & & & & & & . . $ s e e * * % B K K K K K K <.<.s s % B C C R R R R 5 5 & 5 5 & # # c c * * % B K * $ $ :.:.<.<.'.'.s s 2 2 '.'.% % R R & & } } J J O I } 6 } } } 6 } } } } } } } } } 6 } } > > I I } } } 6 } I I } } I 6 6 } I I 6 O I 6 } } 6 6 6 } } J 6 } } J J } } 5 & & 5 & & J J & & 6 6 & & 6 6 & & } } 5 & & & 5 5 & & & & & & R R & 5 . . R R . . 5 & & & & & . . & 5 R R & & . . & 5 5 5 & & . % % . K K % B & 5 6 J R R f f {.{.W W }.}.}.}.t t }.t 2 2 c c 2 2 * * s $ 5 5 % . % % % B % % $ $ % % # $ $ $ e e 2 C [.[.:.:.2 2 :.:.2 2 2 2 e e C C e e 2 2 C C 2 2 C 2 K K 2 2 K K 2 2 * * ",
"K K * * K K K * 2 2 * * 2 2 <.<.2 2 2 2 [.[.2 C e e C C C C 2 2 C C 2 2 e e C C s s B B s $ % % % % . . B % 5 5 & 5 $ # 2 2 K K c c 2 c  . .t }.t t }.}.+ W {.{.k k & & & & J J $ $ | * % % % . . . 5 & . % & & . % & 5 . . & 5 . R & & . . . % . . R R . . 5 & & & J J & & & 5 J & & & 5 5 & & & & J 6 & & 6 6 & & & & & & } } J J } } } } } } J J } } } 6 } } 5 & 6 J } } } } 6 6 } } } } } } } } } I } 6 I I O } O O } O I I } O } } } } } } J J 6 6 & & & & & & . . $ s e e * * % B K K K K K K <.<.s s % B C C R R R R 5 5 & 5 5 & # # c 2 * * % B K * $ $ 2 :.<.<.'.'.s s C 2 '.'.% % R R & 5 J 6 J J } } 6 } } 6 6 } } } } 6 } } } } } } } } > > } } } } 6 } } } } } 6 } I 6 } } } } } } } 6 6 } 6 6 } } J 6 } } J J O } & & & & & 5 J J & & 6 } & & } 6 & & } } & & & & & 5 & & & 5 & & R R 5 & . R R R . . 5 & & & & & . . 5 & R R & & . . & 5 5 5 5 & . % % . K K B % 5 5 J J R R f f {.{.W W }.}.}.}.t t }.t 2 2 c c 2 2 * * $ $ 5 5 % . % % B B % % # $ % % # $ $ $ e e C 2 [.[.2 :.C 2 :.:.2 2 2 2 e e C C e e 2 2 2 C C 2 2 2 K K 2 2 K K 2 2 * * ",
"* * 2 2 * K 2 2 K K C 2 2 2 e e C C C C 2 2 C C K K C 2 2 2 C C C 2 C C 2 2 [.[.$ $ $ $ % % % % R R % . 5 5 R R & 5 $ s * * 2 2 c c c c  . .t }.W W }.t }.}.~.~.j 8 & 5 5 & 5 5 B B * K . . $ s ' ' } } & & % . 5 & . . R R . . R R . . R R . % % . . . 5 5 R R J J & 5 J J & 5 5 & 5 5 J J & & 6 6 & & 6 6 & & J J & & J J 5 & 6 } & & } } & & 6 6 J J } } & & J J & & 6 6 6 6 } I } } } } } } } } } } I O } } } } 6 } } } J J } } } } } } J J 6 } 6 J } } 5 5 & 5 % % B B d d [.e 2 2 e e s s R R * * % B # # c c % % & 5 R R J J R R # # c 2 B B $ s R R . % K K [.[.* * [.e :.:.'.'.% _._._.J J J J } } 6 J } } J 6 } } } 6 } } } } } } } } O } } } I } 6 J } } 6 } } } } } } } } 6 } } 6 J } } 6 J } 6 6 6 I } J J } } 6 J 6 } & & J J 5 & 6 6 & & 6 J & & } } & & & & R R & & 5 & & & R R & & . . R R . . 5 5 R R & & . % % % B % 5 5 R R & & 5 & > > > > % % $ # K K % B J J & 5 5 5 j j ~.~.W W t }.t t }.t >.>.c c e d 2 2 2 2 B B % % % . . % % % % B % B $ # % B s s C C e e 2 2 2 2 2 2 2 2 K K 2 2 K K :.2 2 2 e e e e e e C 2 2 :.K K :.2 K K 2 2 ",
"* * 2 2 * K 2 2 K K C 2 2 2 [.[.C C C C 2 2 C C K K 2 2 2 2 2 C 2 C C C 2 2 e e $ $ $ $ % % % % R R % . 5 5 R R & 5 $ s K * C 2 c c K c  . .t }.W W }.t }.}.~.~.8 8 & 5 5 & 5 5 B B * K . . $ s ' ' } } & & % . 5 5 % . . R % . R R . . R R % . R . . . 5 5 R R 5 J J & J J & 5 5 & 5 5 J J & & 6 6 & & } } & & J J & & J J & & 6 6 & & } } & & 6 6 J J } } & & J J & & } } 6 6 } I 6 } } } 6 6 } } } } I O } } I I O } I } J J } } } } } } J J } } J 6 6 } 5 5 5 & % % B B d d [.[.2 2 e e s s R R * * % B # # c c % % 5 & R R J J R R $ # c 2 B B $ s R R % . K K [.[.* * [.e :.:.'.'.% _._._.J J J J } } J J } } 6 J } } 6 } } } 6 } } } } } } O } } } I J J } } 6 } } } } } } } } 6 I I J J } } 6 J 6 } } } } } J J } } 6 J 6 } & & J J & & 6 6 & & J J & & I } & & & & R R & & 5 & & & R R & & % . R R . . 5 5 R R & & . . . % B B & 5 R R & & 5 & > > > > % % $ # * K B % J J & 5 5 5 j j {.~.W W t }.t t }.t >.>.2 c d d 2 2 2 2 B B % % . . % % % % % B B % $ # % B s s 2 C e e C 2 2 2 2 2 2 2 K K C 2 K K :.2 2 2 e e e e e f 2 2 :.2 K K 2 2 K K 2 2 ",
"2 2 K K C 2 2 2 e e 2 2 2 C K * 2 2 * <.2 2 K K 2 2 K K 2 2 K K C C 2 2 e e C C s $ % % % B R R . % 5 5 % % & 5 R R % B 2 2 2 c d d c c ~.~.W W t t }.}.W W {.{.8 j & & 5 & & & $ $ * * % B s s R R % % # # R R . . R R . . % . . % R R . . % . . % R R . . 5 & R R & & 5 & & & 5 5 J J & & } } & & & & & & & & & & & & & & 6 } & & J J & & 6 6 & 5 } } 5 & & J & & 6 6 J J I } J 6 } } 6 J } } } 6 } } } } } } } } } } & & } } } 6 6 } 6 } } 6 6 J } } & & & & . . % . . % * * 4.4.e e s s % % % % & 5 R . . % C C _._.5 5 5 5 & & & & $ $ K K B % R R R R % B $ $ | * f f e e * <.R R _._.J J 5 5 } } J J } } J J } } 6 J } } J J } } } } > > I I O } O 6 } } J J } 6 6 } J } 6 6 I } & & J J & 5 6 } J J 6 6 J J } } 6 J } } & & J J & & 6 } & & J J & & 6 J & & 6 6 & & J J & 5 5 & 5 5 & & R R R R % . R R . . R R B % % . $ $ % . . . & 5 R R & 5 . . . . K * % % K K % B & 5 5 5 % % f f {.{.W W t t }.}.t t  . .d d 2 2 C C K K $ $ R R % % . % % % % % # $ % % # $ $ $ f e 2 2 [.[.2 :.:.2 2 :.:.2 K K 2 2 * * 2 2 * K 2 2 2 2 e e e e e e :.2 2 C K K ",
"2 2 K K C 2 2 2 e e 2 2 2 2 * * 2 2 <.<.2 2 c K 2 2 K K 2 2 K K C C 2 2 e e C C $ $ % % % B R R % % 5 5 % % J 5 R R % B 2 2 2 2 d d c c ~.~.W W t t }.}.W W {.{.j j & & & 5 & & # $ | * B B $ s R R . % # # R R % . R . . . % . . % R R % . . . % . R R . . & 5 R R & & 5 5 & 5 5 J J J & & 6 } & & & & & & & & & & & & & & 6 } & & J J & 5 } 6 & & 6 6 5 & & J & & } } J J I } J 6 } } J 6 6 } } } 6 } } } } } } } } } & & } } } 6 } } 6 6 } } 6 J 6 6 & & & & . . . % . . * * 4.4.e e s s % % B % 5 5 . . % . C C _._.5 5 5 5 5 & & & $ $ K K B % R R R R % % $ # K * f f e e * <.R R % _.J J & 5 6 } J J } } J J 6 } J J } } 6 J } } } } > > I } O > } 6 } 6 J J } } 6 6 } } 6 6 } } & & J J & & 6 } J J } } J J I } 6 J } } & & J J & & } } & & J J & & 6 J & & } 6 & & J J 5 5 & & & 5 5 & R R R R % . R R . . R R B % . . $ s . . % . 5 5 R R & 5 . . . . K * % % K c % % 5 5 5 & % % f f {.{.W W t t }.}.t t  . .d d 2 2 C C K K $ $ R R % % . % % % % % # $ % % # $ $ $ f e 2 2 e [.:.:.2 2 2 :.2 2 K K 2 2 * * 2 2 * K 2 2 2 2 e e e e e e C 2 2 C K K ",
"2 2 e e C C e e C 2 2 2 | * 2 2 * * K K c K 2 2 K K C 2 K K 2 2 2 2 e e 2 C e f * * $ $ % % $ $ % % B B % % % % 5 5 $ $ K K K K c c c c }.}.}.t t }.}.}.W W ~.~.8 8 R R J 6 & 5 s $ K K B B $ # s s # # % . B B R R . . R R . % R R . . 5 & R . R R . . 5 5 . . 5 & R R & 5 & & & & & & J 6 & & J J & & & & & 5 & & & & } } & & & J & & 6 } 5 & } } & 5 J J 5 5 5 & & & } } } 6 } } 6 J } } 6 J } } & & } I & & } } & & } } & 5 } I I O } I 6 } } } & 5 6 J & 5 J J R R R R B B _._.% % _._.'.'.R R B % R R $ # * K _._.J J 5 5 6 J R 5 B B 2 2 R R _._.R R . % % % % B % . % % R R _._.& & 5 & & & 5 & 6 } & 5 } } J J } } J 6 } } J J } } } } } } } 6 6 6 J J } } } 6 I } } } } } J J J J & & J J & & } I & J } } & & } 6 & & 6 6 & & & & & & & & & & } 6 J J } } & & J J R R & & 5 & & & . . & 5 . . & 5 . . & 5 . . R R . . % B B B R R . . . % # # $ $ | | % % % % | * % B J J & 5 5 5 j j {.{.}.}.}.}.t t W W >.>. .) ` ` C 2 2 2 % % . % . . % % % % $ $ $ # $ $ $ $ * * e e f e 2 2 2 2 :.:.2 2 c K 2 2 c K C 2 * * K K <.<.K K K * 2 2 2 2 e e f e e e ",
"2 2 e e C C e e 2 2 2 2 | * 2 2 | * K K c K 2 2 K K 2 C K K 2 2 2 2 e e 2 C f f * * s $ % % # $ % % B B B % . % 5 5 $ $ K K K K c c c c }.}.}.t t }.}.}.W W ~.~.8 8 R R J 6 5 5 s $ K K B B $ # s s # # % . B B R R . . R R . % R R % . & 5 . . R R % . & 5 . . & 5 R R & & & 5 & & & & J J & & J J & & & & & 5 & & & & 6 } & & J J & & } } & & 6 6 & & J J & 5 & & & & 6 } } } 6 6 J J I } J J } } 5 & } } & & 6 } & & } } & 5 } I } } } 6 } } } } & & J J & 5 6 J R R R R B B _._.% % % _.'.'.R R % % R R # # * K _._.J J 5 5 J J & 5 B B 2 2 R R % _.R R . % % % % % B % . % R R _._.& & 5 & & & 5 & 6 6 & & } } J J 6 } J 6 } } J J } } } } } } } 6 6 6 J J } } } } } } 6 } } 6 6 J J J & & 6 J & & } } J J } } & & } } & & 6 } & & & & & & & & & & } 6 J J } } & & J J R R & & & 5 5 & . . & 5 . . & 5 . . & 5 . . R R . % % % % B R R . . . . $ # $ $ | * % % % % | * B B J J 5 5 & 5 j j {.{.}.}.}.}.t t W W >.>. .) ` ` :.2 2 2 % % . % . . % % % % # $ $ # s $ $ $ * * e e e e 2 2 2 2 2 :.2 2 K K 2 2 K K C 2 * * * K K * K K * <.2 2 C 2 e e e e [.e ",
"e [.2 2 C 2 <.<.:.2 * * c 2 K * K K K $ K K * * 2 2 K K C C 2 :.d e C C e e 2 C * * % % % B R R R R & 5 R R 5 & B B & 5 K * K K c c * |  . .W W t t }.}.W W ` {.j j & 5 5 & & & $ s * K $ $ % B # # $ # # $ . . B % R R . . R R . . 5 & . . 5 5 . . & 5 R . R R % _.5 5 R R & & R R 5 & 5 5 J J & & & & & & & & & & & & & & & & R R & & 5 & J 6 & & 6 J & 5 & & 5 5 } } J J } } J J } } 5 & } } & & } } & & } } & & 6 } & & } } } } } } } 6 } } & 5 } 6 & 5 & & R R & & R R R R _._.& 5 B % % _.B B 5 5 . . . % C 2 & 5 5 & 5 5 5 5 & 5 $ $ K K B % R R _._.5 5 B % R R R R & 5 _._.& 5 . . R R 5 5 & & & & J 6 J J } } 6 } } 6 J J } } } } 6 6 6 } } } J J 6 } J J } } 6 J 6 6 J J } } & & & & & & 6 J J J } } & & J J & & J J & 5 & & & & & & & & J J & & 6 J & & J J & 5 5 5 % . & & % . R R . . R R . . & & . . R R . . R R . . 5 5 . . % . . B B B $ s # # % B . . K * % % 5 & 5 5 R R f f {.{.}.}.t t W W t t t t ) ) {.{.C C K K R R 5 & % . 5 5 % % % % # $ % % # $ $ $ [.[.2 2 [.[.2 2 2 C :.:.2 :.* * 2 2 K * 2 2 * * C 2 K K 2 2 K K 2 2 * * 2 2 2 2 ",
"e e 2 2 C 2 * * 2 2 K * c 2 * * K K K $ K K * K 2 2 K K C C C 2 e e 2 C e e 2 C * * % % % B R R R R & 5 R R & & B B & 5 * * K K c c * |  . .W W t t }.}.W W ` {.k k & 5 5 & & & $ s * * s $ B B $ # # # # $ . . B % R R % . R . . . 5 & . . 5 5 . . 5 5 . . R R % % & 5 R R & & R R & & 5 5 J J & & & & & & & & & & & & & & & & R R & & & 5 6 } & & J J & & & 5 & & 6 } J J } } J J } } & & } } 5 & } } & 5 } } & & } } & 5 } } } 6 } } } } } } & & } } 5 5 & & R R & & R R R R _._.5 5 % % _._.% B & 5 R . . % C 2 & 5 5 5 & 5 5 5 5 5 s $ K K % B R R % _.5 5 B % R R R R & 5 _._.5 5 . . R R 5 5 & & & & J 6 J J } } 6 } } } J J 6 6 6 6 } } } 6 } } J J 6 } J J } } J J } } 5 J } } & & & & & & } 6 J J } } & & J J & & J J & & & & & 5 & & & 5 J J & & 6 } 5 & J J & 5 5 5 . . & & . . R R . . R R . . & & . . R R % . R . . . 5 5 % . . . B B B B $ s # # B B . % K K % B & 5 5 5 R R f f {.{.}.}.}.t W W t t t t ) ) {.{.C C K K R R 5 & % . 5 5 % . % % $ $ % % $ $ $ $ [.[.2 2 [.[.2 2 2 C :.:.2 :.* * 2 2 K * 2 2 K * c 2 K K 2 2 K K 2 2 * * 2 2 2 2 ",
"* * K K K $ 2 2 * * K K K $ * * * * K K * <.2 2 K K C C 2 :.C C C 2 2 2 2 2 f f $ $ $ $ % B s $ % % # # % B % % % % 2 2 C C d d ) )  .) t t t t t t t t W W i i 8 8 . . 5 & 5 5 s $ 2 2 B B # # % B | | % B . . % . . . R R . . 5 5 . . R R . . R R % . R . % % . . . . 5 & . . & 5 . . 5 & & & & & 5 & & & & 3 & & & & & & F F & & . . J J & & } } & & 6 } & & J J J J } } & & J 6 J J } } & & } } } } 6 } & & } } & & I } } } 6 } & & } 6 & & 6 6 & & J J & 5 J J & 5 & & R R 5 5 R R & 5 _.% 5 5 R R & 5 % % K c R R J J . . J J R R B B 2 2 % % R R R R _._.R R B % & 5 R R 5 5 R R & & R R & & R R } } & & J J & & 6 6 6 J } } 6 J } } J J } } 6 J } } 6 J } } 6 J } } J J } } 6 J 6 6 & 5 J J & & 6 6 & & J J & 5 & & R R & & R R & & 5 & & & & & & & J & J J & 5 & & . . R R . . R R . % % . . . 5 & . . & 5 . . R R . . R R . . R R . % % % # # % B # # % . B B * K $ $ J J R R R R j j {.{.}.t W W }.}.t t }.}. . .` ` 2 2 e e 2 2 '.'.% % # $ # # s $ $ # s $ $ # * * | * [.[.2 2 :.2 2 2 [.[.:.2 2 2 K * 2 2 * * K K K * 2 2 * * 2 2 K K 2 2 <.<.K K ",
"* * K K K $ 2 2 | * K K K $ | * * * K K K * 2 2 K K C C 2 2 C C 2 C 2 2 2 2 f f $ $ $ $ % B $ $ % % # # % B % % % % C 2 C C e d ) ) ) ) t t t t t t t t W W i i 8 8 . . 5 & 5 5 $ $ 2 2 % B # # % B | | B B . . . . % . R R . . 5 & . . R R . . R R . . R R % . R . . . 5 5 . . & 5 . . 5 & & & & & & & & & & & & & & & & & F F & & . . J 6 5 & 6 6 & & 6 } & & J J J J } } & & 6 J J } } } & & } } } } } I & & } } & & } } } } 6 } & & } 6 & & } } & & J J 5 5 J J & 5 5 & R R & 5 R R 5 5 _.% 5 5 R R & 5 B % K K R R J J . . J J R R B B 2 2 % % R R R R _._.R R B % & 5 R R & 5 R R & & R R 5 & R R } } & & J J 5 & } } J J } } J J } } J J } } 6 J 6 6 J J a } 6 6 } } 6 J } } } 6 J } 5 5 J J & & } } & & J J 5 5 & 5 R R & 5 R R & & 5 & & & 5 & & & 5 & J J & 5 & & . . R R % . R . % % % . . . 5 & . . 5 5 % . R R . . R R . % R R % % B % # # % B # # B % % B K K s $ J J R R R R j j {.{.}.t W W }.}.t t }.}. . .` ` 2 2 e e 2 2 '.'.% B $ # # # s $ $ # $ $ $ $ * * * K [.[.2 2 2 2 2 2 [.[.:.2 2 2 * K 2 2 * * K K <.K 2 2 * * 2 2 K K 2 C <.<.K K ",
"K <.* * * | * * * | * * * * K * * K K K 2 :.2 2 C C 2 2 C C 2 2 2 2 2 2 e [.2 2 $ $ % % $ $ % % % . % % % % R R % % c 2 d d 2 :.b b b b }.}.}.}.}.}.}.}.}.t {.{.k k & R R R 5 5 s s K K s $ % % $ # B % B B . % . . R R . % % . . . R R % . R R % . R R . . . . . % . . . . . % . . 5 5 % . & & & & 5 & F F & & % . & 5 . . & & . . & 5 5 5 J J & & 6 6 J J } } & & J 6 & & 6 6 & 5 6 6 & & } } & & } } } } } } & & } } a } 6 6 J J J J & 5 6 J & & J J & 5 6 J R 5 5 5 R R & 5 _._.& 5 R R & 5 R R J J & 5 R R 2 2 5 5 & 5 5 5 R R & 5 $ $ | * % B & 5 _._.R R _._.R R _.% R R R R & 5 R R & 5 5 5 & & & & } 6 & & & & & & } } J J } } } 6 } } 6 J } } J 6 } } J J } } J J } } } } } } J J 6 } & & } 6 J J J J R R 5 & R R & & & 5 J & . . 5 & . . 5 & & 5 & & R R 5 5 . . R R . . & 5 . . . . % . R R . . R R . . . . % % . . # # % . B % R R . % % . # # % B B B B B 2 2 B B 5 5 & 5 % % f f ~.~.}.}.t t t }.}.}.t t  . .) ) e e 2 2 2 C B B % B % % $ $ % B s $ % % # $ $ $ C C e e e e 2 2 2 C :.:.2 2 2 2 2 2 K K 2 2 * * K K * <.K K <.* K K * <.2 2 K K ",
"* * * * K * * * * * K * * * | * * K K K 2 :.C 2 C C 2 2 C C 2 2 2 2 2 2 [.[.2 2 $ $ % % $ $ % % % % % % . % % R % % 2 2 e d :.2 b b b b }.}.}.}.}.}.}.}.t t {.{.k k & R R R & 5 $ s * K $ $ % % $ # B % B B . . . % R R . % . . . . R R . . R R . . R R % . . % . . . . . . % . . . 5 5 % . & & & & & 5 F F & & . . & & . . & 5 . . & 5 5 5 J J & & 6 } J J } } & & J 6 & & } 6 & 5 6 6 & & } } & & } } } } I } & & } } } I 6 } J J J J & 5 J J & & 6 J & 5 6 J R 5 5 5 R R & 5 _._.& 5 R R & 5 R R J J & 5 R R 2 2 & 5 5 5 5 & R R 5 5 s $ * * % B 5 5 % % R R _._.R R % % R R R R & 5 R R & & & 5 & & 5 & J 6 & & & & & & } 6 J J 6 } 6 6 } } 6 J } } } 6 I } J J 6 } J J 6 } 6 6 } } J J } } & & } } J J J J R R & & R R & & 5 & & & . % & & . . & 5 & 5 & & R R & 5 % . R R . % & 5 . . . . % % R R . % R R . . . . % % % . # # . . % . R R % % . . # # B % B B B B 2 2 B B 5 5 5 5 % % f f ~.~.}.}.t t t t t }.t t )  .{.) e e 2 2 C C % B % B % % $ $ % B $ $ % % $ $ $ $ C C e e e e 2 2 2 C :.:.2 2 2 2 2 2 K K 2 2 * * K K * <.K K <.* K K * * 2 C K K ",
"* * * * * | * * * * * K * K 2 2 K K 2 2 K K 2 2 K K 2 C 2 2 C C 2 2 [.[.2 C 2 2 % B B % B . % % 5 5 . % 5 5 5 5 5 5 2 2 c c 2 2  . . . .}.t }.}.W W t }.W W i i 8 8 . . & 5 . . $ $ 2 2 B B B B . . % . . % R % % . . % % . . % . . % . . % R % R R . . R R . . R R . . R R . % . . % . 5 5 . % 5 & & & & & % . & & . . & & . . & & % . & & & & } } & J } } J J 6 6 & & J J & & 6 6 & & } } & & } } & & } } & & O } 5 & } 6 } } } } & 5 & & & & J J & 5 5 5 R R & & . . R R . % R R . % R R . . & 5 % % R R B B 2 :.B % 5 & R R & 5 % % % B K K 5 5 % % R R & 5 % % % % R R % % & 5 . . 5 5 R R & 5 R R J 6 & 5 & & 5 5 6 6 & 5 } 6 J 6 } } J J 6 } J 6 } } J J } 6 J J 6 6 J J } } 6 J } } 6 J } } J 6 I } & & & 5 . R & & R R & & & 5 & & . . & 5 . . & & R R 5 5 % . R R % . 5 5 . . R R . . 5 5 % . & 5 B . R R B % . . % B % % B % . % R % R R . % . . # $ % % $ # K * $ $ & 5 R R R R j j {.{.t t W W }.}.t t t l ) ) {.{.2 2 C C * * % % 5 5 . % % . % % % % $ # % B s s :.2 4.4.[.[.[.[.2 C [.[.2 2 2 2 K K 2 2 2 2 2 2 K K 2 2 <.<.K K <.* K K * * * K ",
"* * * | * * * * * * K * K * 2 2 K K 2 2 K K 2 2 K K C C 2 2 C C 2 2 e e 2 C 2 2 % B B B % B . % 5 5 % . & 5 5 5 5 5 2 2 c c 2 2  . . . .t }.}.}.W W }.t W W ` i f 8 . . 5 5 % . $ $ 2 2 B B B B . . % . . % R % . . % . . % R % . . . % . . % % R R . % . R % . R . . . R R . . . . % . 5 5 . % 5 & & & & & . % & & . . & & . . & & . % & & & & } } & J } } J J } } & & J J & & J 6 & & } } & & } } 5 & } } & 5 } } & & } } } } } } 5 5 & & 5 & & J & 5 5 5 R R & & . . R R % % R R . % R R . . & 5 B % R R B B :.:.% % & 5 R . 5 5 % . $ B * K 5 5 % % R R 5 5 % . % % R R % % & 5 R . 5 5 R R & 5 R R J 6 & 5 & & 5 5 6 6 & & } } 6 } } } J J } } J 6 } } J J } } 6 J 6 6 J J J } J 6 6 } J J 6 6 } } } } & & 5 & R R & & R R & & & 5 J & . . & & % . & & R R 5 5 % . R R % . 5 5 . . R R . . 5 & . . & 5 B . R R . % % . . % . % % B % . % R % R % . R . # # % B # # K K s $ 5 5 R R R R j j {.{.}.t W W }.}.t t t l ) ) {.{.2 2 C C * * % % 5 5 . % . % % % % % # # B % s s :.2 4.4.[.[.[.[.C C [.[.2 2 2 2 K K :.2 2 2 2 2 K K 2 2 K <.K K K <.* K K * K K ",
"<.* K * * K * * 2 2 K K 2 2 2 2 C 2 * K 2 2 K K C C 2 2 C C 2 :.C C C C e [.2 K $ $ % % % B 5 5 % . 5 5 5 5 5 & R R * * 2 2 C 2  . .W W t }.}.t }.}.}.}.W W ` {.j j . . % . & & $ s * K $ $ R R . % % . % % . . % B B . % B . . % % % . % % . % . . R R . . R R . . 5 5 % . . . . . % . . . 5 & . . 5 & . . & & . . & 5 . . & & F F & & & 5 J & & & 6 } & 5 6 6 & & J 6 5 5 J J & & 6 6 & & 6 6 & & } } 6 } } } & & } } & & } } 5 & J J & & J J & & & & R R & 5 R R 3 & R R & 5 R R & 5 . . R R & 5 5 5 6 J % % 2 2 B % . . & 5 % % R R $ $ K K B % I I 5 5 % % . % R R _.% R R % . R R . . & & . . 5 & & & J J & & 5 & & & J J & 5 } } & & } } & & } } & 5 } 6 J J 6 J J } } 6 & 5 J J J J 6 6 J J } } J J } } 5 5 5 & R R & & % . & & . . & 5 R R & & . . R R . . R R . . R R . . R R . . R R . . & 5 . . R R . . . . % % . . % B % % $ # . . % B B . . % . . % B B % 2 2 B B R R R R % B f f {.{.}.}.t t }.t t t t t  . . . .e e 2 2 2 2 R R % . 5 5 % % % B % % % % $ $ $ $ 2 2 [.[.4.4.f [.e e 2 C e e 2 2 :.2 * * 2 2 K * 2 2 2 2 C 2 2 2 2 2 K * * K K <.",
"* K * * * K * * 2 2 * K 2 2 C 2 2 C K K 2 2 K K C C 2 2 C C C 2 C 2 C C e [.2 K $ $ % % % B 5 5 % . 5 5 5 5 & & R R * * 2 2 2 2  . .W W t }.t }.}.}.}.}.W W {.{.k k . . % . & & s s * K s $ R R % % . . % . % . B B % % B B . . % . . . . % % . . . R R . . R R . . 5 5 . . . . . . % . . . & 5 . . 5 & . . & & . . & & . . & & F F & & & & J J & & } } & 5 6 6 & & 6 J 5 5 J J & & 6 6 & & } } & & } } I } } } & & } } & & } } & & 6 J & & 6 J & 5 & & R R & 5 R R & & R R & 5 R R & 5 . . R R 5 5 5 5 J J % % 2 2 . % . . & 5 % % R R s $ * K B % I I 5 5 _._.. % R R _.% R R % . R R . . & & . % & & & & 6 J & & & & & & J J & 5 } I & & } } & & } } & & } } J J J 6 J J } } 5 5 J J J J } } & J } } J J } } 5 5 5 & R R & & . % & & . . 5 & R R & & % . R R % . R . . . R R . . R R . . R R . . 5 5 . . R R . . % . . % % . B B % % $ # . . B B % . . % % . B B B % 2 2 B B R R R R % . f f {.{.}.}.t t t t t t t t  . . . .e e 2 2 2 2 R R % . 5 5 % % % % B % % % $ $ $ $ 2 2 e [.4.4.e e e e C C e e :.2 2 2 K $ 2 2 * * 2 2 2 2 C 2 2 2 C 2 * * K K K <.",
"* K K * * * :.2 2 2 C C K K C 2 K K 2 2 2 2 C C 2 2 2 C 2 C d e 2 2 C C C 2 2 2 B B % B . % . % & 5 . % & 5 5 5 5 5 2 2 2 c 2 2 }.}.}.}.t t }.t W W W W W W {.{.8 8 . . R R . % # $ 2 C $ $ % B . . % . . % R % . . # # % B B B . . B % . . B B % . . . R R . % R R . . % . . % . . . % . . . . & & . . 5 & . . & & % . 5 & & 5 & & & & & & & & 6 } 5 & } } & & 6 6 & & & & 5 5 6 J & & } 6 & & } } & & } } & & J 6 & & 6 6 & 5 J J & 5 5 J & & 6 J 5 5 & & 5 5 & & . . 5 & . . 5 5 . . R R . % % % 6 J 6 } | | c K B % . . % B % % % % B B 2 2 B B 6 } 5 5 % % R R . % R R % _.R R % . 5 & 5 5 5 & & & & & & & & & & & 5 & & & 6 6 & & } 6 & & 6 6 & & 6 } & & J 6 & 5 5 J & 5 J 6 5 5 J J J J } } & J } } 5 5 & & R R 5 & R R & 5 . . & 5 . . & & R R & 5 . . 5 5 % . . . B % R R . % . R . . R R . % & 5 B . R R . % % . . % . % . B . . B B . % . . R . B B % % # # * K $ $ & 5 % % R R j j {.~.W W t }.}.}.t t t l t t >.>.2 2 C C * * % % 5 5 % % % . . % % % # # B % $ $ 2 2 e e 2 2 e e e e e e 2 2 e e 2 2 2 C K K 2 2 K K 2 2 K K 2 2 2 2 C C K K K K ",
"* * K K * * :.2 C 2 C C K K 2 2 K K 2 2 2 2 C C 2 2 C C C C e e 2 C C C 2 2 C 2 % B B % B . % . 5 5 % . 5 & 5 5 5 5 2 2 c c 2 2 }.}.}.}.}.t t t W W W W W W {.{.8 8 . . R R . % # $ C C $ $ % B . . . % . . % % . . # $ % B % B . . B B . % B B . . . % R R . . R R . . . . % . . . % % . . % . 5 & . . & 5 . . & & % . 5 & 5 & & & & & & & & & 6 } & 5 J 6 & & 6 6 5 & & & & 5 J J & & } } & 5 J 6 & & 6 6 & & 6 6 & & 6 6 & & J J & 5 J J & & 6 J & 5 & & & 5 & & . . & 5 . . & 5 . . R R % _.% % 6 J 6 6 | | c K B B . % B B % % B % B B 2 2 B B 6 6 & 5 % % R R . % R R % % R R . % 5 & 5 5 5 & & & 5 & & 5 & & & & & & 5 & } } & & } 6 & & 6 6 & & 6 6 & & 6 6 & 5 5 J 5 5 J J & 5 J J J J 6 J J } } 6 5 5 & & R R 5 & R R & & . . & & % . & & R R & & . . & 5 B % . . % . R R . . R R % . R . . . & 5 B . R R . % . . % . . % % B . . B B . . . % R . B B % % # # * K $ $ & 5 % % R R j j {.~.W W t }.}.}.}.t l l t t >.>.2 2 C C * * % % 5 5 % . % % % % % % # $ % % # $ 2 2 e e 2 2 e e e e e e C 2 e e 2 2 C C K K 2 2 K K 2 2 K K 2 2 2 2 C C K K K K ",
"C C 2 2 2 2 K * 2 2 K K 2 2 2 2 2 C K K C C 2 2 C C :.2 C C 2 C 2 2 $ $ * * * * $ $ % % % B 5 5 . . 5 5 5 5 5 & R R * * 2 2 c 2 }.}.t t }.}.t }.W W W W W W ` {.j 8 R R % . & 5 s s 2 2 s s % B % % R R . % R . . % B % # # % . B B . . % . . % R % . . % . R R . . . . B B % . . B . . . % R . . . & 5 . . 5 & . . 5 & . . & & & & & & & & & & & & } 6 & 5 6 6 & & & & & 5 & & & 5 J 6 5 & & J & & & & & & & & & & J J & & J J & 5 & & & 5 J J & 5 & & & 5 5 & R R & & R R & 5 R R 5 5 . . 5 5 % B B B c c B B 2 2 B % . % % . . % . % s s * K K K s $ C C R R R R 5 5 R R 5 & R R 5 5 R R & & . . 5 & & & J J & & & & & 5 } } & & J J & & } } & & & & & & } } J J 6 J & 5 J J R R 5 5 & 5 6 J J J J J & 5 J J & 5 5 & R R & & 5 & & & . . & & . . 5 5 R R & & % . . . B B . % . . R . % % R R . % R R . . R R . % . . . % . . B B . . . % R . . . % . . B B B B B B B C 2 B B R R R R % B f f ~.{.W W W W W W }.t t t }.}.}.}.e e 2 2 2 2 R R . % J 5 . % % % B % % % $ $ B B :.2 e e e e * * 2 2 e e e e 2 C C C 2 2 2 2 2 2 C C 2 2 2 2 * * 2 2 K K 2 2 2 C ",
"2 C C 2 2 2 * K 2 C K K 2 2 2 2 C 2 * K C C 2 2 C C :.2 C C 2 2 C 2 $ $ * * * * $ $ % % % B 5 5 . . 5 5 5 5 5 & R R * * 2 2 2 C }.}.t t }.}.}.t W W W W W W {.{.8 8 R R % . & 5 s s C 2 s s % B % % R R . % R . % % B % # # . . B B % . . B . . % . . % % . R R . . % . B B % . . B . . . % . R . . 5 & . . 5 & . . 5 & . . 5 & & & & & & & & & & & } 6 & & } } & & & & 5 5 & & & & } } & & J J & & & & & & & & & & J J & & J 6 5 5 & & & 5 J J & 5 5 & & 5 5 & R R 5 & R R & 5 R R 5 5 . . & 5 % B B B c c B B C 2 % % B % . % R % % % $ s K K K K $ $ 2 C R R R R 5 5 R R 5 5 R R 5 5 R R & & % . & & 5 & J J & & & & & 5 } } & & J J & & 6 } & & & & & & } 6 J J 6 J & 5 J J R R 5 5 5 5 } } J J J J 5 5 6 J & 5 & & R R & & 5 5 & & . . & 5 . . 5 5 R R 5 & . . . . B B . % . . R . % % R R . % . R . . R R . . . . % . . B B B . . % . R R . . . . % B B B B B B B 2 2 B B R R R R % _.f f {.{.W W W W W W t t }.t }.}.}.}.e e 2 2 2 2 R R . % & 5 . % % % B % % % $ $ B B :.2 e e e e * * 2 2 e [.[.[.C C C C 2 2 2 2 2 2 C C 2 2 2 2 K * 2 2 K K 2 2 2 2 ",
"K K 2 2 * * 2 2 * K 2 2 2 2 2 2 C 2 C C 2 2 2 C 2 2 C 2 2 2 C 2 K K % % # $ :.2 $ $ B % B . % . 5 5 % % 5 5 5 5 & 5 c c c c 2 2 }.}.}.}.}.}.}.t t }.W W W W {.{.f f % % R R R R $ $ C C % B s s ' ' } O R R B B . . % . . . # # % . % % . % . . . . . % % . . . R R . % % . . B . . . % 5 5 % . & 5 . . 5 & . . & & R R 5 & R R & & . . & 5 R R J J & & } } & & & & & 5 & & & 5 J J & & 6 J 5 & J J & 5 J J & & J J & & 6 J & & J J & 5 J J & & & & & 5 & & & 5 6 J R R & & . . J J R R 5 5 5 5 & 5 % B B B B B K K % B % % % B R R # # $ $ 2 2 % B # $ R R % % 5 & R R & & R R & 5 . . 5 & . % & & . . & & 5 & & & 5 5 & & & & J J & 5 J J & 5 & & & & & & R R 6 J & 5 J J & & 6 J 5 & & & 5 & 6 } J J 5 & 5 5 & 5 & & & & & 5 & & . . & 5 . . 5 & . . 5 5 % . & & . . . . % % . . % . % . B B . . . % R . . % . . . % % . B B B B . % . . % % . . % B Q Q > > B B $ # K K s $ 5 5 B % R R j j {.{.W W }.}.t t }.}.t t W W  . .2 2 C C K K % % 5 5 . % R % % % % B % % % % $ $ * K [.[.$ $ % . c 2 2 C 2 2 2 C 2 2 C C 2 2 2 2 C 2 2 2 2 2 2 2 K * 2 2 * K 2 2 ",
"* K 2 2 * K 2 2 * K 2 2 C 2 2 :.:.2 C C 2 2 2 C 2 2 C 2 C 2 2 2 K K % % # $ 2 2 $ $ B B % B . % 5 5 % % 5 5 5 5 5 & c c c c 2 2 }.}.}.}.}.}.}.t t }.W W W W {.{.f f % % R R R R $ $ C C B B $ s ' ' } O R R B B . . . % . . # # % . . % % . . . . . . % . . . . R R % . R . # B . . . % 5 5 . . 5 & . . 5 5 % . 5 & R R & & R R & & . . & 5 R R J J & & 6 J & 5 & & 5 & & & & 5 J J & 5 J J & & 6 J & 5 J J & & 6 J & 5 6 J & & J J & 5 J J & 5 & & 5 5 5 & 5 5 J J R R & & . . J J R R 5 5 5 5 5 & % B B B B B K K B % . % % B R R $ # $ $ 2 2 % B # $ R R _._.& & R R 5 & . R 5 5 % . & & . . & 5 . . 5 & 5 5 5 & 5 5 & & & & J J & 5 J J & & & & & & & & R R J J & 5 J J & & 6 J 5 & & & & 5 6 } J J & & & 5 5 & & 5 & & & 5 & & . . 5 5 . . 5 & . . 5 5 . . & & . . . . % % . . % . % . B B . . % . . % % . . . . % % . B B B B . % . . % % % . . % Q Q > > B B $ # K K s $ 5 5 % % R R j j {.{.W W }.}.t t }.}.t t W W  . .2 2 C C K K % % 5 5 % % % . . % % % % B % % $ $ * K e e $ $ . % 2 2 C 2 2 2 2 C 2 2 C C 2 2 2 2 2 2 2 2 2 2 :.2 K * 2 2 * K 2 2 ",
"C 2 K K 2 2 2 2 C 2 2 C 2 2 2 C 2 C C 2 2 C 2 2 2 C 2 2 2 C K K 2 2 % % * * * * s $ % % % B R 5 . % & 5 R R J J R R * * 2 2 c c  . .W W t t }.}.t t }.}.W W {.{.j j R R R R 5 5 s s 2 2 s s * K . . # # $ $ % % B B R R # # $ # $ # % . . . R R % . R R . . R R . % . . % B B . B B . % . . R R . . R R . . R R . . 5 5 . . J J & & & & R R & & 5 & J J & & J J & 5 & & & 5 & & & & 6 J & 5 & & 5 5 J J & & 6 J & 5 J J & & 6 J 5 & & & 5 5 & & & 5 5 & R R & & % . R R . . & 5 5 5 5 5 R R J J B % R R . % . . 2 2 B B B B R R B B . % B $ | * B B B . % B J J . . 5 & R R & & . % & & . . & & . % & & . . & & . . & 5 R R & & & & & & 5 & & & 5 5 & & . . 5 & 5 5 & & & & 6 } 5 5 & 5 % R & & & 5 6 6 & 5 & & & 5 & & & 5 5 & & & & & . . R R . . R R . . R R _._.R R . . . . % B % % % B . . . % R . B B . % . . R R % % . . $ s % . . % R R . % % B B B . . K * B B C 2 % B B . % R % % e e ~.{.}.}.t t W W t t t }.t t t t 2 C 2 2 2 2 5 5 R R R R % % . . B % % % $ # # # 2 2 C 2 $ s 5 5 C C K * 2 c 2 2 2 2 2 2 C C C 2 C 2 2 2 2 2 K K 2 2 K K 2 2 * K ",
"2 2 * K 2 2 2 2 C 2 2 2 2 C 2 2 2 C C 2 2 C 2 2 2 C 2 2 2 2 K K 2 c % % * * * * s $ % % % B R 5 . % & 5 R R J J R R * * 2 2 c c  . .W W t t }.}.t t t }.W W {.{.j j R R R R 5 5 s s C 2 s s * K . . $ # $ $ B % B B R R # # $ # # # . % . . R R . . R R . . R R . % % . . B . . % B B . . . R R . . R R . . R R . . 5 & R . 6 J 5 & & & R R & & & 5 J J & & J J & 5 & & & 5 & & & 5 J J & & & 5 J & & J & & 6 J 5 & J J & & 6 J & 5 & & & 5 & & & 5 & & R R & & . . R R . . 5 5 5 5 & 5 % R J J B % R R . % . . 2 2 B B B B R R B B . . $ $ | * % B % % B B J J . . 5 5 R R & & . . 5 5 % . & & . . 5 & . . 5 & . . 5 & . R & & & & & & & 5 & & & 5 & & . . 5 & & 5 & & & & } 6 J 5 5 & R R & & 5 5 6 J & 5 5 & 5 5 & & & 5 5 & & & & & . . R R . . R R . . R R % % R R . . . . B B . % B B % . . % . . B B . . . . R R % % . . s s % . . % R R % _.% B B B . . * * % B 2 2 B % . % R R . % e e {.{.}.}.t t W W }.t t }.t t t t C 2 2 2 2 2 5 5 R R R R . % . . B % % % $ # # # 2 2 C 2 s s 5 5 C C * * 2 2 2 2 2 2 2 2 C C C 2 C 2 2 2 2 2 K K 2 2 K K 2 2 * * ",
"K K 2 2 K K 2 2 2 C 2 2 2 2 2 C 2 2 C C 2 2 2 2 K K 2 2 K * * K * * % % # $ 2 2 s $ B B % B . % 5 5 . % 5 5 & 5 5 5 c c c c 2 2  . . . .t t }.}.}.}.t t }.}.{.~.8 f % % & 5 % % $ s C 2 . % * * * | | s % % R R R R % B . . B B . . % . 5 5 . . R R . . R R . % . . B B . % B B . . % B B . . . . % . . . . B B R R . . 5 & & & & & R R & & R R & & 5 & & & 5 5 & & & 5 5 & 5 5 J J & & & 5 J & 5 5 % . & 5 R R & & 5 & J 6 R R & & 5 & & & R R & & R R 5 & . R . . % . R R . . J J R R R R % % R R s $ B B $ # 2 2 '.'.. . % . R R # # $ $ C C % B s $ B % B B . . . % R R % . & & . % R R . . . . % . . . % . 5 5 . . & 5 R R & & R R & & R R & & . . & 5 . . & & & & J J & 5 5 & R R & 5 & & & 5 R R & & R R & & R R & & 5 & & & R R 5 5 % . . . B % R R . % % R % . R . % % . . . . R R . % . . . % . . % % R R . . R R . % . . % . R R . . R R B B $ # | | % B # # c c * s 5 5 R R R R j j {.{.W W t }.}.t }.}.t t t t >.>.C 2 2 C K K % % 5 5 . % . . % % % % % B B % $ $ * * e [.$ $ 5 5 2 2 $ s 2 2 2 2 2 2 C C 2 2 2 2 K K 2 2 2 2 2 2 K K 2 2 K K 2 2 ",
"K K 2 2 K K 2 2 2 2 C 2 2 2 C C C 2 2 C 2 2 C 2 K K :.2 K * * K K * % % # $ 2 2 s $ % B B % . . 5 5 % . & 5 5 5 & 5 c c c c 2 2  . . . .}.t }.}.}.}.t t t }.~.~.f f % % 5 5 % . $ s C 2 % % | * | | s s % B 5 R R R % B . . % B B . . % 5 & % . R R . . R R . % . . B B . . B B . . B B % . . . . % . . . . B B R R . . & & & & & & R R & 5 R R & & 5 & & & 5 & & & 5 & & & 5 5 J J & 5 & & 5 5 J 5 . . 5 & R R & & 5 & J 6 R R & & & 5 & & R R & & R R & 5 . . . . . % R R . % J J R R R R % % R R $ # $ B $ # 2 2 '.'.. . . % R R # # $ $ C C B B $ $ % B B B . % . . R R % . & & . . R R . % . . . . % . . . 5 5 . . 5 & R R & & R R 5 & R R & & % . & & . . 5 & & & J J & 5 & & R R & 5 & & & 5 R R & & R R & 5 R R & & 5 & & & R R & 5 . . . . . % R R . % % R % % . . % B . . . . R R . % . . % % . . % . % R . . R R . % . . . . R R . % R R % B $ # | | % B # # c 2 * s 5 5 R R R R j j {.{.W W }.}.}.}.t }.t t t t >.>.2 2 C C K K % % 5 5 % % % . % % % B % % % % $ $ * * e [.$ $ 5 5 2 2 $ s 2 2 2 2 2 2 C C 2 2 2 2 K K 2 2 2 2 2 2 K K 2 2 K K 2 2 ",
"2 2 2 2 C 2 2 2 2 2 2 C 2 2 2 2 2 2 2 C 2 2 K K 2 2 K K 2 2 * K * * 5 5 s s * * s $ % % % B R 5 . % J 5 5 5 J J 5 5 * * 2 2 c c >.>.}.t }.}.}.t t }.}.}.W W {.{.8 8 R R 5 5 & 5 $ s * K . % R R B B B B B B . . $ $ B % % % B % . % R % % % % . . B . . . % R R # B . . B B . . B B . % B $ . . $ # . . % B % % % B . . % . & & R R & 5 R . 5 5 R R & & 5 5 & & R R & & . . & 5 R R & & R R & & . . R R . % % R % . 5 & . . R . . % 5 5 . . . % # # % B # $ $ # # $ # # s s $ $ s $ $ $ | * s s * K s $ * * * | C C $ $ $ # R R B B B B $ s 2 2 K * * | | * $ s | | s $ | | | | | | # # $ s # # $ $ % B $ # . . % . R R . . & & % . & & . . & & % . 5 & . . & & R R & & . . R R % . . . . % & & R R J J & 5 & & R R & & & 5 6 J R R 5 5 % . . . B # % . % % . % B B % . % . % . . B . . B B . % B B . . B B % . . B . . % . . . . . 5 5 . . 5 & R R 5 5 % B % % B % B B 2 2 B B R R R R % B e e ~.~.}.}.t t t t t t t }.}.}.t }.2 C 2 2 2 2 5 5 R R R R . % . . % B % % $ # % % 2 :.:.2 $ $ 5 & 2 2 B B 2 2 K K 2 2 2 2 2 C 2 2 C 2 2 2 2 2 2 2 2 2 2 2 2 2 * K ",
"2 2 2 2 C 2 2 2 2 2 2 2 2 C 2 2 2 2 2 2 2 2 K K 2 2 K K :.2 K * * * 5 5 s s * K $ $ % % B B 5 5 . % & & 5 5 5 J 5 5 * * 2 2 c c >.>.t t }.}.}.t }.}.}.}.W W {.{.8 8 R R 5 5 & 5 $ s K K % B R R B B B B B B . . $ s % % B % . % % % R R . % R . % B . . . % R R B B . % B B . . B B . % B $ . . # $ . . % B % % % B . . . % & & R R 5 & . R 5 5 R R & 5 5 5 5 & R R & 5 . . 5 & R R & & R R & & . . R R % % R R . % 5 5 % . . . . . 5 & . . % % $ # B B $ # # # # $ # # s s s $ $ s $ $ * * s s * * s s * * * * C C $ $ # # R R B B B B s s 2 2 * * * | * * s s * | $ $ | | | | | | # # s s $ # # $ $ % B # . . . . R R . % & & % . & & . . & & . % & & . . & 5 R . & & % . R R . . . % . . & & R R J J 5 5 & & R R & & 5 5 J J R R 5 5 % . . . B # . % B . . . B B . . . . % . . B . . B B . % B B . . B B . . . % R . % % . % . . 5 5 % . & 5 R R & 5 % B B . % B B % 2 2 B B R R R R B B e e ~.{.}.}.t t }.t t t }.}.}.t }.}.C C 2 2 2 2 5 5 R R R R % . . . % B % % $ # % % :.:.2 2 $ $ 5 & 2 2 B B 2 2 K K 2 c C 2 2 C C 2 C 2 2 2 2 2 2 2 2 2 2 2 C 2 K K ",
"* K 2 2 2 2 2 C C 2 2 2 K K 2 2 K K 2 2 K K 2 2 K K 2 2 K K K K s s B % s $ 2 :.B B B B . % . . 5 5 % . & & 5 5 & & K c c c c 2  . . . .t }.t }.}.t t t W W ~.~.f f % % R R R R $ $ 2 2 % % B B . % $ $ % B B B . . . % R . # # % . # # B % # # % . B B % % $ # . . B B . . B B % % # # B B $ $ B B $ # B % # # # # # $ B B B % . . B B B % $ $ # # $ $ B % # # B B $ # # # * * # # $ $ # # $ s $ $ | | s $ 5 5 5 & 5 5 & & 5 & 5 & & 5 & & 5 5 & & } } } 6 R R } } Q Q ].].6 6 I I I I I O 6 6 I I 6 6 I } J J * * $ $ . . B B B B % B $ $ # $ O O 6 } } 6 > > > O 6 } O O > > ' ' > > J J R R & 5 . . & 5 . . & 5 . . & 5 . . & & . . } } $ $ # $ | | # # * | # # $ s $ $ s $ # # * | # # $ $ B B $ # % % B B $ # # # . . . . B B B % % . # # # # # $ $ B $ $ . % # # B % % B % % B % % % # # . % B B % B B B % B # # . . B B B B # # % % B % % . B B B % B B . . B B * * $ $ 5 5 % % B % j j {.{.}.t t }.}.}.t }.t t t t  .>.2 2 C C * * 5 5 5 & % % % . % % % % B B % % $ # * K e [.# # 5 5 K K $ $ 2 2 2 C K K 2 2 K K 2 :.2 2 2 c c K 2 2 * K 2 2 2 2 c 2 ",
"K K 2 2 2 2 C C 2 2 2 2 K K 2 2 K K 2 2 K K 2 2 K K 2 2 K K K K s s B % $ $ 2 :.B B B B . % . . 5 5 . % 5 & & 5 5 & K c c c c c  . . . .t }.}.}.}.t t t W W ~.~.f f % % R R R R $ $ 2 2 % % B % % . $ $ . % B B % . % % . . # # . . # $ B % # # . % % B % % # # . % B B % . % B B % $ # B % $ $ B B $ # % % # # # # $ $ B B B % . % B B B % $ # # # $ $ B % # # B % $ $ # $ | * # # # $ $ # s $ # $ | | s $ 5 5 5 & & 5 5 & & & 5 & 5 5 & 5 5 5 & & } } } 6 R R } } Q Q ].].6 6 I I I I O O 6 6 I } 6 6 I } 6 J * * # $ . . B B B % B B $ # $ $ O O 6 } } 6 > > > O } } O O > > ' ' > > J J R R & & . . & & . . & 5 . . & & . . & & . . } } $ $ $ # | | # # | | # # s $ # $ s $ # $ | | # # s $ B B # # . % B B $ # # # . . . . B B % % . . # # # # $ $ B B $ # % % # # . % B B % % B % % . # # . % % B B % B B . % # # . . B B B B # # % % B % % . B B % B B . % . B B * * $ $ 5 5 % % % B j j {.{.}.t t }.}.}.t t t }.}.t >.>.2 c C C K * 5 5 5 5 % % . % % % % % B B % % # $ * * e [.$ # 5 5 K K $ $ 2 2 2 C K K 2 :.K K 2 2 2 2 C 2 K K 2 2 * K 2 2 2 2 C 2 ",
"C C K K 2 2 K K 2 2 K K 2 2 K * 2 2 K * K K K * * K K K :.2 K * * * 5 5 s s * * s $ % % B B 5 5 R R 5 5 5 5 6 6 5 5 * * 2 2 c c >.>.}.t t }.}.t t }.t }.t }.{.{.j j % % B % R R $ s 2 2 s $ B B $ # % B $ # # # $ s s $ s $ # $ | | # $ | | s $ | | | | | * * | | | | | | | $ $ | | # # | | | | | | | | & 5 & 5 . . & & . . & 5 5 & & 5 & 5 J J & 5 & & 5 & ' ' ' ' ' ' I I O > I I Q Q Q Q Q > I I ' ' > > ' ' > > > ' > > J J . . & 5 5 5 & & 5 & & 5 . R & 5 & & & 5 . . & & 5 5 J J R R & 5 . % R R . . & 5 * * % % B % % . B B 5 5 $ $ # $ 5 5 R R . . & & 5 5 & & R R & & R R & & 5 5 & & . . & & . . & & 5 & 5 & & & > > O > > O > > > O > > ' ' > > ' ' > > ' ' > O O > > > ' ].9 9 9 9 > > O } & 5 & & & & 5 & R R & & % % 5 5 & 5 5 & . . # # * | s $ | | | | K K s $ | * s $ | * | | | | $ $ | | s $ K K s s | | | | | | s s | | s $ $ # % % # $ B B # $ B B K K s $ R R . % % B e e i i W W t t }.t }.}.t t }.t }.}.C C 2 2 2 2 5 5 R R R R % . . . % % % % # $ % % 2 :.2 2 '.$ & & 2 2 % % 2 2 K K 2 2 K K 2 2 K K 2 2 K K 2 2 2 2 2 2 K K 2 2 * K ",
"C C K K 2 2 K K 2 2 K K 2 2 K * 2 2 K * * K * * K * K K 2 2 * K * * 5 5 s $ * * s $ % % B B 5 5 R R 5 5 5 5 6 6 5 5 * * 2 2 2 c >.>.t }.t t }.t }.}.t }.t t {.{.j j % % B % R R s $ 2 2 s s B B $ # % B # # # # $ s $ s s $ # $ | | $ $ | | s $ | | | | | * * | | | | | | | $ $ | | # # * | | | | | | | & 5 & 5 . . & & . . 5 5 & & 5 & & & J J & & 5 & 5 5 ' ' ' ' ' ' I I O > I I Q Q Q Q > > I I ' ' > > ' ' > > Q Q Q > J J . . & 5 5 5 5 & & 5 & & R R & & 5 & 5 & . . & 5 5 5 J J R R 5 5 % % R R . . 5 5 * * % % % . . . B B 5 5 $ $ $ s 5 5 R R . . & 5 5 5 & 5 . R & 5 . R & & 5 & & & . . & & . . 5 & 5 & & & & & > > O > > > > O > > > > ' ' > > ' ' > > ' ' > O O > > > ].].9 9 9 9 > > I I & 5 & & & & & & R R & & % % 5 5 & 5 & 5 . . # # * | s s | | | | * K s $ | * s $ | * | | | | $ $ | | s $ K K s s | | | | | | $ s | | $ $ # $ % % # $ B B $ # % B K K s $ R R . % B B e e i i W W t t }.t }.}.}.t t }.t }.C C C 2 2 2 5 5 R R R R . % . . % B % % $ # % % :.:.:.2 $ $ 5 & 2 2 % B 2 2 K K 2 2 K K 2 2 * K 2 2 K K 2 2 2 2 2 2 * K 2 2 * K ",
"K K 2 2 K K 2 2 <.<.K K * * K K * * K K K * * K * K 2 2 K K K * s s B % $ $ 2 :.B B % B % % % . 5 5 R R 5 & & & & & c c c c 2 2 }.}.}.}.}.t t t }.}.t t t }.{.{.e e % % R R . % s $ 2 2 K K * * K * * * % % # # B B $ # . . . . . . . . & 5 . . & & J J > > O > > > Q Q I I & 5 } } 6 6 > > O } > > O > > > > > > O } > 6 6 R R & & R R & 5 5 5 5 & & 5 & & 5 5 & & 5 & J J & & & 5 & & & & 5 5 & & 5 & & & 5 5 & & 5 & 5 5 J J & 5 . R & & . % 5 5 R R 5 5 % % J J R R 5 5 R R R R . % 5 5 R R . % % % 5 5 R R | | # # . . B B R R . % $ $ | * 5 5 R R R R . % 5 5 R R & 5 & & & & R R & 5 . % & 5 . R & & R R & & 5 & & 5 . . & & 5 & 5 & & & 6 6 & 5 } 6 & 5 6 6 & & 6 6 & & J 6 & & J J 6 J J J & & J 6 & 5 } 6 & 5 & & & & 6 6 I O ' ' > > Q Q I O O > > I > > O > > > I I I O 6 6 Q Q Q > > Q I I 6 J R R R R R R R R # # . % B B . . # # . . # # # # c c s $ K K 2 2 K * 5 5 % % % % f f {.{.W W }.}.t }.}.}.t t }.t >.>.2 2 C C * * 5 5 5 5 % % . . % % % % B B % % # @ * * e [.$ # 5 5 K K $ $ 2 2 2 C K K 2 2 * K 2 :.* * 2 2 K K 2 2 K K 2 2 K K :.2 ",
"K K 2 2 K K 2 2 <.<.K K K * * K K * * K K * * K * * 2 2 K K K K s s B % $ $ 2 :.B B B B % % . % & & R R 5 & & & & & c c c c 2 2 }.}.}.}.t t t t }.}.t t }.}.{.{.e e % % R R . % s $ 2 2 K K K * * * K * % % # $ B B $ # . . . . . . . . & 5 . . & & J J > > O > > > Q Q I I & 5 } 6 6 6 Q > I I > > O > > > > > > > O } & 6 R R & 5 R R & & 5 & & & 5 & & & 5 5 5 & & 5 J J & & & & 5 & & & 5 5 & & 5 & & & 5 5 5 & & 5 & 5 J J & & R R & & . . & 5 R R 5 5 . % J J R R 5 5 R R R R . % 5 5 R R % % B % 5 5 R R | | # # . . B B R R . % $ $ | * 5 5 R R R R . % 5 5 R R & 5 & & & & R R & 5 R . & & R R & & R R & 5 & & & & . . & & & 5 & & & & 6 6 & & J 6 & & } } & & 6 J & 5 } 6 & & J J 6 J J J & & 6 6 & & } } & 5 & & & & 6 6 O O ' ' > > Q Q I O O > > I > > O > > > I I I I 6 6 Q > > > Q Q I I J J R R R R R R R R $ # . . B B % . # # . % # # # # c c s $ K K 2 2 K * 5 5 % % % % f f {.{.W W }.}.}.t }.}.t t t }.>.>.2 2 C C * * 5 5 5 & % % . % % % % % B B % % # @ * * e [.# # 5 5 K K $ $ 2 2 2 2 K K 2 2 K K :.2 * * 2 2 K K 2 2 * K 2 2 * K 2 2 ",
"K K K * K K * * K K * <.K K * * K K * * * K * <.K K <.* K K s s * * 5 5 s $ * * $ # % % % % 5 5 5 5 5 5 5 5 6 J 5 5 * * 2 2 2 2  . .W W t t t }.t t W W W W {.{.k k % % B % % . * * R R & 5 J J & 5 6 6 & & } } } 6 6 J R R 5 5 % . . . . . & 5 & 5 5 5 . % & & 5 & & & R R & & R R 5 & R . 5 5 R R 5 & % . J J . . & 5 R R & 5 R R & 5 R R & & 5 & 5 & R R & & . . 5 5 % . R . . . & & . . R R R R & 5 & & & & . % 6 6 I } & 5 . . & 5 . % R R . % R R . % I I 6 J R R R R R R % B R R % % R R B B I I 6 J B B * * B B # # B % % % . . s $ | * s $ O > & 5 . B R R & 5 . . & 5 R R & 5 . . I I R R & & R R & & 5 & & & & & & & . . & & } } & & R R & & R R 5 & J 6 } } 6 J & & 5 5 J 6 & & & 5 & 5 J J & & 6 6 & & J J . . . . R R & & R R R R . . 5 & R R 5 5 & & J J & 5 & 5 & & & & R R 5 5 & 5 & & 5 & 5 J & 5 5 & . . & & . . & & } } 6 > } } Q Q } } 6 6 J & J 6 # # $ $ B % R R B B e e ~.~.W W t }.}.}.t t }.}.t t t t C C 2 2 2 2 5 5 R R R R % % . . % B % % $ # % % 2 :.2 2 '.$ 5 & 2 2 % % 2 2 K K 2 2 K K 2 2 K K 2 2 K * 2 2 * * 2 2 K K 2 2 K K ",
"K K K K K K K * K K * <.K K K * * K K * * K * <.K K <.* K K s s * * 5 5 s $ * * $ $ % % % B 5 5 5 5 5 5 & 5 J 6 5 5 * * 2 2 2 2  . .W W t t t }.}.t W W W W {.{.k k % % % B % % * * R R & 5 5 J & 5 6 6 & & } } 6 6 J J R R 5 5 . . . . . . & 5 & 5 5 5 . . & 5 5 5 & & R R 5 & R R 5 5 . . 5 5 R R & & % . J J . . & 5 R R & 5 R R & 5 R R & 5 & 5 5 & R R 5 & . . 5 5 . . R R . . & 5 . . R R R R & & 5 & & & . % 6 6 6 I & 5 . . & 5 . . R R . % % R . % I I 6 J R R R R R R % % R R % B 5 R B B I I 6 J B B * * B B # # . % B % % . s $ | * s $ > > & 5 . B R R & 5 . . 5 5 R R & 5 . % I I R R & 5 R R & & 5 & & & & & & & . . & & } } & 5 . R & 5 R R & 5 J J } } 6 J & 5 & 5 J 6 & & & & & 5 J J & & 6 J & & J 6 . . . . R R & & R R R R . % & 5 . R & 5 5 & & J 5 5 & & 5 & & & R R & 5 5 5 & & 5 & 5 J 5 5 & & . . & & . . & & } } 6 > } } > > O } } } & & J J # # $ $ B % R R B B e e ~.{.}.W }.t }.}.}.t }.}.t t t t C C 2 2 2 2 5 5 R R R R % % . . % % % % # $ % % :.:.2 2 $ $ 5 & 2 2 % B 2 2 K K 2 2 K K 2 2 K * 2 2 K * 2 2 * * C 2 K K 2 2 K K ",
"* * K K * * K K * * | * * * * K K * * K K * 2 2 K * 2 2 * * K * $ $ 5 5 $ $ K K B % % % R R . % 5 5 . . 5 & 5 5 5 5 2 2 C 2 2 2 t t t }.t t t t W W t }.W W {.{.f f B B 5 5 R R s $ # $ 5 5 % % R R . % R R . % 5 5 . . R R . . & & . . 5 & & 5 5 & & & 5 5 & 5 5 & R R & 5 & 5 & & . . 5 5 . . & 5 R R & 5 . R & & R R & 5 R R 5 5 6 } R R . % 5 & R R 5 5 R R & 5 R R & & ' ' J J R R R R R R 5 5 R R & 5 R R . . > > J 6 B B % . B B B % % B R R B B B % B B J J s $ R R . % R R . % % R % % B % s $ s s B B $ s $ # % % # $ R R . % $ $ * * $ $ # # $ $ B B R R . % & 5 R R & 5 % % B % 6 6 % % B % R R . . & 5 R R & & R R . . } } } 6 R B 6 6 & & & 5 . R & & R R & 5 } 6 ' ' R R & 5 . . & 5 & & J J & & 6 J . . I I & & 5 & R R 5 5 R R & 5 R R & 5 5 5 5 & . . R R . . 5 & 5 5 & & 5 & 5 J R R J J . . R R & 5 5 5 R R R R R R R R R R & 5 . . & & R R R R R R % % s $ R R . % % % j j {.{.W W W W t t }.}.t t }.}.}.}.2 2 e e K K R R & 5 . . R R . % B % . % % % # # * * C C # # 5 5 K K B % C 2 2 2 K K 2 C K * 2 2 K K 2 2 * * K K <.* 2 2 K * 2 2 ",
"* K K K * * * K * * | * * * K K * * K K | * 2 2 K * 2 2 * | * * s $ 5 5 s $ * K B % % % R R . % 5 5 . . & & 5 5 & 5 2 2 2 C 2 2 t t t t t t t t W W }.t W W {.{.f f B B 5 5 R R s $ # $ 5 5 . % R R . % R R . % & 5 . % R R . . & & % . & & 5 5 & 5 & & & 5 & 5 5 & R R 5 5 5 & & & . . 5 5 . . & & R R & 5 R R & & R R & 5 R R 5 5 6 } R R . % 5 & R R 5 5 R R 5 5 R R & & ' ' J J R R R R R R & 5 R R & 5 R R . . > > J 6 B B % . B B % % % . R R B B B B % B J J s s R R . % R R % % R R % % B % s s $ s B B $ s # # . % # # R R . % $ $ * * # $ # # $ $ B B R R . . 5 5 R R & 5 % % % B 6 6 % % % B R R . . 5 & R R & & R R . . } } } } B B 6 6 & & & & R R 5 & R R & & } } ' ' R R & 5 . . & & & & J 6 & & J J . . I I & & 5 & R R 5 5 R R 5 5 R R & 5 5 5 5 5 % . R R . . 5 & 5 5 5 & & 5 J J R R J J . . R R & 5 5 5 R R R R R R R R R R & & . . & 5 R R R R R R % % s s R R . % % % j j {.{.W W W W t t }.}.t t }.t }.}.2 2 e e K K R R & 5 R . R R . % B % . % % % # # * * C C $ # 5 5 K K B % C 2 2 2 K K 2 2 K * 2 :.K K C 2 K * K K * <.2 2 K * 2 2 ",
"K K K * * K * * <.* * <.K K | * <.K s s * K * * K K * K 2 2 $ $ * * 5 5 s $ * * $ $ R R % % 5 5 5 5 5 5 5 5 6 6 5 5 * * 2 2 2 2  . .W W t t W W t t W W }.t {.{.k k B B % . % R * * % B B % . % R . & 5 . . R R . . & 5 . . & 5 R R & 5 . . I I I 6 5 5 % . 5 5 R R & 5 R R & 5 . . . . 9 9 } } . . & & 5 5 & 5 . R 5 & . . % % 6 6 Q > $ $ & 5 . R & 5 . . & 5 R R . . s $ 5 5 | | 5 5 R R & 5 R . & 5 . . 5 5 $ s $ s K K % % B % % . B B % % # $ R R B B * * K * % % R R 5 5 % % R R % % R R % B B % K K % B * * # $ # # . . B B B % s $ K K B B * * $ $ 5 5 . % R R . . & 5 R R R R * * $ s $ s B % 5 5 5 & & 5 & & R R & 5 | | | | | | & 5 5 & & & R R & & R R & 5 B B % B & 5 # # . % & 5 . R & & R R & & R R 5 & > > J J . % 5 & R R 5 5 R R 5 5 R R & 5 J J ].].# # R R & 5 & & 5 5 5 & 5 5 & 5 . R J J I I % % . R 5 & % . R R . % & 5 R R & 5 . . . . # # R R $ # $ $ B B R R $ s f f i i }.}.t }.}.}.}.t }.}.t t t }.C C 2 2 2 2 5 5 & 5 & 5 . % R R % % B % # # B % K K 2 :.$ $ J J 2 2 % % 2 2 K K 2 2 K K 2 2 K * 2 2 K K 2 2 * * C 2 K * 2 2 K * ",
"K K * * K K * * * * <.* K K | * <.K s s * K K * K K * K 2 2 $ $ * * 5 5 $ $ K * $ # % R % % 5 5 5 5 5 5 5 5 6 J 5 5 * * 2 2 2 2  . .W W t t W W t t W W t t {.{.k k % B B % R R * * % B % % B % % . 5 5 % . R R . % & 5 . . & 5 R R & & . . } } } } & 5 . % & & R R & & R R & & . . . . 9 9 } } . . & & 5 5 5 & R R 5 & . . . B 6 6 Q > $ $ 5 & R R 5 & R . & & R R . . s s 5 5 * | 5 5 R R & 5 R . 5 5 % . 5 5 s $ # $ K K % B B B % B B . % % s $ R R B B * * K * % % R R & 5 % % R R . % R R % B B % K K B B * * # $ # # . . B B B % s $ K K B B * * $ $ & 5 . % R R . . 5 5 R R R R * * s s $ s B % 5 5 & & 5 & & & R R & 5 | | | | | | 5 5 & 5 & & R R & & R R & 5 B B % B & & # # . % & & R R 5 & R . & 5 . R & & > > J J . % & 5 R R & 5 R R 5 5 R R & 5 J J ].].# # R R & 5 & & & 5 5 & 5 5 & & R R J J I I % % . R 5 & . . R R . . 5 5 R R & 5 R . . . # # R R # # $ $ B % R R $ $ f f i i }.}.}.t }.}.}.t }.}.t t }.}.C C C 2 2 2 5 5 & 5 5 5 . % R R . % % % # # B % K K C 2 $ $ J J 2 2 % % 2 2 K K 2 2 K K 2 2 | * 2 2 K K 2 2 * * 2 2 K * 2 2 K * ",
"| * * | * * K K * * K K * * 2 2 * * % % % % 2 2 K * 2 2 * * K * $ $ 5 & $ $ * K % % % B R R . . 5 5 . . & 5 5 5 5 5 2 2 C 2 2 2 t t t }.t t t t W W }.}.W W {.{.8 8 # # _._._.% <.<.$ $ . % s $ ' ' I I & 5 . % R R . . 5 5 . % & & % % | | Q Q 5 5 % . R R B % 5 & . . 5 & . . . . | | 5 & | | 5 & R R & & R R R R . % R R s $ | * K K R R R R R R % . 5 5 R R R R % B B % K K B B % B R R . % 5 5 R R 5 & . . R R B B % % B % % . B % R R B B % . % B % % B % 5 5 R R R R % % R R % B R R . % R R % B % % B % | | s $ B B % B B . # # $ $ 2 2 % % % . . . % % . . . % 5 5 R R R R . . R R B B R R . % 5 5 R R & 5 R R & 5 R R R R % . . . R R & & R R & & . . R R R R % . s $ | * # # R R R R 5 & . . 5 5 R R 5 & s $ | * K * % % R R 5 5 R R & 5 R R 5 5 % % $ $ . % | | R R & & 5 & & 5 R R & 5 . . & 5 5 5 I I s $ 5 5 % % R R % B . . B B . . . . > > O > # # # # $ # | | % % B % % . f f {.{.W W }.t t t t }.t l }.}.}.}.C 2 e e K K R R & 5 . . R R . % % % . % % % # # * * C C # # 5 5 K K B % C 2 C 2 * * c 2 * * $ $ K K 2 2 * * 2 2 <.* 2 2 K * 2 2 ",
"* * | * * * K K K * * K K * 2 2 K * B % % % 2 2 K * 2 2 * * * * $ $ 5 & $ $ * K % % % B R R . . 5 5 . . 5 & & 5 5 5 2 2 2 C 2 2 t t t }.t t t t W W }.}.W W {.{.8 8 # # _._._.% <.<.$ $ . % s s ' ' I I 5 5 % . R R . . & 5 R . & 5 % % | | Q Q 5 5 . % R R B % 5 & . . 5 & . . . . | | 5 & | | 5 & R R & & R R R R . % R R s $ | * K * R R % R R R % % 5 5 R R R R % B B % K K B B B % R R . % 5 5 R R & & . . R R % B B % . % R . % % R R % B . % % B % % . % 5 5 R R R R % % R R . % R R % B R R . % B % % % | | $ $ B B B B % B # # # $ 2 2 % % . . . . . % % . . % 5 5 R R R R . . R R B B R R . % 5 5 R R & 5 R R & 5 R R R R . . . . R R & 5 . R & & R . R R R R . . s s | | $ # R R R R & & . . 5 5 R R & 5 s $ | * K * % % R R 5 5 R R & 5 R R 5 5 % % $ $ B % | | R R & 5 5 5 5 & R R & 5 . . & 5 5 5 I I s s 5 5 . % R R . % % . . s . . . . > > > O # # # # $ # | | % % B % % . f f {.{.W W }.}.t t }.}.t l }.}.}.}.C 2 e e K K R R & 5 . . R R % % B % % % % % # $ K * 2 C # # 5 5 K K B % C 2 2 2 * * 2 2 * * $ $ K K 2 2 * * C 2 <.* 2 2 * * 2 2 ",
"* * K * <.<.* * K K * * 2 2 * K :.2 5 5 $ $ K * K K * K 2 2 $ $ * * 5 5 s $ * * $ $ R R . % 5 5 5 5 5 5 5 5 J 6 5 5 * * 2 2 2 2  . .W W t t W W t t W W t t {.{.8 8 % % _._.R R * * '.'.'.$ $ s # # # # $ # R R . % R R R R & 5 . . . . | | s $ d d 5 5 R R J J . % 5 5 R R R R . . | | * K % % . . 5 5 R R R R . % R R % B . . s s % % R R J J . % R R B % R R B % R R R R R R % % R R R R & 5 . . 5 5 . % & & R R R R . % R R . . R R B % % B % % B B % B B B B % B B . % % R B B B % # $ % B B % B B B s $ s C C # # # # . . B % % B * * 2 2 K * B B $ s # # # # . . . B % R & 5 % % B % 5 5 R R R R % % 5 5 R R & 5 R R 5 5 R R J J R R 5 & R R 5 & . . . . . . R R . % 5 5 . B 5 & . % R R . . & 5 . . 5 5 R R & 5 % % 5 5 % % & 5 R R 5 & R R J J R R R R * * $ # . . & 5 . . & & R R & & . . & 5 . . # s 2 2 K * % % 5 5 % . R R R R & 5 . . . % s $ % % | * % % s $ $ $ B B R R s $ f f i i }.}.t }.}.t t t t t }.t t }.C C 2 2 2 2 5 5 5 & 5 5 % % % . % % B % # # B % K K 2 2 '.$ J J 2 2 % B 2 2 K K 2 2 K * 2 2 % % K K K K 2 2 * * 2 2 * * 2 2 K * ",
"* * * * <.<.* * K K * * 2 2 * K 2 2 5 5 $ $ <.<.K K * K 2 2 $ $ * * 5 5 $ $ K * $ $ R R % % 5 5 5 5 5 5 5 5 6 6 5 5 * * 2 2 C 2  . .W W t t W W t t W W }.t {.{.8 8 % % _._.R R * * '.'.$ $ $ s # # # # # $ R R . % R R R R & 5 . . . . | | s $ d d 5 5 R R J J % . 5 5 R R R R . % | | * K % % % . 5 5 R R R R . % R R . % % . s $ B % R R J J . % R R . % R R % B R R R R R R % % R R R R & 5 . . 5 5 % . & 5 . R R R . % R R % . R R % % B % % B B B % B B B B B % . % B R R B % % B $ $ B B % B B . s $ s s C C # # # # . . % % B % | * 2 2 * * % B s $ # $ # # . % B % R R & 5 % % % % 5 5 R R R R % % 5 5 R R & 5 R R 5 5 R R J J R R 5 & R R 5 & . . . . . . R R . % 5 5 . B & 5 . B R R . % & 5 . . & 5 R R 5 5 % . 5 5 % % 5 & R R 5 5 R R J J R R R R * * # # . . & & . . 5 & R R & & . . & & . . s $ 2 2 K * % % 5 5 % . R R R R & 5 . . . % $ $ . % * * % % # $ $ # $ % R R $ s f f i i }.}.t t }.t t t t t }.t t t C C 2 2 2 2 5 5 5 5 5 5 B % . . B % % % # # % B K K 2 :.$ $ 6 J 2 2 % % 2 2 K K 2 2 K * 2 2 % % K K * K 2 2 * * 2 2 K * 2 2 * * ",
"s s * | * * 2 2 * * 2 2 * * 2 C K * 5 5 B % K K * * 2 2 * * * * $ $ 5 5 $ $ * K % % % % R R . % 5 5 . . 5 & 5 5 5 5 2 2 C 2 2 2 t t t t }.t t }.t t t }.t t i i 8 8 # # _._.% B * * <.<.B B $ s <.<.$ $ R R . . R R B % 5 5 % . & J . . R R B B R R . . 5 5 R R R R . . 5 5 . . 5 5 R R & 5 R . 5 5 . % R R R R R R % % 5 5 R R & 5 R R 5 5 R R & 5 R R 5 5 % % R R % B R R s $ B B % B R R . % % . B B % . # # # # K K s s c c | | * K | | * K $ $ # $ $ $ K K K * 2 2 K * K K K * * K s $ | * s $ * * $ $ s $ 2 2 s s B B # # . % $ $ s s 2 2 B B $ # % B K * s s * * | | K K * | K K * | $ $ B B $ $ B B $ $ $ # $ $ # # $ $ | | s $ . . . . & 5 . % . . B % R R . % % R % % R R . . R R . % 5 5 R R R R . % 5 5 . B R R R R R R % . R R R R R R R R 5 5 R R & 5 R R 5 5 % . R R R R & 5 . % R R R R J J . % B B % B R R R R R R . % & 5 R R % % # $ s $ K K s $ B % % % # $ R R % % % B j j {.{.W W }.t }.}.}.}.}.t t }.}.t 2 2 e e K K R R 5 5 % . . . B % % % % % % % # $ * * 2 C # # 5 5 K K % B K K 2 2 * * 2 2 * * 5 5 $ $ 2 2 K K 2 :.* * 2 2 K * K K ",
"s s * | * * 2 c <.* 2 2 * * 2 2 * * 5 5 B % K K * * 2 2 * * K * $ $ 5 5 $ $ * K % % % % R R . % 5 5 . . 5 & & 5 5 5 2 2 2 C 2 2 t t t t }.t t t t }.t t t t i i 8 8 # # _._.B B * * <.<.B B $ s <.<.$ $ R R . % R R % . 5 5 % . & J . . R R B B R R % . 5 5 R R R R . . 5 5 . . 5 & R R & 5 . . 5 5 % % R R R R R R . % 5 5 R R 5 5 R R & 5 R R 5 5 % R & 5 % % R R B % R R s $ B B B % R R % % . . % B . . # # # # K K s s c c | | * K | | | * $ $ # $ $ $ K K K * 2 2 K K * K K * | K s s * * $ s * * $ $ s s 2 2 s s % B # # B % $ $ $ s 2 2 % B $ # % B * * $ s <.* * | | K | | * K | * # $ B B $ # % B $ $ # $ $ $ # # $ $ | | s s . . . . & 5 . . . . . % R R . % R R % B R R . . R R . . 5 5 R R R R % B 5 5 % . R R R R R R . . R R R R R R R R & 5 R R & 5 R R & 5 % . R R R R 5 & % % R R R R J J . % B B B % R R R R R R . % & 5 R R . % $ $ * s K K s s % % B % $ $ R R . % % B j j {.{.W W }.t }.}.t }.t }.t }.t }.C 2 e e K K R R 5 5 % . . . B % % % % % % % # $ * * 2 C # # 5 5 K K B B K K 2 2 * * 2 2 * * 5 5 $ $ 2 2 K K 2 :.* * 2 2 * K K K ",
"* * <.<.2 2 K K 2 2 K * K K <.<.* * 6 6 s $ | * K K * K * * $ $ * * 5 5 s $ * * $ $ R R . % 5 5 & 5 5 5 5 5 J 6 5 5 * * 2 2 2 2  . .t t t t }.t t t t t t }.{.{.k k # # B B % B K K '.'.% % _._.B B % _._.% . . . . R R . % R R & 5 R R % % R R % % . . R R R R % % . . . . . % R % % . . % B % % B % % . B B % $ $ B B $ $ s $ | * s $ K K s s * * K * * * # $ s $ # $ K K K * | * * K * K s $ | * s $ $ $ . % B B B % B B . % % B B % B B . % % B % % B % % . $ $ B B B B % B # $ % % % B % B $ $ # $ % B B % C C # # # # # # $ s # # $ s K K % B B % % B # # # # . % % B % . B B # # $ s % % B % % . B B % . B B % . B B % B B . % % # # B B $ # # # s $ # $ s s $ s K * * K * K s s $ s B B $ s # # $ s s s $ s s s K K K * s $ B % % B B % B B . R . % % R % . & 5 . . R R B B R R R R R R % . & 5 R R 5 5 . % R R . % 5 5 % % R R % % % B % % R R % . % . % B R R $ $ # $ % B R R $ s f f i i }.}.t t t t t }.t t }.}.t t 2 C :.2 2 2 5 5 5 5 5 5 % % % . . % % B $ # % B K K C 2 $ $ J J 2 2 B % 2 2 K K K K * | K K 5 5 * | K K 2 2 K K 2 2 K K 2 2 * * ",
"* * <.<.2 2 K K 2 2 K * * K K * * * 6 6 s $ | * K K * * K K $ $ * * 5 5 s $ * * $ $ R R % % 5 5 5 5 5 5 5 5 J 6 5 5 * * 2 2 2 2  . .t t t t }.t t t t t }.}.{.{.k k # # B B % % K K '.'.% % % _._.B _._.% B . . R % R R . % R R 5 5 R R % % R R % B . . R R R R . % B . . . . . % % % . . % B % % % B % % B B % s $ % B $ s # s <.* s $ K K s s <.* * * K * $ $ s s $ $ K K K * | * * * K * s $ | * s $ $ $ B % B B % B B B B % % B % % B B % . B B % . B B B % $ # B B % B B . $ $ % B % B % B $ $ # $ % B B B C C # # # # # # # $ s # s $ K K B B % % B % s # # # . % % B % . B B $ # # s B % % B % . B B . . B B % B B . % % B % % % # $ B B # # # # $ s # s s $ s s * * K * K K s s s $ B B $ s # s s $ s s s s $ s K K K * s s B % B B % B B . R R . % % R % . 5 5 % . R R . B R R R R R R % . 5 5 R R & 5 % % R R % B 5 5 % % R R % % % % B % R R _.% B % % B R R s $ $ $ B B R R $ $ f f i i }.}.t t }.t }.}.t t t }.t t C C :.2 2 2 5 5 5 5 & 5 % % % . . % B % # # B % K K 2 2 '.$ J J 2 2 B % 2 2 K K K K * * K K 5 5 * | K K 2 2 K K 2 2 K K 2 2 * * ",
"* * K K * * 2 2 K * | K K * * K * * J J B % * * * * 2 2 * * K * $ $ 5 5 $ $ K K B % % % R R % . 5 5 . . 5 & 5 5 5 5 2 2 2 2 C 2 t t t t }.t t t t t }.t t }.i i 8 f $ $ _._.% B <.<.$ s B % '.'.% % '.'.% % % % B % s # B B $ # % R B B s $ K K s s K K s s s $ # $ s $ $ # # # $ s K * * K * * * * 2 2 * * # $ B % s $ % B $ $ B B B B R R B B % . % B % % % B % % B B % . % % B % % B R R R R % . % . R . % % R R % . . . B B B % B B R R . % % B B B R R . % R R B B B % _.% R R . % B % % B B % B B B B $ $ 2 c s s B B # # % % # # $ $ f d % % # $ B B # $ B % B B % . . % . B B % B % % B R R . % % R B % R R % % R R % % % % B % R R . % R R B % . . B B R R % B R R % B B % % B % % . B % % % B % % B B % B $ # % B s $ B B $ $ B B $ $ s s K K * * K * * * K K * | * | s $ $ $ # $ * * $ s * * s s * * s s * * B B $ # % B $ $ B % B B R R R R R R B B % . % B % % s $ B % % B B B j j ~.{.W W t }.}.t }.}.}.}.t t }.t 2 2 e e K K R R 5 5 . . . . . % % % % % % % # # * * C C # # 5 5 K K B B K K 2 2 * * 2 2 K * 5 5 # $ 2 2 * * 2 2 * K 2 2 K * 2 2 ",
"* * * K K * 2 2 * * K K K * * K * * J J % % * * * * 2 2 * * * * $ $ 5 5 $ $ * K % % % % R R . . 5 5 . . & & & 5 5 5 2 2 2 2 C 2 t t t t }.t t t t t }.t t t i i 8 f $ $ _._.B B * * $ s % % '.'.% % '.'.% % % % % B # $ B B # $ R R B B s $ K K s s K K s s s s $ # $ s $ # # $ s s s * * K * * * * 2 2 K * $ $ . % s $ B B # $ B B % B R R B B % . % B % % B B % B B . % % B % % % % B R R R R . . % B . . % % R R . . . . B B % . B B R R % % % B B B R R B % R R B B B % _.% R R . % % % B B % B B B B % $ $ 2 c s $ B B # # % % # # $ $ f d % % # # B % $ $ B % B B % . % % . . B B B % B B R R . % % R B % R R . % R R % % B % B B R R % % R R % B . % B B R R . % R R B B % B B . % % B % % % B B % B B B B % $ $ B B s $ B B $ $ B B # $ s $ K K * * K * * * K K | | | | $ $ $ $ # $ * * s s * * s $ | * s $ * * % B $ # % B s $ B % B B R R R R R R % B B % . % B B s $ B % % B B B j j ~.{.W W t }.t }.}.t }.}.t t t }.2 2 e e K K R R 5 & % . . . . B % % % % % % # # * * C C # # 5 5 K K B B K K C 2 * * 2 2 * * 5 5 s $ 2 2 * * 2 2 * * 2 2 * K 2 2 ",
"K K * * K K * * * K K * * K * * * K 6 6 B B * * * K <.K K <.s $ * * 5 5 $ $ * * $ $ R R % % 5 5 5 5 5 5 5 5 6 6 5 5 * * 2 2 2 2  . .t t t t }.t t t t t }.t {.{.j j % B B B _._.:.:.K K 2 :.:.:.K K K * | K * * K * s s <.* s s $ s s s * * $ s * * s $ s s s $ $ s # # $ $ B B $ # % % # # % B $ $ B B B B R R . % % R B % R R . % R R % B R R % . R R % % R R % % % % B % . % % . 5 5 R R & 5 % % R R B % . % R R J J . % % . . s . % % B % % . B % R . % % B % % % % % B R R R R R R % B % % s s B % B B B % C C # # # # % % B B % % s $ 2 2 $ $ . % B . # # B B . . % % R R B B B % B B % B B . % % B % . . % B R R % % R R . . 5 5 % . 5 5 R R R R % % . . R R R R B B % . % B % % % % B % % B R R . % 5 5 B B % B B . R R B B R R % % R R B % R R B B % B # $ B B $ s # # $ $ B B $ $ B B * | s s * * # $ * * | * s s $ $ | * s $ 2 2 K * * * K * 2 2 K * 2 2 s $ K K s s B B R R % B e e i i }.}.}.t t t t }.t t t }.}.}.C C :.2 2 2 5 5 5 5 5 5 % % . . . % R R # # % % * K 2 2 s $ J J 2 2 B % C 2 K K K K * | K K 5 5 s s * * K K * * K K * * 2 2 * * ",
"K K * * K K * * K K * * K K * * * * 6 6 B B * * K K * K * * s $ * * 5 5 $ $ * * s $ R R % % 5 5 5 5 & 5 5 5 6 6 5 5 K * 2 2 2 2  . .t t t t }.t t t t t }.t {.{.k j % B B B _._.:.:.K K 2 :.:.:.K K K * | K * * * K s s <.* s s s $ s s * * s s * * s s $ s s $ $ s # # $ $ B B # $ % % # # % B $ $ B B B B R R % % R R . % R R B % R R % . R R % . R R % % R R % % % . B % % % B % 5 5 R R & 5 % % R R B B B % R R J J % % . . % B % % B B % . % B R R B % % B B % % B B B R R R R R R % % . % s s B B % B B B C C # # # # % B B B . % s s 2 2 $ $ . % B . # # B % . % % R . R B B B % B B B % B B . % % B . . % . R R B % R R % . 5 5 % . 5 5 R R R R . % . . R R R R B B % % % B % % . % % % B % R R . % 5 5 % B B % B B . R B B R R % % R R . % R R % B % % s $ % B $ $ $ # $ $ B B $ # % B K | s s * * $ $ * * | * s $ s s * * s $ 2 2 K * * * * K 2 2 K * 2 2 s s K K s $ B B R R B B e e i i }.}.}.t t t }.}.t }.}.}.}.}.2 C :.2 2 2 5 5 5 5 5 5 . % % . . % R R # # % % * K 2 2 s $ J J 2 2 B % 2 C K K K K * | K K 5 5 $ s * * K K * * K K K * 2 2 <.* ",
"K * K K * * K K * * K K * K * K * * 6 6 % % c c * K c c K * * * $ s 5 5 $ # c c % % % % R R % . 5 5 R R 5 & & 5 5 5 2 c c c C C  . . . .t t t t t t t t W W i i 8 f $ $ _._.% B s $ [.[.s $ K <.$ s <.* s s | | % B s $ % % $ $ B B $ $ B B s $ B B s s $ $ # $ % B B B % _.B B B B B B . % $ $ B B B B R R . % B % % B % B B B % . % B R R % B 5 R B % . . % B R R . % R R % B R R % . R R R R & 5 % % % . % % R R % . 5 5 % . R R . B R R . % B . B B % . % B R R % % R R % B R R B B % _.B B B B I I I O $ $ 2 c s $ B % B B % % % B $ $ C C # $ O > 5 5 % % % B B B R R . % % % B B % % B % R R . % R R % % R R . % R R % % % . % B 5 5 % . R R . % & 5 . . R R % . R R % % R R % . R R % % R R % % R R % . . % % B B . B B R R . % % % % % R R B B % % B B B B $ s . % % B . % % B B % B B $ $ s s $ $ $ # $ $ $ s B % $ $ B B $ $ B B # $ $ $ s s $ s $ s s s * * 2 C s $ R R % % B % j j {.{.t t }.t t t W W  . .t t  . .2 2 2 2 * * % . 5 5 . . . % R % % . % % % % $ # * * 2 2 # # 5 5 K * % % K K 2 2 * * K K s s 5 5 $ $ 2 c * * K K * K K K * * * K ",
"* * K K * * K K * * K K <.<.K K * * 6 6 B % c c * K c c * * * K $ $ 5 5 $ # c c % % % . % R . . 5 & R R & 5 5 5 5 5 K c c c C C  . . . .t t t t t t t t W W i i 8 f $ $ _._.% B s s [.[.s $ K <.s $ K K s s | * B B s $ % . $ $ B B # $ B B s $ B B s $ # $ s $ % % B % . % % B B B B B . % $ $ B % B B R R . % % % B B . % B B . . % % R R % . R R . % . . B B R R % % R R % % R R . % R R R R & 5 % % . . % % R R . . & 5 R . R R . % R R % B % . B B % . B % R R B % R R B % R R B B B % B B B B I I I O $ $ 2 2 s $ B % B % % % % B $ $ C C # $ O O 5 5 % % % % B % R R . % % B B % % % % B R R . % R R % . R R B % R R % . . . B % 5 5 % . % R R . 5 5 % . R R % . R R % % R R . % R R . % R R % % R R % . . % % B % % B B R R % B . % % % R R % B % % B % B B $ s B . % B . % B B % % B B $ $ $ s s $ $ $ $ s s $ B B $ # % B $ $ . B s $ '.$ $ s s s $ s s s * * C C s $ R R % % % B j j {.{.t t }.t t t W W  . .t t  . .2 2 2 c * * % . 5 5 . . . % R % . . . % % % # # * * 2 2 # # 5 5 * * % . K K 2 2 * | K K s s 5 5 $ $ 2 c K * K K * K K K * * * K ",
"K K * * K K K * K K * * K K | * <.K 6 6 # # | * * * K * 2 2 $ $ $ $ 5 & $ $ * | $ $ . . . % 5 5 R R 5 5 5 5 J J R R * * 2 2 :.2 >.>.t t t }.}.t  . .t t ) ) {.{.k k % B B % _._.<.<.:.:.s $ s '.s $ # $ s s $ # s $ B % B B B B $ # % B s $ B B $ # $ $ $ s B B % B . % % B B % % B B % B % % % B B % B B . % % B % % % B B B % % B . . % % R R . % % R B B % . % B % % % B R R . % . % % % 5 5 R R & 5 R . R R . % % R % % R R . % B . B B . . B B B % . % B % B B . % % B R R % % R R B % % % K * 5 5 % % | * C C # # B B % . B % % % s $ 2 2 s $ 5 5 B B % . B B % % . % R R B B % % B % % % . % R R B B B % % . % R % B R R % % % . % . R R % . & 5 . . 5 5 % % R R % B . % B B B % % % R R % B . % % . % R B B R R . % R R B B . % B B R R % % . % B B B % % B % % % B B . B B % % B B % B # $ $ $ s s B B $ s . B $ $ % B $ $ B B % B B B s $ B B s s $ # $ s $ $ 2 C s $ B % _._.$ $ 4.4.i i W W t t W W t t t t  . . . .C C 2 2 2 2 5 5 . . 5 5 % % . % R % R R % % % % * * C 2 s $ & & 2 2 % % 2 2 * * K K * * K * J J $ $ * * K K * K K K * * K K * * ",
"K K K * * K K * K K <.<.K K | * <.K 6 6 # # | * * * K * 2 2 $ $ $ $ 5 & $ $ * | $ # % . . % 5 5 R R 5 5 5 5 J J R R * * C 2 :.2 >.>.t t }.}.t }. . .t t ) ) {.{.k k % B % % _._.<.<.:.:.s $ s '.s $ # $ s s $ # # s B % B B B % $ $ B B $ $ B B $ s $ $ s s B B B % . % % B % % B B B % B B . % % B B % _.B B % B B . % B B B % % B . . % % R R B % R R B B . . B % % % % B R R . % B % % % 5 5 R R 5 5 % . R R . B R R . % % R % % R . B B % . B B % % B % % . B B _._.B % R R % % R R % B % % K * 5 5 % % <.* 2 C # # B B B % B B % % s s 2 2 s s 5 5 % B % % % B % B % % R R B B % % B % % % % . R R B B B % % . % R R % R R . % . . . . R R . . 5 5 . . & 5 % % R R % B . % B B % % % % R R B % B % % % R R % B R R % % R R % B B % % B R R % % . % B B B % B B % % B % % % B B . % B B % B # $ $ $ $ s B B $ s B B # $ % B $ $ B B B % B B $ $ B B $ s $ # $ s $ $ C C # $ % % _._.$ $ 4.4.i i W W t t W W t t t t  . . . .C C 2 2 2 2 5 5 % . 5 5 % % . . . % R R . % % % * * C 2 $ $ 5 & 2 2 % % 2 2 * * K K | * * K J J $ $ | * K K * K K K * * K K * * ",
"* * K K K * K K K * K K <.<.K K * * 6 6 % % K c * * K c * * * K $ $ 5 5 $ # c c % % . % R % . . 5 5 R R 5 & & 5 5 5 2 c c c C C  . . . .t t t }.}.t  . .W W i i 8 f $ # R R % % <.<.C C '.'.<.<.$ $ $ $ B B $ $ B % # # B % $ $ % B $ $ % B $ # B B s $ B % # $ B % B B B % % B B % % B % B % B B % % B B % . % B % % B % % B B . % B B B % % % R R . % R R . % _.R . % R R % % R R . % R R % % R R R R R R % % R R % B % % B B R R B B . % B B R R B B % % B % % % % B R R % B % % . % B % B B B % * * $ s s $ 2 2 s s B % % B % % % B s s 2 C s $ * * $ s % % B % % B R R % % B _.% B % % B B % . B B R R . % R R % B R R . % R R % % % . . % R R % . R R % . % R B % . % . % R R . % R R % % R R B B % % . % R R . % . % B B % % B % % . B % R R % % R R B B % B B B . % B B B % % B B . $ $ '.'.$ s $ # $ s B B $ s # $ $ s B B $ $ . % s $ B B $ # % B # $ B B '.$ 2 2 s s _._.% B B B j j i i  . .t t t }.}.t >.>. . .>.>.2 2 C C * * % . 5 5 % . . . % % . . . % % % # # * * 2 2 # # 5 5 * * % . * * K * * * K K s s 5 5 $ $ 2 c K * K K K * K K K * * K ",
"* * K K * * K K * * K * * K K K * * 6 6 % % c c <.* 2 c * * * * $ $ 5 5 $ # c c % % . % R % . . 5 & R R 5 & 5 5 5 5 K c c c C C  . . . .t t t }.}.t  . .W W i i 8 8 # # R R . % <.<.C C '.'.<.<.$ s $ $ B B $ $ B % # # B B $ $ B % $ # B B $ $ B B s $ B % # $ B % B B B % B B % % % B B % % B % B B % _.B % % B % % B B % B B B % B B B % B % R R . % R R % B R R % % R R % . R R % % R R _.% R R R R R R % % R R % B % % B B R R B B . % B B R R . B B % B B % B $ B R R % B % % B % B % B B B % * * s s $ s 2 2 $ s B % % B % % % B s $ C C s s <.* s s % % B % % B R R % % % % % B % % % B % . B B R R % % R R % B R R % % R R . % % . . % R R . % R R . . R R % B . % % % R R B % R R . % R R B % % % % . R R % % B % % B B % B B % . B % R R . % % R B B % % B B % % B B % % % B % % '.'.'.'.$ s $ $ # $ % B s $ # $ s $ % B $ # % B $ $ B B $ $ B B $ $ B B '.$ 2 2 $ s _._.% B B B j j i i  . .t t t }.}.t >.>. . .>.>.2 2 C C * * % . 5 5 . . . . . % R % . % % % # # * * 2 2 # # 5 5 K * % % * * K * * * K K s s 5 & $ $ 2 C * * K K K * K K K * * K ",
"K K * K K K K * K K * * K K K * * * 6 6 # # * * * * K * 2 2 $ $ $ $ 5 & $ $ * | $ $ . . . % 5 5 R R 5 5 5 5 J J R R * * 2 2 :.2 >.>.t t >.>.t t >.>.t t  . .i i k k # # . % R R * * :.:.s s $ s B B R R B B B % . B % % '.$ B B $ s # $ s $ B % $ s B B s $ % B $ $ . % B B % B B B % % % B . % B % B B B B % R % % R R B B B % B % B % % B R R % % R R _.% R R % % R R % B R R B % R R . % R R _.% R R _.% R R B % % % % B B % . % % B B % % % % . R R % % R R . % B % % % R R B % R R % B B % $ $ B B $ $ # $ C C # $ % B % . B B % % K * K K s s % % % B % % B B % . % % R R B % . % B % % % B B . . % B B % . % R R . % . % % . % % B % . . . % % . . . R R . B R R % % R R % % R R % % R R . % % % B % % . . % % % % B % B % B R R B % R R . % R R % % . B B B % B B B B % B % B % % B B _.$ $ '.'.'.$ $ B $ s $ $ $ s B B $ $ B % B B % % $ $ B B B B R R s $ $ $ 2 C $ $ B B _._.$ '.4.4.2.2.t t  . .t t  . .t }.>.>. . .C C 2 2 2 2 5 5 % . 5 5 % % . . % % R R . % % % * K 2 2 s $ & & 2 2 % % 2 2 * * K K K * * * J J $ $ * * K K * K K K * * K K * * ",
"K K * K K K * * K K * * K K * K * * 6 6 # # * * * * K * 2 2 $ $ $ $ & & $ $ * | $ $ . . % % 5 5 R R 5 5 5 5 J J R R * * 2 2 :.2 >.>.t }.>.>.t t >.>.t t  . .i i k k # # B % R R * * :.:.s s $ s B B R R B B % B B B B % $ $ B B $ s $ $ s s B % s $ % B $ $ % B $ $ . % B B B % B B % B B B % % % B B % B B % R % % R R B B % % B % B % . % R R _.% R R B % R R . % R R % % R R B % R R % % R R % % R R % % R R B % % % B B % % B % % B B B % % . % % R . % % R % % R % % B R R % % R R B B B % $ $ B B $ $ $ s 2 C s $ B B B % B % % % * * K * s s % % B % % B B % . % % % R R B % % % % B % % B B . . B B B % . % R R . % B % % % . . . % % . B . % . . . R R . B R R % . R R % % R R % B R R . % % % B % % . % % . % % B . % B B R R B % R R . % R R . % . % B B % B B B _.% % B % % % B % % # $ '.'.$ $ B B $ s $ $ s $ B B $ $ B B B B B % $ $ B B % B R R $ $ # $ C C s $ B B _._.$ '.4.4.2.2.t t  . .t t  . .t }.>.>. . .C C C 2 2 2 5 5 % . 5 5 . % . . . % R % . % % % * K 2 2 $ $ 5 & 2 2 % % 2 2 * * K K * * * * J J $ $ * * K K * K K K * * K K * * ",
"* * K K * * K K * K K K * * K K * * 6 6 % % c c * | 2 c * * * * $ $ 5 & $ $ c c % % % % R R . . 5 5 R R & 5 5 5 5 5 K c c c C C  . . . .t t }.}.t }. . .W W i i 8 f $ $ _._._.% s $ C C s $ * * ' ' J J B B $ # % B # # B % $ $ $ $ s s $ $ s $ B B $ $ B B s $ B B B B . B B B . % B B B % % B B % % B % % % % % R % % B % B B % % B B B % . B % B B B R R . % R R % B R R B B . B % B R R % . R R % B R R B % . % B % % B $ $ % % B B B % B B % % B % % % B % % % B % . % B B B % % B B % . B B B B % B B B s 2 2 $ s % % B B . B '.$ $ s 2 C B B $ # % B $ $ % % B % % B B % . % % B B % B B B % B % % % B B . % B B R R . % % . % % . . % B % . . B % . % % R R % % R R B % % % B B R R % % R R . % % . % B R R B B % % B B % . % B % % B B B % B B % % B B % % % B B % % B % % B % % B B % '.'.$ s $ '.'.$ % B $ $ % B '.'.B B $ s % % B B B B B B I I 6 6 s $ s s C 2 $ s _._.% B B B j j i i )  .t t  . .t t >.>. . .>.>.2 2 C C K K % % 5 5 % . . . . % R % . % % % # # * * 2 2 # # 5 5 * * % % * * K * K * * K s s 5 5 $ $ 2 c * * K K * K K K * * K K ",
"* * K K * * K K K * K K * * K K * * 6 6 % % c c * * 2 c * * * * $ $ 5 5 # # c c % % % % R R % . 5 & R R & & 5 5 5 5 2 c c c C C  . . . .t t }.}.}.t  . .W W i i 8 8 # $ _._._.% s s 2 C s $ K <.' ' J J B B $ # % B # # B B $ # $ $ s $ # $ $ $ % B $ $ B B s $ B % B B % % B B B B B B % B B % % % % B % % % % % R % % % B B B B % % B B % . B % B B B R R . % R R % B R R B % % % % B R R % % R R . % R R % B . % B % % % # $ % % % B B % B B % % B % % % % B B % B B % % % B B % % B % % % B B B % B % % s s 2 2 s s _.% B B % % $ $ # $ C C B B $ # % B $ $ % % % B % % B B % . % B . % B B B % B B % % B B B % . B R R . % % . % % % . % . . B % . % . B % R R % % R R % B % % % B R R % B R R % . % . % B R R B B % . % B % % B % B % % B % B % B B . B B B % B B % % B B % % % B % % B B '.'.$ s $ '.$ $ % B $ $ B B $ $ B B # $ . % B B B B B B I I 6 6 s s $ s C 2 $ s _._.B B B B j j i i  . .t t  . .}.t >.>. . .>.>.2 2 C C K K % % 5 5 . . . % R % . % % % % % # # * * C 2 $ # 5 5 * * % . * * * K K * K K s s 5 5 $ $ 2 c * * K K * * * K * * * K ",
"K K * K K K * * * K * * K K * K * <.6 6 # # * * * * K * 2 2 $ $ $ $ & & $ $ * | $ # . . . % 5 5 R R 5 5 & 5 J J R R K * 2 2 :.2 >.>.t t }.}.t t  . .t t  . .i ` j j % B B % _._.* * 2 2 K * * * $ $ s $ $ # % % # # % . $ $ B % s $ % B # $ B % $ s B B s $ % B $ $ % % B B B . % B % % % B % . B B % % B % R R % % R R B B % B % B % % % B B . B B % % B % % % B B R R % % % % B B R R % % R R . % R R % % R R % % % % % B % % B % % B % B B % B % B % B B B % B B B % B B B . B B B % B B B . $ s $ # $ s $ $ C C s $ B B % % B % s B $ s 2 2 s $ B B $ $ B B # $ B % B B % B B . % % B % % % % B % % B % % % B B B % % B % B % % . . B % . % B % % . . B . . B % % B B B B % B B . % % B B . B B R R % % R R B % R R % B . % B B . % B B % . B B % % B B B % B B % % % B B % B B B % B B B % $ # '.'.$ s $ '.$ $ B B $ $ B B $ # % B % B B % $ $ B B # $ s $ K K s $ 2 C $ $ B % _._.'.'.f f i i t t }.}.t t }.t t t  . . . .e e 2 2 2 2 5 5 . . 5 5 % % . . % % R R % . % % * K 2 2 $ $ 5 & 2 2 % % c c * * K K * K * * J J s $ * * K K K * K K K * * K * * ",
"K K * K K K * * K K * * K K * K * <.6 6 # # * * * * K * 2 2 $ $ $ $ & & $ $ * | $ # . . . % 5 5 R R 5 5 5 & 5 J R R * * 2 2 2 2 >.>.t }.t }.t t  . .t t  . .` ` j j % B B % _._.* * 2 2 * * K * $ $ $ # $ $ B % # # % B $ $ B B $ $ % B $ $ B % $ $ B B $ $ B B $ $ B % B B . B B B % % B B % . B % % % % B R R % B R R % B B % % B % % B B . B B % % % % % % B B B R R % B % % B B R R % _.R R % % R R % B R R B % % B % B % % B B % % B % % % % B % % B B % B % B % % B B % _.B B % % B B B % s $ # $ s $ $ $ 2 C $ $ B B % B B B B % s $ 2 2 s $ B B $ $ B B $ $ % B B B % B B . % % B % % % B B % % B B % % % B B % B B B % B % % . . B . . % _.. . . % . . B % % % B B B % B B % _.B B . B B B R R . % % R % % R R B B % % B B % % B B % . B B % % % B B % B B % % B B B % B B B % B B % B # $ $ $ $ $ '.'.$ $ B B $ $ % B $ $ B B B % % % $ $ B B $ s $ $ K K s $ C C # $ % B _._.$ '.f f i i t t t }.t t }.t t t  . . . .e e 2 2 2 2 5 5 . . 5 5 . % . . . % R R % % % % * * 2 2 # $ 5 & 2 2 % % 2 2 * | K K * * K * J J s $ * * K K K * K K K * * K * * ",
"* * K K * * K K * * K K * * K K | | & & % % K K * | 2 c * * * * $ s 5 5 # # c c % . % % R R . . 5 & R R & & & 5 5 5 c c c c C C  . . . .t t }.}.t }. . .W W i i f f $ $ _._.'.'.<.<.[.[.s s <.* s s s s B B % B B % # $ B B $ $ B B $ $ B B '.$ % B $ $ % B $ $ % B % B _.% B B B . % B % % B B B % % B B . % B B % B B % % % B B % % B B % % B B . B B B % B % % % B % B . B B B % B % R R . % R R % B R R . % % B % % R R B % B % B B B % % B % % B % B B $ $ . % B B % % B B % _.B B B % B B % B $ $ B % s $ 2 2 s s % % B % % . $ $ $ $ 2 C s $ $ $ B B $ $ B B s $ B % % B B B B B % B B . % % B % % % B B % B % B % % B B B % B B . . B % . . B % % . % % R R B B % . B B % % % B % % B B B . B B B % B % R R B B % B B B B % B B B . B B % % B B % % B % % % B % . % % B B % B B _._.'.'.$ $ B $ $ '.$ $ B B $ $ B % # $ B B # $ B % % B B % $ $ s s 2 2 s s s $ C C s $ B % % B % % 4.4.{.{. . .t t t }.t t  . .t t >.>.2 2 C C K K % % 5 5 . % . . % % . % R % . % # # * * C 2 $ # 5 5 * * % % * * K K * * K K * * 5 5 $ $ 2 2 * * K K * * * K * * K K ",
"* * K K * * K K * * K K * * K K * | & & % . K K * | 2 c * * * * $ $ 5 5 # # c c % % % % R R % . 5 5 R R 5 & 5 5 5 5 K c c c C C  . . . .t t }.}.t }. . .W W i i f f $ $ _._.'.'.<.<.[.[.s s <.* s s s s B B % B B % # # B B $ $ % B $ $ B B '.$ B B $ $ B B $ $ B % % B % % B B B . % B % % B B B % B B . B B B % . B B % % B B . B B B . % B B . B B B % B % % % % B % % % B B . % % % R R % B R R % % R R % B . % B B R R B % B % B B B % % B _.% B % % % $ $ . % B B _.% B B % % B B B % % B B B $ $ % % s $ 2 2 s s % % % B % % # $ $ s 2 C $ $ # $ % B s $ B B s $ B B B B % B B B B % B B % . % B % % B % B % % B B % % B . % B B . . % B % . . B . . % % R R B B . % B B B % % B % B B B % % B B . % % % R R B B B % B B % B B B % % B B % % % B % % % B % % % B % B % B % _.B B _._.'.'.$ $ B $ '.'.$ $ B B $ $ B B $ $ B % # $ % % B B % B $ $ s $ 2 2 s s s $ C C s s _._._.% B . 4.4.{.{. . .t t }.t t }.>. .t t >.>.2 2 C C K K % % 5 5 . . . % R % . % % % % % # # * * 2 2 # $ 5 5 * * % % K * * K * * K K * * 5 5 $ $ 2 c K * K K K * K K K * * K ",
"K K * * K K * * K K * * * K * * * * 6 6 # # * * K * * * K c $ $ $ $ & & $ $ * * # # % . . % 5 5 R R 5 5 & 5 J J R R * * C 2 2 2 >.>.t }.}.}.t t  . .t t  . .i ` j j % B B B % _.* * C C * * | * * | B B % B . % # $ B % s $ B % '.$ % B $ $ % B $ $ B B $ $ B B $ $ % % B B % % B B B B % s B % B % % % B B . % B B B % B B % B B B B . B B B % B % % % % B % % B B % . % B % B % % % % B % _.% B B R R % B R R B % R R % % R R B % B B B % % % B % B B B B % B B B B % B B % B B % B % B B % % $ $ % % B % s B C C # $ % B _.% % B B B * * 2 2 s $ B B % B B . $ $ B B $ $ B B s $ % B B % % % B % % B B % . % % B % _.B B B % B B . % B % . . . B % . . B . . B B % % B % . % B B % B % B R R B B B % B B B . B B B % B % % % B B . B B B % % B B B . B B % B B B B % B B % % B % B B $ # % B s $ '.'.$ s $ '.$ $ B B $ # % B B % % % B B % B $ $ B B # $ $ s $ s $ s e e $ $ B B _._.'.'.f f 2.2.t t  . .t t  . .}.}.>.>. . .e e 2 2 2 2 5 5 . . 5 5 . % % . % R % R . % % % * * 2 2 s $ & & 2 2 % % 2 2 * K C 2 <.* K * J J $ $ * * K K * * * * * * * * * * ",
"K K * * K K * * K K * * K K * <.* * 6 6 # # * * * K * * c c $ $ $ $ 5 & $ $ * * # # % . % % 5 5 R R 5 5 5 5 J J R R * * 2 2 2 2 >.>.t t }.}.t t  . .t t  . .` ` j j % B B B _._.* * C C * * | * * * % B B B . % B $ B % s $ B % $ $ B B '.$ B B $ $ B B $ $ B B $ $ % % B B B % B B B B % s B % B B B . B B B % B % B % % B % % B B % % B B . % B B % B B B % B B B B % B B . % B B % B % B % % B B R R % B R R B % R R % % R R B % B B B % B % B B . % % B B B B % . % B % % % B B % B % B % _.$ $ B % B B B B C C s $ B B % % % B B B * * 2 2 $ $ B B B B % % $ $ B B $ $ B B s $ B B B B % B B . % % B % % % B % % B B B B % % B % B B B . . B % . . . B % . % B B % % B B % B % % % % B R R B B % . B B . % B B % B B B % B % B . B B B % % B B % % % B B % B B % % B B B % % B B % $ # B B $ '.'.$ s $ '.$ $ B B B $ # % B . B . % B B % B $ $ B B $ $ $ s s s $ s e e $ $ B B _._.'.'.f f 2.2.t t  . .t t  . .}.}.>.>. . .e e 2 2 2 2 5 5 . . 5 5 . % . . . % R % . % % % * * C 2 $ # 5 & 2 2 % % 2 2 * K 2 2 K <.* K J J $ $ * * K K * * * * * * * * * * ",
"* * K K * <.K K * K K K * * K K | | J J % % * * | | c c | * | | $ $ 5 5 # # K c % % B % % . % . 5 5 % . 5 5 5 5 5 5 2 2 2 2 d d  . . . .t t }.}.t t }.}.W W i i f f $ $ % % B % s s [.[.s $ $ '.B B # $ B B '.'.B B $ # % B s $ B B $ # % B s $ B B $ $ B B $ $ B B % B B . % B B % $ $ B B # $ % % B % % . B B % % B B % % B B . % B B % B B B % B B B % % B B R R B B % B % % % % B % % B % B % B % B % % B % % % % % R R % B % % B % % % % B B % $ $ % B $ # B B $ $ B % B B B % % B % % B B % . % B % % # $ 2 2 s s _.% B B % B # $ $ s 2 C B B $ # % B B B % B # $ B % % B % % B B % . % B B B % B B . % B B % B B . % % B % % % B % % B B % % B % . . B % B % B % % % % B B % _.B % % B B . % B B R R B % % % % B B % % B B % B B B B $ $ B . B B . B B B B % s $ % B B B % % '.$ B B '.'._.% $ '.% B $ $ B B '.'.B B $ $ . % B B % _.# '.B B $ # % B K s $ s s s 2 2 K * _._.% B s '.j j {.{. . .}.t }.}.W W  . .t t >.>.2 2 2 C K K B % . . % % % % % % . % R % . % # # * * 2 2 # # 5 5 * * % . K K 2 2 <.* K * * * 5 5 B B * K K * K K K * * K * * * * ",
"* * K K * <.K K * K K K * * K K | | J J % % * * * | c c | * | | $ $ 5 & $ $ 2 c % % % . . . . . 5 5 % . 5 5 5 5 5 5 2 2 2 2 d d  . . . .t t }.}.t t }.}.W W i i e f $ $ B % B B s $ [.[.s $ $ '.B % # $ B B s $ B B $ # % B $ $ % B $ # % B s $ B B $ $ B B # $ B B % B % B B B . B $ $ B B $ $ B . B B % % B B % % B B . % B B % B B B % B B B % % B B B . B B R R B % % % % B % % B B % % B % B B B B % _.B B % % % % R R B % % % B % % % % B % B $ $ B B # $ B B '.$ B % B B B % B B % B B . % % B % % % $ $ 2 c s $ % % B % % . $ $ $ s 2 C B B $ # % B s B B % $ # '.% % B % % B B % . % B B B B % B B B B % B B B B % B B % B % B % % B % % % B % . . . B % B B % B % B B B % % B _.% B B % % B B R R B B B % % B % B . B % _.B % B B $ $ % % B B . B B B . % $ $ B B B B B % '.$ B B '.'.B % '.$ % B $ $ % B '.'.B B $ $ B % B B B % # $ % B $ $ B B s $ s s s s 2 2 K * _._.B B '.'.j j {.{. . .}.t }.}.W W  . .t t >.>.2 2 2 C K K B % . . % % % % % % . . . % % % # # * * 2 2 # # 5 5 * * % % K K 2 2 <.* K * * * 5 5 B B K K * | K K K * * * K * * * ",
"K K * * * K | * K K * * * K * * <.* 6 6 # # * * * * * K * c $ $ s $ J J $ $ * | $ $ . . % % 5 5 % . 5 5 5 5 & & % . K K 2 2 2 c >.>.t t >.>.t t t }.t t  . .) {.j j B B $ '._._.<.<.2 2 s s s $ $ s s $ $ $ B B $ # % B $ $ % B $ $ B B $ $ B B $ $ B B $ $ % B '.'.% % B B . B B B B B $ $ B % % B B . % B % % % B % % B B % . B % B % $ $ % % B B % . B % % % % % R R % B B % . B % % % B B % % B B % % % % % % B B % B % % % % B B % B B . % $ $ B B $ s B B $ # % B $ $ B % B B B % B B . % % B R R & 5 s $ C C s $ B % B B $ $ . % * K 2 2 s $ 5 5 R R $ # $ B B % B B . % % B % % % B B % s $ % B # $ % B B % _.B % B B % B B . % B B % % B % B % B B % . B B % B % B B % B B . % % B % % B B B % B B % % B B B % B B % % B % B B '.$ B B B B % B % B % % # $ B % $ $ B % B B % % '.'.B B '.$ B B $ $ '.'.$ $ B B $ $ B B # $ B B $ $ B B $ $ B % # $ $ $ | * s s 2 C s s B % B B $ $ 4.4.i i t t }.t t t t t t t  . . . .C C 2 2 2 2 R R % % . . # # % . % % . % B B % % * * 2 2 $ $ 5 & 2 2 % % 2 2 K * C 2 * | K * J 6 $ $ | * K K * * * * K * * K * * ",
"K K * * * K | * K K * * * K * K K * 6 6 # # * * * * * * 2 c $ $ s $ J J $ $ * | $ $ . . % % 5 5 . . 5 5 5 5 5 & . % K K 2 2 2 c >.>.t t >.>.t t t t }.t  . .{.{.j j B B $ '._._.<.<.2 2 s s s $ s $ # $ s $ % B # # B B $ $ B B # $ B B $ $ % B $ $ B B $ $ % B $ $ % % B B % % % B B B $ $ B B B B % % B B % . B % % % B B % % B B B B $ $ % % B % B % % B B % B % R R % B B % % B % % B B % . B B % . % % % % B B B % . % % % % B B % % B B % $ $ B B $ $ B B s $ B B $ $ B % B B % % B % % . B B % R & 5 s $ C C s $ B B % B # $ % % K K 2 2 s s 5 5 R R s $ B % B B B B B % B B . % % B % % $ $ % B $ $ % % B % % B B % . % B B B % B B % % B B % % % B % . B B . % B B % % B % % B B % . % B B B % B B B % B % % % B B % % % B % B $ $ % B B B % B % B % % $ # % B $ $ % % B % % % '.'.B B $ $ B B '.$ '.'.$ $ B B $ $ B B $ # % B $ $ % B $ $ B B # $ s $ * * $ s C C s s B B % B # $ 4.4.i i t t t }.t }.t t t t  . . . .2 C C 2 c 2 R R % % . . # # % . % % % . % B % % * * 2 2 $ $ 5 & 2 2 % % 2 2 * * C 2 * * * * 6 6 $ $ | * K K * * * | * * K * * * ",
"* * K K * * K K * * * K K * K K | | J J % % K K | | 2 2 * | | | $ s 5 5 # # 2 2 % % % . . . . . 5 5 % . 5 5 5 5 & 5 2 2 2 2 d d  . . . .t t }.}.t t  . .t t i i 8 f $ $ % % B % s s [.[.s $ s $ # $ s $ $ $ $ $ B B $ $ B % # $ B B $ # % B '.$ B % $ $ B B $ $ % B $ $ % B $ # % B s $ % B $ $ % B B % _.B % B % % B % % B B % B B $ # % B B B % % % B B % B B % % B % % % B B B % B B % % % % R R % B % B B % B % B % % % B B % B % B % % $ $ B % s $ B % s $ B % $ $ B B $ $ % B $ $ B B $ $ $ $ J J I I 2 2 2 C s s B % B B B % B B $ s C C s s I I & 5 s s % % # $ B B # $ B B $ # % B B B B % $ # B B # $ B B % B B % _.B % B % B B % B B B % B B . . % B % % $ s B % $ $ B B $ $ B B $ $ B B B B B % B B B % B B B % % B B B $ $ B B $ $ B B $ $ B B # $ B B # $ % B $ $ B B $ '.B B $ '.B B $ '.% B $ $ % B '.'.B B $ $ B B $ # % B $ $ % B $ $ B B $ # $ $ s s 2 2 * * % % '.'.% B j j {.{. . .t }. . .t }.>. .t t  .>.2 2 2 C K K B % . . % % % % . % R % . % % % $ s * * 2 2 # $ 5 5 K * % % * K 2 2 K * * K * * 5 5 B B K K * * K K * * K * * * <.<.",
"K * * K * * K K * * K K * * K K | | J J % % K K | | 2 2 * * * | $ $ 5 5 $ # c c % % B % % . % . 5 5 % . 5 5 5 5 & 5 2 2 2 2 d d  . . . .t t }.}.t t  . .t t i i f f $ $ % % % s s s [.[.s $ s s $ # $ s $ $ $ $ B B $ # % B $ $ % B $ $ B B $ $ B B $ $ B B $ $ B B $ $ % B $ # % B s $ % B s $ % B % B % % B B % B B . % % B % B B $ # % B B B % % B % % % B B B % B B % % % B B % B B % % % % R R B % % B B % B % B % % % B B % % B B B % $ $ B B $ $ B B $ $ B B $ $ B B $ $ % B $ $ B B $ $ $ $ J J } I 2 2 2 C s s B % % B B % _.B s $ C C s s I I & 5 s $ B B $ $ B B $ # % B s $ B % % B B B $ $ B B $ $ B B % B % B % B % % B % % B B % % B B B . . % B % % $ s B % $ $ B B $ $ B % $ $ B B % B % B % B % % B % % . % B B B $ $ B B $ $ B B $ $ B B $ $ B B # $ % B $ $ B B $ $ B B $ '.B B $ '.B B $ $ % B '.'.B B $ $ B B $ # % B s $ B B $ $ B B $ # $ $ s s 2 2 K * _._.'.'.% B j j {.{. . .t }. . .t t  . .t t >.>.2 2 2 C K K B % . . % % % % % % % . . % % % $ '.* * 2 2 # # 5 5 * * % % K K 2 2 K * K K * * 5 5 B B K K * * K K K * | * * * <.<.",
"K K K * K K * * K K K * K K * * * * 6 6 # # * * * * K K K 2 s $ s $ J J $ $ * | '.$ . . % % 5 5 % . 5 5 5 5 5 5 % % * K C C 2 c >.>.t t >.>.t t  . .t t  . .` ` j j % B '.'.% % * * [.[.* * $ $ s s $ $ s s B B $ $ B B $ $ B % # $ B B $ s $ $ s s $ s s s B B $ $ B B $ $ B B $ $ B B $ $ % B $ $ B B $ $ % B s $ B B s $ B % $ # B B $ $ % B $ # . % % B B % B B . % % B % % % B B % B B % . % B R R % % % B % % B B % B B % % B % % B B B B $ $ B B $ $ B % s $ B B $ $ B B $ $ % B $ $ B % * * * K * * * * e e $ $ $ # % % '.$ B B | * 2 2 2 2 * * 2 2 B B $ # % B $ s '.'.s s B B $ # % B $ $ % B $ $ B B $ $ B % $ $ B % $ $ B % % B B % B B . % % B % . % B B B $ $ B B $ $ B % $ $ B B s $ B B % B B % $ s B B $ $ B B $ s B B $ $ B B $ $ B B $ $ B B $ $ B % $ $ B B $ $ B B '.'.B B $ $ '.$ '.$ $ '.$ $ B B # $ B % $ $ B B $ # % B $ $ % B $ $ $ $ | * s $ [.[.s s B B _.% '.$ f f 2.2.t t }.t t t t t t t  . . . .C C 2 c 2 2 R R % % . . # # % . % % % . # # B B K K 2 2 $ $ 5 & 2 2 % % 2 2 * * C 2 * * * * 6 6 $ $ <.* | * K * * K * * * * * * ",
"K * * * K K * * K K | * K K * * * * 6 6 # # * * * * K K 2 c s $ s $ J J $ $ * | $ $ . . % % 5 5 . . 5 5 5 5 5 5 % % K K C C 2 2 >.>.t t >.>.t t  . .t t  . .` ` j j B B '.'.% % * * [.[.* * $ $ s s s $ $ s B B $ $ B B $ $ B B $ $ B B $ s s $ s s $ s s s % B $ s B B $ $ B B $ $ B B $ $ B % $ $ B B $ $ % B $ $ B B s $ % % $ # B B $ $ B B $ $ % % B B % % B B B % B B % B B B % B B B B % % % R R % % B % % B % % % B % % B B % B B B B % s $ B B $ # B % s $ B B $ $ B B $ $ % B $ $ B % * * * * * * * * e e $ $ s $ B % $ $ B B * * 2 2 2 2 * * 2 2 B B $ $ B B $ s '.'.s s B B $ $ B % $ $ B B '.$ B B $ $ B B $ $ B % # $ % % B % % B B B % B B B . . B B B B s $ B B $ $ B B $ $ B B $ $ B % B B B B $ $ B % $ $ B B $ s B B $ $ B B $ $ B B $ $ B B $ $ B % $ $ B B $ $ B B '.'.B B $ $ '.'.'.$ $ '.'.$ B B $ $ B B $ $ B B $ $ B B $ $ B B $ $ s $ * * $ $ [.[.s s % B _.% $ $ f f 2.2.t t t }.t t }.t t t  . . . .C C C 2 c 2 R R % % . . # # % . % % . . # # B B K K C 2 $ # 5 & 2 2 % % 2 2 * * 2 2 * * * * 6 6 # $ <.* * * * * * * * * * * * * ",
"* * * K * * * K * * K K * * K K | | 6 6 % % * K * * 2 2 | * * * $ $ 5 & $ $ c c B B % % % . B % 5 5 . . 5 5 5 5 5 5 2 2 2 2 d d  . . . .t t }.}.}.t  . .t t i i f f $ $ B B $ '.<.<.e e s s $ s s $ $ s s s * * B B $ $ % B $ $ B B $ $ $ $ s s $ $ s s $ $ $ $ B % $ $ B B $ $ B B $ $ B B $ $ B B $ $ % B $ s B B s $ B B B B B B $ $ B % $ $ B B $ $ B B $ $ % % B % % B B B B % B B B . B B % % B B % % B % % B B B % % B % % B B B % % $ # B B $ # B B $ $ B B $ s B % $ $ % B $ $ B % $ $ B B $ $ s $ * * C C s s B B % B B B $ $ s s C C * * * * $ $ s $ B B $ $ $ s s $ s $ $ s B B $ $ $ $ s $ % B '.$ B B $ $ B B s $ B B $ # % B B B B % B B B . B B % % # $ B % $ $ B B $ # B B $ $ B B $ $ B % $ $ B B s $ % B $ $ B % s $ B B $ $ B B $ $ B B $ $ B B $ $ B B $ $ B B $ $ B B '.'.% B $ $ B B $ s $ $ s $ B B $ $ B B $ $ B B $ $ B B * * $ s s $ s s s s 2 2 * * % % '.'.B B j j {.{. . .t t t }.W W  . .t t >.>.2 2 e e c c B % . . . B % % % B % % . % % % '.$ * * 2 2 # # . . K * % % K K 2 2 K * K K * * 5 5 B B K K * * * * * * * * * * * * ",
"* * K K * * K K * * K K * * K K | | 6 6 % % K * * * c 2 * | * * $ $ 5 5 $ $ c c B B % % % . % % 5 5 % . 5 5 5 5 5 5 2 2 2 2 d d  . . . .t t }.}.t t  . .t t i i f f $ $ B % '.'.<.<.e e s s s $ s s s s s $ * * B B '.$ % B $ $ B B $ $ $ $ s s $ $ s s $ s $ s B % $ $ B B $ $ B B $ $ B B $ $ B B $ $ % B $ $ B % $ # % B B B B % s $ B B $ $ B B $ $ B B $ $ % % B % % B B B % % B B % B B B % _.B B B % % B % % B B B % % B % % B % % B s $ B B $ $ B B $ $ B B $ $ B B # $ % B $ $ B % $ $ % B $ $ s $ * * C C s s B B B % B B $ $ s s C C * * * * $ $ $ s B B '.$ s $ s s $ $ s $ B B $ $ # $ $ s B % $ $ B B $ '.B B $ $ B B $ $ B % B % % % B % % B B B % % # $ B % $ $ B B s $ B B $ $ B B $ $ B B $ $ B B $ $ B % $ $ B B $ # B B $ $ B B $ $ B B $ $ B B $ $ B B $ $ B B $ $ B B '.'.B B $ # % B s s $ s $ $ B B $ $ B % '.'.% B $ $ B % * * $ s s s $ s s s 2 2 * * % % '.'.% B j j {.{. . .t t }.t W W  . .t t >.>.2 2 e e c c B % . . % % % B % % % % R % . % $ $ * <.2 2 # # . . * * % . K K 2 2 K * K K * * 5 5 % B K K * * * * * * * * K * * * ",
"* K * * K K K * * K K * K K * * * | 6 6 # # * * K K K K 2 2 $ s | | & & $ $ * * $ $ B % . % 5 5 . . 5 5 R R 5 5 . % 2 c C C 2 2  . .t t }.}.t t t t t t ) ) ) {.j j B B $ $ B B :.:.[.[.s s s $ $ $ B B * * $ $ $ $ B B $ $ s B $ s s $ s s $ $ $ s s $ $ s $ $ $ $ B B # $ B B $ $ B B $ $ B B $ $ B B $ $ B B $ $ B B $ $ B B s $ B B $ s B B $ $ B % $ $ B B $ $ B B $ $ B B $ $ B B $ $ B % B B % % $ $ B B # $ % B s $ % B $ $ B B $ $ B B $ $ B B $ $ B B s $ B % s $ % B $ $ B B $ $ B B % B B % s s $ s C C s $ $ s B B $ $ B B * * C 2 * * s $ $ s $ $ $ $ B B $ s $ $ s s $ $ $ $ B % s s $ s s $ $ $ $ $ B B $ $ % B $ s B % s $ B % $ $ % % B % % B B B B % # $ B B $ # B B s $ B B $ $ B B $ $ B B $ $ B B $ $ B B $ $ B B '.$ B B $ $ B B $ $ B B $ $ B B $ $ B B $ $ B B $ '.B B s $ B B $ $ $ $ s s B B $ $ % B # $ $ B $ $ B B $ s $ $ s $ B % $ s s $ [.[.s s B B % B s s f f i i t t t }.t t t t t t  . . . .e e c c 2 2 . . B % . . # # % . B B . . # # B B K K 2 2 $ $ & 5 2 2 % % 2 2 * * 2 2 K * * * 6 6 # $ <.* * * * * * * * * * K * * ",
"* K K * K K * * * K K * K K * * * * 6 6 # # * * K K K K 2 2 $ s | | & & $ $ * * s $ B % . % 5 5 . . 5 5 R R 5 5 . % 2 c C C 2 2  . .t t }.}.t t t t t t ) ) ) {.j j B B '.$ B B :.:.[.[.s s $ $ s $ B % * * $ $ $ $ B B $ $ s B $ s s $ s s $ $ $ s s $ s s $ $ $ $ % B # $ B B $ $ B B $ $ B B $ s B B $ # B % $ $ B B $ $ B B s $ B B $ s B B $ $ B % $ $ B B $ $ B B $ $ B B $ $ B B $ $ % % B % % B s $ B B # $ % B s $ B B # $ B % s $ B B $ $ B B $ $ B B $ $ B % # $ B B $ $ B B $ $ B B % B B % s s s $ C C s $ $ $ B B $ '.B B * * 2 2 * * s $ $ s $ $ $ $ B B s s $ $ s s s $ $ $ B B $ s s $ s s $ $ $ $ B B $ $ B B $ # B % s $ B B # $ % % B % % B B B B B $ s B B # $ % B # $ B B $ $ B B $ $ B % $ $ B B s $ B B # $ B B $ $ B B $ $ B B $ $ B B $ $ B B $ $ B B $ $ B B '.'.B B s $ B % $ $ $ $ $ s B B $ s B % # $ $ B $ $ B B s s $ $ $ s B % $ s s s [.[.s s B B B % s s f f i i t t t t t }.t t t t  . . . .e e 2 2 2 2 . . % % . . # # . . B B % . # # % B * K C 2 $ # 5 5 2 2 % % 2 2 * * 2 2 K * * * 6 6 # $ * * * * * * * * * * * K * * ",
"* * K K * * K * * * K K * * * K | | 6 J % % K K * * 2 2 K K K * $ $ 5 5 $ $ c c B B % % . . % % 5 5 . % 5 5 R R R R 2 2 c c d d t t  . .t t }.t W W t t W W ` ` f f $ $ B B $ $ <.<.e [.$ $ * * Q Q J J $ $ * * % B $ $ # B '.$ $ s s s $ s s $ $ $ s s s $ s s B B $ $ B B '.$ B B # $ B B $ $ B B $ $ % B $ $ B % $ # B % s s '.B $ $ B B s $ B B $ $ B B s $ B B $ $ B % $ $ B B $ $ B B $ # % % B B % B $ # B B s $ B B $ $ B % s $ B B $ $ B B $ $ B B $ $ B B $ $ B B '.$ B B $ $ B B $ $ B B $ s $ $ * * 2 C s s $ $ s $ $ $ $ $ * * 2 C s s s s $ $ $ s B B $ $ B B $ $ B % s $ B % s $ $ $ s s $ $ s $ B % $ $ B % $ $ B B $ $ B B $ # B % s $ B B % B % B s $ % B # $ B B $ $ B B $ $ B B s $ B B $ $ B B $ $ B B $ $ B B $ $ B B $ $ B B $ $ B B $ $ B B $ $ % B $ $ B B '.$ B B $ $ $ $ s s $ $ s $ $ $ s $ B B '.$ $ $ s s $ $ # $ % B s s I I 6 6 s s * * C 2 * * % B '.$ $ $ j j {.{. . .W W t t W W }.}.t t >.>.2 2 e e 2 c B % . . % % . % B % % % % % % % $ $ * <.2 C # # % . K * % % K K 2 2 K * K K * * 5 5 % B K K * * * * * * * * * K * * ",
"* * * K * * * K * * * K * * K K | | 6 J % % K K * * 2 2 K K K * $ $ 5 5 '.$ c c B B . % R % % % 5 5 . % 5 5 R R R R 2 2 c c d d t t  . .t t }.t W W t t W W ` ` f f $ $ B B $ '.<.<.e [.$ $ * * Q Q J J $ $ * * % B $ $ B B '.$ $ $ s s s $ s s $ $ $ s s $ $ s B % $ # B % s s '.B # $ % B $ $ B B $ $ % B $ $ B B # $ % B s $ B B $ $ B B s $ B B $ $ B B $ s B B $ $ B % $ $ B B s $ B B $ $ % % B B B B # $ % B s $ B B $ $ % B $ # B B $ s B B $ $ B B # $ B % $ $ B B '.$ B B $ $ B B $ $ B B s s $ $ * * 2 C s s $ $ $ # $ $ $ $ * * C 2 s s s s $ $ s s B B $ $ B B $ '.B B $ $ B B $ '.$ $ s s $ $ s $ B B $ $ B % # $ $ B $ $ B % s $ B B # $ B B B B B B $ s B B # $ B B $ $ B B $ $ B B $ $ % B $ $ B B $ $ B B $ $ B B $ $ % B $ $ B B $ $ B B $ $ B B $ $ B B $ $ % B $ $ B % $ $ $ $ s s $ $ s $ $ $ $ s B B $ $ $ s s $ $ s # $ B % s s I I 6 6 s s * * 2 2 * * B B $ s $ $ j j {.{. . .W W t t W W }.}.t t >.>.2 2 e e c c B % . . . % % % . % B % % % % % '.'.* * C C # # % . * * % . K K 2 2 K <.K K * * 5 5 B % K K * * * K * * * * * * * K ",
"* * * * K K * * K K K * * K * * | * 6 6 # # * * c c K c c c | | | | & & $ $ * * s $ % % . % 5 5 . . 5 5 R R 5 5 % % c c d d 2 2  . .t t }.}.t t t t }.t  . .{.{.j j $ $ s $ B B K K 2 2 * * <.<.$ $ s $ * * $ $ s $ B B $ s $ $ $ s # $ s s $ $ s s $ # $ s s $ s s $ $ $ $ B B $ $ B B $ $ $ $ $ $ % B $ $ B B # $ % B s $ B B $ $ B B $ $ B B $ $ B B # $ B B $ $ B % s s B B $ $ B % $ $ B B $ # B B $ $ B B $ $ B B '.$ B B # $ B B # $ B B $ $ B B $ $ B B $ $ B B $ $ B B $ $ % B $ $ B % $ $ s $ $ s s $ e e $ $ s s B B s s $ $ * K 2 2 $ s s $ s s s $ $ $ B % s $ B B $ $ B B $ $ B B $ s $ $ s s $ s s $ $ $ s $ B % $ $ B B $ $ B B $ # % B $ $ B % $ s B B $ $ B B s $ B B $ $ B B $ s % % $ $ B B $ $ B B $ $ B % $ $ B B $ $ B B $ $ B B $ $ B B $ $ B B $ $ B B $ $ B B $ $ '.'.$ s s $ s s $ $ s s $ $ $ $ s $ s s $ s s s B B $ s s s K * '.'.2 2 s s [.[.* <.$ $ '.'.s s f f i i t t t }.t t t t t }.>. . . .e e c c 2 2 % % . % . . # # % . % B B % # # B B * K 2 2 $ $ 5 5 2 2 % % 2 2 * K 2 2 * K K K J J $ # * * * K * * * * * * * K * * ",
"* K K * K K * * K * * * * K * * | * 6 6 # # * * c c c c c c * | | | & & $ $ * * $ $ B % . % 5 5 . . 5 5 R R 5 5 % % 2 c d d 2 c  . .t t }.}.t t t t t t  . .{.{.j j $ $ s $ B B K K 2 2 * <.<.<.$ $ $ s * * $ $ s $ B B $ s $ $ $ s # $ s s $ $ s s $ s $ s s $ $ s s $ $ # B B s $ B B $ $ $ $ $ $ % B $ $ B % $ # B % s s '.B $ $ B B $ $ B B $ $ B B # $ B B $ $ B % s s B B $ $ B B $ $ B B # $ B B $ $ B B $ $ B B '.$ B B $ $ B % $ $ B B $ $ B B $ $ B B $ $ B B $ $ B B $ $ B B $ $ B B $ $ $ $ $ s $ $ e e $ $ $ s B % s s $ $ * K 2 2 $ s $ $ s $ $ s $ $ B B '.$ B B $ $ B B $ '.B B $ s s $ s s $ $ $ s s $ $ $ B B $ $ B B $ $ % B $ $ % B $ $ B % s $ B B $ $ B B $ $ % B $ $ B B $ $ % B $ $ B B s $ B B $ $ B B # $ % B $ $ B B '.$ B B $ $ B B $ $ % B $ $ B % $ $ B B $ $ '.'.$ s $ $ s $ $ $ $ s $ $ $ $ $ s s $ $ s $ s B B s s s s * * s $ c 2 s s [.[.<.<.$ $ $ '.'.s f f i i t t t }.t t t t t t  . . . .e e 2 c 2 2 . % . B . % # # % . B B B % # # B B K K C 2 $ $ 5 5 2 2 % % 2 2 * K 2 2 * * K K J J $ $ * * * K K * * * * * * * * K ",
"K * * * <.* * K * * * K * * K K s $ J J B % K K <.* 2 2 * * * * s $ 5 & $ $ c c % B % B . . . % 5 5 . % 5 5 R R . . 2 2 :.2 d d  . . . . .)  . .t t t t W W i i f f $ $ B B '.'.<.<.e [.<.<.<.* * K * K s s $ s $ $ s s $ s s s s $ s s $ $ s s # $ $ s $ $ s s $ s s $ $ $ s s B B $ $ B B $ $ B B $ $ % B $ $ B B $ # B B $ # B % s $ B B $ $ B B $ # % B s $ B B $ '.B B $ $ B B $ $ B B $ $ B B $ $ B B $ $ B % s $ B B $ # B B $ $ B B $ $ B B $ $ % B $ $ B B $ $ B B $ $ B B '.$ B B $ $ B % s s s $ s s C C s $ $ $ $ s s $ s s * K e e s $ $ s B B $ $ B B $ $ B B $ $ B B $ $ B B $ '.'.'.$ $ B B '.$ B B $ $ B B $ $ B B '.$ B B $ $ B B $ $ B B s $ B B $ # B B s $ B B $ $ B B '.$ B % # $ B B # $ B B s $ B B # $ % B # $ B B $ $ B % $ $ % B $ # B % # $ B B # $ % B $ s B B s s # $ s s s $ s $ s $ $ s # $ s s $ $ s s $ s s $ $ $ s s $ s * * s s * * C 2 * * '.'.$ s $ $ j j {.{. . .W W  . .t t  . . . .>.>.2 2 2 C 2 2 % % % . . % . . % B B % B B % % $ $ * <.e e $ $ . . * * % % 2 2 2 2 * K 2 2 * * 5 5 s $ 2 2 * * K K * K * * * * * * ",
"* * * <.* * K * * * * K * * K K s $ J J B % * K <.* 2 2 K * * * $ $ 5 & $ $ c c % B % B . . . % 5 5 . % 5 5 R R % . 2 2 :.2 d d  . . .) ) )  . .t t t t W W i i f f $ $ B B '.'.<.<.e [.<.<.<.<.* * K K s s $ s '.'.s s $ s s s $ # s s $ $ s s $ $ $ s $ $ s s $ s s $ $ $ s s B B $ $ B B $ $ B B $ $ B B $ $ B B $ $ B B $ $ B B $ # B B $ # B % s $ % B # $ B B $ $ B B $ s B B $ $ B B $ $ B B $ $ B B $ $ % B s # B % s $ B B $ $ B B $ $ B B $ $ B % $ $ B B $ $ B B $ $ B B $ $ B % s $ B B s s s $ s s C C s s s $ $ $ $ s s s <.* [.e $ $ $ s B B $ $ B B '.$ B B $ $ B B $ $ B B $ $ '.'.$ $ % B $ $ B % $ $ B B $ $ B B $ $ B B $ '.B B $ # B % s $ B B $ $ B B # $ B B $ $ B B '.$ B % # $ B B $ # % B $ $ B B $ $ B B # $ % % $ $ B B $ $ % B # $ B % s $ % B $ $ B B $ $ . B s s s $ s s s $ s s $ $ s $ $ $ s s '.$ s s $ s s $ $ $ s s $ s * * s s * * C C * * '.'.s s s $ j j {.{. . .W W  . .}.t  . . . .>.>.2 2 2 C 2 2 % % % . % % . . . % % % B B % % # $ * * e e $ $ . . * * % % 2 2 2 2 * K 2 2 * * 5 5 s $ 2 2 * * K K K * * * K * * * ",
"* * * * * <.* * K * * * * K * * * | 6 6 $ $ * * 2 2 2 2 :.2 s s * | & & $ s | * $ $ % % . % R % . % R R . . 5 5 % % c c e e 2 2 {.{. . . . . .) )  .W W  . .{.{.k k B B $ $ B B K K 2 C * * $ s # s s $ s s $ $ s s s $ $ s $ $ s s $ s * * $ s * * $ s s s s $ s s $ $ $ s s $ $ $ B B s $ B % $ $ B % s $ % B s $ B B # $ B % s $ B B $ $ B % s $ B B $ $ B B $ $ B B s $ B B $ $ B B $ $ % B $ s B B $ # B B $ $ B B $ $ B B $ $ B B $ $ B B $ s B B $ $ B B $ $ B B $ $ B B $ $ B B $ $ B B $ $ B B $ $ $ $ f e $ $ s s B B $ s $ $ K * 2 C * * $ $ s s $ $ s $ B B $ $ B B $ $ B B $ $ B B '.$ $ $ $ $ B B $ $ B B $ $ B B s $ B B # $ B % s $ B B $ $ B B $ # B B $ $ B B $ # B B $ # B B $ # B % $ $ B B $ # B B s $ B B $ $ B B $ $ B B $ # B B $ $ B B $ $ B % $ $ B B s $ B B $ s # $ s s # $ $ s $ $ s s $ s $ s $ # s s s $ $ s s $ $ s $ $ $ s s $ * * s s [.[.<.<.$ $ '.'.$ s f f i i t t  . .t t  . .t t >.>. . .e e 2 2 2 2 . . . % % . # # . . % B B % $ # % B c 2 2 2 | | & 5 K K R R 2 2 K K c 2 K * * * 6 6 $ $ <.* K K * K * * * * * * * * ",
"| * * * * <.* * K * * <.K K <.* | * 6 6 $ $ * * 2 2 2 2 :.2 s s * | & & $ s | * $ $ % % % . % R % . R R % . 5 5 % % c c e e 2 2 {.{. . . . . .)  . .W W  . .` ` k k B B $ $ B B K K 2 C * * $ s # s $ $ s s $ $ s s s $ s s $ $ s s $ s * * $ s * * '.'.s s $ s s $ $ $ s s $ $ $ $ B B $ $ B B # $ B B s $ B B s $ B B $ $ B % $ $ B B $ $ B B $ $ B B $ $ B B $ $ B B s $ B B $ $ B B $ $ B % $ $ B B $ $ B % s $ % B $ s B B $ $ B B $ $ B B $ $ B B $ $ B B $ $ B B $ $ B B $ $ B B $ $ B B $ '.B B $ s $ $ f e $ $ s $ B B s s $ $ * * C C * * $ $ s s $ $ s $ B B '.$ B B $ $ B B '.$ B B $ $ '.'.$ s B B $ $ B B $ $ B B s $ B B $ s % B s # B B $ $ B B $ $ B B # $ B % s $ B % s $ % B s $ B % $ # B % s s '.B $ $ B B $ $ B B $ $ B B $ # B B $ $ B % $ $ B B $ $ B % $ $ B B $ s $ $ s s $ $ s $ $ $ s $ $ $ s s $ $ s s $ $ s s $ $ s $ $ $ s s s $ * * s s [.[.<.<.'.'.$ '.'.$ f f i i t t  . .t t  . .t t >.>. . .e e C 2 c 2 . . . % % . # # . . % B % % # # B B 2 2 2 2 * | & 5 K K R R 2 2 K K :.2 * * * * 6 6 $ $ <.* K K * K * * * * | * * * ",
"* * * * * * * * * <.K K * | K K * * 5 5 B B 2 2 * * :.2 * * * * $ s 5 5 $ # c c % B B % B B B % 5 5 % . 5 5 . . R R 2 2 2 c e e >.>.>.>. . . .) ) ) )  .W W i i j j $ s '.'.$ '.<.<.e [.<.<.<.<.$ $ <.<.$ $ $ s '.$ s $ s s # s '.$ * * $ s * * s s $ s '.$ s $ $ $ s s $ $ s $ B B $ $ B B $ # B % $ $ % B $ $ B B $ $ B B $ $ B B $ $ B B $ $ B % s $ B B $ $ B B $ $ B B s $ B B $ $ B B # # % % B B B % $ $ B B $ $ B B s $ B B $ $ B B $ $ % B $ # B B '.$ B B s s $ s s $ $ $ $ s s # s s B B s s B B $ s 2 2 * * $ $ '.'.s $ $ s * <.e e $ $ s s s $ $ $ B B $ $ B B $ $ B B $ $ B B $ $ '.'.$ s B B '.$ B B '.$ B B $ $ B B s $ B B $ $ B B $ $ B B $ $ B B $ $ B B $ s B B $ $ B B $ s B B $ $ B B $ s % B $ $ B % # s B B $ $ '.'.s $ $ $ s $ B B # $ B B $ $ B B s $ B B # $ B B s s # $ s s '.$ s s $ $ s s $ $ $ s $ # s s $ $ s s $ $ s $ # $ s s $ s * * [.[.K K B B $ $ B B j j {.{. . .t t  . .t t >.>. . .>.>.2 2 e e 2 2 % % % . % % % % % _.% % B B % . $ $ * <.e e $ $ . . K * % % K K 2 2 * * * K K | J J $ $ 2 C * * K K K * * K * * | * ",
"* * * * * * * * K * K K * | K K * * 5 5 B B :.2 * * :.2 * * * * $ $ 5 & $ $ c c B B B B % % . % 5 5 % % 5 5 . . R R 2 2 2 2 e e >.>.>.>. . . .) ) )  . .W W i i j j $ s '.'.$ '.<.<.e e <.<.<.* $ $ * * $ s $ $ $ $ s $ s s s s $ $ * * $ s * * s s # s $ $ $ s s $ s s $ $ $ s B B $ $ B B s $ B B $ $ % B $ $ B B '.$ B B $ $ B B $ $ B B $ '.B B $ s B B $ $ B B $ $ B % s $ % B $ $ B B $ # % % % B % B s $ % B $ $ B B s $ B % $ $ B B $ $ B B $ $ B B $ $ B B s s $ s s $ $ $ s s $ s s $ % B s s B B $ s 2 2 * * $ $ $ '.'.s $ $ <.<.e [.$ $ $ s s $ $ s B B $ $ B B $ $ B B $ $ B B $ $ '.'.'.$ B B '.$ B B '.$ B B $ $ B B s $ B B $ s B B $ $ B B $ # B B $ $ B B $ $ B B $ $ B B $ $ B B $ $ B B $ $ % B $ $ B % $ $ B B $ $ '.'.s $ $ $ $ $ B B # $ B B $ $ B B s $ B B $ # % B s s # $ $ s '.$ $ $ # $ $ s $ $ s s $ # $ s s $ $ s s $ s s s $ s s s s * * [.e K K B B '.$ B B j j {.{. . .t t  . .t t >.>. . .>.>.2 2 e e 2 2 % % % . % % % % _.% B % B B % % $ $ * * e e $ $ . . K * % % K K 2 2 * * K K | * J J $ $ 2 2 * * K K K * * * K * * * ",
"* K <.* * * * * K K * * K K <.<.K K 6 6 $ s K K 2 C 2 2 2 2 s s * | & & $ s * | $ $ . % % B % R % % . . % % 5 5 . % 2 c e e d d {.{. . . .)  .) )  .W W  . .` ` k k $ $ $ $ % B :.:.C C * * $ $ <.<.$ s s s $ $ s $ $ s s s $ $ s s $ s * * s s * * s $ $ s # $ s s $ s s s $ s $ $ B B '.$ $ $ s s $ '.s $ $ $ s s # $ s s B B $ $ B B $ $ B B $ $ B B $ $ B % $ $ B B $ $ B % $ $ B B $ $ B B B B % % $ $ B B $ '.B B # $ B B $ $ B % s $ % B # $ % B $ $ B % $ s s $ s s $ $ $ s $ # s s $ $ B B 6 6 6 6 s s C C s $ s s $ s s $ $ $ K K 2 C * * I I R R B B $ $ B B $ $ B B $ $ B B $ $ B B s s '.'.s s $ s $ $ % B $ $ B B $ $ B B s $ B B $ $ B % $ $ B B $ $ B B s $ B B $ $ B % $ $ B % $ $ B B $ s B B # $ B % # $ B B $ $ B B $ s $ $ s $ B B # $ % B $ s B B $ $ B B $ s B B s s $ $ $ s $ $ s s $ s s s $ $ $ s $ $ $ s $ $ s s s $ $ s $ # s s s $ K * $ s f e <.<.$ $ '.'.$ s f f i i t t  . .) ) >.>.)  .>.>. . .e e 2 2 C 2 . . . % % . # # . . % B B % $ # B B 2 2 2 2 | | 5 5 K K R R c 2 * K 2 2 * * * * 6 6 $ s * * K K | * * * * K * * * K ",
"* * * * * * * * K K * * * K <.<.K K 6 6 s $ K K 2 2 2 2 2 2 s s * | & & s s * * s $ . % % B % R % % . . % % 5 5 % % c c e e d d {.{. . . .)  .)  . .W W  . .` ` j k $ $ $ $ B B :.:.C C * * $ $ <.<.$ s s s $ $ $ s $ $ s s s $ s s $ s * * s s * * $ s $ s # $ s $ $ $ s s s $ $ $ % B $ $ $ $ s s $ '.s $ $ $ $ s # $ s s B % $ $ B % s $ B B $ $ B B $ $ B B $ $ B % s $ B B $ s B B $ $ B B B B B % $ $ B B $ '.B B # $ B B $ $ B % # $ B B $ $ % B $ $ B B s s s $ s s $ $ $ s # $ s s $ $ B B 6 6 6 6 s s 2 C s s s s $ s s $ $ $ K K 2 2 * * I I R R B B '.$ B B $ $ B B $ $ B % s $ B B '.s '.$ $ s $ s $ s B B $ $ B B $ $ B % s $ B B $ $ B % s $ B B $ $ B % s $ % B $ $ B % $ $ B % $ $ B B $ $ B B $ # B % # $ B B $ $ B % s s $ $ s $ B B s $ B B $ $ B B $ $ B B $ $ B B s $ s $ s s $ s s $ s $ s s s $ s s $ # $ s $ $ s $ $ # s s s $ s s s $ * K s s [.[.<.<.'.'.'.$ s $ f f i i t t  . .) ) >.>. . .>.>. . .e e 2 2 C 2 . . . % % . # # . . B B % % $ # % B 2 2 C 2 | | 5 5 K K R R c 2 * K c 2 * * | * 6 6 $ $ * * K K | * * * * * K * * * ",
"* * * * | * K K * K K * * K 2 2 * * 5 5 $ $ 2 2 * * 2 2 K * * * $ $ 5 & $ $ 2 c # # B B % % % % 5 5 % . 5 5 R . . . 2 2 :.2 e e >.>.>.>. . . . .)  . . .W W i i j j $ s '.'.$ $ * K e [.<.<.* * * * * <.$ s $ s $ s s s s $ s s '.$ $ s $ $ $ s $ # s $ s s s s s $ s s # $ s s B B $ s $ $ $ s $ $ s $ B B $ s $ $ s s s $ s s B B $ $ B B $ $ B B $ $ B B '.$ B % s $ % B # $ B % $ $ B B $ $ B % $ $ % B $ $ B B $ $ B B # $ % B $ $ B % $ $ B B $ $ % B $ $ B B s $ # $ s s $ $ s $ $ s s s $ $ % B B B 2 :.C C * * $ $ <.<.$ $ '.s * * C C * * % % B B <.* $ $ s $ $ s s s $ $ $ s % B s $ $ '.$ s s $ s s # $ $ $ B % '.$ % B s $ % B $ $ B B s $ B % B % B B $ $ B B $ $ B B $ $ B B # s B B $ $ B % $ $ B B # $ B B $ $ B B $ $ s $ $ s $ $ $ $ B % # $ B B $ $ B B $ $ B B $ $ $ $ s s s $ s s $ s $ $ $ s $ $ $ s s s $ $ s s $ $ * * $ s * * s s * * * * * K [.[.* K '.'.$ s $ $ j j ` `  . .) )  . .)  .) )  . .) {.2 2 e e C 2 % . % % % _.B _.% _.% % B B % % $ $ * * e e $ $ . . K * % % K K 2 2 * * 2 2 * * J J B B K K * * K K K * * * * K * * ",
"* * | * * * * K * * K K * * 2 2 * <.5 5 $ $ 2 2 * * 2 2 K * * * $ $ 5 5 $ # 2 2 # # B B % % % % 5 5 . % 5 5 % . . . 2 2 2 :.e e >.>.>.>. . . .)  . . . .W W ` i j j $ s '.'.$ $ * * [.[.<.<.<.* * * <.<.$ s $ s $ s s s $ $ # s $ $ s s $ $ $ s $ # s s $ s s s s $ s s $ $ s $ B B $ s $ $ $ s $ $ $ s B B $ s $ $ s s $ # $ s B B $ $ B B $ '.B B $ s B B s $ B B $ # % B $ # B B '.'.B B $ $ B B $ $ % B $ $ % B $ $ B B $ $ B B $ $ B B $ $ B B $ $ % B $ $ B B $ s '.'.s s s $ $ s $ $ $ s $ $ B B B B 2 :.C C * * $ $ <.<.$ $ '.s * * C C * * % % B B <.<.'.$ s s s $ s s s $ s s % B $ $ '.'.s s $ $ s s s $ $ $ B % '.$ % B '.$ B B # $ B B s $ B B B B % B s $ B % s $ B B $ $ B B $ s % B $ $ B % $ $ B B $ s B B $ $ B B '.$ s $ s s $ $ $ $ B % # $ B B $ $ B B $ $ B B $ $ $ $ s s s $ s s $ s s s $ s $ $ $ s s s $ $ s s $ $ * * $ s * * s s * * * K * K [.[.* K '.'.$ s $ $ j j ` `  . .) ) )  .)  .) )  . .) {.2 2 e e 2 2 % % . % % % _.B _.% % . B B % % '.'.* * e e $ $ . . * * % . K K c 2 * * 2 2 * * J J B B K K * * K K K * * * * * | * ",
"* * * * * K * * K K * * 2 2 * * * K 5 5 $ s * K 2 2 2 2 :.2 $ s * * 5 5 $ s * K s $ . % # # % . . % % . . . 5 5 . % 2 C e e 2 C {.{. . . .)  .) >.>. .)  . .i i k k $ $ s s $ $ :.:.C C <.<.$ s * * $ s * * $ $ s s s $ s s # $ s s $ $ s s s $ s $ s s s s # $ $ s $ $ s s $ $ s s $ s s s $ $ $ s s $ $ $ $ $ $ s $ $ $ s s $ $ $ B B $ '.B B s $ B B $ $ B B # $ % B $ $ B % $ $ % B $ $ B % $ $ B B $ $ B % # $ B B '.$ B % $ $ B B '.$ B B $ $ B B $ $ B B $ $ $ $ s $ $ s s s $ $ $ s $ s * * $ s :.:.* * [.e $ s s $ '.$ <.* '.'.K K 2 C * K K * K K s s $ s s $ s s s $ s s $ s $ $ % B s s $ $ $ s s $ s s B % $ $ B B $ $ B B $ $ B B $ $ B % $ $ B B $ s B B $ $ B B $ $ B B s $ B B # $ B B $ $ B % s $ % B '.$ B B $ $ $ $ s s $ $ $ s $ $ s $ B B s s s $ $ s $ $ s $ $ s s s $ $ s $ $ $ $ s $ s s s s $ $ s $ $ s $ $ $ s s $ s * * $ s * * s s * K s s f e <.<.$ s '.'.$ s j j i i  . .)  . . .) )  . . .`  . .e e 2 2 C 2 . . . % % . # # % . % B B % $ # B B 2 2 2 2 * | 5 5 2 2 R R 2 2 K K c 2 * * | * 6 6 $ s * * K K * * K K * * K * s s ",
"* * * * K K * * * K K * 2 2 <.<.K K 5 5 $ s * K 2 2 2 2 2 2 s s * * 5 5 $ s K K $ $ . % # # . . . % R % % . 5 & % % 2 2 e e 2 C >.{. . .) )  . .>.>. .)  . .` i j k $ $ s s $ $ :.:.C C <.<.$ s * * $ s * * $ s s $ # $ $ s # $ s s $ $ s s $ $ s $ $ s s s $ $ s s s $ s s $ $ $ s $ s s s $ $ s s $ $ $ $ $ $ $ s $ $ s $ s s $ $ B % s $ B B $ B B B $ s B B $ $ B B $ $ B B # $ B B $ $ B B $ $ B B $ $ B B # $ B B $ $ B B s $ B B $ $ B B '.$ B B $ s B B $ $ $ $ s s s $ $ s $ $ s s $ $ * * $ s :.:.* * [.e s s $ s $ $ <.<.$ $ K K 2 C * K K K * K s s $ s s $ s s $ $ s $ $ s $ $ B B s s '.'.s $ $ s s s % B s $ B B $ $ B B $ $ B B $ $ B B $ $ B B $ $ B B $ $ B B $ $ B B $ s B B # $ B B $ $ B B $ s % B $ $ B B $ $ s $ $ s $ $ s s $ $ $ $ B B s s # $ s s $ $ s s $ $ s s $ $ s $ $ $ s s $ $ s $ s s $ $ $ $ s s s $ s s s s * * s s * * s s * K s s [.[.<.<.s s $ $ $ s j j i i  . . .) )  . .)  . . .`  . .e e 2 2 C 2 . . . % % . # # % . % B % % # # B % 2 2 C 2 | | 5 5 2 2 R R 2 2 K K :.2 * * | * 6 6 $ $ <.<.K * * * * K K * * K $ s ",
"* * * K * * K K * * 2 2 * * 2 2 K * 5 5 $ $ 2 2 <.<.2 2 * * * * s s 5 R s $ 2 2 # # B % . % B % % . . % 5 5 % . . . C C 2 2 e e {.{.{.{. . .) ) )  .)  . . .2.2.j j $ s '.'.$ s * K [.[.<.<.<.<.$ s <.<.$ s * * $ s * * s s * * $ $ $ $ $ $ s $ s s $ s $ s s s $ $ s $ $ s s s $ $ $ s s $ $ s $ $ s s B % $ s $ $ s s s $ s s $ # # $ # # # '.# B $ $ B B $ s B B s $ % B '.'.% B $ $ B % '.$ B % $ $ B B # $ B B $ $ B % $ $ B B '.$ B % * $ B % s $ B B $ $ $ s s s $ $ s s $ s s $ $ $ s s $ $ <.* <.<.<.* C C * * $ $ <.<.$ $ * * <.<.e [.<.<.:.:.* <.<.<.$ $ s s $ $ s s s $ s s $ $ s $ $ $ $ s s # $ s # $ <.s B % $ $ B B '.$ B B $ $ B B $ s % B $ $ % B # $ % B $ $ B B '.$ B B $ $ B B $ $ B B $ $ % B $ $ $ s s s $ # s s $ $ s s $ $ s s B B $ s s $ s s s $ s s $ s s s $ $ s $ $ s $ s $ $ s s $ s $ $ $ s s $ s $ $ s s $ * * $ s s s $ s s s K * * * e [.* K '.'.<.<.$ $ k k i i  .) + + ) )  . . .{. . .` ` C C e e 2 2 % % % . B % % % # # % % B B % . $ $ * * e e $ $ . . K * % % c 2 2 2 K K 2 2 * * 5 5 % B K K K <.2 2 * * * * K * | * ",
"* * * K <.<.K * * * 2 2 * * 2 2 K * 5 5 $ $ 2 2 <.<.2 2 K * * * s s 5 R s $ 2 2 # # B B % % % % . . % % 5 5 . . . % 2 C C 2 e e {.{.{.{.)  .) ) )  . . . .) 2.2.j j $ s '.'.$ $ K K [.[.<.<.<.<.$ s <.<.$ s * * $ s * * s s * * $ $ s $ $ $ s $ s s s s $ $ s s $ $ $ s $ $ $ s $ $ $ s s $ $ s s $ $ s B % $ s s $ s s s $ s s $ # $ $ # # $ $ B B $ $ B B $ $ B B $ $ % B '.$ $ B B $ $ B $ $ B B $ $ B B $ $ B B $ $ B B $ $ B B $ $ B % $ $ B B $ $ B B $ '.$ $ s s s $ $ s s $ s s $ $ $ s $ $ * * * * * * 2 C * * $ s * * $ $ * * <.<.e e <.* :.:.* <.<.<.$ s '.s s $ $ s $ $ s s $ $ $ s $ $ s s s $ $ s s $ $ s % B $ $ B B $ '.B B $ s B B <.$ B % s $ B % # $ % B $ $ B B $ $ B B $ $ # B $ $ B B $ $ B B $ $ s $ $ s $ # $ s $ $ s s $ $ s s B B s $ $ $ s $ $ s s $ $ $ $ s $ $ s $ $ $ s s $ $ s $ $ $ s s $ $ $ s s $ $ s $ $ * * $ s s $ $ s s s * * * * [.e K K '.'.<.<.$ $ k k i i ) ) + + ) )  . .{. . . .` ` C C f e 2 2 % % % . % % % % # # % . B B % % '.'.* * e e $ $ . . K * % % 2 2 2 c c K 2 2 * * 5 5 B % K K * * 2 c * * K * * * * * ",
"* K * * K K * * K K * * 2 2 * <.<.* B % 2 2 * * 2 2 2 2 2 2 $ s * <.5 5 * | * * $ $ B % # # % . . % % . . . R R . % 2 2 e e 2 C {.{. . . .)  .) >.>.)  . . .i i j k $ $ s s $ $ :.:.[.[.* K s s $ $ $ '.s s s s * * s s * * $ s * * s s * * s s * * s s * * s s s s $ s $ s $ $ s s $ s $ $ $ s s s $ s '.$ $ $ s s '.'.s s s $ $ $ # # s $ $ # # $ B B '.'.$ B $ # % B $ $ B B # $ B B $ $ B B $ $ B B # $ B B s $ B B $ $ B B $ '.B B $ s B B $ $ B B $ '.$ $ $ s s $ $ s $ $ $ s s $ $ s s $ $ s s s * * <.<.e [.$ s * * s $ <.<.$ $ :.:.C 2 * K s s * * s $ $ s s $ $ s $ $ $ s $ $ s s $ $ <.<.$ $ s s s $ s s $ # $ s # $ $ $ B B '.$ B B # $ B B $ $ B B '.'.% % '.'.'.'.$ s $ $ s s B B # $ B B $ $ B B $ $ % B s s # $ s s $ $ s s $ $ s $ $ $ $ s $ $ $ s $ $ $ s $ # s s $ $ s $ $ $ s s $ $ s s s $ s s s $ $ s s $ s s $ s s s $ s * * s $ $ $ B % * K K * e e <.<.<.* $ $ $ s j j h h  . .)  . . . .`  . .) {.)  .e e 2 C C C _._.% _.. . # # % . $ # % % $ $ B B 2 2 2 2 | | 5 5 2 2 % % 2 2 * K 2 2 * K <.* J J s $ * <.K * * * K K K * * * s s ",
"* K * * * K * K K * * K 2 2 * <.<.* % % 2 2 * * 2 2 2 2 2 2 $ s * * 5 5 * | * * s $ . % # # % . % % . . . . R R . % 2 2 e e C C {.{. . .)  . . .>.>.)  . . .` i k k $ $ $ s s $ :.:.[.[.* K s s '.'.'.$ s $ s s * * s s * * s s * * s s * * s s * * s $ * * $ s $ s s $ $ s $ $ s s $ s $ s s $ s s $ s $ $ $ $ s s $ $ s s s $ $ $ # # s $ # # s $ B B $ $ B B $ # % B $ $ B % # $ B B $ $ B B '.$ B B # $ B % '.'.% B '.$ B % s $ B B $ $ B B $ $ B B $ $ $ $ s s $ $ s $ $ $ s s $ $ $ s s $ $ s s s * * <.<.e [.$ s <.<.$ $ <.<.$ $ :.:.C 2 K K s s * * s $ s s $ s s $ $ $ s s s $ $ s $ $ * <.$ $ s s s $ s s $ $ $ s # $ '.$ B % s $ B B '.$ B B $ s % B $ $ B % $ s '.'.$ s $ $ s s B B $ $ B B $ $ B B # $ B B $ s # $ s s $ $ s s '.$ s s $ $ s s s $ $ s $ $ s s $ $ s $ $ s s s $ s $ s '.$ $ s $ s s s $ $ s s $ $ s s $ s s s s $ * * $ $ $ $ B % K K * * e e <.<.<.<.$ $ $ s j j h h  . . .)  . . .`  . .) {. .) e e C C C C _._.% % . . # # % . $ # % % '.'.B B 2 2 2 2 | | 5 5 c 2 % % 2 2 K K 2 2 * K K K J J $ $ * | K K | * * K K | * * $ s ",
"* * :.2 <.* 2 2 <.* :.2 K * * * s s 2 2 * * 2 2 K K 2 2 2 2 K K s s . . # $ 2 c $ # # # % . % % . . % % R R . % % . C C 2 2 e e {.{.{.{.)  .) )  . . . . . .i i j j s s $ $ $ $ <.<.e [.<.<.K K O O 5 5 $ $ s $ $ $ s s s $ s s $ s * * $ s * * s s * * s s * * s $ s s $ $ s s $ $ s s $ s s s s $ s $ # $ s s $ '.s s $ s s $ $ # # $ B B $ $ B % s $ B B $ $ B B $ $ B B $ $ $ '.'.$ B B s $ B B '.'.s '.'.$ s $ $ s '.'.$ s $ $ $ $ $ '.s s $ $ $ s $ $ * <.$ $ s s $ $ <.<.$ $ <.<.$ $ <.<.'.'.s s s $ * * [.[.<.<.'.'.<.<.$ $ <.<.* * [.e <.<.<.* $ s * * s $ K K s s $ s $ $ $ s s $ $ s s $ <.<.'.$ s s # $ s s $ $ s s $ '.'.$ B B $ $ % B $ $ B % $ $ B B '.'.$ '.s s B B $ s $ $ s $ B B $ $ B B $ $ B B $ $ $ $ s s $ $ $ s $ $ s s $ $ s $ s $ s $ $ $ $ s s '.s $ s $ s s $ $ s $ $ $ $ s $ $ $ s $ s $ $ $ s s $ $ $ s s $ $ $ s $ $ $ $ J J 6 6 * * K K [.[.<.<.'.'.'.$ s $ k k ` ` ) )  . . . . . .{.{.) ) ` ` C C [.[.2 2 % . % % # # % . # # % . # # % B $ $ * <.2 C $ $ . . K K B % K K 2 2 K * 2 2 * * * * s s K K * * K K * <.* * * K * <.",
"<.* 2 2 <.* 2 2 <.* 2 2 K * * * s s 2 2 * * 2 2 K K :.2 2 2 K K s s . . # $ 2 c # # # # % . % % . . % % R R % . % . C C C 2 e e {.{.{.{. . .) )  .)  . . . .i i j j $ s $ $ $ $ <.<.e [.<.<.K K O O 5 5 $ $ $ s $ s $ s s $ s s $ s * * s s * * $ s * * s s * * s s s $ $ s s s $ $ s s $ s s s s $ s $ s $ s $ $ '.s s s $ s s $ # # $ % B s $ B % s $ B B $ $ B B $ $ B B $ '.$ $ $ $ B B # $ B % $ $ '.'.s $ $ $ s s $ $ $ $ $ '.'.$ $ '.$ s '.'.s s $ $ * * $ $ s s s $ * * $ $ * * $ $ <.<.$ $ s s $ $ * * [.[.<.<.'.'.<.<.$ $ <.<.* * [.e <.<.<.<.$ s * * $ s * * s s s s $ $ s s $ $ s $ $ $ <.* $ $ s s $ $ $ s s $ s s '.$ $ $ B B $ $ B B $ $ B % $ $ % B $ '.'.$ s $ B B $ s $ $ $ $ B B $ $ B B $ $ B B $ $ $ $ $ s $ $ s s $ $ s s $ s s s s $ s s $ $ $ s $ s $ s $ $ s $ $ s s s $ $ s s $ $ $ s $ $ s $ $ $ s s $ $ s s $ $ s s $ s $ $ J J J 6 * * K K [.[.* <.'.'.$ s $ s k k ` ` ) ) )  . . . . .{.{. .) ` ` C C e e :.2 % % . . # # % B $ # % B $ # % % '.'.* * 2 C $ $ . . K K B % K K c 2 * * 2 2 $ * * * s s K K * K K K * <.* * * K * <.",
"2 2 * * * K K * :.2 * * <.* | * 2 2 * * 2 2 | * 2 2 * * 2 2 * <.* * 5 5 K * 2 2 s $ % % B B % . % % % % % . % % % % 2 2 e e 2 2 ` ` ) ) {.) )  .{.) )  . .) i i k k $ $ s s $ $ :.:.[.[.:.:.* K '.$ <.<.* * s s $ s $ $ s s # $ s s $ s $ s $ $ $ s s $ s s $ $ * * s $ s s $ $ s s $ s s s $ '.$ s s $ s s $ $ s s $ $ s s $ s s s $ # # $ B B $ $ B % $ # B B # $ B % s s B B $ s $ '.'.$ % B $ '.$ $ $ $ B B $ s $ $ s s B B $ $ '.'.s s '.$ s s s $ * * $ $ <.<.$ $ <.<.$ s <.<.'.$ <.* $ s s $ $ $ <.<.$ s [.[.<.<.<.<.$ $ <.<.$ $ :.:.:.2 * <.s s * * s s * * s s * * $ s * * s $ s s $ $ <.<.'.$ s s s $ s s $ $ s s $ $ <.<.$ s '.s $ $ s $ B B $ $ B B $ $ B B $ $ '.'.$ s % B $ $ B B $ $ % B $ # B B $ s % B # $ # $ $ s s $ $ s $ $ $ s # $ s s s $ s s s $ s s $ $ s s $ $ s s s $ s $ # $ s s $ $ $ s $ s $ s $ $ s $ $ $ s s $ $ * * $ s s $ s $ K K s s [.[.<.<.'.'.'.'.$ s f f i i  . . . . .) ) )  . .{.{.b b e e C C 2 C % % % % % % # # B % # # % . $ $ B B 2 2 2 c * | & 5 2 2 % % 2 2 2 2 c c K K 2 2 * * * K K | * * * * 2 2 * * * K * * ",
"2 2 * * * K * * 2 :.K * <.* <.* 2 2 * * 2 2 | * 2 2 * * C 2 * <.* * 5 5 K * 2 2 s $ % % B B . . % % . % % % . % . % 2 2 e e 2 2 ` ` ) ) ) )  . .{.)  .)  .) ` i k k $ $ s s '.'.:.:.[.[.:.:.* K $ $ * * <.<.s s s $ $ $ s s # $ s s $ s $ s $ $ s $ $ $ s $ s $ * * $ $ s $ $ # s s $ s s s $ '.$ s $ $ $ s $ $ $ s $ $ $ s s $ s s $ # $ $ B B $ s B % $ $ B B s $ % B s s B B $ $ $ '.'.s % B $ '.'.'.s '.B B $ s $ $ s s B B $ $ '.'.$ s $ $ s s s $ * * $ s * * $ $ * * $ $ <.<.$ $ <.<.s s s s $ s * <.$ s [.[.<.<.<.<.$ s * <.$ $ :.:.:.2 <.<.$ s * <.$ s * <.s s * * s s * * s $ $ s $ $ * <.$ $ s $ # $ s s $ $ s s s $ <.<.$ s '.s $ $ $ s B B $ $ B B $ $ B B $ $ '.'.s s % B $ s B B $ s B % # $ B B $ $ B % # $ $ $ $ s s $ $ s $ $ $ s $ $ s s s $ s s $ $ $ s $ $ s s $ $ s s s $ s s $ s $ $ $ s $ s $ $ s s s $ s $ $ $ s s $ $ K * $ s s $ s $ K K s s [.[.<.<.'.'.'.'.s s f f i i  . . . . .) {.) )  .{.{.b b e e C C 2 C % % % % % % # # % B # # % . $ $ B B 2 2 2 c * | 5 5 C 2 % % 2 2 2 2 2 c c K 2 2 * * * K * * * K * * 2 2 * * * K * * ",
"* * :.2 K K c c * * K * * * <.K <.<.2 2 K * :.2 K * 2 2 2 2 2 2 :.2 $ # | | 2 2 # # # # % % . % R % . % R R . % % . C C 2 2 e e 2 c b b b  .) )  . .)  . . .i i j j s s $ $ $ $ * * 4.4.K K 2 :.* K <.<.<.* * * $ $ s s s s * * s s K * s $ * * s $ * K $ $ s s $ s s s # $ s s $ s s $ $ $ s s $ # $ s $ $ s s $ s s $ B B s s # # $ $ B B $ $ B B $ $ B B $ $ $ $ s s B B $ $ B B $ $ B B $ $ B B '.$ $ '.'.$ s $ $ s '.'.s s '.'.$ s $ $ <.<.$ $ <.<.$ $ <.<.$ $ <.<.$ $ <.<.$ $ <.<.$ $ <.<.$ $ <.* s s * K 2 C * * $ $ <.<.$ s * <.* * [.e s s * * s $ * <.$ $ K * s s <.<.$ s s s $ $ s s $ $ <.<.$ $ s s $ $ s s $ $ s s '.'.<.<.$ $ $ $ B B $ '.B B $ s B % $ $ '.'.$ $ B % $ s B B % B B B $ $ B % $ $ B B $ $ B % $ $ # $ $ s $ $ s s s $ s s $ $ <.<.$ s * <.s s * * s s * * s $ s s $ s * * s s * * $ s * * $ s * <.s s * * s s $ s $ $ <.* * K 2 2 * * <.* [.e K * '.'.s $ $ s j j ` ` ) )  . . . . . .) {. .) ` ` C C [.[.2 2 % . % % # # % B $ # % % '.$ B B $ s * K [.[.$ $ B % * * $ $ 2 2 :.2 K K c c :.* 2 2 * * * K * * K K | * * K * * * * ",
"* * :.2 K K :.2 * * K * * * <.K <.<.2 2 K * :.2 K * 2 2 2 2 2 2 2 :.# # | | 2 2 # # # # % % % % % . . % R R % . . . C C 2 2 e e 2 c b b b  .) )  .)  . . . .i i j j $ s $ $ $ $ * K 4.4.K K 2 :.K K * * * * * * $ $ s $ $ s * * $ s * * $ s <.* s s * * $ $ $ s # $ s s '.'.$ s s $ s s $ $ s s $ s $ s $ $ s $ $ $ s $ B B s s $ # $ $ % B $ '.B B $ $ B B $ $ $ $ s $ B B s $ B % s $ B B $ $ % B $ $ $ $ s $ $ '.'.s $ $ $ s '.'.$ s $ $ <.<.$ s * <.$ $ * * $ $ * * $ $ <.<.$ $ <.<.$ s * <.$ $ <.<.$ s * K C C * * $ $ <.<.$ s * * <.* [.e s s * * s s * * s $ * * s s <.* s s s s $ $ s s $ $ <.<.$ s '.s $ $ s s $ $ s s $ $ * <.$ $ '.s B B $ $ B B $ $ % B $ $ '.'.$ '.B % s s B B B B B % '.$ % B # $ % B $ $ B B $ $ $ # s $ $ $ s s s $ s s $ $ <.<.$ s * <.s s * * s $ * <.$ $ s $ '.'.* * s s * * $ s * * s s K * s s * * $ s s s $ $ * K K K 2 C * * * * e [.* * $ $ $ $ $ s k j ` ` ) )  . . . . . .) {.) ) {.i C C e e 2 2 % % . . # # % % # # B % # $ B B $ s K K e e $ $ B % * * $ $ 2 2 :.2 K K c c :.* 2 2 * * * * K * * K K | * K K <.<.<.",
"* K * * K K s $ * * <.* * * * * 2 2 * * 2 2 * K 2 2 2 2 2 :.2 2 K * $ $ 2 C * * s $ . % % B . . % B B % % % . % . % 2 2 e e 2 2 ` ` ) ) )  . . .>.>.)  .) ) ` i k k $ $ s s $ $ :.:.e e 2 :.* * K * * * * K s s s s $ $ <.* s s | * $ s * * s s * * s s s s $ s s s s $ s s s $ $ s $ $ s s '.$ s $ $ $ $ s $ $ $ s $ $ $ s # $ $ $ $ # $ s B B $ $ B % s $ B B s s $ $ s s $ s s $ $ $ s $ B B $ $ '.'.$ s $ $ <.<.$ $ * * $ '.s s '.'.s s '.'.<.<.$ s * <.s $ <.<.$ $ s s '.'.<.<.$ $ <.<.* <.<.<.$ s * * * * [.[.<.<.<.<.<.<.<.* * * :.:.C C <.<.<.<.K K * * s s $ $ <.* '.'.s $ $ $ s s $ s * * s $ $ s s $ $ s $ $ $ s $ $ $ s s s $ s B B $ s B B $ s $ $ s s B B s s '.'.'.$ s $ $ s B B $ $ B B $ $ $ $ $ s B B $ $ $ $ s $ s $ $ s s $ s s $ $ s s $ '.* * s s * * s s * * s s s s s $ * * s s * * $ s * * s s <.<.$ s K * $ s * * $ s * * s s * * s s :.:.* <.e e <.<.$ $ '.'.s $ f f i i  . . . .>. . .` ) ) ` ` ` ` d e C C C C B % . % % % # # % B $ # % % $ $ $ # * K 2 2 | * % . K K C 2 :.C :.2 2 :.* K c C <.<.K K * <.K K s s s s $ $ * * * * ",
"* K * * K K s $ <.<.<.* * * * * 2 2 * * 2 :.K K 2 2 2 2 2 :.2 2 * * s $ 2 C * * $ s % % B B . . % % % % % . % % % % 2 2 e e C 2 ` ` ) )  .)  . .>.>. .)  .) ` i k k $ $ s s $ $ :.:.e e :.:.* * * K * * * K s s $ s $ $ <.* s s <.<.s $ K K s s * * $ s s s $ s s s # $ s s s $ $ s $ $ s s $ $ s s $ s s s $ '.s s $ $ $ s $ $ $ s $ # $ s B B $ $ B B $ $ B B s s $ '.s s $ s s $ $ $ s $ B B '.$ $ $ $ $ $ '.<.<.$ $ <.<.$ $ s s $ $ $ s $ $ * * $ s * * s $ * <.'.'.$ s $ $ <.<.$ $ <.<.* * * * $ s * * * * [.e <.<.<.<.<.* * * <.<.:.:.C C <.<.<.<.K K * * s s s $ * * $ $ $ s s $ $ s s s <.<.$ s '.s $ $ $ s $ $ $ s $ $ $ s s s $ s B B s s B B '.$ $ $ $ s B B $ s '.'.$ $ '.'.s $ B B $ $ B B $ $ $ $ $ $ B B $ '.$ $ s $ $ s $ s $ $ s s '.'.s s $ '.<.<.$ s * <.s $ * * $ s s s $ $ K * s s K * s $ K * $ s * <.s s K * $ s * * s $ * <.s s * * s s :.:.* <.e e <.<.$ $ '.'.s s f f i i  . . . . .)  . .) ) ` ` ` ` d e C C 2 C % % . % % % # # % . $ $ % % '.'.# # * K 2 2 * * B % K K 2 2 C C :.2 2 :.* K c C <.<.K K * <.K K s s s s $ $ * * * * ",
"| * * * $ s * * * * K K * * K K * * c 2 * K C C 2 2 :.2 2 2 * * $ $ 2 2 2 C c c % B $ # % % % B . . . % R % . % % % c 2 e e 2 C K c c c )  . . . . . . .)  .i i j j $ s '.$ $ s K K 4.4.K K 2 :.* * <.* s s <.* $ $ * K s s <.* s s K * s s * * s s * * s s K * $ s * * s s * K s s * * $ $ s s s $ $ s $ $ s s $ s s s $ $ s s $ $ s $ B B s s $ s s s s $ s s s s $ s B B $ s $ $ s $ B B $ $ '.'.$ s $ $ s '.'.$ $ s s $ $ s '.'.$ s $ $ s s $ s * * s $ $ '.'.$ s $ $ $ * * $ s * * s s * * s s B B % % K K [.[.:.:.* <.:.:.s s K * * K e e <.<.$ '.'.$ <.<.$ s '.s s s K * $ $ $ s $ $ s $ * * * * $ $ <.<.$ s $ $ $ $ s s $ s * <.$ s * <.$ $ s s $ s s $ $ $ s $ '.'.$ s B B s s B B s $ s $ s s $ $ s s $ s $ $ s $ $ s s $ $ s $ s <.<.$ $ s s $ $ s s s $ <.<.$ s * <.s $ * * s s $ s s s K * s $ K * s s K * s $ K * $ s * * $ s * * s $ s s $ s * * K K :.:.[.[.:.:.'.'.$ s s s j j ` ` ) )  . .>.>. . . .) * * K c C 2 e e 2 2 % % % % $ # % % '.'.# % '.$ # # # $ * * C 2 c c 2 2 | * K K 2 2 [.e K K 2 2 K * 2 2 * * 2 2 * * K K s s $ s s s * K ",
"* K * * s $ * * * K K K * K K K * * 2 2 * K C C 2 2 2 :.2 2 * * $ $ c c 2 2 2 c B B $ # % B % B . . . % R % . % % % c 2 e e 2 C c c K c  . . . . . . .)  . .i i j j $ s '.$ s s * K 4.4.K K :.:.* * <.<.s s * * s $ * * s s | * s s K * s s <.<.s s * * $ s * <.$ s * * s $ * <.s s * * $ $ s s $ $ s s $ s s s s $ s s '.$ $ s s $ $ $ B B s s '.'.$ s $ $ s $ $ s s s B B $ s $ '.s s B B '.'.s '.s s $ $ $ s $ $ $ s s $ $ s $ '.s $ $ '.s s $ s <.<.$ $ '.'.'.$ s $ $ $ * * '.'.<.<.$ s * <.s $ B B % % K K [.[.:.:.* <.:.:.s s K * * K e [.<.<.$ $ '.'.<.<.$ s '.s s s K * $ $ s s $ s s s * * <.* '.'.<.<.$ s $ $ $ $ s s $ s * * $ s * * s $ $ s $ $ s s $ $ '.'.$ '.s $ B % s s B B $ $ | $ s s $ s s s s $ $ $ '.'.s $ $ $ s s $ $ * * $ $ s s $ $ $ s $ $ * * s s * * s s * * s s s s $ s * * s s K * s $ K * s s K * s s | * s s * K s s s s s s * * K K :.:.[.[.:.:.'.'.s s s s j j ` ` ) )  . .>.>.)  .{.) * * K c C 2 e e 2 2 % % % % $ # % % '.$ B % '.$ # # s $ * * C 2 c c 2 2 * * K K 2 2 [.e K K :.2 * <.2 :.* * 2 2 * * K K s s $ s s s * * ",
"<.<.$ $ * * * | * * * * K K <.<.2 2 * * c 2 2 2 :.2 | * K K * * 2 2 :.2 d d K K '.$ % % # # # % % % . % B % % % $ # 2 2 :.2 K * :.2 2 c )  . . .>.>. . .) ) ` i k k $ $ s s $ $ :.:.[.[.:.:.* * <.<.$ s * * s s <.<.$ s * * s $ * * $ s * * s s * * s $ * * $ s * * $ s * * s s * * s s s s s $ s s s $ s s s $ s s s s K * $ $ $ s B B $ s $ $ s s $ $ s s s $ s $ $ $ s s $ $ s s $ $ s $ B B s s '.'.$ s '.'.$ s '.'.$ s $ $ <.<.'.$ <.* '.'.<.<.$ s * <.5 5 6 6 '.'.<.<.$ $ $ s s $ * * s s K K 5 5 R R K K [.[.<.<.<.* * * <.* * * :.:.[.[.:.:.5 5 _._.s s $ s s $ K * $ s * * s s K * 6 6 % % s s * * '.'.<.<.$ $ s s s $ $ s $ '.<.<.$ s * <.$ $ s s s $ s s $ $ $ s $ '.$ $ s s $ s B B $ $ $ $ s s $ $ $ s $ $ s s $ $ s $ $ $ <.<.$ $ * * $ $ * * '.'.<.<.$ s * <.s s * * s s * * s $ <.* $ s * <.s $ * * s s <.* s s * * s s * * s s s $ $ $ <.<.$ s :.:.* <.4.4.<.<.$ s '.s * * f f i i  . . . . . . .) {.{.2 2 | | C 2 K * 2 2 B B $ $ $ # s $ $ # $ $ B B $ '.# # c 2 2 2 d d c c 2 2 * * 2 :.2 2 C C 2 2 c c <.* 2 2 * * * K <.<.* * s s <.<.s s ",
"* * $ $ * * K * | * * * K K <.* 2 2 * * c 2 2 2 :.2 * * * K * * 2 :.2 2 d d K K '.$ % % # # # % % % % % B % % % # # 2 2 :.2 * * :.2 K c )  . . .>.>. . .) ) i i k k $ $ s s $ $ :.:.[.[.:.:.* <.<.<.s s * * s s * * $ s * * $ s * * s s K * s $ * * s $ * * s s * * s s * K s s * * s $ $ s s $ s s $ $ s $ s $ s s s s K * $ $ $ s B B $ s $ $ s s $ $ s s $ $ s s s $ s s $ $ s s $ $ s $ B B s s '.'.$ s $ $ s '.'.$ s s $ $ <.* $ $ <.<.$ $ <.<.$ s * <.5 5 6 6 '.'.<.<.'.'.$ s s s * * s s * K 5 5 R R K K [.[.<.<.<.<.* * * <.* <.:.:.[.[.:.:.5 5 _._.s s $ s s $ * * $ s * * s s * * 6 6 % % $ s <.<.$ $ <.<.$ $ s s s $ $ s $ $ <.<.$ s * <.s $ s s $ s s $ $ $ s $ '.$ $ $ s s $ s B B '.$ s $ $ s $ s s s $ $ $ s $ $ $ s s $ <.<.$ '.* * $ $ * * '.'.<.<.$ s * <.s s * * s s * * $ s * <.s $ * <.s s K * s s * * s s * * s s * * s $ s s $ $ <.<.s s :.:.* <.4.4.<.<.$ s '.s * * f f i i  . . . . . . .) {.{.2 2 | | C 2 K * :.2 B B $ $ $ # s $ $ # $ $ B B $ '.# # c 2 2 2 d d c c 2 2 K * 2 c 2 2 C C 2 2 c c <.* C 2 * * K K * <.* * $ s K * $ s ",
"$ $ <.<.K * * * K <.2 2 K * * K | * 2 2 2 2 2 C * * <.<.* * 2 2 2 c C C 2 2 e d ) c c c K * 2 c * * K K K * 2 2 * * <.<.| * K * K K e e ) ) {.{. . .>.>. . .h h j j $ s s s $ s K K [.[.<.<.<.<.s s <.<.s s * * s s <.<.$ s * * $ s * <.s $ * <.$ s <.* s s * * s s * * s s * * s s * * s $ $ s $ $ s s s $ s s $ $ * * s s $ s s $ B B $ $ $ s s $ s s '.'.$ s $ $ <.<.<.<.R R B B $ $ '.'.s $ $ $ <.<.$ $ '.'.'.'.6 6 5 5 <.<.$ s * <.s $ * * s $ <.* * * s $ _._.2 2 s s * * * * <.<.$ s * <.s $ C C 2 2 * <.[.[.K K <.<.<.<.$ s K K * K f f :.:.C 2 :.:.* K s s * * s s * * * * * * $ s 5 5 B B * * * * * <.$ s s s $ $ $ s $ $ 5 5 5 5 <.* s s * <.$ s * <.$ $ <.<.$ $ '.'.5 5 <.* s s $ s s $ $ s s $ s s $ $ $ s s $ $ s s $ * * s s <.<.s s <.<.'.$ * <.$ s * <.s s * * s s * * s s * * s s * * $ s <.<.$ s * <.s s <.<.<.* * * <.* <.<.s s * * $ s K * * <.* K [.[.:.:.'.'.s s $ s k k ` `  .) )  .>.>. . .{.{.2 2 2 2 * * * * * * K c K * | * * * c c | * 2 2 2 c c c 2 2 e e c c c c 2 2 :.2 s s K * K K [.[.K K c C * * 2 2 * * K K * <.<.* <.<.* * ",
"$ $ <.<.* | * <.* * 2 2 K * * K <.* 2 2 2 2 C 2 * * <.<.* * 2 2 2 c C C 2 2 e d ) c c c * K c c * * K K * K 2 2 * * * * | | K * K K e e ) ) ` {. . .>.>. . .h h j j $ s s s s $ K K [.[.<.<.<.<.s s <.<.$ s <.* $ s K * $ s * <.s $ * <.s s K * s s <.* $ s * * s s * * s s * * s s * * s $ s s $ $ s s s $ $ s s $ * * s s s s $ s B B $ $ $ s $ $ s $ $ $ s s $ $ <.* <.<.R R % B '.$ $ $ $ s $ $ * * $ $ $ $ '.'.6 6 5 5 <.<.$ s * <.s $ * * s s K * * * s $ _._.2 2 s s K * * * <.<.$ s * <.s s C C 2 2 * * [.e K K <.<.<.<.$ s K K * K f f :.:.C 2 :.:.* K s s * * s s * * * * * * s s 5 5 B B * * * * * <.s s $ s s $ $ s '.'.5 5 5 5 <.* s s * <.$ $ * * $ $ <.<.$ $ '.'.5 5 <.* s s $ s s $ $ s '.$ $ s s $ $ s $ $ $ s s $ <.<.$ s <.* s s <.<.s $ * * '.$ <.<.$ s * * s s * * s $ * * s s K * s s * * '.s * * s $ * <.<.<.<.* * * <.<.s $ * * s s * * <.<.* K e [.:.:.$ $ s s $ s k k ` `  .)  . .>.>. . .{.{.2 2 :.2 * * * * * * 2 c K * | * * * c c | * 2 2 2 c c c 2 2 e e c c c c 2 2 :.2 s s * K K K [.[.K K c C * * 2 2 * K K K * <.<.* * * K * ",
"* * $ s K * * * K K * * * K * * c c 2 2 2 C | * * <.* * 2 2 2 2 c 2 2 2 d d c c % % 5 5 % . 5 5 5 5 & 5 5 5 5 5 5 5 B % * * * * e e 2 2 {.{. . .>.>. . .) ) i i j k $ s * * s $ :.:.[.[.2 :.* * * * $ s <.* $ s K * s s K * s $ K * s s * * s s * * $ s * * s s * * s s * * $ s * * s s * * s s s s $ s s $ $ $ s s $ s * * s $ % B J J $ s s $ s s $ $ <.<.'.'.$ s <.<.$ $ Q Q B B $ s $ $ s s <.<.$ s * <.'.'.<.<.B B * * s s * * s s * * s s * * <.<.K K K * e e <.<.* * * * * * s s * * s $ s s * * <.* * * f f <.<.<.* * * <.K <.<.2 2 e [.:.:.<.<.K K <.<.$ s '.s $ s s $ K K s s K K * K f [.* <.<.<.$ s * <.s $ s s s $ K K '.'.$ s K K * * s s <.<.$ s * <.s $ s s '.'.6 6 s $ $ s s $ $ s s '.$ s $ $ * * $ $ R R B B * * $ s * * * <.<.<.$ s K <.$ s s s '.'.$ s s s <.* $ s * * $ s * <.s s * <.$ s K * s s <.<.$ s <.<.* <.<.<.* * * <.<.<.<.<.* <.K K <.<.e [.<.<.<.<.$ s * <.j j h h b b b  .)  . .) ) ) e e C C 2 2 $ s 5 5 5 5 5 5 5 & 5 5 5 5 R R 5 5 % % 5 5 K K C 2 2 2 2 2 c c 2 2 * K <.* * * <.<.C C :.2 2 2 * * * K K * K K * | K K K * ",
"* * s $ K K <.* K K * K K * * * 2 2 C 2 C C K * * * * * 2 2 2 2 c 2 2 2 d d c c % % 5 5 % . 5 5 5 5 & 5 5 5 5 5 5 5 % % * * * * e e 2 2 {.{. . .>.>. . .) ) i i j k s s * * s $ :.:.[.[.:.:.* <.* * $ s <.* $ s K * s s <.<.$ s * * s s K * s $ * * $ s * * s s * * s s * * s s * K s s * * $ s s s $ $ s s $ $ s $ $ s K * s $ % B J J $ s $ $ s s $ $ <.<.$ $ '.s <.<.$ $ Q Q B B $ s $ $ s s <.<.$ s * <.$ $ <.* % B * * s s * * s s * * s s * * <.<.K K K * e e <.<.<.* * * <.* s s * * s $ s s * * * * * * f f <.<.<.* * * <.K <.<.:.2 e [.:.:.<.<.K K <.<.$ s '.s $ s $ $ * K s s K K K * e e <.* * * s s * * s $ $ s $ $ c K '.$ s s * K * * $ s * * $ $ <.<.$ s s s $ $ 6 6 '.'.s s $ s s $ $ s $ $ $ $ * * $ $ R R % B * * $ s * * * <.* * $ s * * $ $ s s $ $ $ s s s <.* s s K * $ s * * $ s * <.$ s K * s s * <.s s * * * <.* * * * <.<.<.<.* * * <.* K * <.e e <.* <.<.$ $ <.<.j j h h b b  . . . .) ) ) ) e e C C C 2 s s 5 5 5 5 5 5 5 & 5 5 5 5 R R 5 5 % % 5 5 K K C 2 2 2 2 2 c c 2 2 * K <.* * * * <.C C :.2 2 2 * * K K K * K K * | K K K * "};
