/* XPM */
static char * 5_xpm[] = {
"512 384 93 2",
"  	c #494A38",
". 	c #4B4132",
"+ 	c #414230",
"@ 	c #4B4238",
"# 	c #42392F",
"$ 	c #363725",
"% 	c #3A3932",
"& 	c #2A2922",
"* 	c #4B4A43",
"= 	c #59524C",
"- 	c #515340",
"; 	c #595A47",
"> 	c #31312A",
", 	c #312914",
"' 	c #3E3526",
") 	c #5E4325",
"! 	c #68522B",
"~ 	c #6B4925",
"{ 	c #755835",
"] 	c #78572B",
"^ 	c #846335",
"/ 	c #967240",
"( 	c #B48D55",
"_ 	c #52391F",
": 	c #393127",
"< 	c #54493A",
"[ 	c #655A4A",
"} 	c #5D5242",
"| 	c #514B45",
"1 	c #31291F",
"2 	c #232116",
"3 	c #564622",
"4 	c #615A54",
"5 	c #43423B",
"6 	c #6C491F",
"7 	c #443015",
"8 	c #1E170C",
"9 	c #171008",
"0 	c #130F00",
"a 	c #181710",
"b 	c #211806",
"c 	c #210F04",
"d 	c #29180F",
"e 	c #2A210D",
"f 	c #110E03",
"g 	c #30210F",
"h 	c #221700",
"i 	c #282118",
"j 	c #36241D",
"k 	c #4B3716",
"l 	c #6C6357",
"m 	c #52524A",
"n 	c #54494A",
"o 	c #1A0F10",
"p 	c #211819",
"q 	c #332929",
"r 	c #423839",
"s 	c #696452",
"t 	c #000100",
"u 	c #0F0907",
"v 	c #5C5152",
"w 	c #2A2121",
"x 	c #3A3131",
"y 	c #383937",
"z 	c #30322F",
"A 	c #171816",
"B 	c #20211F",
"C 	c #0F110D",
"D 	c #070904",
"E 	c #4C4142",
"F 	c #392918",
"G 	c #716C59",
"H 	c #282927",
"I 	c #726B65",
"J 	c #655A5A",
"K 	c #62534A",
"L 	c #594B41",
"M 	c #6A5A51",
"N 	c #381F0C",
"O 	c #726359",
"P 	c #797361",
"Q 	c #433029",
"R 	c #4C3831",
"S 	c #55462F",
"T 	c #453620",
"U 	c #482C1C",
"V 	c #513926",
"W 	c #3A290D",
"X 	c #605238",
"Y 	c #746B53",
"Z 	c #857353",
"` 	c #938361",
" .	c #7D766F",
"    . .     + + @ @ + + @   + + + + # # # + $ $ # + $ $ % % % # @ @ # # # + & & + + * * = = - - = = = = ; ; ; = ; ; @ @ > > & & , , ' ' ) ) ) ) ) ) ) ) ) ) ) ) ) ) ) ) ) ) ) ) ) ) ) ) ) ) ) ) ! ! ) ) ! ! ~ ~ ! ! ~ ~ ! ! ! ! ! ! ! ! ! ! ~ ~ ! ! ~ ~ { { ! ! { { ] ] ] ] ] ] ] ] ] ] ] ] ] ] ] ] ] ] ] ] ] ] ] ] ] ] ] ] ] ] ^ ^ ] ] ^ ^ ] ] ^ ^ ^ ^ ^ ^ ^ ^ / / ^ ^ / / ^ ^ / / / / / / / / / / / / / / / / / / / / / / / / / / / / ( ( / / ( ( ( ( ( ( ( ( ( ( ( ( ( ( ( ( ( ( ( ( ( ( ( ( ( ( ( ( ( ( ( ( ( ( ( ( ( ( ( ( ( ( ( ( ( ( ( ( ( ( ( ( ( ( ( ( ( ( ( ( ( ( ( ( ( ( ( ( ( ( ( ( ( ( / / / / / / / / / / / / / / / / / / / / / / / / / / / / / / / / / / / / ^ ^ / / ^ ^ ^ ^ ^ ^ ^ ^ ^ ^ ^ ^ ^ ^ ^ ^ ] ] ^ ^ ] ] ^ ^ ] ] ] ] ] ] ] ] ] ] ^ ^ ] ] ] ] { { ] ] { { ] ] { { ] ] ] ] ] ] { { { { ! ! { { ! ! { { ! ! { { ! ! ! ! ~ ~ ! ! ~ ~ ! ! ~ ~ ~ ~ ) ) ! ! ) ) ~ ~ ! ! ) ) ! ! ) ) ~ ~ ! ! ) ) ) ) _ _ : : , , $ $ > > < < = = [ [ } } ; ; } } - - < < | | # # & & $ $ > $ + + @ @ # + % % $ : $ $ $ $ # # $ $ + + # # # + # + @ @ + + @     @ ",
"    . .     + + @ @ + + @ @ + + + + + # # + $ $ + # $ $ # % % # @ @ # # + + & & + + * * = = - - = = = = ; ; = = ; ; @ @ > > & & , , ' ' ) ) ) ) ) ) ) ) ) ) ) ) ) ) ) ) ) ) ) ) ) ) ) ) ) ) ) ) ! ! ) ) ! ! ~ ~ ! ! ~ ~ ! ! ! ! ! ! ! ! ! ! ~ ~ ! ! ~ ~ { { ! ! { { ] ] ] ] ] ] ] ] ] ] ] ] ] ] ] ] ] ] ] ] ] ] ] ] ] ] ] ] ] ] ^ ^ ] ] ^ ^ ] ] ^ ^ ^ ^ ^ ^ ^ ^ / / ^ ^ / / ^ ^ / / / / / / / / / / / / / / / / / / / / / / / / / / / / ( ( / / ( ( ( ( ( ( ( ( ( ( ( ( ( ( ( ( ( ( ( ( ( ( ( ( ( ( ( ( ( ( ( ( ( ( ( ( ( ( ( ( ( ( ( ( ( ( ( ( ( ( ( ( ( ( ( ( ( ( ( ( ( ( ( ( ( ( ( ( ( ( ( ( ( ( / / / / / / / / / / / / / / / / / / / / / / / / / / / / / / / / / / / / ^ ^ / / ^ ^ ^ ^ ^ ^ ^ ^ ^ ^ ^ ^ ^ ^ ^ ^ ] ] ^ ^ ] ] ^ ^ ] ] ] ] ] ] ] ] ] ] ^ ^ ] ] ] ] { { ] ] { { ] ] { { ] ] ] ] ] ] { { { { ! ! { { ! ! { { ! ! { { ! ! ! ! ~ ~ ! ! ~ ~ ! ! ~ ~ ~ ~ ) ) ! ! ) ) ~ ~ ! ! ) ) ! ! ) ) ~ ~ ! ! ) ) ) ) _ _ : : , , ' $ $ > < < = = [ [ } } ; ; } } - - < < | | # # & & $ $ > $ + + @ @ + + # % $ : $ $ $ $ # # $ $ + + # # + + + # @ @ + +   @ @ @ ",
". .     . . . @ + + @ @ + + @ @ # # + + % % % # $ $ % % $ $ + + + + # + % % 1 1 # # | | - - } } - - = ; ; = ; ; = =     > > > > , , $ : ) ) ) ) ) ) ) ) ) ) ) ) ) ) ) ) ) ) ) ) ) ) ) ) ) ) ) ) ! ! ) ) ! ! ~ ~ ) ) ~ ~ ) ) ! ! ) ) ! ! ) ) ! ! ! ! { { ! ! { { ] ] { { ] ] ^ ^ ] ] ^ ^ ] ] ^ ^ ] ] ^ ^ ] ] ^ ^ ^ ^ ^ ^ ^ ^ ^ ^ ^ ^ ^ ^ ^ ^ ^ ^ ^ ^ / / ^ ^ / / / / ^ ^ / / / / / / / / / / / / / / / / / / / / / / / / / / / / / / / / / / ( ( / / ( ( ( ( ( ( ( ( ( ( ( ( ( ( ( ( ( ( ( ( ( ( ( ( ( ( ( ( ( ( ( ( ( ( ( ( ( ( ( ( ( ( ( ( ( ( ( ( ( ( ( ( ( ( ( ( ( ( ( ( ( ( ( ( ( ( ( ( ( ( ( ( ( ( ( ( ( ( / / ( ( / / / / / / / / / / / / / / / / / / / / / / / / ^ ^ / / / / / / / / ^ ^ ^ ^ / / ^ ^ / / ^ ^ ^ ^ ^ ^ ^ ^ ] ] ^ ^ ] ] ^ ^ ] ] ^ ^ ] ] ^ ^ { { ] ] { { ] ] { { ] ] { { ] ] { { { { { { { { ! ! { { ! ! { { ! ! { { ~ ~ ! ! ~ ~ ! ! ~ ~ ! ! ~ ~ ! ! ~ ~ ! ! ) ) ~ ~ ) ) ~ ~ ! ! ) ) ~ ~ ) ) ) ) ) ) ' ' 1 1 1 1 $ $   @ [ [ = = = ; ; = = = < < | |   @ + + 2 2 > > > : @ @ # + @ @ : $ $ $ $ : % # # + # + # # + + + #   @ + + @ @ @ @   @ ",
"@ .     . . @ @ + + @ @ + + @ @ # # + + % % # # $ $ % % $ $ + + + + # + % % 1 1 # # | | - - } } - - ; ; = = ; ; = =     > > > : , , $ : ) ) ) ) ) ) ) ) ) ) ) ) ) ) ) ) ) ) ) ) ) ) ) ) ) ) ) ) ! ! ) ) ! ! ~ ~ ) ) ~ ~ ) ) ! ! ) ) ! ! ) ) ! ! ! ! { { ! ! { { ] ] { { ] ] ^ ^ ] ] ^ ^ ] ] ^ ^ ] ] ^ ^ ] ] ^ ^ ^ ^ ^ ^ ^ ^ ^ ^ ^ ^ ^ ^ ^ ^ ^ ^ ^ ^ / / ^ ^ / / / / ^ ^ / / / / / / / / / / / / / / / / / / / / / / / / / / / / / / / / / / ( ( / / ( ( ( ( ( ( ( ( ( ( ( ( ( ( ( ( ( ( ( ( ( ( ( ( ( ( ( ( ( ( ( ( ( ( ( ( ( ( ( ( ( ( ( ( ( ( ( ( ( ( ( ( ( ( ( ( ( ( ( ( ( ( ( ( ( ( ( ( ( ( ( ( ( ( ( ( ( ( / / ( ( / / / / / / / / / / / / / / / / / / / / / / / / ^ ^ / / / / / / / / ^ ^ ^ ^ / / ^ ^ / / ^ ^ ^ ^ ^ ^ ^ ^ ] ] ^ ^ ] ] ^ ^ ] ] ^ ^ ] ] ^ ^ { { ] ] { { ] ] { { ] ] { { ] ] { { { { { { { { ! ! { { ! ! { { ! ! { { ~ ~ ! ! ~ ~ ! ! ~ ~ ! ! ~ ~ ! ! ~ ~ ! ! ) ) ~ ~ ) ) ~ ~ ! ! ) ) ~ ~ ) ) ) ) ) ) ' ' 1 1 1 1 $ $     [ [ = = = ; ; = = = < < | |   @ + + 2 2 > > > : @ @ # + @ @ : : $ $ : $ # + # # # + # # + + + + @ @ + + . @ @ @ @   ",
"    . .     + + @ @ + + @ @ # # # + + # + + $ $ # # $ $ # % # # @ @ + # + + & & + + * * = = - - = = - - = ; = = ; ; @ @ > $ 1 1 $ > ' ' ) ) ) ) ) ) ) ) ) ) ) ) ) ) ) ) ) ) ) ) ) ) ) ) ) ) ) ) ) ) ) ) ) ) ~ ~ ) ) ! ! ) ) ! ! ) ) ) ) ~ ~ ) ) ! ! ~ ~ ! ! ! ! ] ] { { ] ] ] ] ] ] ] ] ] ] ] ] ^ ^ ] ] ^ ^ ] ] ^ ^ ^ ^ ^ ^ ^ ^ ^ ^ ^ ^ / / ^ ^ / / ^ ^ / / ^ ^ / / ^ ^ / / ^ ^ / / / / / / / / / / / / / / / / / / / / / / / / / / / / ( ( / / ( ( / / ( ( ( ( ( ( ( ( ( ( ( ( ( ( ( ( ( ( ( ( ( ( ( ( ( ( ( ( ( ( ( ( ( ( ( ( ( ( ( ( ( ( ( ( ( ( ( ( ( ( ( ( ( ( ( ( ( ( ( ( ( ( ( ( ( ( ( ( ( ( / / ( ( / / ( ( / / / / / / / / / / / / / / / / / / / / / / / / / / / / ^ ^ / / / / ^ ^ / / ^ ^ ^ ^ / / ^ ^ ^ ^ ^ ^ ^ ^ ^ ^ ^ ^ ^ ^ ^ ^ ] ] ^ ^ ] ] ] ] ] ] ] ] { { ] ] ] ] ] ] ] ] ] ] ] ] ] ] ] ] { { ] ] { { ! ! { { ! ! ] ] ! ! { { ! ! { { ! ! ! ! ~ ~ ! ! ~ ~ ! ! ~ ~ ~ ~ ) ) ~ ~ ) ) ) ) ! ! ) ) ~ ~ ) 3 3 3 $ $ , , $ : > > < < = = [ [ } } ; ; } } - - < < | | # # & & $ $ > $ + + @ @ + # + % $ : # # $ $ + # + # + + # #   @ + + @ @ + + @   @ @ ",
"    . .     + + @ @ + + @ @ # # + + # # + # $ : # # $ $ % % # # @ @ # # + + & & + + * * = = - - = = - - ; ; = = ; ; @ @ > $ 1 1 $ $ ' ' ) ) ) ) ) ) ) ) ) ) ) ) ) ) ) ) ) ) ) ) ) ) ) ) ) ) ) ) ) ) ) ) ) ) ~ ~ ) ) ! ! ) ) ! ! ) ) ) ) ~ ~ ) ) ! ! ~ ~ ! ! ! ! ] ] { { ] ] ] ] ] ] ] ] ] ] ] ] ^ ^ ] ] ^ ^ ] ] ^ ^ ^ ^ ^ ^ ^ ^ ^ ^ ^ ^ / / ^ ^ / / ^ ^ / / ^ ^ / / ^ ^ / / ^ ^ / / / / / / / / / / / / / / / / / / / / / / / / / / / / ( ( / / ( ( / / ( ( ( ( ( ( ( ( ( ( ( ( ( ( ( ( ( ( ( ( ( ( ( ( ( ( ( ( ( ( ( ( ( ( ( ( ( ( ( ( ( ( ( ( ( ( ( ( ( ( ( ( ( ( ( ( ( ( ( ( ( ( ( ( ( ( ( ( ( ( / / ( ( / / ( ( / / / / / / / / / / / / / / / / / / / / / / / / / / / / ^ ^ / / / / ^ ^ / / ^ ^ ^ ^ / / ^ ^ ^ ^ ^ ^ ^ ^ ^ ^ ^ ^ ^ ^ ^ ^ ] ] ^ ^ ] ] ] ] ] ] ] ] { { ] ] ] ] ] ] ] ] ] ] ] ] ] ] ] ] { { ] ] { { ! ! { { ! ! ] ] ! ! { { ! ! { { ! ! ! ! ~ ~ ! ! ~ ~ ! ! ~ ~ ~ ~ ) ) ~ ~ ) ) ) ) ! ! ) ) ~ ~ ) 3 3 3 $ $ , , ' $ > > < < = = [ [ } } ; ; } } - - < < | | # # & & $ $ $ ' + + @ @ + + % % $ : # # $ $ + # # # + + # # @ @ + + @ @ + +     @ @ ",
"@ @     . . . @ + + . . + + + + # # + + % % # # $ $ % % $ $ + + + + + # + % 1 1 # # | | - - } } - - ; ; ; = [ [ = ;     > > $ $ , , $ : ) ) ) ) ) ) ) ) ) ) ) ) ) ) ) ) ) ) ) ) ) ) ) ) ) ) ) ) ) ) ~ ~ ) ) ! ! ) ) ! ! ~ ~ ! ! ~ ~ ! ! ~ ~ ! ! ~ ~ ! ! ! ! { { ] ] { { ] ] ] ] { { ] ] { { ] ] ] ] { { ] ] ^ ^ ] ] ^ ^ ^ ^ ^ ^ ^ ^ ^ ^ ^ ^ / / ^ ^ / / ^ ^ / / ^ ^ / / ^ ^ / / / / / / / / / / / / / / / / / / / / / / / / / / / / / / / / ( ( / / ( ( ( ( ( ( ( ( ( ( ( ( ( ( ( ( ( ( ( ( ( ( ( ( ( ( ( ( ( ( ( ( ( ( ( ( ( ( ( ( ( ( ( ( ( ( ( ( ( ( ( ( ( ( ( ( ( ( ( ( ( ( ( ( ( ( ( ( ( ( / / ( ( / / / / / / / / / / / / / / / / / / / / / / / / / / / / ^ ^ / / / / ^ ^ / / / / ^ ^ / / ^ ^ / / ^ ^ / / ^ ^ ^ ^ ^ ^ ^ ^ ^ ^ ^ ^ ] ] ^ ^ ] ] ] ] ] ] ] ] ] ] ] ] ] ] ] ] ] ] { { ] ] { { ] ] { { ! ! { { ! ! ] ] ! ! ! ! ~ ~ ] ] ~ ~ ! ! ~ ~ ! ! ~ ~ ! ! ) ) ! ! ) ) ~ ~ ! ! ~ ~ ! ! ~ ~ ~ ~ ) ) ) ) ! ! ) ) ) ) : : ' ' 1 1 $ $     [ [ = = ; ; = = = = < < | |   @ + + 2 2 > > > : @ @ + # @ @ : : $ $ $ $ # # # % # + # # + + + + @ @ + + @ @ @ @     ",
"@ @     @ . . @ + +   @ + + + + # # + + % % % # $ $ % % $ $ + + + + + + # % 1 1 # # | | | - } } - - ; ; = = [ [ ; ;     > > > $ , , ' ' ) ) ) ) ) ) ) ) ) ) ) ) ) ) ) ) ) ) ) ) ) ) ) ) ) ) ) ) ) ) ~ ~ ) ) ! ! ) ) ! ! ~ ~ ! ! ~ ~ ! ! ~ ~ ! ! ~ ~ ! ! ! ! { { ] ] { { ] ] ] ] { { ] ] { { ] ] ] ] { { ] ] ^ ^ ] ] ^ ^ ^ ^ ^ ^ ^ ^ ^ ^ ^ ^ / / ^ ^ / / ^ ^ / / ^ ^ / / ^ ^ / / / / / / / / / / / / / / / / / / / / / / / / / / / / / / / / ( ( / / ( ( ( ( ( ( ( ( ( ( ( ( ( ( ( ( ( ( ( ( ( ( ( ( ( ( ( ( ( ( ( ( ( ( ( ( ( ( ( ( ( ( ( ( ( ( ( ( ( ( ( ( ( ( ( ( ( ( ( ( ( ( ( ( ( ( ( ( ( ( / / ( ( / / / / / / / / / / / / / / / / / / / / / / / / / / / / ^ ^ / / / / ^ ^ / / / / ^ ^ / / ^ ^ / / ^ ^ / / ^ ^ ^ ^ ^ ^ ^ ^ ^ ^ ^ ^ ] ] ^ ^ ] ] ] ] ] ] ] ] ] ] ] ] ] ] ] ] ] ] { { ] ] { { ] ] { { ! ! { { ! ! ] ] ! ! ! ! ~ ~ ] ] ~ ~ ! ! ~ ~ ! ! ~ ~ ! ! ) ) ! ! ) ) ~ ~ ! ! ~ ~ ! ! ~ ~ ~ ~ ) ) ) ) ! ! ) ) ) ) : : ' ' 1 1 $ $   @ [ [ ; = = ; = = = ; < < | |     + + 2 2 > > > : @ @ # + @ @ : : $ $ $ $ # # + # + % # # + + + + @ @ + + @ @ @ @     ",
"    @ @ @   . . . @ + + # + # # + + # # + + $ $ % # $ $ # % # # @ @ # + + + & & + + * * } } - | = = = ; [ [ = ; 4 4 @ @ : : 1 1 $ $ > ' ) ) ) ) ) ) ) ) ! ! ) ) ! ! ) ) ! ! ) ) ! ! ) ) ! ! ~ ~ ! ! ~ ~ ! ! ! ! { { ! ! { { ! ! { { ! ! { { ! ! { { ! ! { { ! ! { { ] ] { { ] ] { { ] ] { { ] ] ] ] { { ] ] ] ] ] ] ] ] ^ ^ ] ] ^ ^ ^ ^ ^ ^ ^ ^ / / ^ ^ / / ^ ^ / / / / / / / / / / / / / / / / / / / / / / / / / / / / / / / / / / / / ( ( / / ( ( / / ( ( ( ( ( ( ( ( ( ( ( ( ( ( ( ( ( ( ( ( ( ( ( ( ( ( ( ( ( ( ( ( ( ( ( ( ( ( ( ( ( ( ( ( ( ( ( ( ( ( ( ( ( ( ( ( ( ( ( ( ( ( ( ( ( ( ( ( ( ( ( ( ( ( ( ( ( ( / / / / / / / / / / / / / / / / / / / / / / / / / / / / / / / / / / / / ^ ^ / / ^ ^ ^ ^ ^ ^ ^ ^ ^ ^ ^ ^ ^ ^ ^ ^ ^ ^ ^ ^ ] ] ^ ^ ] ] ^ ^ ] ] ^ ^ ] ] ] ] ] ] ] ] ] ] ] ] ] ] ] ] { { ] ] { { { { ] ] { { ] ] { { ] ] { { ! ! { { ! ! ] ] ! ! ! ! ~ ~ ! ! ~ ~ ! ! ~ ~ ! ! ) ) ) ) ! ! ) ) ! ! ) ) ) ) : ' 1 1 : : ' ' | | ; ; [ [ } } ; ; | - - - < < | | # + & & $ $ $ ' + + @ @ + + % % : $ # # $ $ # + # # + + + + @ @ + + @ @ + + @     @ ",
"    @ @   @ . . @ @ + + + + # # + + # # + # $ $ # # $ $ # % # # @ @ # # + + & & + + * * } } - | = = = = [ [ = ; 4 4 @ @ : : 1 1 $ $ $ ' ) ) ) ) ) ) ) ) ! ! ) ) ! ! ) ) ! ! ) ) ! ! ) ) ! ! ~ ~ ! ! ~ ~ ! ! ! ! { { ! ! { { ! ! { { ! ! { { ! ! { { ! ! { { ! ! { { ] ] { { ] ] { { ] ] { { ] ] ] ] { { ] ] ] ] ] ] ] ] ^ ^ ] ] ^ ^ ^ ^ ^ ^ ^ ^ / / ^ ^ / / ^ ^ / / / / / / / / / / / / / / / / / / / / / / / / / / / / / / / / / / / / ( ( / / ( ( / / ( ( ( ( ( ( ( ( ( ( ( ( ( ( ( ( ( ( ( ( ( ( ( ( ( ( ( ( ( ( ( ( ( ( ( ( ( ( ( ( ( ( ( ( ( ( ( ( ( ( ( ( ( ( ( ( ( ( ( ( ( ( ( ( ( ( ( ( ( ( ( ( ( ( ( ( ( ( / / / / / / / / / / / / / / / / / / / / / / / / / / / / / / / / / / / / ^ ^ / / ^ ^ ^ ^ ^ ^ ^ ^ ^ ^ ^ ^ ^ ^ ^ ^ ^ ^ ^ ^ ] ] ^ ^ ] ] ^ ^ ] ] ^ ^ ] ] ] ] ] ] ] ] ] ] ] ] ] ] ] ] { { ] ] { { { { ] ] { { ] ] { { ] ] { { ! ! { { ! ! ] ] ! ! ! ! ~ ~ ! ! ~ ~ ! ! ~ ~ ! ! ) ) ) ) ! ! ) ) ! ! ) ) ) ) : ' 1 1 $ : : ' | | ; ; [ [ } } ; ; | - - - < < | | # + & & $ $ $ $ # + @ @ # + % % : $ # # $ $ + # % # + + + + @ @ # + @ @ + +       @ ",
"@ @     . .     + + @ @ # # + + # # + + # % # # $ $ % % $ $ + + + + # + % % 1 1 # % | | - - } } - | ; ; = = [ [ = ;     > > > > , , $ : ) ) ) ) ) ) ) ) ) ) ! ! ) ) ! ! ~ ~ ! ! ~ ~ ! ! ~ ~ ! ! ~ ~ ! ! ~ ~ ! ! ! ! { { ! ! { { ! ! { { ! ! { { ! ! { { ! ! { { ] ] { { ] ] { { ] ] ] ] { { ] ] ] ] ^ ^ ] ] ^ ^ ] ] ^ ^ ^ ^ ^ ^ ^ ^ / / ^ ^ ^ ^ ^ ^ ^ ^ / / / / / / / / / / / / / / / / / / / / / / / / / / / / / / / / / / / / / / ( ( / / ( ( ( ( ( ( ( ( ( ( ( ( ( ( ( ( ( ( ( ( ( ( ( ( ( ( ( ( ( ( ( ( ( ( ( ( ( ( ( ( ( ( ( ( ( ( ( ( ( ( ( ( ( ( ( ( ( ( ( ( ( ( ( ( ( ( ( ( ( ( ( ( ( ( ( ( ( ( ( ( ( ( / / / / / / / / / / / / / / / / / / / / / / / / / / / / / / / / / / / / ^ ^ / / ^ ^ / / ^ ^ ^ ^ ^ ^ ^ ^ ^ ^ ^ ^ ^ ^ ^ ^ ^ ^ ^ ^ ] ] ^ ^ ] ] ^ ^ ] ] ^ ^ ] ] ^ ^ ] ] ] ] ] ] ] ] { { ] ] { { ] ] { { { { ] ] { { ] ] { { ] ] { { ] ] { { ! ! { { ! ! ! ! ~ ~ ! ! ~ ~ ! ! ~ ~ ! ! ! ! ) ) ! ! ) ) ) 3 3 ) : $ $ ' $ $ ' $   @ 4 4 = = = ; } } ; = - | | -   @ @ @ 2 2 > > : : @ @ # + @ @ : $ # % $ $ # # # % # + # # @ @ + + @ . + + @ @ @ @ @   ",
"  @ @   . .     + + @   + # # + + # % + % # # # $ $ % % $ $ + + + + + # + % 1 1 % % | | - - } } - - = ; ; = [ [ = ;     > > > > , , ' ' ) ) ) ) ) ) ) ) ) ) ! ! ) ) ! ! ~ ~ ! ! ~ ~ ! ! ~ ~ ! ! ~ ~ ! ! ~ ~ ! ! ! ! { { ! ! { { ! ! { { ! ! { { ! ! { { ! ! { { ] ] { { ] ] { { ] ] ] ] { { ] ] ] ] ^ ^ ] ] ^ ^ ] ] ^ ^ ^ ^ ^ ^ ^ ^ / / ^ ^ ^ ^ ^ ^ ^ ^ / / / / / / / / / / / / / / / / / / / / / / / / / / / / / / / / / / / / / / ( ( / / ( ( ( ( ( ( ( ( ( ( ( ( ( ( ( ( ( ( ( ( ( ( ( ( ( ( ( ( ( ( ( ( ( ( ( ( ( ( ( ( ( ( ( ( ( ( ( ( ( ( ( ( ( ( ( ( ( ( ( ( ( ( ( ( ( ( ( ( ( ( ( ( ( ( ( ( ( ( ( ( ( ( / / / / / / / / / / / / / / / / / / / / / / / / / / / / / / / / / / / / ^ ^ / / ^ ^ / / ^ ^ ^ ^ ^ ^ ^ ^ ^ ^ ^ ^ ^ ^ ^ ^ ^ ^ ^ ^ ] ] ^ ^ ] ] ^ ^ ] ] ^ ^ ] ] ^ ^ ] ] ] ] ] ] ] ] { { ] ] { { ] ] { { { { ] ] { { ] ] { { ] ] { { ] ] { { ! ! { { ! ! ! ! ~ ~ ! ! ~ ~ ! ! ~ ~ ! ! ! ! ) ) ! ! ) ) 3 3 ) ) : $ ' ' $ $ ' $     4 4 = = = ; = } ; = - | - -   @ @ @ 2 2 > > : : @ @ + #   @ $ : % % $ $ # # + # + % # # @ @ + + @ @ + + @ @   @     ",
"    @ @     @ @ . @ + + + + % # # + # # # + $ $ # # $ $ # % # # @ @ + # + + & & + # @   = = - - ; = - - = ; ; = 4 4 @   $ $ $ $ > : : : ) ) ) ) ) ) ! ! ) ) ) ) ! ! ~ ~ ! ! ~ ~ ! ! ~ ~ ! ! ~ ~ ] ] ! ! ] ] ! ! { { ! ! { { ! ! { { { { { { { { { { ! ! { { ] ] { { ] ] { { ] ] ] ] { { ] ] ] ] ^ ^ ] ] ^ ^ ] ] ^ ^ ] ] ^ ^ ^ ^ ^ ^ ^ ^ ^ ^ ^ ^ ^ ^ ^ ^ ^ ^ ^ ^ / / ^ ^ / / / / / / / / / / / / / / / / / / / / / / / / / / / / / / / / ( ( ( ( ( ( ( ( ( ( ( ( ( ( ( ( ( ( ( ( ( ( ( ( ( ( ( ( ( ( ( ( ( ( ( ( ( ( ( ( ( ( ( ( ( ( ( ( ( ( ( ( ( ( ( ( ( ( ( ( ( ( ( ( ( ( ( ( ( ( ( ( ( ( ( ( ( ( ( ( ( ( / / ( ( / / / / / / / / / / / / / / / / / / / / / / / / / / / / / / / / / / / / ^ ^ ^ ^ / / ^ ^ ^ ^ / / ^ ^ / / ^ ^ ^ ^ ^ ^ ^ ^ ^ ^ ^ ^ ] ] ^ ^ ] ] ^ ^ ] ] ^ ^ ] ] ] ] ] ] ] ] ] ] ] ] ] ] { { ] ] { { ] ] { { ] ] { { ] ] { { ! ! { { ! ! ] ] ! ! ! ! ~ ~ ! ! ~ ~ ! ! ~ ~ ! ! ) ) ) ) ! ! ) ) ! ! ) ) ) ) : ' 1 1 : : ' ' | | = ; [ [ } } ; ; | - - - < < | | # + & & $ $ > $ + + @ @ 5 5 % % $ $ # # $ $ + # # # # + + + @ @ + + @ @ + + @     @ ",
"    @ @     @ . . @ + + + + # # + + # # + + $ $ # # $ $ # % # # @ @ # # + + & & + # @   = = - - ; = - - = ; = = 4 4 @   $ $ $ $ > : : : ) ) ) ) ) ) ! ! ) ) ) ) ! ! ~ ~ ! ! ~ ~ ! ! ~ ~ ! ! ~ ~ ] ] ! ! ] ] ! ! { { ! ! { { ! ! { { { { { { { { { { ! ! { { ] ] { { ] ] { { ] ] ] ] { { ] ] ] ] ^ ^ ] ] ^ ^ ] ] ^ ^ ] ] ^ ^ ^ ^ ^ ^ ^ ^ ^ ^ ^ ^ ^ ^ ^ ^ ^ ^ ^ ^ / / ^ ^ / / / / / / / / / / / / / / / / / / / / / / / / / / / / / / / / ( ( ( ( ( ( ( ( ( ( ( ( ( ( ( ( ( ( ( ( ( ( ( ( ( ( ( ( ( ( ( ( ( ( ( ( ( ( ( ( ( ( ( ( ( ( ( ( ( ( ( ( ( ( ( ( ( ( ( ( ( ( ( ( ( ( ( ( ( ( ( ( ( ( ( ( ( ( ( ( ( ( / / ( ( / / / / / / / / / / / / / / / / / / / / / / / / / / / / / / / / / / / / ^ ^ ^ ^ / / ^ ^ ^ ^ / / ^ ^ / / ^ ^ ^ ^ ^ ^ ^ ^ ^ ^ ^ ^ ] ] ^ ^ ] ] ^ ^ ] ] ^ ^ ] ] ] ] ] ] ] ] ] ] ] ] ] ] { { ] ] { { ] ] { { ] ] { { ] ] { { ! ! { { ! ! ] ] ! ! ! ! ~ ~ ! ! ~ ~ ! ! ~ ~ ! ! ) ) ) ) ! ! ) ) ! ! ) ) 3 ) : ' 1 1 $ : : : | | ; ; [ [ } } ; ; - - - - < < | | + + & & $ $ > $ + + @ @ 5 5 % % $ $ # % $ $ + + # % + + + + @ @ + + @ @ + +     @ @ ",
"  @ @   @ @     + + @   # # # + + # % + % # # # $ $ % # $ $ + + + + # + % % 1 1 % # | | | - | - | | = ; = = [ [ ; ;     > > > > , , $ : ) ) ) ) ~ ~ ) ) ) ) ) ) ! ! ) ) ~ ~ ) 3 ! ! ) ) ! ! ~ ~ ~ 6 ! ! 6 6 ! ! ~ ~ ! ! ~ ~ ! ! ~ ~ ! ! ~ ~ { { ! ! { { ] ] { { ] ] { { ] ] { { ] ] { { ] ] ] ] ] ] ] ] ] ] ] ] ] ] ^ ^ ] ] ^ ^ ] ] ^ ^ ^ ^ ^ ^ ^ ^ ^ ^ ^ ^ ^ ^ ^ ^ / / ^ ^ ^ ^ / / / / / / / / / / / / / / / / / / / / / / / / / / / / / / / / / / ( ( ( ( ( ( ( ( ( ( ( ( ( ( ( ( ( ( ( ( ( ( ( ( ( ( ( ( ( ( ( ( ( ( ( ( ( ( ( ( ( ( ( ( ( ( ( ( ( ( ( ( ( ( ( ( ( ( ( ( ( ( ( ( ( ( ( ( ( ( ( ( ( ( ( ( ( ( / / / / / / / / / / / / / / / / / / / / / / / / / / / / / / / / ^ ^ / / ^ ^ ^ ^ ^ ^ ^ ^ ^ ^ ^ ^ ^ ^ ^ ^ ^ ^ ^ ^ ^ ^ ^ ^ ] ] ^ ^ ] ] ] ] ] ] ] ] { { ] ] { { ] ] ] ] { { ] ] ] ] ] ] ] ] ! ! ] ] ! ! ] ] ! ! ] ] ~ ~ ] ] ~ ~ ! ! ~ ~ ! ! 6 6 ! ! ) ) ~ ~ ! ! ) ) ! ! ~ ~ ~ ~ ! ! ! ! ) ) ! ! ) ) ) 3 3 ) $ $ ' $ $ $ ' $     4 4 = = = = } } ; = | | - -   @ @ @ 2 2 > > > : @ @ @ 5 5 @ : $ # % $ $ # # # # + # # # @ @ + + @ @ + + @ @ @ @ @   ",
"@ @     @ @     + + @ @ # # + + # % + + % # # # $ $ # # $ $ + + + + + # + % 1 1 # # | | | - | - | | ; ; = = [ [ ; ;     > > > > , , $ : ) ) ) ) ~ ~ ) ) ) ) ) ) ! ! ) ) ~ ~ ) ) ! ! ) ) ! ! ~ ~ 6 6 ! ! 6 6 ! ! ~ ~ ! ! ~ ~ ! ! ~ ~ ! ! ~ ~ { { ! ! { { ] ] { { ] ] { { ] ] { { ] ] { { ] ] ] ] ] ] ] ] ] ] ] ] ] ] ^ ^ ] ] ^ ^ ] ] ^ ^ ^ ^ ^ ^ ^ ^ ^ ^ ^ ^ ^ ^ ^ ^ / / ^ ^ ^ ^ / / / / / / / / / / / / / / / / / / / / / / / / / / / / / / / / / / ( ( ( ( ( ( ( ( ( ( ( ( ( ( ( ( ( ( ( ( ( ( ( ( ( ( ( ( ( ( ( ( ( ( ( ( ( ( ( ( ( ( ( ( ( ( ( ( ( ( ( ( ( ( ( ( ( ( ( ( ( ( ( ( ( ( ( ( ( ( ( ( ( ( ( ( ( ( / / / / / / / / / / / / / / / / / / / / / / / / / / / / / / / / ^ ^ / / ^ ^ ^ ^ ^ ^ ^ ^ ^ ^ ^ ^ ^ ^ ^ ^ ^ ^ ^ ^ ^ ^ ^ ^ ] ] ^ ^ ] ] ] ] ] ] ] ] { { ] ] { { ] ] ] ] { { ] ] ] ] ] ] ] ] ! ! ] ] ! ! ] ] ! ! ] ] ~ ~ ] ] ~ ~ ! ! ~ ~ ! ! 6 6 ! ! ) ) ~ ~ ! ! ) ) ! ! ~ ~ ~ ~ ! ! ! ! ) ) ! ! ) ) ) 3 ) ) : $ $ ' $ $ $ $     4 4 = = = = } } ; = | | | -     @ @ 2 2 > > : : @ @ 5 5 @ @ : $ # % $ $ # # # + % + # # @ @ + + @ @ + + @ @ @ @ @   ",
"< < @ @ @   . . @ @ + + @ @ # # # + % # + # $ $ + # $ $ # % % # @ @ + # + + & & + +   @ } } - | - - - - ; ; ; = 4 4 @   $ $ $ $ 1 1 $ : ) ) ) ) ) ) ) ) ) ) 7 7 8 8 9 9 9 9 9 0 a a 9 9 b b 9 9 b b 9 9 c c b c b b c c b b 8 b 8 8 c c 8 8 b b b 8 b b 8 b b b 8 8 b b 8 8 b b 8 8 b b 8 8 b b d d b b d d b b d d b b d d b 8 d d b b d d b b d d b b d d b b d e 8 8 e e 8 8 e e 8 b e e 8 8 d d e d e e d d e e d d d e d d e e b b d d b b d d b b d d b b d e e d e e d e e e d d d e e d e e e d e e d d d e e d e e d d e e d d e e d d e e d d e e d d e e d d e e d e e e d d d d b 8 d d d d d d d d d d b b d d b b d d b b d d b b d d b b d d b b d d b 8 d d b b d d b b d d b b d d b b d d b b d d b b d d 8 8 d d b b d d b b d d 8 8 d d 8 8 d d 8 8 d d 8 8 8 8 b b 8 8 b c 8 8 b c 8 8 9 9 8 8 9 9 c c 9 9 b b 9 9 b 8 c c 8 8 9 9 9 9 9 9 0 0 0 9 0 0 9 9 0 0 0 0 0 9 b 8 3 3 ) ) ) ) ) 3 3 ) ) ) $ $ , , : : : :     = = ; ; } } = ; | | - - < < | | # + & 1 : > # # @ @ @ @ + + % % $ $ # # $ $ % + # # @ @ + +   @ @ @     @ @ @   @ @ ",
"< < @ @     . . @ @ + + @ @ # # # + % # + # $ $ # # $ $ # % # # @ @ # # + + & & + + @   } } - | - - - - ; ; = = 4 4   @ $ $ $ $ 1 1 : ' ) ) ) ) ) ) ) ) ) ) 7 7 8 8 9 9 9 9 9 0 a a 9 9 b b 9 9 b b 9 9 c c c c b b c c b 8 b b 8 8 c c 8 8 b b 8 b b b 8 8 b b 8 8 b b 8 8 b b 8 8 b 8 8 8 b 8 d d b b d d b b d d b b d d b 8 d d b b d d b b d d c b d d c b e e 8 8 e e b b e e 8 b e e 8 8 d d d e e e d d e e d d e d d d e e b b d d b b d d b b d d b b e e e d e e d d e e d d e e d e e d d e e d d e e e d e e e d d e e d d e d d d e e d d e e d d e e d d e e d e e e d e d d b b d d d d d d d d d d b b d d b b d d b b d d b b d d b b d d b b d d b b d d b b d d b b d d b b d d b b d d b b d d b b d d 8 8 d d b b d d b b d d 8 8 d d 8 8 d d 8 8 d d 8 8 8 8 b c 8 8 c c 8 8 c c 8 8 9 9 8 8 9 9 c c 9 9 8 b 9 9 b 8 c c 8 8 9 9 9 9 9 9 0 0 9 9 0 0 9 9 0 0 0 0 9 9 b b 3 3 3 ) ) ) 3 3 ) ) ) 3 $ $ , , : : : :     = = ; ; } } = = | | - - < < | | + + & 1 : > # # @ @ @ @ + + % % $ $ # # $ $ % + # # @ @ + +     @ @     @   @   @ @ ",
"        @ @     + +   @ + # + + # # # + + % # # $ $ + # $ $ 5 5 + + + + # % 1 1 % # | | - | - | | | = = } } [ [ ; = | | > > > > , , $ : ) 3 3 ) ) ) 3 ) ) 3 _ _ e e b b 0 0 9 9 f f f 9 9 9 9 0 9 9 b b 9 9 b b c c b b c b b c c c 8 8 b b 8 8 b b 8 b b 8 8 b b b 8 8 b b 8 8 b b 8 b b b 8 b b b d d b b d d b b d d b b d d b b d d c b d d b b d d b b d d b b d e b b e e b b d e b b e e b b d d 8 8 d d d d e e d e e e d d d d b b d d b b d d b b d d d d d e e d e e e d d e e d e e d d e e d e e d d e e d d e e d d d d e e d e e e d d e e d e e d d d d b b d d b 8 d d b b d d d d d d d d d d b b d d b b d d b b d d b b d d b b d d b b d d b 8 d d b 8 d d b b d d b 8 d d b b d d b b d d b b d d 8 8 d d b b d d b b e d 8 8 d d 8 8 d d 8 8 8 8 b c 8 8 b 8 8 8 b b 8 8 b 8 8 b 0 9 8 b 9 9 b 8 c c 8 8 9 9 b 8 9 9 b 8 9 9 8 b 9 9 9 9 9 9 9 9 0 0 9 9 9 9 9 9 c c , , _ _ ) ) ) ) ) ) ) 3 3 ) ' ' $ ' ' $ % % @ @ [ [ } } ; ; - - } } | | - -     @ @ & & $ : : $   @ 5 5   @ : : # % $ $ + # + # + + + + @ @ @ @ @     @     @ @ @   ",
"        @ @     + +   @ + # + + # # + + % # # # $ $ + # $ $ 5 5 + + + + # % 1 1 # # | | | | - | - | = = } } [ [ ; = | | > > > > , , ' ' ) 3 3 ) ) ) 3 ) 3 3 _ _ e e c b 0 0 9 9 f f 9 9 9 9 9 0 9 9 b 8 9 9 b b c c b b b c b b c c 8 8 b b 8 8 b 8 8 8 b b b 8 8 b 8 8 b b 8 8 b b 8 8 b b b 8 b b d d b b d d b b d d b b d d b b d d b b d d c b d d b b d d b b e e b b d e b b e e b b e e b b d d 8 8 d d d d e e d d d e d d d d b b d d b b d d b b d d d d e e e d e e d d e e d d e e d d d e d d e e e d e e d d e e d d e e d d d e d d e e d d e e d e d d b b d d b b d d b b d d d d d d d d d d b b d d b b d d b b d d b b d d b b d d b b d d b b d d b b d d b b d d b b d d b b d d b b d d b b d d 8 8 d d b b d d b b e d 8 8 d d 8 8 d d 8 8 8 8 8 b c 8 8 8 8 8 8 b 8 8 b 8 8 8 0 9 8 8 9 9 8 8 c c 8 8 9 9 8 b 9 9 b b 9 9 8 b 9 9 9 9 9 9 0 9 9 0 0 9 9 9 9 9 b c , , _ _ ) ) ) ) ) ) ) 3 3 ) ' ' ' $ ' $ % # @ @ [ [ } } ; ; - - } } - | | -     @ @ & & $ : $ $     5 5 . . : : # % : $ + # # # # + # + @ @ @ @ @   @ @     @ @     ",
"< < @ @ @     . @ @ + + @ @ + # # + # # + # $ $ # # $ $ # % + + @ @ + # # + & & + +     } } - | - - - - ; ; ; = 4 4 @   $ $ $ $ : : ' ' ) ) ) ) ) ) 3 3 3 ) 7 7 , , b b b 8 9 9 0 9 f f f 9 0 0 0 9 9 9 1 1 0 0 8 8 9 9 b b 9 9 8 8 c c 8 8 b c 8 8 c c 8 8 b b 8 b b b 8 8 b 8 8 8 b 8 b 8 b 8 8 8 b 8 b b 8 8 d d b b d d b b d d 8 8 d d b b d d 8 8 d d b b d d b b d d b b d d b b d d b b d d 8 8 d d e d e e e d d e d d e d b b d d b b d d b b d d b b e e b b d e b b d e b b d e b b d e b b d e b b d e b b e e b b e d d d e e d e e e d d e e d e e d d e e e d d d d b b d d b b d d b b d d b b d e b b d d b b d d b b d d b b d d b b d d b b d d b b d d b 8 d d b b d d b b d d b b d d b b d d b b d d 8 8 e d b b d d b b e d 8 8 d d 8 8 d d b b 8 8 8 b 8 8 b 8 8 8 c c 8 8 c c 8 8 9 9 b 8 9 9 c c 9 9 b b 9 9 c c 9 9 9 9 @ @ 1 1 9 9 9 0 0 0 f f 9 0 9 9 9 9 g g e e _ _ ) ) ) ) ) ) ) ) ) ) ' ' , , $ > > $ < < = ; ; ; } } ; = | - - - < < | | # + 1 1 $ > # # @ @     + + % % $ $ # # + # + + # # @ @ + +   @ @ @   @ @ @     @   ",
"< < @ @     . . @ @ + + @ @ # # # + # # + # $ $ # # $ $ # % + + @ @ + # # + & & + + @   } } - | - - - - ; ; ; = 4 4 @   $ $ $ $ ' ' $ ' ) ) ) ) ) ) ) 3 ) ) 7 7 , , b b b b 9 9 0 9 f f 9 9 f 0 0 9 9 9 1 1 0 0 b b 9 9 b b 9 9 8 8 c c 8 8 b c 8 8 h c b 8 b b 8 8 b b 8 8 b b 8 8 b b 8 8 b b 8 8 b b b b 8 8 d d b b d d b b d d 8 8 d d b b d d b 8 d d b b d d b b d d b b d d b b d d b b d d 8 8 d d d e e e d d e e d d e e b b d d b b d d b b d d b b e d b b d e b b e e b b e e b b d e b b e e b b d e b b e e b b d e d d e e d e e e d d e e d e e d d e e e d d d d b b d d b b d d b b d d b b d d b b d d b b d d b b d d b b d d b b d d b b d d b b d d b b d d b b d d b b d d b b d d b b d d b b d d 8 8 d d b b d d b 8 d d 8 8 d d 8 8 d d b b 8 8 b b b 8 8 b b 8 c c 8 8 c c 8 8 9 9 8 b 9 9 b c 9 9 b 8 9 9 c c 9 9 9 9 @ @ 1 1 9 9 9 0 0 0 9 f 0 0 9 9 9 9 g g e e _ _ ) ) ) ) ) ) ) ) ) ) ' ' , , > > $ : < < = ; ; ; } } ; = | - - - < < | | # + & 1 > > # # @ @     + + % % : $ # # # % + + + #   @ + +     @ @     @ @ @   @ @ ",
"        @ @     + + . . + + + + # + # + $ $ # # $ $ % # $ $ 5 5 + + + + % % 1 1 # # | | | | - | - | = = } } [ [ ; ; | | > > > > , , $ $ ) ) ) ) ) ) ) ) ) ) _ _ e e e e 8 8 9 9 9 9 0 9 9 9 9 0 9 9 : : = ; | | i i 8 8 9 9 b b 9 9 8 8 c c 8 8 c c 8 8 c c 8 8 b b 8 8 b b 8 8 b 8 8 8 b 8 d d 8 b d d b b d d b b d d b 8 d d b b d d b b d d b b d d b b d d b b d d b b d d b b d d b b d d b b d d d e e e d d e e d d e e d d e e d e e e d d e e d e e d b b d e b b e e b b e e b b d e b b d e b b e e b b e e b b e e d d e d d d e e d d d e e d e e d d e e d e e d d e e d b 8 d d b b d e b b d d b b d d b b d d b b d d b b d d b b d d b b d d b 8 d d b b d d b b d d b b d d b b d d b b d d b b d d 8 8 d d b b d d b b d d 8 8 d d b 8 d d 8 8 8 8 b c 8 8 b b 8 8 b 8 8 b b 8 8 b 0 9 8 b 9 9 b c 9 9 9 9 9 9 c c j j @ @ | | = ; : : 8 8 9 9 0 9 9 9 0 f 9 9 e e e e , , 7 7 ) ) ) 3 3 3 3 ) ) ) $ ' 1 1 : $ % # @ @ [ [ } } ; ; - - } } | | | -     @ @ & & $ : $ $     @ @ . . $ : # # $ $ + # # # + + + + @ @ @ @   @ @ @   @ @ @ @   ",
"        @ @     + + . . + + + + # + # + $ $ # # $ $ # # $ $ 5 5 + + + # + % 1 1 # # | | | | - | - | = = } } [ [ ; ; | | > > > > , , ' $ ) ) ) ) ) ) ) ) ) ) _ _ e e e e 8 8 9 9 9 9 0 9 9 9 9 9 9 0 : : = = | | i i 8 8 9 9 b b 9 9 8 8 c c 8 8 c c 8 8 c c 8 8 b b 8 8 b b 8 8 b b 8 8 b b d d b b d d b b d d b b d d b 8 d d b b d d b b d d b b d d b b d d b b d d b b d d b b d e b b d d b b d d d e e e d d e e d d e e d d e e e d e e d d e e d d e e b b d e b b e e b b e e b b e e b b d e b b e e b b e e b b e e d d e e d e e e d d e e d e e e d d e d e d d e e d e e b 8 d d b b d e b b d d b b d e b b d d b b d d b b d d b b d d b b d d b 8 d d b b d d b 8 d d b b d d b b d d b b d d b b d d 8 8 d d b b d d b b d d 8 8 d d 8 8 d d 8 8 b 8 8 b c 8 8 8 8 8 8 b 8 8 b b 8 b 0 9 8 8 9 9 c c 9 9 9 9 9 9 b c j j @ @ | | = ; : : 8 8 9 9 0 9 9 9 f f 0 9 e e e e , , 7 7 ) ) ) ) 3 3 3 ) ) ) ' ' 1 1 $ $ % # @ @ [ [ } } = ; - - } } - | - -     @ @ & & $ : : $     @ @ @   : $ # # $ $ + + # # + + # + @ @ @ @   @ @ @   @ @ @ @   ",
"< < @ @     . . @ @ + + @ @ + + @ @ # + # # $ $ # # $ $ % # + + @ @ + # + + & & + + @   } } | | - - - - ; ; = = 4 4 @   $ $ $ $ > : ' ' ) ) ) ) 3 3 ) ) ) 3 7 7 g g b b 8 8 9 9 f f f f 8 a a a 8 8 : : 4 4 = ; = ; | * 1 1 8 8 8 8 9 9 8 8 0 9 8 8 9 9 b 8 c c 8 8 b b 8 8 b b 8 8 b 8 8 8 b b 8 8 b b b b c b b b b c b b b b d d 8 8 d d b b d d 8 8 d d b b d d b b d d b b d d b b d d b b d d d d d d d e e e d d e e d e e d d e d d b b d d b b d d b b e e e d e e d d e e d d e e d d d e d d e e d d e e d d d e e d e e e d d e e d e e d d e e e d d e d d d e b 8 d d b b d d b b d d d d d d d d d d d d d d d d d d d d d d d d d d d d d d d d d d b b d d b b d d b b d d b b d d b b d d b b d d b b d d b b d d b b d d b b d d b b d d b b d d b b b 8 b 8 8 8 c c 8 8 9 9 8 8 9 9 9 9 9 9 9 0 9 9 9 9 9 0 1 1 @ @ | | = ; = = 4 4 # # b b i 2 f f f f f f b 8 0 0 e e g g k k 3 3 3 3 3 ) ) ) 3 ) ' ' , , : : : :   @ = = ; ; } } = = - | - - < < - - + + & 1 : > # # @ @     + + % % $ $ # # # # # + # # @ @ + +   @ @ @     @ @     @   ",
"< < @ @ @     . @ @ + + @ @ + #   @ # # + # $ $ # # $ $ % % # + @ @ # # + + & & + +     } } - | - - - - ; ; = = 4 4   @ $ $ $ $ > : ' ' ) ) ) ) ) 3 ) ) ) ) 7 7 g g b b 8 8 9 9 f f f f a a a a 8 8 : : 4 4 = = ; = * * 1 1 8 8 8 8 9 9 8 8 9 9 8 b 9 9 b 8 c c 8 8 b b 8 8 b b 8 8 b b 8 8 b 8 8 8 b 8 b b c b b b b b c b b b d d 8 8 d d b b d d b 8 d d b b d d b b d d b b d d b b d d b b d d d d d d d d e e d e e e d d e e d e d d b b d d b b d d b b e e d d e e d e e e d e e d d e e d d e e d d d e e d d e e d d e e d e e d d e e d d e e d d d e e d d e e b 8 d d b b d d b b d d d d d d d d d d d d d d d d d d d d d d d d d d d d d d d d d d b b d d b b d d b b d d b b d d b b d d b b d d b b d d b b d d 8 b d d b b d d b b d d b b d d b 8 b 8 b 8 8 8 c c 8 8 9 9 8 b 9 9 9 9 9 9 9 0 9 9 9 9 9 9 1 1 @ @ | | = = ; = 4 4 # # b b i 2 f f 0 f f f 8 b f 0 e e g g k k 3 3 3 3 ) ) ) 3 3 3 ' ' , , : : : :     = = ; ; } } = = - | - - < < - - + + & 1 > > # # @ @     + + % % $ $ # # # + + + # # @ @ + +     @ @     @ @       @ ",
"        @ @     + + @   + + @ @ + + # + $ $ # % $ $ % # $ $ 5 5 + # + + # % 1 1 # # | | | | | - | - = = } } [ [ ; ; | | $ > > > , , ' $ ) ) ) ) ) ) ) ) ) ) _ _ d e e e b b 9 9 9 9 2 2 8 8 i i i 2 # # 4 4 4 4 ; ; = = | | | | i i 2 i 9 9 8 8 9 9 8 8 9 9 b c b 8 8 b b 8 8 8 b b 8 8 8 8 8 8 b b a 8 b b b b 8 8 d d b b d d b b d d b b d d b b d d b b d d b b d d b b d d b b d d b b d d d d d d d d d d d d e e d e e e d e d d b b d d b b d d b b d d d e d e e d e e d d e e d d e e d d e e d d e e e d e e d e e e d d e d d d e e d d e e d d d e e d d d b b d d b b d d b b d d d d d d d d d d d d d d d d d d d d d d d d d d d d d d d d d d b b d e b b d d b b d d b b d d b b d d b b d d b b d d b b d d b b d d b b d d b b d d b b d d b b d d b b 8 8 b c 8 8 c c 8 8 c c c 8 8 9 9 8 9 9 b 8 1 1 @ @ | | = = = ; 4 4 4 4 l l # # i i a a 2 2 8 8 9 9 9 9 8 8 e e , , 7 k 3 3 3 ) ) 3 3 ) ) ) $ ' ' ' $ $ # % @ @ ; ; } } [ [ - - } } - | - - | |   @ & & $ : $ $     @ @ @ . $ $ # # $ $ # + + # + + + + @ @ + +   @ @ @     @ .     ",
"        @ @     + + @ @ # + @ @ + + # + $ $ # % $ : # # $ $ 5 5 # + + + % % 1 1 % # | | | - | - | | = = } } [ [ ; ; | - > > > > , , $ $ ) ) ) ) ) ) ) ) ) ) _ _ e e e e b b 9 9 9 9 2 2 8 8 i i 2 i # # 4 4 4 4 ; ; = = | | | | i i 2 i 9 9 8 8 9 9 8 8 9 9 c c c b 8 8 b b 8 8 8 8 8 b b b 8 8 b b a 8 b b b b b 8 d d b b d d b b d d c b d d b b d d b b d d b b d d b b d d b b d d b b d d d d d d d d d d e d d e e d e e d d d d b b d d b b d d b b d d e d e d e d e e e d e e d d e e d d e e d d e e d d d e e d e d d d e e d d e e d d e e d d e e d d d d b b d d b b d d b 8 d d e d d d d d d d d d d d d d d d d d d d d d d d d d d d d d d d b b d e b b d d b b d d b b d d b b d d b b d d b b d d b b d d b b d d b b d d b b d d b b d d b b d d b b 8 8 b c 8 8 c c 8 8 c c c 8 8 9 9 8 9 9 8 b 1 1 @ @ | | = = ; = 4 4 4 4 l l # # i i a a 2 2 8 8 9 9 9 9 8 8 e e , , 7 k 3 3 ) ) ) 3 ) 3 ) ) : ' ' ' $ $ % % @ @ ; ; } } [ [ - - } } - | - - | |   @ & & : : ' $     @ @ @   $ $ # # $ $ + + # # + + # + @ @ + +     @ @     @ @     ",
"< < @ @     . . @ @ + + @ @ # + + + # # + # $ $ % % $ $ % % + + @ @ + # + + & & + + @   } } - | - - - - ; ; = = 4 4   @ $ $ $ $ > : ' ' ) ) ) ) 3 3 3 ) ) ) 7 7 , , d d b b 9 9 a a a a 2 2 2 2 2 2 $ $ 4 4 4 4 4 4 ; ; 4 4 m m m n @ @ 1 1 i i 8 a o o o a 8 a o a 9 o o a a o o a o o 8 a a a a 8 a a 8 8 a a a 8 a a 8 8 a a 8 8 a a a 8 8 a a 8 8 a 8 8 8 a 2 2 8 8 2 2 8 b 2 2 8 b 2 2 8 8 p p 8 8 b 8 8 b 8 8 8 b 2 2 8 8 i i 8 8 2 2 8 8 2 2 8 8 2 2 8 8 2 2 8 8 i i 8 8 i i 8 8 i i 8 8 i i 8 8 i i a 8 i i a 8 i i a 8 2 i 8 8 i 2 a 8 2 2 a 8 2 2 a 8 2 2 8 8 2 2 8 8 p p 8 8 p p 8 8 p p 8 8 p p 8 8 p p 8 8 p p 8 b p p 8 8 2 p 8 8 p p 8 8 2 p 8 b p p 8 8 p p 8 8 p p 8 8 p p 8 8 p p 8 8 p p 8 8 p p 8 8 2 p 8 8 p p 8 8 p p 8 8 p p 8 8 p p 8 8 p p 8 a a 8 9 o a a o o o a a o a a 9 o 8 o 9 9 q q r r * * | | = = = = 4 4 4 4 4 4 4 4 r r 2 2 2 2 i i 2 2 f f b b 8 b g g g g _ _ ) ) ) ) ) ) ) 3 3 ) : ' , , $ : : :     = ; = ; } } = = - | - - < < | - + + & 1 > > # # @ @     @ 5 + # $ $ # # # + + + # # @ @ + + @ @ @ @ @   @ @     @ @ ",
"< < @ @     . . @ @ + + @ @ # # + + # + # # $ $ # % $ $ % % + + @ @ # # + + & & + + @   } } | | | - - - ; ; = = 4 4 @   $ $ $ $ $ $ ' $ ) ) ) 3 3 3 ) ) ) ) 7 7 , , d d b b 9 9 a a a a 2 2 2 2 2 i $ $ 4 4 4 4 4 4 ; ; 4 4 m m m n @ @ 1 1 i i 8 a o o o a 8 a a a 9 o o a o o o a o o 8 a a a 8 8 a a 8 8 8 a a 8 a a 8 8 a 8 8 8 8 a 8 8 8 a 8 8 a a a 8 8 a 2 2 8 8 2 2 8 8 2 2 8 8 2 2 8 8 p p 8 8 8 8 b 8 8 b 8 8 2 2 8 8 i 2 8 8 2 2 8 8 p 2 8 8 p 2 8 8 i 2 8 8 i 2 8 8 i 2 8 8 2 2 8 8 2 i a 8 i i 8 8 i i 8 8 i i 8 8 i i 8 8 i 2 8 8 2 2 a 8 2 2 a 8 2 2 8 8 2 2 8 8 p p 8 8 p p 8 b p p 8 8 p p 8 8 p p 8 8 p p 8 8 p p 8 8 p 2 8 8 p 2 8 8 p p 8 8 p p 8 8 p p 8 8 p p 8 b p p 8 8 p p 8 8 p p 8 8 2 p 8 8 p p 8 8 p p 8 8 p p 8 8 p p 8 8 p p 8 8 p p a a 8 8 9 o a a o o o a o o a a 9 o 8 o 9 9 q q r r * * | | = = = ; 4 4 4 4 4 4 4 4 r r 2 2 2 2 2 i i 2 f f b b c b g g g g _ _ ) ) ) ) ) ) ) 3 ) ) : ' , , ' $ : :     = = ; = ; } = ; - - - - < < | - + + 1 1 $ > # # @ @     5 5 + # $ $ # # # # + + # % @   + + @ @ @ @ @   @ @     @ @ ",
"  @ < < @ @     + +   @ + + + + # + # + # # + # $ $ # # : : 5 5 + # + + # % 1 1 % # | | | | - | - | = = } } [ [ ; = | | > > > > , , ' $ ) ) ) ) ) ) ) ) ) ) _ _ g g g g b b 9 9 9 9 2 2 2 i i i 2 i # # s s 4 4 4 4 i i 5 5 4 4 m | | | 5 5 5 5 q q 2 2 t t f f t t t t t t t t t t t t t t t t t t t t t t t t t t t t t t t t t t t t t t t t t t t t t t t t t t t t t t t t t t t t t t t t t t u u t t u u t t u u t t u u t t u u t t t t t t t t t t t t t t u u t t u u t t u u t t u u t t u u t t u u t t u u t t t t t t t t t t t t t t t t t t t t t t t t t t t t t t t t t t t t t t t t t t t t t t t t t t t t t t t t t t t t t t u u t t u u t t t t t t t t t t t t t t t t t t t t t t t t t t t t t t t t t t t t t t t t t t t t t t t t t t t t t t t t t t t t t t t t t t t t 1 1 # # 5 5 * * | | v v m m 1 1 : : l l 4 4 l l # # i i 2 2 i i a a 9 9 b 8 c 8 e e , , k k 3 ) ) ) ) ) ) ) ) ) ' ' $ ' $ $ % # @ @ [ [ } } ; ; - - = = | | - | | * @ @ & & : : : $     @ @     $ $ # # $ $ + + # # + + + + . @ # + @   @ @ @   . .     ",
"    < < @ @ @   + + @   + + + + # # # + + # % # $ $ # # $ : 5 5 + # + + # % 1 1 # # | | | | | - | - = = } } [ [ ; ; | - > > > > , , ' $ ) ) ) ) ) ) ) ) ) ) _ _ g g g g b b 9 9 9 9 2 2 2 2 i i 2 2 # # s s 4 4 4 4 i i 5 5 4 4 m | * * 5 5 5 5 q q 2 2 t t f f t t t t t t t t t t t t t t t t t t t t t t t t t t t t t t t t t t t t t t t t t t t t t t t t t t t t t t t t t t t t t t t t t t u u t t u u t t u u t t u u t t u u t t t t t t t t t t t t t t u u t t u u t t u u t t u u t t u u t t u u t t u u t t t t t t t t t t t t t t t t t t t t t t t t t t t t t t t t t t t t t t t t t t t t t t t t t t t t t t t t t t t t t t u u t t u u t t t t t t t t t t t t t t t t t t t t t t t t t t t t t t t t t t t t t t t t t t t t t t t t t t t t t t t t t t t t t t t t t t t t 1 1 # # 5 5 * * * | v v m m 1 1 : : l l 4 4 l l # # i i 2 2 2 i a a 0 9 8 b 8 8 e e , , k k 3 ) ) ) ) ) ) ) ) ) ' ' ' $ ' $ % % @ @ [ [ } } ; = - - = ; | | - | | * @ @ & & $ : $ $   @ @ @     $ $ # # $ $ # + # # # + + + @ @ # +     @ @     . .     ",
"< <     < < . @ @   # + @ @ + + + + % # # + % % % # $ $ % % # # @ @ # # + + & & + + * * } } - | | | - - ; ; ; = = ; @ @ $ $ $ $ $ $ ' $ ) ) ) ) 3 3 3 ) ) 3 7 7 , , d d d d 9 9 a a 8 8 2 2 2 i i w x x l l s s 4 4 9 9 b 8 p p % % % % * * r r 5 5 r r x x a a u u t t t t t t t t t t t t t t t t t t t t t t t t t t t t t t t t t t t t t t t t t t t t t t t t t t t t t t t t t t t t t t t t t t t t t t t t t t t t t t t t t t t t t t t t t t t t t t t t t t t t t t t t t t t t t t t t t t t t t t t t t t t t t t t t t t t t t t t t t t t t t t t t t t t t t t t t t t t t t t t t t t t t t t t t t t t t t t t t t t t t t t t t t t t t t t t t t t t t t t t t t t t t t t t t t t t t t t t t t t t t t t t t t t t t t t t t t t t t t t t t t t t t t t t t t t t t t t y y z z r r 5 5 | | | 5 # # i w 8 8 9 9 @ @ 4 4 l l s s r r 2 2 2 2 A A A A A A 8 8 b 8 e e g g _ _ ) ) ) ) ) ) ) ) ) ) $ ' , , > > $ : < < = = ; ; } } ; = - | - - | | - |     1 1 $ > # # # +     5 5 % % y % % # # # # + # # @ @ + + @ @ . .       @ @   @ @ ",
"< <     < < @ @     # + @ @ + + + + # # # + % % + # $ $ % % + # @ @ + # + + & & + + * * } } - | | | | - ; ; = = ; ; @ @ $ $ $ $ $ $ ' $ ) ) ) ) 3 3 3 ) 3 3 7 7 , , d d d d 9 9 8 a a 8 2 2 2 i i w x x l l s s 4 4 9 9 8 b p p % % % % * * r r 5 5 r r x x a a u u t t t t t t t t t t t t t t t t t t t t t t t t t t t t t t t t t t t t t t t t t t t t t t t t t t t t t t t t t t t t t t t t t t t t t t t t t t t t t t t t t t t t t t t t t t t t t t t t t t t t t t t t t t t t t t t t t t t t t t t t t t t t t t t t t t t t t t t t t t t t t t t t t t t t t t t t t t t t t t t t t t t t t t t t t t t t t t t t t t t t t t t t t t t t t t t t t t t t t t t t t t t t t t t t t t t t t t t t t t t t t t t t t t t t t t t t t t t t t t t t t t t t t t t t t t t t t t y y z z r r 5 5 | | | 5 # # i w 8 8 9 9 @ @ 4 4 l l l s r r 2 2 2 2 A A A A A A 8 8 8 b e e g g _ _ ) ) ) ) ) ) ) ) ) ) ' ' , , > > $ : < < = = ; ; } } ; = - | - - | | | -   @ & 1 : > # # + +     5 5 % % % y # # # # # + # # @ @ # + @ @ @ @       @     @ @ ",
"    < <   @       @ @ @ + + @   # # + + # % # # $ $ # # $ $ 5 5 # + + + % % $ $ # # | | - - } } | | = ; = } ; ; = = - | : : > $ , , $ : ) 3 ) ) ) 3 3 3 ) ) _ _ g g g g 8 8 b c 8 o 2 2 A A B B B 2 # % l l s s 4 4 : : # # $ > 2 2 2 i x x % % % y r r z z B B 2 p C C D D t t t t t t t t t t t t t t t t t t t t t t t t t t t t t t t t t t t t t t t t t t t t t t t t t t t t t t t t t t t t t t t t t t t t t t t t t t t t t t t t t t t t t t t t t t t t t t t t t t t t t t t t t t t t t t t t t t t t t t t t t t t t t t t t t t t t t t t t t t t t t t t t t t t t t t t t t t t t t t t t t t t t t t t t t t t t t t t t t t t t t t t t t t t t t t t t t t t t t t t t t t t t t t t t t t t t t t t t t t t t t t t t t t t t t t t t t t t t t t t t t t t t C C A A w w z z y y y y E E > > 2 2 f f i i # # 5 @ | | l l s s l l # % i i a A B 2 A a a 8 9 9 b 8 p d g g 7 7 3 ) ) ) ) ) ) ) ) ) ' : 1 1 : $ $ $ @ @ [ [ } } ; ; } } ; = | | - - | |     & & $ : $ $   @ @     @ % % # + # # @ @ # # @ @ # + @ @ + +   @ @     @ @ @     ",
"    < < @ @     @ @ @ @ + + . . # # # + + # % # $ $ # # $ $ 5 5 + # + + # % $ $ # % | | - - } } | | = = } } ; ; = = - | : : > $ , , ' $ ) 3 3 ) ) ) 3 3 3 ) _ _ , g g g 8 8 8 b 8 o 2 2 A a B B 2 p % % l l s s 4 4 : : # # > > 2 2 2 2 x x % % % % r r z z B B 2 p C C D D t t t t t t t t t t t t t t t t t t t t t t t t t t t t t t t t t t t t t t t t t t t t t t t t t t t t t t t t t t t t t t t t t t t t t t t t t t t t t t t t t t t t t t t t t t t t t t t t t t t t t t t t t t t t t t t t t t t t t t t t t t t t t t t t t t t t t t t t t t t t t t t t t t t t t t t t t t t t t t t t t t t t t t t t t t t t t t t t t t t t t t t t t t t t t t t t t t t t t t t t t t t t t t t t t t t t t t t t t t t t t t t t t t t t t t t t t t t t t t t t t t t t C C A A w w z z y y y y E E > > 2 2 f f i i # # 5 @ | | l l s s l l # % i i a A B 2 a a 8 a 9 9 b 8 p d g g 7 7 3 ) ) ) ) ) ) ) ) ) ' : 1 1 : $ $ $ @ @ [ [ } } ; ; } } ; = | | - - - |   @ & & $ : $ $   @ @ @     % % + + # # @ @ + # @ @ + #   @ + + @     @ @     @     ",
"| -     < <   @   @ + + . @ + + + + # # + + % # # + # % # # + + 5 @ # # @ 5 & & + +   @ } } - | - - - - = = = ; ; ;   @ + % 1 1 $ ' $ $ ) ) ) 3 ) ) ) ) 3 3 7 7 F F g g e e c c 8 a 2 p p 2 2 2 i i % % G G l l s s : : | | 5 5 5 5 2 2 2 i a a H H H H y y B B 2 B B 2 B B D D C C t t f u t t t t t t t t t t t t t t t t t t t t t t t t t t t t t t t t t t t t t t t t t t t t t t t t t t t t t t t t t t t t t t t t t t t t t t t t t t t t t t t t t t t t t t t t t t t t t t t t t t t t t t t t t t t t t t t t t t t t t t t t t t t t t t t t t t t t t t t t t t t t t t t t t t t t t t t t t t t t t t t t t t t t t t t t t t t t t t t t t t t t t t t t t t t t t t t t t t t t t t t t t t t t t t t t t t t t t t t t t t t t t t t t t t t t t t t t C C B B 2 p B B w w z z x x 2 2 A A o a 2 2 r r * E | | | | [ [ l l I I s s r r 2 2 2 B A A p p 8 o b b 8 8 e e e e _ _ ) ) ) ) ) ) ) ) ) ) ' ' , , > > > $ < < = = ; ; } } ; = - - - - | | - |     1 1 : > # # + + * * 5 5 # + # % + + # + + + + # @ @ + + @ @ @ @       @     @ @ ",
"| |     < <   @   @ + + @ @ + + + + % # + + % # + # % # # # + + @ @ # + @ 5 & & + +     } } - | - - - - = ; = = ; ;   @ + % 1 1 $ $ ' $ ) ) ) ) ) ) ) ) 3 3 7 7 F F g g e e c c 8 a p p 2 2 2 2 i i % % G G l l s s : : | | 5 5 5 5 2 2 2 i a a H H H H y y B B 2 B B 2 2 B D D C C t t f u t t t t t t t t t t t t t t t t t t t t t t t t t t t t t t t t t t t t t t t t t t t t t t t t t t t t t t t t t t t t t t t t t t t t t t t t t t t t t t t t t t t t t t t t t t t t t t t t t t t t t t t t t t t t t t t t t t t t t t t t t t t t t t t t t t t t t t t t t t t t t t t t t t t t t t t t t t t t t t t t t t t t t t t t t t t t t t t t t t t t t t t t t t t t t t t t t t t t t t t t t t t t t t t t t t t t t t t t t t t t t t t t t t t t t t t t C C B B p p 2 B w w z z x x 2 2 A a o a 2 2 r r * E | | | | [ [ l l I I s s r r 2 2 2 B A A p p 8 o b b b 8 e e e e _ _ ) ) ) ) ) ) ) ) ) ) $ ' , , > > $ : < < = ; = ; } } ; = - - - - | | | - @ @ 1 1 $ > # # + + * * 5 5 # # # % # + + + + + + # @ @ + + @ @ @ @       @ @   @ @ ",
"    < < @ @     @ @ @ @ + + @   # # + # # # # + + # % + > $ @ @ + + + + # % $ $ # % | | | - | - | | ; = } } [ [ = ; @   > > > > , , $ : 3 3 ) ) 3 ) ) ) 3 ) _ _ g e g g d d b b 9 o 2 2 A A B B 2 p % y l l G G 4 4 : : | | | = I I v v % % % x p p 8 o A A B B B 2 w w p p w w A A C C D D t t t t t t t t t t t t t t t t t t t t t t t t t t t t t t t t t t t t t t t t t t t t t t t t t t t t t t t t t t t t t t t t t t t t t t t t t t t t t t t t t t t t t t t t t t t t t t t t t t t t t t t t t t t t t t t t t t t t t t t t t t t t t t t t t t t t t t t t t t t t t t t t t t t t t t t t t t t t t t t t t t t t t t t t t t t t t t t t t t t t t t t t t t t t t t t t t t t t t t t t t t t t t t t t t t t t t t t t t t t t t t t t t t t t C C A A B B 2 B B B B 2 H H p p A A C C q q x x E E 4 4 4 J | | | | } } I I G G l l # % i i a A B B a a 8 a 9 9 d d d d g g 7 7 ) ) ) ) ) ) ) ) ) ) $ : 1 1 : $ $ $ @ @ [ [ } } = ; } } = = - | - - | |     & & $ : $ $   @ 5 5 @   % # # + # # @ @ # # @ @ + + @ @ # + @     @ @   @ @ | | ",
"    < < @ @ @     @ @ @ + + @ @ + # + + # # + + + # % + $ $ @ @ + + # + % + $ $ # % | | | | - | - | ; = } } [ [ ; = @   > > > > , , : : 3 3 ) ) ) ) ) 3 ) ) _ _ g e g g d d 8 b 9 o 2 2 A A B 2 2 2 y y l l G G 4 4 : : | | = m I I v v % % % x p p 8 o A A B 2 B B w w p p w w A A C C D D t t t t t t t t t t t t t t t t t t t t t t t t t t t t t t t t t t t t t t t t t t t t t t t t t t t t t t t t t t t t t t t t t t t t t t t t t t t t t t t t t t t t t t t t t t t t t t t t t t t t t t t t t t t t t t t t t t t t t t t t t t t t t t t t t t t t t t t t t t t t t t t t t t t t t t t t t t t t t t t t t t t t t t t t t t t t t t t t t t t t t t t t t t t t t t t t t t t t t t t t t t t t t t t t t t t t t t t t t t t t t t t t t t t t C C A A B B B 2 B B B B H H p p A A C C q q x x E E 4 4 4 J | | | | } } I I G G l l % % i i a A B B A a a 8 9 9 d d d d g g 7 7 ) ) ) ) ) ) ) ) ) ) ' : 1 1 $ > $ $ @ @ [ [ } } ; ; } } ; = | | - - - |     & & $ : $ $   @ 5 5   @ % # # + # # @ @ + # @ @ # + @ @ # + @     @ @   @ @ | | ",
"| |     < <   @ @     @   @ # + . @ + + + + + # + + + % # # # + @ @ # # @ 5 & & + +     } } - | - - - - ; ; ; ; 4 4 @ @ $ $ > > $ $ ' ' ) ) ) ) ) ) ) 3 3 3 k k F F g g e e c c 8 a a a 2 p p 2 B B % % l l l s s l ' ' | | | | * * 5 5 q > > $ x x 2 2 a a 8 a A A p p B B 2 B B B B B B 2 A A D D t t t t t t t t t t t t t t t t t t t t t t t t t t t t t t t t t t t t t t t t t t t t t t t t t t t t t t t t t t t t t t t t t t t t t t t t t t t t t t t t t t t t t t t t t t t t t t t t t t t t t t t t t t t t t t t t t t t t t t t t t t t t t t t t t t t t t t t t t t t t t t t t t t t t t t t t t t t t t t t t t t t t t t t t t t t t t t t t t t t t t t t t t t t t t t t t t t t t t t t t t t t t t t t t t t t t t t t t t t t t 2 2 2 B A A B 2 B 2 2 B 2 2 2 i C C p p 2 p x x % % @ @ x x 5 5 : : = = | | = K l l I I s s # # p p 2 B A A p p o a b b 8 8 e g g e _ _ ) ) ) ) ) ) ) ) ) ) ' ' , , > : : : < < ; ; [ [ } } ; = } } - | | | - -   @ & 1 > > # # + + @   5 5 # # % x + # + + + + + + @ @ + + @ @ @ @     @ @       @ ",
"| |     < <   @     @     @ + + . . + + + + # # # + + % # # + + @ @ # # @ 5 & & + +     } } - | - - | - ; ; ; ; 4 4 @ @ $ $ > > $ $ ' $ ) ) ) ) ) ) ) 3 ) 3 k k F F g g e e c c 8 a a a 2 p p p 2 B % % l l l l s s : : | | | | * * 5 5 q > > $ x x p 2 A a o a a A p p 2 B B 2 2 B B B 2 B A A D D t t t t t t t t t t t t t t t t t t t t t t t t t t t t t t t t t t t t t t t t t t t t t t t t t t t t t t t t t t t t t t t t t t t t t t t t t t t t t t t t t t t t t t t t t t t t t t t t t t t t t t t t t t t t t t t t t t t t t t t t t t t t t t t t t t t t t t t t t t t t t t t t t t t t t t t t t t t t t t t t t t t t t t t t t t t t t t t t t t t t t t t t t t t t t t t t t t t t t t t t t t t t t t t t t t t t t t t t t t t t 2 2 2 B A A B B 2 B B B 2 2 2 i C C p p 2 p x x % % @ @ x x 5 5 : : = = | | [ K l l I I s s # # p p B B a A p p 8 o b b 8 8 e g e e _ _ ) ) ) ) ) ) ) ) ) ) $ : , , > : : : < < ; ; [ [ } } ; = } } - | | | - - @ @ & 1 : > # # + +   @ 5 5 # # % x # + + + + + # + @ @ + + @ @ @ @       @       @ ",
"    | | @ @       @ @     @ @   + + @ @ # # + + # # # + $ $ @ @ # + @ @ # # $ $ # % | | | | | - | | = = = ; [ [ = =     : : : : , , : $ 3 3 3 3 ) ) ) 3 ) ) _ _ g e g g d d b b 9 o p p A A B 2 B 2 y y l s s l l s ' ' | | | | | * : : # % 5 5 x x q q & & B B a A A A C C A A B B B B 2 B w w A A p p D D t t t t f u t t t t t t t t t t t t t t t t t t t t t t t t t t t t t t t t t t t t t t t t t t t t t t t t t t t t t t t t t t t t t t t t t t t t t t t t t t t t t t t t t t t t t t t t t t t t t t t t t t t t t t t t t t t t t t t t t t t t t t t t t t t t t t t t t t t t t t t t t t t t t t t t t t t t t t t t t t t t t t t t t t t t t t t t t t t t t t t t t t t t t t t t t t t t t t t t t t t t t t t t t t t t t t 2 2 2 p B B B 2 B B B 2 A A C C C C o a w w p 2 & & > > r r r r * E : : = = | | = ; = = G G l l l l # % i i 2 p B B p p A A 9 9 d d d d g g 7 k ) ) ) ) ) ) ) ) ) ) $ : 1 1 $ $ % %     [ [ } } [ [ ; = = = | | - | - |   @ & & $ : $ $   @ 5 5 @   % # + + # # @ @ + # @ @ + +   @ + +     @ @     @   | | ",
"    | | @ @       @   @ @ @ @ @ + + @ @ # # # + # # + + $ $ @ @ + + @ 5 # # $ $ # % | | | | - - | | = = = ; [ [ = =     : : : : , , : $ 3 3 ) 3 3 ) 3 ) ) ) _ _ g e g g d d b b 9 o p p A A B B 2 p % y s s l l l s ' ' | | | | * * : : # % 5 5 x x q q & & B B A a A A C C A A B 2 B B B 2 w w A A p p D D t t t t f u t t t t t t t t t t t t t t t t t t t t t t t t t t t t t t t t t t t t t t t t t t t t t t t t t t t t t t t t t t t t t t t t t t t t t t t t t t t t t t t t t t t t t t t t t t t t t t t t t t t t t t t t t t t t t t t t t t t t t t t t t t t t t t t t t t t t t t t t t t t t t t t t t t t t t t t t t t t t t t t t t t t t t t t t t t t t t t t t t t t t t t t t t t t t t t t t t t t t t t t t t t t t t t 2 2 2 p B B 2 B 2 B 2 2 A A C C C C o o w w p 2 & & > > r r r r * E > : = ; | | = ; = = G G G l l l % % i i p p 2 B B p 8 o 9 9 d d d d g g k k 3 ) ) ) ) ) ) ) ) ) ' ' 1 1 $ $ # %     [ [ } } [ [ = = = ; | | | - | |   @ & & $ $ ' $   @ 5 5 @   % # + + # % @ @ # # @ @ + + @ @ + + @     @     @   | | ",
"| | @   < < @ @       @   @ + + @ @ + + + + # # + + # # % # + + 5 @ # + @ 5 & & + +     - - | | - - - - ; ; ; ; 4 4 @ @ % % > > > : ' ' ) ) ) ) ) ) ) ) 3 3 k k F F g g g g c c 8 a a a 2 2 2 p B B % y l l l s s l ' : = = | | n n @ @ | | % % % # > q q > w w w w p 2 p p C C A A a a 2 B B 2 2 B A A B B a A C C D D t t t t t t t t t t t t t t t t t t t t t t t t t t t t t t t t t t t t t t t t t t t t t t t t t t t t t t t t t t t t t t t t t t t t t t t t t t t t t t t t t t t t t t t t t t t t t t t t t t t t t t t t t t t t t t t t t t t t t t t t t t t t t t t t t t t t t t t t t t t t t t t t t t t t t t t t t t t t t t t t t t t t t t t t t t t t t t t t t t t t t t t t t t t t t t t t t t t t t t t t u u A A B B A A B B B B B 2 A A o a C C A A a A q q & & q q > q % % r r * | @ @ | | = = ; = L L [ [ l l G G 4 M # # i i B B 2 p B 2 8 o a b 8 8 g e N g _ _ ) ) ) ) ) ) ) ) ) ) $ ' , , > : : : < < = ; ; = = = = ; - - - - | | - - @ @ & 1 > > # # + + @   5 5 # # # % + + + + + + + + @ @ + + @ @ @ @     @ @ @       ",
"| | @   < < @ @ @     @   @ + + @ @ + + # + # # + + + % # # + + 5 @ # + 5 5 & & + +     - - | | - - - - = ; ; ; 4 4 @ @ % % $ > $ $ ' $ ) ) ) ) ) ) ) 3 3 3 k k F F g g g g c c 8 a a a 2 2 2 p B B y y l s l l s s : : = ; | | n n @ @ | | % % % # q q > q w w w w p 2 2 p C C A A a A B B 2 B B B A A B B A a C C D D t t t t t t t t t t t t t t t t t t t t t t t t t t t t t t t t t t t t t t t t t t t t t t t t t t t t t t t t t t t t t t t t t t t t t t t t t t t t t t t t t t t t t t t t t t t t t t t t t t t t t t t t t t t t t t t t t t t t t t t t t t t t t t t t t t t t t t t t t t t t t t t t t t t t t t t t t t t t t t t t t t t t t t t t t t t t t t t t t t t t t t t t t t t t t t t t t t t t t t t t u u A A B 2 A A B B B B B B a A A o 9 C A A A A q q & & q q q > % % r r * | @ @ | | = ; = = L L [ [ l l G G 4 M # # i i B B 2 p B 2 o a b 8 8 8 g g N g _ _ ) ) ) ) ) ) ) ) ) ) ' ' , , : : : : < < ; ; = ; = = ; = - - - | | - - - @ @ & 1 > > # # + + @   5 5 # # % x + + + + + + # + @ @ + + @ @ @ @     @ @ @       ",
"@   | |     < <   @     # + . @ + + @ @ # # + + + # % + $ $ @   + + @ 5 # # $ $ % # | | - | - | - - = ; | - [ [ = ;     > > : : , , $ : ) ) 3 3 ) ) ) ) ) ) _ _ g e g g d d d d 8 o 2 p A A B 2 B p r r l l G G s s ' ' | m m = | m m n @ 5 # # % % % x > > q q > q 5 5 H H B B 2 p C a 9 C o a A A 2 B A A 2 2 A A B B D D f f t t t t t t t t t t t t t t t t t t t t t t t t t t t t t t t t t t t t t t t t t t t t t t t t t t t t t t t t t t t t t t t t t t t t t t t t t t t t t t t t t t t t t t t t t t t t t t t t t t t t t t t t t t t t t t t t t t t t t t t t t t t t t t t t t t t t t t t t t t t t t t t t t t t t t t t t t t t t t t t t t t t t t t t t t t t t t t t t t t t t t t t t t t t t t t t t u u 2 2 A A A A B 2 2 B B B A a C u o a A A B B w w z z r r q q > q x x % x 5 5 5 @ | | | | = = = = = ; = K l l l l s s % % i w p 2 B B a 8 8 8 c c d e e e j j k k 3 ) ) ) ) ) ) ) ) ) ' : 1 1 $ $ % %     [ [ = ; ; ; } } = = - | - - | |   @ & & $ $ $ ' + @ 5 5   @ % % + + + # @ @ # +   @ + # @   @ @     @ @ @   @ @ | | ",
"    | |     < <   @     + + @ @ # + 5 @ # + + + # # + + $ $ @ @ + + @ @ # # $ $ # % | | | | - - - - = = - - [ [ = ;     > > : : , , $ : ) ) 3 3 ) ) ) ) ) ) _ _ g e g g d d d d 8 o 2 p A A B B p p r r l l G G l l ' ' | m = ; = * | | 5 5 # # % % % x q > > q q q 5 5 H H B B 2 p C a C C o o a a 2 B A A 2 2 A a B B D D f f t t t t t t t t t t t t t t t t t t t t t t t t t t t t t t t t t t t t t t t t t t t t t t t t t t t t t t t t t t t t t t t t t t t t t t t t t t t t t t t t t t t t t t t t t t t t t t t t t t t t t t t t t t t t t t t t t t t t t t t t t t t t t t t t t t t t t t t t t t t t t t t t t t t t t t t t t t t t t t t t t t t t t t t t t t t t t t t t t t t t t t t t t t t t t t t t u u 2 2 A a A A B 2 B B 2 B A A C u o o a A B B w w z z r r q q > q x x x % 5 5 5 @ * * | | v v v m = ; = K O O O l l s r % i w p 2 B B 8 8 8 8 c c g e e e j j 7 k ) ) ) ) ) ) ) ) ) ) $ : 1 1 $ $ % %     [ [ = ; ; ; } } ; = | | - - | |     & & $ : $ $ @ @ 5 5     % % + + # # @ @ # # @ @ + + @   @ @     @       @ @ | | ",
"| | @   < < @ @ @   + + @ @ + + @   + + + + # # + # % # # # + +   @ + % 5 5 & & + + * * | - - | | - - - = = = ; 4 4   @ + % > > ' ' $ ' ) ) ) ) ) ) ) ) 3 ) k k F F g g e e c c a a 8 a 2 2 2 p B B % % l l l l l s ' ' = ; = = ; ; - | | | 5 @ + + : : x x q > > q 1 1 2 2 2 i i w p p 2 p a a 8 o 9 C B B a A 2 2 2 p B B A A C C D D t t t t t t t t t t t t t t t t t t t t t t t t t t t t t t t t t t t t t t t t t t t t t t t t t t t t t t t t t t t t t t t t t t t t t t t t t t t t t t t t t t t t t t t t t t t t t t t t t t t t t t t t t t t t t t t t t t t t t t t t t t t t t t t t t t t t t t t t t t t t t t t t t t t t t t t t t t t t t t t t t t t t t t t t t t t t t t t t t t t t t t t t C C B B 2 B A A B B A A B B 9 C C C C C p p A A 2 2 2 i i 2 & & 1 1 q q x x : : # # # # | | | | = ; = = 4 4 m | = ; l l I I l l r r 2 p w w p 2 p p 8 o 9 8 8 b g g g g _ _ ) ) ) ) ) ) ) ) _ _ $ : , , : > > $ < < ; ; ; ; ; ; [ [ | | - | - | - - @ @ $ $ > $ $ $ + + @   5 5 # # # % + # + # + + + +   @ + +       @     @ @       @ ",
"| | @   < < @ @     + + @ . + + @   + + + + + # % + % % # # # + @   % # @ 5 & & + + * * - - | | - - - - = ; ; ; 4 4 @   % % > > ' ' ' $ ) ) ) ) ) ) ) ) 3 3 k k F F g g e e c c 8 o a a 2 2 2 2 2 B % % l l l l s s ' ' = ; = = ; ; - | | | 5 @ + + : : x x q > > > 1 1 2 2 2 2 i w p 2 p p A A 9 o 9 C B B A a 2 2 2 p B B A A C u D D t t t t t t t t t t t t t t t t t t t t t t t t t t t t t t t t t t t t t t t t t t t t t t t t t t t t t t t t t t t t t t t t t t t t t t t t t t t t t t t t t t t t t t t t t t t t t t t t t t t t t t t t t t t t t t t t t t t t t t t t t t t t t t t t t t t t t t t t t t t t t t t t t t t t t t t t t t t t t t t t t t t t t t t t t t t t t t t t t t t t t t t t C C B B B B a A B B A A B B 9 C C C C C p p A A B 2 2 2 i i w & & 1 q q x x : : # # % # | | | | = = ; = 4 4 | | = = l l I I l l r r 2 p w w p 2 p p o a b 8 8 8 g g g g _ _ ) ) ) ) ) ) ) ) _ _ $ : , , > > $ : < < = ; ; ; ; ; [ [ | | - | - | - - @ @ : $ $ > $ $ + + @   5 5 # # # % + # + + + # + + @ @ + +       @     @ @     . @ ",
"@   < < @ @     . @ @ @ + + . @ + + @ @ % # + + # # # + $ $   @ @ @ # + % # $ $ # % - - | | - - - | = ; = } [ [ = ; | | $ $ > $ 1 1 : $ ) ) 3 3 ) ) 3 3 ) ) _ _ g g g g d d 8 8 o a 2 2 A A B B p p r r l l s s l l ' ' } } [ [ = ; ; = | | | | # # % # : : x x q q & & q q & & 2 2 2 i a p p 2 A A o a C C A A A A 2 2 A A B B B 2 A A C C C C t t t t t t t t t t t t t t t t t t t t t t t t t t t t t t t t t t t t t t t t t t t t t t t t t t t t t t t t t t t t t t t t t t t t t t t t t t t t t t t t t t t t t t t t t t t t t t t t t t t t t t t t t t t t t t t t t t t t t t t t t t t t t t t t t t t t t t t t t t t t t t t t t t t t t t t t t t t t t t t t t t t t t t t t t t t t t t t t C C B B A a B B a A B B a A C C C C C C A A B B 2 p B 2 2 2 q q & w q q & 1 : : x x r r r r * * | | v v = ; 4 4 = ; = = = ; l l l s s l % % i i 2 2 2 B A A a a c c d d d g , , 7 7 ) ) 3 ) ) 3 _ _ ) ) ' ' 1 1 1 1 : $     4 4 ; = [ [ = = } } - | } } - |   @ & & $ $ : : @ @ 5 5     $ $ + + # # @ @ + + @ @ + + @ @ @ @ @   @ @     @ @     ",
"    < < @ @ @     @ @   + + @ @ + + @ @ + # # + # # + + $ $   @ @ @ + # + % $ $ % # - - | | - - - | = = } } [ [ = ; | | $ $ $ ' 1 1 : $ ) ) 3 ) ) 3 3 3 ) ) _ _ g g g g d d b b o a 2 2 A A B 2 B p r r l l l l s s : : } } [ [ ; ; = = | | | | # # % # : : x x q > & & > q & & 2 2 2 2 p p p 2 A A o o 9 C A A A A 2 2 A A B B B B a A C C C C t t t t t t t t t t t t t t t t t t t t t t t t t t t t t t t t t t t t t t t t t t t t t t t t t t t t t t t t t t t t t t t t t t t t t t t t t t t t t t t t t t t t t t t t t t t t t t t t t t t t t t t t t t t t t t t t t t t t t t t t t t t t t t t t t t t t t t t t t t t t t t t t t t t t t t t t t t t t t t t t t t t t t t t t t t t t t t t t C C B B A A B B A A B 2 A A C u C C C C a a 2 B p p 2 B B 2 q q & w q q & 1 : : x x r r r r * * * | v = ; = 4 4 = ; = = = = l l s s l l % % i i 2 2 2 B a a 8 a 9 c d d d g , , 7 7 ) ) ) 3 ) ) _ _ ) ) ' ' 1 1 1 1 : $     4 4 ; = [ [ = = } } | | } } | |     & & : : : : @ @ 5 5 @   $ $ + + + # @ @ + + @ @ + + @ @   @ @   @ @     @ @     ",
"| | @   < < @ @     # + @ @ + +   @ + + + + # # # + % # # # + +     # # 5 5 & & + + * * - - - | | - - - = = ; ; 4 4     # % > > ' ' $ ' ) ) ) ) ) ) ) ) 3 3 k k F F g g d e c c 8 a p p p 2 2 2 2 2 x % l l l s s l ' : = ; = = ; ; = ; = = L | < < # # % # : : : : q q > q w & & 1 B B 2 B B p w & & w p 2 A A A A o a p p A A B 2 A A B B A A A A D D t t t t t t t t t t t t t t t t t t t t t t t t t t t t t t t t t t t t t t t t t t t t t t t t t t t t t t t t t t t t t t t t t t t t t t t t t t t t t t t t t t t t t t t t t t t t t t t t t t t t t t t t t t t t t t t t t t t t t t t t t t t t t t t t t t t t t t t t t t t t t t t t t t t t t t t t t t t t t t t t t t t t t t t t A A C C A A A A B B A A p p C C C C a a 2 B p p > > 2 2 w w p 2 & w w & q q > q : : : : # # r r * | | | = = = = 4 4 m = 4 4 = ; = K O l I I l l r r 2 p p 2 p p p 2 o a b 8 8 8 N g g g _ _ ) ) ) ) ) ) ) ) ) ) ' ' , , : > > $ < < ; ; [ [ = = = ; - - | - - | - - @ @ > > $ > > $ + + @     @ # # + # + + + + @ @ + + @ @ + #     @ @     @ @       @ ",
"| | @   < < @ @     # + @ @ + + @ @ + + + + # # + # % % # # # +     # % 5 5 & & + + * * - - - | - - - - = = ; ; 4 4     % % > > ' ' ' ' ) ) ) ) ) ) ) ) ) 3 k k F F g g g g c c 8 a p p 2 2 2 i i 2 % % l l l l s s : : = = = ; = ; } = ; = * | < < # # # % : : : : q q > q w & & & 2 B B 2 p B & & w w p 2 A A A A 8 o 2 p A A B 2 A A B B a A A A D D t t t t t t t t t t t t t t t t t t t t t t t t t t t t t t t t t t t t t t t t t t t t t t t t t t t t t t t t t t t t t t t t t t t t t t t t t t t t t t t t t t t t t t t t t t t t t t t t t t t t t t t t t t t t t t t t t t t t t t t t t t t t t t t t t t t t t t t t t t t t t t t t t t t t t t t t t t t t t t t t t t t t t t t t A A C C A A A A B 2 A A B p C C C C a a 2 p p p > > 2 2 & w p 2 w w & & q q q > q : : : # # r r * | | | = = = = 4 4 = = 4 4 = = K K l l I I s l r r 2 p 2 2 2 p p p 8 o 9 8 8 8 N g g g _ _ ) ) ) ) ) 3 ) ) ) ) ' ' , , > : : : < < ; ; [ [ = = ; ; - - | - - | | - @ @ > > > $ > $ + + @   @ @ + # # + + + + + @ 5 # + @   + #     @ @     @ @     . @ ",
"@   < < @ @       @ @ @ + + @   + + @ 5 % # # + # # + # $ $ @ @   @ + + + # $ $ # # - - | - - - | | ; = } } [ [ = ; | | $ $ ' $ 1 1 : $ ) ) ) 3 ) ) 3 3 ) ) _ _ N g g g d d 8 b 9 o p 2 A a B B p p r r l l l s s l ' : = = ; = ; m m = = ; = = L | @ @ + # # % : : : : q q > q w & & & & w w & B 2 & w a a 2 2 2 2 p p C C a a u C B B A A A A A A B B C C D D t t t t t t t t t t t t t t t t t t t t t t t t t t t t t t t t t t t t t t t t t t t t t t t t t t t t t t t t t t t t t t t t t t t t t t t t t t t t t t t t t t t t t t t t t t t t t t t t t t t t t t t t t t t t t t t t t t t t t t t t t t t t t t t t t t t t t t t t t t t t t t t t t t t t t t t t t t t t t t t t A A A A C C A A a A A A A A C C C C a a A A B B A A p 2 & w w w B B w & & w > > q q x x % x # # 5 @ * * 5 @ | | | n = ; = = = = = ; = = = = O O l l l s r % 2 2 2 p p 2 A a o a c c e e g g , , 7 7 ) ) ) ) ) ) 3 ) ) ) : : j 1 1 1 : $     4 4 ; ; ; ; } } = = | | - - | |     & & > : : : @ @   @     $ $ # + + # @ @ + + @ @ # +     @   @   @ @       @ @   ",
"    < < @ @     . @ @   + + . @ + + @ 5 % # + + # # # + $ $ @ @ @ @ + + + # $ $ + # - - | - - - | | = = } } [ [ ; ; - | $ $ ' $ 1 1 : $ ) ) 3 ) ) 3 3 3 ) ) _ _ N g g g d d b b 9 o p 2 A A B B p p r r l l l l l s ' ' = = ; = ; m = ; = = = = | | 5 @ + # # % : : : : q q q > & & w > w w & & 2 2 & & a a 2 2 2 2 p p C C a a u C B B a A A A A A B B C C D D t t t t t t t t t t t t t t t t t t t t t t t t t t t t t t t t t t t t t t t t t t t t t t t t t t t t t t t t t t t t t t t t t t t t t t t t t t t t t t t t t t t t t t t t t t t t t t t t t t t t t t t t t t t t t t t t t t t t t t t t t t t t t t t t t t t t t t t t t t t t t t t t t t t t t t t t t t t t t t t t A A A A C C A A A A A A A A C C C C a A A A 2 B A a 2 2 & w w w B B w & w w z z q q x x x x % # 5 5 | * 5 @ | | | n = ; = = = = = = ; = = = O O l l l l # % i 2 2 p 2 2 A A o a c c e e g g , , 7 7 ) ) ) ) ) ) 3 ) ) ) : : 1 1 1 1 : $     4 4 ; ; ; ; } } = = | | | - - |     & & > : : : @ @   @     $ $ + + # # @ 5 # + @ @ # +       @ @   @ @     . @ @   ",
"< < @ @ < < @ @       @ @   + +   @ # + 5 5 + # + + % # # # 5 5     % # @ 5 & & + + * * - - | - - - | - = = ; ; 4 4     # % > > $ $ ' ' ) ) ) 3 3 3 ) ) 3 ) k k F F g g e e c c 8 a a a 2 p p 2 2 2 # # s l l s s l ' : = = = ; l l 4 4 [ [ = ; } } < < < < @ @ # # $ > x x q > > > 1 & & 1 B B w w p 2 B B 2 2 B B B 2 2 B a A A A C C A A C C A A A A A A A A A A D D C C t t t t t t t t t t t t t t t t t t t t t t t t t t t t t t t t t t t t t t t t t t t t t t t t t t t t t t t t t t t t t t t t t t t t t t t t t t t t t t t t t t t t t t t t t t t t t t t t t t t t t t t t t t t t t t t t t t t t t t t t t t t t t t t t t t t t t t t t t t t t t t t t t t t t t t A A A A A A A A B 2 C C o o u u o a A A B 2 2 p p 2 2 p B 2 p p w w 2 2 & & & w w 1 : > x x % x # # # % | | | | = = = ; = = = = 4 4 l l 4 4 m = K K l l I I l l r r 2 p 2 2 2 p p p o a b 8 8 8 j j g g _ _ ) ) ) ) ) ) ) 3 ) ) ' ' , , > > : : < < = ; [ [ = ; = = - - | - - | - - @ @ > $ $ > > $ + + @   @ @ # # + # + + + + @   + + @ @ @ @     @ @     @ @     @ @ ",
"< < @ @ < < @ @ @     @ @   + + . . + + @ 5 + # + + % # + # 5 @     # % 5 5 & & + + * * - - | | - - | - = = = ; 4 4     % # > > $ $ ' ' ) ) ) 3 3 3 ) ) 3 3 k k F F g g e e c c 8 a a a 2 p p p 2 2 # # s l l l s s : : = = ; = 4 s 4 4 [ [ = ; } } < < < < . . # # $ > x x q > > > w & & 1 B B w w p 2 B B 2 B B B 2 2 2 B a A A A 9 C A A C C A A A A A A A A A A D D C C t t t t t t t t t t t t t t t t t t t t t t t t t t t t t t t t t t t t t t t t t t t t t t t t t t t t t t t t t t t t t t t t t t t t t t t t t t t t t t t t t t t t t t t t t t t t t t t t t t t t t t t t t t t t t t t t t t t t t t t t t t t t t t t t t t t t t t t t t t t t t t t t t t t t t t A A A A A A A A B B C C o o u u o o A A B 2 p p 2 p p p B 2 p p w & 2 2 & & w w & 1 : > x x % x # # # # | | | | = ; = = = = = = 4 4 l l 4 4 = = K K l l I I l l r r p p 2 p p p p 2 o o a b 8 8 j j g g _ _ ) ) ) ) ) ) ) 3 3 ) ' ' , , : > : : < < = ; [ [ = = ; = | - - | - | | - @   $ $ > > > $ + +     @ @ # # + # + + + + @   + + @ @         @ @     @ @     @ @ ",
"@ @ < < @ @     @ @ @   @ @ . . # + @ @ + # # + # # # + $ $ @ @ @ @ # + + # $ $ # # - - - | - - | | = ; - - = ; ; = | | $ $ $ ' , , : : 3 3 ) ) ) ) 3 3 ) ) _ _ g g g g d d b b 9 o p p A A 2 B p p r r l l s s l M ' ' } } [ [ l l = ; | - = ; = L } } < < < < # # % # % % % # q > > q 1 & & 1 B 2 & w p p w w 2 B B 2 A A B B 2 B B B A A A A C C A A A A A A A A A a a A C C D D t t t t t t t t t t t t t t t t t t t t t t t t t t t t t t t t t t t t t t t t t t t t t t t t t t t t t t t t t t t t t t t t t t t t t t t t t t t t t t t t t t t t t t t t t t t t t t t t t t t t t t t t t t t t t t t t t t t t t t t t t t t t t t t t t t t t t t t t t t t t D D A A A A C C A A A A A A C C C C C C a A A A w w p 2 B 2 2 p 2 2 2 p w w w i i w w & q q > q x % : : # # # # 5 @ | | = = ; = = = = = @ @ | | | | = = = = = = G G l l l l # % i i p p p 2 A A 8 8 b b e e e e , , 7 7 ) ) ) ) ) ) ) ) 3 ) : : 1 1 1 1 : $ @   4 4 ; = [ [ } } } } | | } } | |     & & : : : : @ @ @   @   $ $ # + # # @ 5 # + @ @ + +     @ @   @ @ @       @ @   ",
"@ @ < < . @ @   @ @   @ @ @ @ @ # + @ @ + # + + # # + + $ $ @ @   @ # + + # $ $ # # - - - | - - | | = = - - = ; ; = | | $ $ $ ' , , : : 3 3 3 ) ) ) 3 3 ) ) _ _ g g g g d d b b 9 o p p A A 2 B p p r r l l s s l M ' ' } } [ [ l l = ; | - = ; = L } } < < < < # # # % # % # # $ > > > 1 & & & 2 2 w w p 2 w w B B B 2 A A B B B 2 B B A A A A C C A A A A A A A A A A A a C C D D t t t t t t t t t t t t t t t t t t t t t t t t t t t t t t t t t t t t t t t t t t t t t t t t t t t t t t t t t t t t t t t t t t t t t t t t t t t t t t t t t t t t t t t t t t t t t t t t t t t t t t t t t t t t t t t t t t t t t t t t t t t t t t t t t t t t t t t t t t t t D D A A A A C C A A A A A A C C C C C C a a A A w w p 2 2 2 2 p 2 2 2 p w w w i w w & & q q > q x % : : # # # # @ @ | | = = = ; = = = = @ @ | | | | = = = = = ; l G l l l s r # i i p p 2 p a a a 8 b b e e e e , , 7 7 ) ) ) ) ) ) ) ) 3 ) : : 1 1 1 1 : $     4 4 = ; [ [ } } } } - | } } | |     & & : : : : @ @ @   @   $ $ + + % # @   + + @ @ + +       @ @   @ @       @ @   ",
"< < @ @ < < @ @       @     + + @ @ + + @ 5 # # + + # # # # 5 5     # % 5 5 & & + + * * - - - | - - - | = = ; = 4 4     % % > > $ ' ' ' ) ) ) ) ) 3 ) ) ) 3 k k F F g g e g b c 8 a a 8 2 2 2 p 2 i # % l l l l s s : : = = = ; @ @ 2 2 } } ; = ; = L } } } @ @ | | . . r r x x x % > > q > w & 1 1 2 2 w w p 2 B B B 2 B B p p B B A A B B A A A A C u A A C C A A A A A A A A 2 B C C D D t t t t t t t t t t t t t t t t t t t t t t t t t t t t t t t t t t t t t t t t t t t t t t t t t t t t t t t t t t t t t t t t t t t t t t t t t t t t t t t t t t t t t t t t t t t t t t t t t t t t t t t t t t t t t t t t t t t t t t t t t t t t t t t t t t t t A A A A A A A A a A A A C C C C C C a A A A B 2 A A 2 2 A A p p 2 p p B B 2 w w 2 2 & 1 w w q q > q x x % % % # # # 5 @ @ @ | | | | = ; = = = K : : # # = ; 4 4 = = [ [ l l G G l l r r p p 2 B B p p p 8 o 8 8 b 8 N g g g _ _ ) ) ) ) ) ) ) ) _ _ : : , , > > : : < < ; ; [ [ = = ; = | - - - | - - - @ @ > $ > > $ ' + + @   @ @ + # # + 5 @ + + @   + + @   @ @ @   @ @ @   . @ @   < @ ",
"< < . @ < < @ @       @     # + @ @ + + @ 5 + # + + # # + # @ 5     # % 5 5 & & + + * * - - | | - - | - = = ; = 4 4     % % > > > $ ' ' ) ) ) ) ) 3 ) ) ) 3 k k , F g g g g c c 8 a a a 2 p p p w i # % l l s s l l ' : = = = ; @ @ 2 2 } } = = = ; = L } } @ @ | | . . r r x x x x q > > > w & 1 1 w i i w p p 2 B B 2 B B 2 p B 2 A A B B A A A A C C A A C C A A a A A A A A 2 B C C D D t t t t t t t t t t t t t t t t t t t t t t t t t t t t t t t t t t t t t t t t t t t t t t t t t t t t t t t t t t t t t t t t t t t t t t t t t t t t t t t t t t t t t t t t t t t t t t t t t t t t t t t t t t t t t t t t t t t t t t t t t t t t t t t t t t t t A A A A A A A A a A A A C C C C C C a a A A 2 2 A A B 2 A a B p p 2 B B 2 B w w p 2 & 1 w i q q > q x x % % % # # % @ @   @ | | | n = = ; = K K : : # # = ; 4 4 = = [ [ l l G G l l r r p p B B p p p 2 o o 8 8 b 8 g g g g _ _ ) ) ) ) ) ) ) ) _ _ : : , , > > : : < < ; ; [ [ = ; = = - | - - | - - - @ @ $ $ > > $ $ # +     @ @ # + # #   @ + + 5 @ + + @ @ @ @     @ @     @ @     @ @ ",
"@ @ < < @ @       @     @ @ @ @ # + . @ + + + + # # # + % % @   @ @ # + # # $ $ # + - - | - - - | | = = } } [ [ = ; | | $ $ $ $ , , $ : _ _ ) ) ) 3 3 ) ) 3 k k g e e g e d d d 9 o 2 p A A B B 2 p r r l l l l M M ' ' = = ; = = = K [ ; = } } ; = = ; | | n | < < . @ @ @   @ # # % # : > > q 1 & & & 2 2 B B 2 p B 2 2 2 2 B B B B B a A B B A a A A C C C C C C C C C C a a A A A A A A A A t t t t t t t t t t t t t t t t t t t t t t t t t t t t t t t t t t t t t t t t t t t t t t t t t t t t t t t t t t t t t t t t t t t t t t t t t t t t t t t t t t t t t t t t t t t t t t t t t t t t t t t t t t t t t t t t t t t t t t t t t t t t t t A A C C A A A A A A A A A A D D A A C C A A A A B B A A A A p p 2 B A A 2 2 p 2 & w p 2 & w & & > q q q x x x x r r # # 5 @ @ @ | | | n = = = ; = K K = 4 4 | | = m [ [ = ; = ; l O O l l l % % i i p p 2 p a a a a b b d d e e , , 7 7 3 3 ) ) 3 ) _ _ ) ) ' ' 1 1 j 1 : $     4 4 ; = [ [ } } } } < < | - - |     & & : : : $ @ @   @     $ $ # + + + @   # + @ @ + #     @ @       @ @   @ @ @   ",
"  @ < < @ @     @ @     @ @ @ @ + + @   + + + + # + # + % % @   @ @ + + # # $ $ # + - - - | - - | | = = } } [ [ = ; | | $ $ $ $ , , $ : _ _ ) ) 3 3 ) ) 3 ) k k g e e g d d e d 9 o p p A A B 2 p p r r l l l s M M ' ' = ; = ; m = [ [ = ; } } = ; = = L | | | < < @ @   @ @   # # % # : > > > 1 & & & B 2 B B 2 p B 2 2 2 B B 2 B B B A A B 2 A A A A C C C C C C C C C C A A A A A A A A A A t t t t t t t t t t t t t t t t t t t t t t t t t t t t t t t t t t t t t t t t t t t t t t t t t t t t t t t t t t t t t t t t t t t t t t t t t t t t t t t t t t t t t t t t t t t t t t t t t t t t t t t t t t t t t t t t t t t t t t t t t t t t t t A A C C A A A A A A A A A A D D A A C C A A A A 2 B A A A A 2 p B B A A B 2 2 2 w w p 2 & 1 & & > q q q % x x % r r # # 5 @ @ @ | | | | = = ; = K K = = 4 4 | | = = [ [ = ; = = l O O l l l % % i i p p 2 p a a a a b b d d e e , , 7 7 3 3 3 ) ) ) _ _ ) ) $ : 1 1 1 1 $ $ @   4 4 = ; [ [ } } } } < < | - | |     & & : : : : @ @ @   @   $ $ + + + + @   + + @ @ + +     @ @ @   . @ @   < @     ",
"| |     < <         @ @ @   @   @ . + + @ 5 # # 5 5 % % # # + +     % # 5 5 & & # + * * - - | - - - | - = = ; = 4 4     # % > > $ $ $ : 3 3 _ _ ) ) ) ) 3 ) k k g g e d b b 9 9 b 8 8 8 i i 2 2 2 i x % l l l s s l : : [ [ = ; [ [ = ; [ [ [ } } } } } } } < < } } < < @ @   @ @ @ x % % x > > q > & & w > w w w w i 2 2 B B B B p A A B 2 A A 2 2 A A B B A A A A o o A A 9 C A A C C A A A a a A o a C C D D t t t t t t t t t t t t t t t t t t t t t t t t t t t t t t t t t t t t t t t t t t t t t t t t t t t t t t t t t t t t t t t t t t t t t t t t t t t t t t t t t t t t t t t t t t t t t t t t t t t t t t t t t t t t t t t t t t A A B B A A A A A A A A C u 9 C C C A A A A A A A A A A A a 2 2 A A B B A A B 2 B 2 w w w w 1 1 w w & 1 > > $ : : :   @ @   < < . @ L L | | } } } } = = } } [ [ = ; 4 [ ; = [ [ } } 4 4 l l s l l s y y B 2 2 B a A p p 8 o 8 b b 8 e g g e k k ) ) ) ) ) ) ) ) _ _ : : , , : : : $ < < ; ; [ [ = ; = = - - | - - | | - @ @ $ $ $ > > $ + + @   + + # % # #   @ + + @   + +     @ @ @   @ @     @ @ @     @ ",
"| |     < <         . @   @ @ @ @ @ + + @ 5 # # 5 @ % % # # + +     % # 5 5 & & + + * * | - - | - - - - = = ; ; 4 4     # % > > $ $ $ : 3 3 _ _ ) ) ) ) ) ) k k g g d d b b 9 9 b 8 8 8 i i 2 2 2 i x % l l s s l l ' : [ [ = ; [ [ = ; 4 [ K K } } } } } } < < } } < < @ @ @   @ @ % % % x > > > q 1 & & & & w w w p 2 B B 2 B p p A A 2 2 A A 2 2 A A B B A A A A a o A A 9 C A A C u A A A A A A o a C C D D t t t t t t t t t t t t t t t t t t t t t t t t t t t t t t t t t t t t t t t t t t t t t t t t t t t t t t t t t t t t t t t t t t t t t t t t t t t t t t t t t t t t t t t t t t t t t t t t t t t t t t t t t t t t t t t t t t A A B B A A A A A A A A C u 9 C C C A A A A A a A A A A A A 2 2 A A B B A A B B 2 B w w w & 1 1 w i q 1 : > x : : : @ @   @ < < @ @ L L | | } } } } = ; = L [ [ = ; [ [ = = [ [ } } 4 4 l l s l s s y y B 2 B B a A B p 8 o 9 8 b b g g e g 7 k ) ) ) ) ) ) ) ) _ _ : : , , : : $ $ < < = ; [ [ = ; = = - - - | - | - - @ @ > $ > > > $ + +     + + # # + # 5 @ + + @   + +     @ @     @ @ @     @ @     @ ",
"    < <     < < @ @     @ @   @ + + @ @ + + + + # +   + $ $ @ @   @ + + # # $ $ + # - - | - - - | | = = - - [ [ = ; | | $ $ $ $ , , : : _ _ ) ) ) ) ) ) ) 3 k k d d g g b b 8 b 8 o 2 p A A w w p 2 r r l l l l 4 4 # % = ; 4 [ K = [ [ K K [ [ } } } } } } } } | | } } @ @ | | 5 5 r r % % % x > > > > 1 & & & B B w w B B 2 B A A p 2 A A B 2 A A B 2 A A B 2 A A A A A A A A C C A A C C A A a a 2 2 A A A A C C D D t t t t t t t t t t t t t t t t t t t t t t t t t t t t t t t t t t t t t t t t t t t t t t t t t t t t t t t t t t t t t t t t t t t t t t t t t t t t t t t t t t t t t t t t t t t t t t t t t t t t t t t t D D A A A A B B A A A A C C A A C C A A A A A A A A A A a A A A A A A A A A 2 2 A A B B B 2 2 B 2 2 & w & & & 1 1 1 x x : : # # @ @ | | < < | | | | } } } } = ; = L [ [ ; = [ [ ; = [ [ [ [ [ [ = ; l l s s l l % % i i p p p 2 A A 8 a c c d d d d g , 7 7 ) ) 3 ) ) ) ) ) ) ) ' ' j j $ $ % % @   [ [ ; = [ [ | - } } < < | - - |     & & : : : $ @ @ @   @ @ $ $ + + + + @ @ + + @ @   @   @ @ @     @ @   @ @ @     ",
"@   < <     < < @ @   @   @     + + @ @ + + + + + + + + $ $ @ @ @ @ + + # # $ $ # # - - | | - - | | = = - - [ [ = ; | | $ $ ' $ , , : : _ _ ) ) ) ) ) ) ) 3 k k e d g g b b b 8 8 o 2 p A A w w p 2 r r l l l l 4 4 % % = ; 4 [ K = [ [ [ K K [ } } } } } } } } | | } } @ @ | | 5 5 r r % % % x > > > q 1 & & & B B w w B B B B A A p 2 A A B 2 A A 2 2 A a B B p A A A A A A A C C A A C C a a 8 a 2 2 A a A A C u D D t t t t t t t t t t t t t t t t t t t t t t t t t t t t t t t t t t t t t t t t t t t t t t t t t t t t t t t t t t t t t t t t t t t t t t t t t t t t t t t t t t t t t t t t t t t t t t t t t t t t t t t t D D A A A A 2 B A A A A C C A A C C A A A A A A A A A A a A A A A A A A A A 2 2 A a B B p 2 2 B 2 2 & & w > 1 1 1 1 x x : : # # @ @ | | < < | | | | } } } } ; = } } [ [ = = [ [ K = [ [ K [ [ [ K = l O s s l l % % i i p p p 2 A A 8 a c c d d d d g , 7 7 ) ) ) ) ) ) ) ) ) ) ' ' j j $ $ % %     [ [ ; ; [ [ | - } } < < - - | -     & & : : : : @ @ @ @ @ . $ $ # + + + @ @ + + @ @ @ @ @   @ @       @ @   @ @     ",
"| - @   < <         5 @     @ @ @ @ + + @ 5 # # 5 5 % % # # # +     % # 5 5 & & # + * * - - | - - - | - = = ; = 4 4     % # > > > $ ' ' ) ) ) ) 3 ) ) ) ) 3 k 7 g g d d b b 9 9 8 b 8 8 p p p p 2 2 # % l l l s l l : : [ [ ; = [ [ = ; 4 [ K K K [ } } } } } L L [ | | | } @ @   @ r r 5 5 x x % % > > q > & & & 1 B B w w B B B 2 A A B 2 A a B 2 A A 2 2 A A A A A A p p A A A A o o a A C C A A C C a A A A A A A A C C D D t t t t t t t t t t t t t t t t t t t t t t t t t t t t t t t t t t t t t t t t t t t t t t t t t t t t t t t t t t t t t t t t t t t t t t t t t t t t t t t t t t t t t t t t t t t t t t t t C C A A a A A A A A A A A A D D C C C C A A a A A A A A A A A A A A A a A A A A 2 2 A A B B B 2 w w B B & & w > 1 q & 1 : : : : # # # # @ @ @   < L L | | } } } = = } } } [ } } [ [ = = [ [ [ K [ [ } } 4 4 l l l l s s % y B 2 2 B a A p p 8 o 9 8 b b e g g g _ _ ) ) ) ) ) ) ) ) _ _ ' ' , , : : : $ < < = ; [ [ = = ; = - - - | - | - - @ @ $ $ > > $ $ + +     @ @ # + # # @ @ + + @ @ # +   @ @ @     @ @     @ @ @   @ @ ",
"| |     < <         @ @       @ @ @ + + @ 5 # # 5 5 % % % # + +     # # 5 5 & & # + * * - - | - - - - - = = ; ; 4 4     % % > > $ $ ' $ ) ) ) ) ) ) ) ) ) 3 k 7 g g e d b b 9 9 8 b 8 8 p p 2 p p 2 # % l l s s l l ' : [ [ ; = [ [ = = [ [ K [ K K } } } } } L } } | | | } @ @ @   r r 5 5 x x x % > > > q 1 & & & B B w w B B 2 B A A 2 2 A A B 2 A A 2 2 A A A A A A p p A A A A 8 o A A C C A A C C A A a A A A A A C C D D t t t t t t t t t t t t t t t t t t t t t t t t t t t t t t t t t t t t t t t t t t t t t t t t t t t t t t t t t t t t t t t t t t t t t t t t t t t t t t t t t t t t t t t t t t t t t t t t C C A A a A A A A A A A A A D D C C C C a a A A A A A A A A A A A a A A A A A A B 2 A A B B 2 B w w B B w & & & > q 1 1 : $ : : # # # # @ @ @ @ < L L | | } } } ; = } } } [ } } [ [ = ; 4 [ K [ [ [ K } 4 4 l l s l s s y y B 2 B B A a B p 8 o 9 8 b b g g g g _ _ ) ) ) ) ) ) ) ) _ _ ' ' , , : $ $ $ < < ; ; [ [ = = ; = - - - - | - - - @ @ $ $ > > $ $ + + @   @ @ # # + # 5 @ + + @ @ # + @   @ @     @ @     @ @   @ @   ",
"@   < <     < < @ @ @   @       + + @ @ + # # + + + # + $ $ @ @   @ + + # # $ $ + # - - - | - - | | = = } } ; ; ; ; | - $ $ ' $ , , $ : ) ) 3 ) ) ) ) 3 ) ) _ _ g g e g 8 8 b b 9 9 8 8 a a 2 B p p r r l l l l 4 4 % % = = [ [ K = [ [ [ K [ [ } } } } } } L } | | } } | | | | 5 @ E E r r r r % % % x > > > > w & H H B B H & p p 2 B B p p 2 A a B 2 A A B 2 A A A A A A 2 p A A p p A A A A o o a o C u A A C C A A A A A A D D D D t t t t t t t t t t t t t t t t t t t t t t t t t t t t t t t t t t t t t t t t t t t t t t t t t t t t t t t t t t t t t t t t t t t t t t t t t t t t t t t t t t t t t t t t D D A A A A A A A A A A C C C C C C A A C C A A A a A A A A A A A A A a A A A A A A B 2 A A B B B 2 B B B B H H H H > > q > x x : : # # % # @ @   @ | | | | = = } } [ } } } = = } } } [ = ; 4 [ K [ 4 4 [ [ [ [ K = l l s s l l % % 2 2 2 p p 2 a a 8 a c c e e e d g g 7 7 3 3 ) ) ) ) ) ) ) ) : : ' ' $ $ % %     [ [ ; = [ [ | - } } < < | - | | @ @ & & : : : $ @ @ @ @   @ + # + + + + @   # + @ @ @ @   @ @ @     @ @     @ @ @   ",
"    < <     < < @ @ @     @     + + @ 5 # # + + + + + + $ $   @ @ @ + + # # $ $ # # - - | | - - | | = = } } ; ; = ; | | $ $ $ $ , , $ : ) ) 3 ) ) ) ) ) ) ) _ _ g g g g b 8 b b 9 9 8 8 8 a 2 2 p 2 r r l l l l 4 4 % % = = [ [ K = [ [ [ = [ [ } } } } } } } } | | } } | | | | 5 @ E E r r r r % % % x > > > > & & H H B B & & 2 p B B p p 2 2 A A B 2 A A B 2 A A A A A A 2 p A A 2 p A A A A o o o a C C A A C C A A a A A A D D D D t t t t t t t t t t t t t t t t t t t t t t t t t t t t t t t t t t t t t t t t t t t t t t t t t t t t t t t t t t t t t t t t t t t t t t t t t t t t t t t t t t t t t t t t D D A A A A A A A A A A C C C C C C A A C C A A A a A A A A A A A A A A a A A A A A B B a A B B 2 2 B B B B H H H H > > > $ x x : : # # # # @ @ @ @ | | | n = = } } [ } } } = ; = L [ [ = ; 4 [ K [ 4 4 [ [ [ K = = l O s s s l % % i i p p 2 2 A A o a c c e e d d g g 7 k 3 3 ) ) ) ) ) ) ) ) : : ' ' $ $ % %     [ [ ; ; [ [ | - } } < < - - - | @ @ & & > : : : @ @ @ @   @ + # + + + + @   + + @ @ @       @ @     @ @   @ @       ",
"| |     < <         5 @       @   @ + + 5 5 + + @ 5 % % + # # + @   # # @ 5 & & + + * * - - | - - - - - = ; } } 4 4     % % > > $ ' ' ' ) ) ) ) ) ) 3 ) 3 3 k k g g e g d d b c 8 a 8 8 p p p p 2 2 # % l l s s l l ' : [ [ = ; 4 [ K = [ [ } } } K K } } K L L } } } } } } < < | | @ @ @ @ + # r r x % % x > > > > 1 & & & B w B B p p 2 B A A B 2 A A 2 2 A A p p A A A A A A A A A A A a A A p p A A A A C C A A C C A A C C B B A A A A D D t t t t t t t t t t t t t t t t t t t t t t t t t t t t t t t t t t t t t t t t t t t t t t t t t t t t t t t t t t t t t t t t t t t t t t t t t t t t t t t t C C A A a A C C A A C C C C C C a A A A A A A A A A A A a A A A A A A A A A A A B B a A B B A A B B p p B B 2 B w & & w > > > q x x % x # # # # 5 @ @ @ | | | n L L | | = ; = L [ = } } = ; = L [ [ = = [ [ K [ K [ } } 4 4 l l l l l s y y B 2 B B a A B p o a b b d d g g g e _ _ ) ) ) ) ) ) ) ) ) ) ' ' , , : : $ $ < < ; ; [ [ = = = ; - - | | < < | - + + $ $ $ > > $ + + @   @ @ # # # # @ @ + + @ @ # + @   @ @     @ @     @ @ @   @ @ ",
"| |     < <         @ @       @   @ + + @ 5 + + 5 @ % % + # # +     # % 5 5 & & # + * * - - - | - | - - ; ; } } 4 4     % % > > > $ ' ' ) ) ) ) ) ) ) 3 3 3 k k g g e g d d b c 8 a 8 8 p p p p p 2 % % l l l l s s : : [ [ = ; 4 [ K = [ [ } } [ } } } = K L L L } } } } } L < | | @ @ @ @ + # r r x % % % > > q > & & H H w w B B p p 2 B A A 2 2 A A B 2 A A p p A A A A A A A A a A A A A A p p A A A A C u A A C C A A C C B B A A A A D D t t t t t t t t t t t t t t t t t t t t t t t t t t t t t t t t t t t t t t t t t t t t t t t t t t t t t t t t t t t t t t t t t t t t t t t t t t t t t t t t C C A A a A C C A A C C C C C C A A A A A A A A a A A A A A A A A A A A A A A A B B A a B B A A B B p p 2 B B B H & & & > q q q x x % x # # # # @ @   @ | | | | | } | | = = } } ; = } } = ; = L [ [ = = [ [ [ K [ [ } } 4 4 l l s l s s y y B 2 B B A A p p o o b b d d g g N g _ _ ) ) ) ) ) ) ) ) ) ) ' ' , , : : $ $ < < ; ; [ [ = = ; = - - | | < < - - + + $ $ > > $ ' + + @   @ @ # # # # @ @ + + @ @ # +   @ @ @     @ @ @     @ @   @ @ ",
"  @ < <     < < @ @ @     @     @ @   @ + + @ 5 + + + # $ $ @ @   @ + + # # $ $ # + - - | | - - | | = = } } = ; ; = | | $ $ ' $ , , $ : ) ) 3 3 3 ) ) ) ) ) _ _ g g , g 8 8 b 8 o 9 p p A A B 2 p p r r l s s l 4 4 # % = ; 4 [ } } } } = K K [ } } } } } } } } } } } } L | } } | | | | @ @   @ r r r r % x x % > > > > H H H H B B 2 B B 2 B B A A 2 p a A 2 2 A a B 2 A A p p a a B p a A A A A A A A A A A A A a C C C C C C C C A A C C D D t t t t t t t t t t t t t t t t t t t t t t t t t t t t t t t t t t t t t t t t t t t t t t t t t t t t t t t t t t t t t t t t t t t t t t t t t t t t t t t t D D A A A A A A C C C C C C A A A A A A C C A A A A A A a a A A A A A A A A 2 B A a B B A A B B p 2 B B 2 B H H H H > > q q x x x x r r # # @ @   @ | | | | | | * * = ; | L L [ | | = = } } ; = } } [ [ } } 4 4 [ [ [ K = = l l s s l l % % 2 2 2 p 2 i a a 8 a c c e e d d g g 7 k ) ) ) ) ) 3 ) ) ) ) : : 1 j $ $ # %     [ [ ; ; [ [ - - } } < < | | @       & & : : : : @ @ @ @ @ @ $ $ # + + + @ @ + + @ @   @     @ @     @ @   @ @       ",
"    < <     < < @ @ @     @     @ @ @ @ + + @ 5 + + + + $ $ @ @   @ + + # # $ $ + # - - | | - - | | ; = } } = ; ; ; - | $ $ ' $ , , $ $ ) ) 3 ) ) 3 ) ) ) ) _ _ g g e g 8 8 b 8 o 9 p p A A B 2 p p r r l l l l 4 4 % % = ; 4 [ } } } } = K K [ } } } } } } } } } } } } | | } } | | | | @ @ @ @ r r r r % x x % > > > > H H H H B B B 2 p B 2 B a A p p A A p 2 A A 2 2 A A p p A A p p a A A A A A A A A A A A A a C C C C C C C C A A C C D D t t t t t t t t t t t t t t t t t t t t t t t t t t t t t t t t t t t t t t t t t t t t t t t t t t t t t t t t t t t t t t t t t t t t t t t t t t t t t t t t D D A A A A A A C u C C C C a a A A A A C C A A A A A A A A A A A A A A A A B B A a B B A A B B B 2 2 B B B H H H H > > q q % x x x r r # # 5 @ @ @ | | | | * * = | = = } L L [ | | = ; = L [ = } } [ [ } } 4 4 [ [ [ [ K = l l l s s l % % i i p p 2 2 A A o a c c e e d d g g 7 7 ) ) ) ) ) ) ) ) ) ) $ : j j $ $ % %     [ [ ; ; [ [ - - } } < < | | @   @   & & > : : : @ @   @ @ @ $ $ + + + + @ @ + + @ @ @       @ @       @ @   @ @     ",
"< < @ @     @ 5     @ @     @ @   @ # + 5 5 # + 5 5 % % % # # +     # # 5 5 & & # + * * - - | | - - | - ; ; } } 4 4     % % > > $ $ $ ' ) ) ) ) ) 3 ) ) ) 3 k k , , g g e d c c 8 a p p 2 p A A 2 B % % l l l l s s : : [ [ = ; P P = ; 4 [ K K } } } < } } < < } } } } } } | | | } < < | | @ @   @ # # r r x % % % : > > z H H H H B B w w p 2 B B A A B 2 A A 2 2 A A B 2 A A 2 2 A A B 2 A A A A a A A A A A A A 9 C A A C C A A C C A A D D t t t t t t t t t t t t t t t t t t t t t t t t t t t t t t t t t t t t t t t t t t t t t t t t t t t t t t t t t t t t t t t t t t t t t t t t t t t t t t t t D D C C C C C C a A C C A A C C a A A A A A A A A A a A A A A A A A A A B 2 A A B p A A B 2 A A B B B 2 H H H H q q > q x % : : # # r r 5 @ @   | | < < < } | | } } L L } L L < } } | | } } } } [ [ } } l l [ [ [ K } } 4 4 l l l l s s y y B 2 2 2 A A p p f f b b 8 8 , g g g _ _ ) ) ) ) ) 3 ) ) ) ) : ' , , : : : $ < < ; ; [ [ = = ; = - - - - @   | - @ @ > $ > > $ $ # +     + + # # # + 5 @ + + @ @ # + @ @ + + @   @ @ @     @ @   @ @ ",
"< < @ @ @   @ @     @ @     @ @     # + 5 5 + + @ 5 % % # # + +   @ # # 5 5 & & # + * * - - | | | - - - = ; } } 4 4     # % > > ' $ $ ' ) ) ) ) ) ) 3 ) ) 3 k k , , g g d d b c a a 2 p p p A A B 2 % % l l l l s s : : [ [ = ; P P = = [ [ K [ } } } < } } < < } } } } } } | | } < < < | | @ @ @   # # r r x % % x > > > z H H H H B B w w B 2 2 B a A p 2 A A 2 2 A A 2 2 A A 2 2 A A 2 2 A A A A a A A A A A A A 9 C A A C C a a C C A A D D t t t t t t t t t t t t t t t t t t t t t t t t t t t t t t t t t t t t t t t t t t t t t t t t t t t t t t t t t t t t t t t t t t t t t t t t t t t t t t t t D D C C C C C C A A C C A A C C A A A A A A A A A A A A A A A A A A A A B B A A 2 p A A 2 B A A 2 B B B H H H & q q q > x x : : # # r r @ @ @ @ | | < < < L | | } } } L | L < < L } | | } } } L [ [ } } l l [ [ [ [ } } 4 4 s s s l l s y y 2 2 2 2 A A p p f f b b b b g g g g _ _ ) ) ) ) ) ) ) ) ) ) : ' , , : : : $ < < ; ; [ [ = = = = - - | -     | |   @ $ $ > > $ $ + + @   + + # # + # 5 @ + + @ @ # + @ @ + + @   @ @ @     @ @   @ @ ",
"@ @ < < @       @ @       @ @ @ # + @ @ + + @ 5 # # + + $ $ @ @   @ + + # # $ $ # # - - | | - - | | = = } } ; ; = ; | - $ $ $ ' , , $ $ ) ) 3 3 ) ) 3 ) ) ) _ _ g g g g 8 8 8 8 8 o 2 2 A A p 2 2 p r r s s l l 4 4 % % = = [ [ Q Q Q Q } } [ [ } L } } L L | L L } } } L | = = | | | | E E | | @ @ @ @ r r 5 5 % % % % > > > z & & & & & w w w 2 2 2 B A A B B A A 2 B A A 2 B A A 2 2 A A A A A A p p A A A A A A A A C C A A a a a A A A D D t t t t t t t t t t t t t t t t t t t t t t t t t t t t t t t t t t t t t t t t t t t t t t t t t t t t t t t t t t t t t t t t t t t t t t t t t t t t t t t t D D A A C C A A A A A A A A A A A A A A A A A A A A A A A A A A A A A A A A A A p p B B B B w w 2 B H H H & > > q q x x x x # # # # @ @ @ @ | | < < L } L } } } } L L } < < L | < < } } L | } } [ K . . , , ' ' [ [ [ [ = = l l s s s l % % 2 2 A A p 2 a a o o c c d d d d g g 7 7 ) ) ) ) ) 3 ) ) ) ) : ' 1 1 : > % %     [ [ = = = ; - - } } | | - |         & & > > : : @ @ @ @ @ . $ $ + + + + @ @ + + @ @ + + @ 5   @ @   @           | | ",
"@ @ < < @       @ @       @ @ @ + + 5 @ # + 5 5 # # # + $ $ @ @ @ @ + + # + $ $ + # - - | | - - | | ; = } } ; ; = ; | | $ $ $ $ , , $ : ) ) 3 ) ) 3 ) ) ) ) _ _ g g g g 8 8 8 8 o o 2 2 A A p 2 p p r r s s s l 4 4 % % = = [ [ Q Q Q Q } } [ [ } L } } L L } L | L L } | | = = | | | | E E | | @ @ @ @ r r 5 5 % % % % > > z z & & & & w w w w 2 B B B A A 2 B A A 2 B A A 2 2 A A p 2 a A A A A A p p A A A A A A A A C C A A a a A A A A D D t t t t t t t t t t t t t t t t t t t t t t t t t t t t t t t t t t t t t t t t t t t t t t t t t t t t t t t t t t t t t t t t t t t t t t t t t t t t t t t t D D A A C C A A A A A A A A A A A A A A A A A A A A A A A A A A A A A A A A A A p p B B B B w w 2 B H H & H > > q q x x x x # # # # @ @ @ @ | | < < } } L L } L L } } } < < L | < < L } L | } } [ K . . , , ' ' [ [ [ [ = = l l l s s l % % 2 2 A A 2 p A a a o c c d d d d g g 7 7 ) ) ) ) ) ) 3 ) ) ) : : 1 1 > > % %     [ [ = = = ; - - } } - | | |     @   & & > > : : @ @ @   @ @ $ $ # + + + @ @ + + @ @ + + @ 5 @ @     @ @         | | ",
"    @ @     . .   @     @   + + 5 @ + + @ 5 # # + + # # + # # +     # % 5 5 & & 5 5 | | | - - | - - = = ; ; = = 4 4     # % > > ' $ ' ' ) ) ) ) ) ) ) 3 ) ) _ _ F F , g e e b c A A a a 2 2 p p p 2 % % l l s s l l : : [ [ = = 4 4 = = = = } } = = | | } } < < } } } L L } L L } } L < | | @ @ | | @ @ @ @ r r 5 5 % % % % > > z z q q > q B B B B p p 2 2 2 p p 2 A A 2 p A A 2 p A A 2 B A A A A A A A A A A A A A A A A A A A A A A A A D D t t t t t t t t t t t t t t t t t t t t t t t t t t t t t t t t t t t t t t t t t t t t t t t t t t t t t t t t t t t t t t t t t t t t t t t t t t t t t t t t C C A A B B A A A A A A A A A A A A A A B B A A A A A A A A A A B B A A B B A A B B p p B B B B & & & w q q > q % % % x # # # # @ @ @ 5 5 @ @ @ | | < < | | | | } } L L } L @ @ | | | | } } L [ [ [ = = [ [ [ [ [ [ } } 4 4 s s s l l s y y 2 2 2 2 A A 2 p a o 8 8 b b e N g g _ _ 3 3 ) ) ) ) ) ) ) ) ' ' , , : : > : < < = = [ [ } } = = - | | - @   | |   @ 1 1 : $ $ $ + +     @ @ # # $ $ + + + # @   + + @ @ @ @     @ @         | |     ",
"    @ @     . . @   @     @ + + @ . + + @ 5 # # # + # # + # # +     % # 5 5 & & 5 5 | | - - | - - - = = ; ; = = 4 4     % # > > $ $ ' $ ) ) ) ) ) ) 3 ) ) ) _ _ F F g e e e b c A A a a 2 2 p p 2 2 % % l l s s l l : : [ [ = = 4 4 = = = = } } = = | | } } < < L } L | } } L L } L L < | | @ @ | | @ @ @ @ r r 5 5 % % % % > > > q q q q > B B B B p p p 2 2 p p 2 A A 2 p A A 2 p A a 2 2 A A A A A A A A A A A A A A A A A A A A A A A A D D t t t t t t t t t t t t t t t t t t t t t t t t t t t t t t t t t t t t t t t t t t t t t t t t t t t t t t t t t t t t t t t t t t t t t t t t t t t t t t t t C C A A B B A A A A A A A A A A A A A A B B A A A A A A A A A A B B A A B B A A B B p p B B B B H H & & q q > q % % % x # # # # @ @ @ 5 5 @ @ @ | | < < L | | | } } L | L L @ @ | | | | } } L } [ [ = = [ [ [ [ [ [ } L 4 4 s s l l s s y y 2 2 2 B A A 2 p o o 8 8 b b d g g g _ _ 3 3 ) ) ) ) ) ) ) ) : : , , : : > : < < = = [ [ } } = = - | | -     | |   @ 1 1 : $ $ $ + + @   @ @ # # $ $ + + # # @   + + @ @ @ @     @ @         | |     ",
"@ @     . @ @   @ @     @ @ @ @ + + @ @ # # + + # # # + $ $ @ @   @ + + # # $ $ # # - - | | } } | | ; ; ; = [ [ ; ; | | $ $ : : , , $ : ) ) ) ) 3 ) ) ) ) ) _ _ g g g g d d 8 8 8 o p p A A 2 B p p r r s s l l 4 4 % % = = [ [ = = [ [ } L 4 = } } L [ | | } } L < } } L } } } < < | | | | = = | | | | @ @ @ @ r r @ 5 % % % % > > > z H H & H 2 2 2 B p p B B A A 2 B A A 2 2 A A 2 p A A 2 B A A A A A A A A A A A A A A A A C C A A A A D D t t t t t t t t t t t t t t t t t t t t t t t t t t t t t t t t t t t t t t t t t t t t t t t t t t t t t t t t t t t t t t t t t t t t t t t t t t t t t t t t D D A A C C A A A A A A A A A A A A A A A A B B A A A A A A A A A A B B A A B B 2 2 2 B B B & H H & > q q > x x x x r r # # @ @ @ @ @ @ @ @ | | | | | | @ @ } } L L } L L | | } | | } } L } = = } } [ [ = = 4 4 [ [ [ [ = = l l s s l l % % 2 2 A A 2 p A A a A c c e d d d g g k k ) ) ) ) ) ) ) ) ) ) ' ' 1 1 : > % % @ @ [ [ = = ; = - - } } < < | |       @ & & > : : : @ @ @ @     $ $ + # # # # + + + @ @ + + @ @ @       @ @ | |     | | ",
"  @     @ @     @ @   @     @ @ + + @ @ # # + + # #   + $ $ @ @ @ @ + # # # $ $ # + - - | | } } | | ; ; = = [ [ = ; | | $ $ : : , , $ $ ) ) ) ) 3 ) ) ) ) ) _ _ g g g g d d 8 8 8 o p p A a B B p p r r s s l l 4 4 % % = = [ [ = = [ [ } } = = } } } } L | } } < < } } L L } L L < | | | | = = | | | | @ @ @ @ r r @ 5 % % % % > > z z H H & H 2 2 2 B p p B B A A B 2 A A 2 p A A p p A A 2 B A A A A A A A A A A A A A A A A C C A A A A D D t t t t t t t t t t t t t t t t t t t t t t t t t t t t t t t t t t t t t t t t t t t t t t t t t t t t t t t t t t t t t t t t t t t t t t t t t t t t t t t t D D A A C C A A A A A A A A A A A A A A A A B B A A A A A A A A A A B B A A B B 2 2 2 B B B & H & & q q q > x x x x r r # # @ @ @ @ @ @ @ @ | | | | | | @ @ } } L L } L L | L | L L } } } L | = } } [ [ = = 4 4 [ [ [ [ = = l l s s l l % % 2 2 A A 2 p a a a A c c d d d d N g k k ) ) ) ) ) ) ) ) ) ) ' ' 1 1 : > % % @ @ [ [ = = ; = - - } } < < | |     @   & & : > : : @ @ @ @     $ $ + # # # # + + + @ @ + + @ @ @         @ | |     | | ",
"    @ @     . .       @   @ + + @ @ + + @ 5 # # + + # # # % + + @   + # @ 5 & & 5 5 | | - - | - - - = = ; ; = = ; ; @ @ % % : $ $ $ ' $ ) ) ) ) ) ) ) 3 ) ) _ _ , F g g e e c c a a A A p p 2 p p 2 % % l l l s s l : : [ [ = = 4 4 = = = = } } = = } } } } | | } } L < } } L | } | < < | | | | n n n | | | @ @ @ @ r r 5 5 % % % % > > > z H & & & w w w w 2 2 2 B A A 2 B A A 2 2 A A p 2 a A 2 p a A A A A A A A A A A A A A A A A A A A D D t t t t t t t t t t t t t t t t t t t t t t t t t t t t t t t t t t t t t t t t t t t t t t t t t t t t t t t t t t t t t t t t t t t t t t t t t t t t t t t t C C A A A A C C A A a A A A A A A A A A A A A A A A A A A A A A B B A A B B 2 2 w w 2 B H & & & q q > q x x x x # # # # @ @ @ @ | | @ @ | | | | | | @ @ | | | | } } L < | | | | } } L | } } } } [ K = = 4 4 [ [ [ [ } } 4 4 s s s l l s y y 2 2 2 B A A p p 8 o b b b 8 g e , g _ _ ) ) ) ) 3 ) ) ) ) ) : : , , $ : $ $ < < = ; [ [ } } = = - | | -     | - @ @ 1 1 : $ $ $ + + @   @ @ # # $ $ + # # # @ @ + + @ @ + + 5 @   @         | |     ",
"    @ @     . . @   @     @ + + @ @ + + @ 5 # # + + # # + # + + @   + # 5 5 & & 5 5 | | - - - | - | = = ; ; ; = = ; @ @ % % : $ $ $ ' ' ) ) ) ) ) ) ) ) ) ) _ _ , F N g d e c c a a a A A p p p 2 2 % % l l s s l l : : [ [ = = 4 4 = = = = } } = = } } L [ | | } } < < } } L L | L < < L | | | | | | n | | @ @ @ @ r r 5 5 % % % % > > > > & & & w w w w w 2 2 2 B A A 2 B A A 2 2 A A 2 B A A 2 p A a A A A A A A A A A A A A A A A A A A D D t t t t t t t t t t t t t t t t t t t t t t t t t t t t t t t t t t t t t t t t t t t t t t t t t t t t t t t t t t t t t t t t t t t t t t t t t t t t t t t t C C A A A A C C A A A A A A A A A A A A A A A A A A A A A A A A B B A A B B p 2 w w 2 B H & & & q q q q x x x x # # # # @ @ @ @ | | @ @ | | | | | n @ @ | | | | } } L < | | | | } } | | } } L } [ [ = = 4 4 [ [ [ [ } } 4 4 s s l l s s y y 2 2 2 2 A A 2 p o o 8 8 b b g g , g _ _ ) ) ) ) ) ) ) 3 ) ) ' ' , , $ : $ $ < < = ; [ [ } } = = - | - -     | |   @ 1 1 : $ $ ' + + @   @ @ # # $ $ + + + #   @ + + 5 @ + +   5 @           | |     ",
"  @       @       @     @ @   @ + + @ @ # # + + # # + + $ $ @ @ @ @ + + # % $ $ # + - - | | } } | | = ; ; = [ [ = =     > > : > , , $ : ) ) ) ) ) ) 3 ) ) ) _ _ , g j j d d 8 8 8 o A A A A B 2 2 p r r s s l l 4 4 % % = = [ [ = = [ [ } } = = } } = = | | } } L < } } < < } } | | | | < < | | | | n | * * * | @ @ @ @ r r @ 5 % % % % > > > > & & & & w w w w 2 2 2 B A A B B A A B 2 A A 2 B A A 2 p A A A A A A A A A A A A C C A A A A D D t t t t t t t t t t t t t t t t t t t t t t t t t t t t t t t t t t t t t t t t t t t t t t t t t t t t t t t t t t t t t t t t t t t t t t t t t t t t t t t t D D A A A A A A A A A A A A A A A A A A A A A A A A A A A A p p A A B B p p w w w w H H & H > > q q x x : : # # # # @ @ 5 5 | | | | n | * | | | < < L | @ @ } L | L L } | | } } L } = = } } = = = = [ [ [ [ 4 4 [ [ [ [ = = l l l s s l % % 2 2 A A 2 2 A A a a b c e d d d g g 7 7 ) ) ) ) ) 3 ) ) ) ) : ' 1 1 $ > # # @ @ [ [ = = ; = | - } } < < | |   @     & & > : : : @ @ @ @     $ $ + # # # # + + + @ @ + + @ @ @ @ @   @ @ | |     | | ",
"  @ @     @       @ @   @     @ + + @ @ # # + + # #   + $ $ @ @ @ @ + + # # $ $ # + - - | | } } | | ; ; = = [ [ = =     > > : > , , $ : ) ) ) ) ) ) ) ) ) 3 _ _ g g j j d d 8 8 8 o A A A A B 2 p p r r s s s l 4 4 % % = = [ [ = = [ [ } } = = } } = = | | } } L < } } < < L } L | | | < < | | | | | n | * | | @ @ @ @ r r 5 5 % % % % > > > > & & & w w w w w 2 2 2 B A A 2 B A A 2 2 A A 2 p A A p p A a A A A A A A A A A A C C A A A A D D t t t t t t t t t t t t t t t t t t t t t t t t t t t t t t t t t t t t t t t t t t t t t t t t t t t t t t t t t t t t t t t t t t t t t t t t t t t t t t t t D D A A A A A A A A A A A A A A A A A A A A A A A A A A A A p p A a B B p p w w w w H H & H > > > q x x : : # # # # @ @ @ 5 | | | | n | * | | | < < | | @ @ | L | L L } | | } } } } = = } } = = = = [ [ [ [ 4 4 [ [ [ [ = = l l s s l l % % 2 2 A A p 2 a A a A c b e d d d g g 7 7 ) ) ) ) ) ) 3 ) ) ) : : 1 1 > > # # @ @ [ [ = ; = = - - } } < < | |         & & : > > $ @ @   @     $ $ # # # # + + + + @ @ + + @ @ @ @ @   @ 5 | |     | | ",
"    @ @     @ @   @ + + @ @ + + @ @ + + 5 5 + # # + # # + # + + @   # # 5 5 & & 5 5 | | ; = } } - - = = [ [ = ; ; = @ @ # % > > ' $ ' ' ) ) ) ) ) ) ) 3 ) ) _ _ F F g g e e c c a a a a 2 2 A A 2 p % % l l s s s l : : [ [ = = 4 4 = = = = } } = = } } } } L | } } | | } } L < } } L < } } | | | | n | * | @ @ E E 5 5 @ 5 % # # # x x x x q q > q & & q q w w w w 2 2 2 B p p B B A A B B A A 2 p A A A A A A A A A A A A A A A A A A A A D D t t t t t t t t t t t t t t t t t t t t t t t t t t t t t t t t t t t t t t t t t t t t t t t t t t t t t t t t t t t t t t t t t t t t t t t t t t t t t t t t D D A A A A A A A A A A A A A A p p A A B B A A p p A A B 2 A A 2 B B 2 w & & w & & w & > > q q x x : : # # % % 5 5 % # @ @ @ @ | | | | | | < < L | < < | | | | | } < < = = } L = = | | } } } L [ [ L } = = [ [ [ [ } } 4 4 s s l l l s y y 2 2 2 2 A A p 2 8 o 8 8 b b , g g g _ _ ) ) ) ) ) ) ) ) ) ) ' ' , , $ $ ' $ < < ; ; ; ; } } v = | | - - @   | - @ @ 1 1 : $ $ $ + +       @ # # $ $ + + # # 5 @ # +   @ + + @ @ @ @         | |     ",
"      @     @ @ @ @ + + @ @ + + @ @ + + 5 5 + # + + # # + # # + @   # # 5 5 & & 5 5 | | = = } } - - = = [ [ = ; ; = @ @ # % > > ' $ ' ' ) ) ) ) ) 3 ) ) ) ) _ _ F F g g e e c c a a a a 2 2 A A 2 p % % l l l s s l : : [ [ = = 4 4 = = = = } } = = } } } L | } } | | | } } L < } } < < } } | | | | n | * | @ @ E E 5 5 5 @ # # # # x x x x q q q > & & q q w w w w 2 2 B B p p B B A A B 2 A A 2 p a A A A A A A A A A A A A A A A A A A A D D t t t t t t t t t t t t t t t t t t t t t t t t t t t t t t t t t t t t t t t t t t t t t t t t t t t t t t t t t t t t t t t t t t t t t t t t t t t t t t t t D D A A A A A A A A A A A A A A p p A A B B A A 2 p A A 2 2 A A B B 2 2 w & w w w & & & q > > q x x : : # # # x 5 5 % # @ @ @ @ | | | | | | < < L | < < | | | | } L < < = = } L = = | | } } } } [ K L } = = [ [ [ [ } } 4 4 s s l l s s y y 2 2 2 2 A A p 2 o o 8 b b b , g g g _ _ ) ) ) ) ) ) ) ) ) ) ' ' , , $ $ ' $ < < = ; ; ; } } v = | | - - @   | |   @ 1 1 : $ $ $ # +     @ @ # # $ $ + + # # @   + + @ @ + + @ @ @           | |     ",
"@ @     @ @   @ # + @ @ + + @ @ + + @ @ # # + + # % + + $ $ @ @ @ @ + + + # $ $ # + m m - - = = | | ; ; = = 4 4 = ;     $ : $ : , , $ : ) ) ) ) ) ) ) ) ) ) _ _ g g j j d d b b o o 2 p A a 2 2 2 p r r s s s l 4 4 % % = = [ [ = ; [ [ | | | | } } = = | | } } | | } } L < } } < < L } L | } } | | | | E E | | @ @ @ @ r r 5 5 % % % # x x x x q q > > & & q q w w w w 2 2 2 B A A B B A A B 2 A A p p A A A A A A A A A A A A A A A A A A D D t t t t t t t t t t t t t t t t t t t t t t t t t t t t t t t t t t t t t t t t t t t t t t t t t t t t t t t t t t t t t t t t t t t t t t t t t t t t t t t t D D A A C C A A A A A A A A A A A A p p A A A A A A 2 2 A A p 2 p p B B B B & H & & q > > q x x : : # % % x # # # # @ @ # # @ @ @ @ | | @ @ | | @ @ | | | | } L | L L } | L } } | | = = } } = = } } [ K = = 4 4 [ [ [ [ = = l l s s l l % % 2 2 A A p 2 a A A A c b e d d d g g 7 7 ) ) ) ) ) 3 ) ) ) ) : ' F j ' $ # # @ @ [ [ } } = = - | - - < < | |         & & : > > $ @ @ @       $ $ # # # # # + + + @ @ + + @ @ + +   @ @ @ | |     | | ",
"@ @       @     + + @ @ + # @ @ + +   @ # # + + # % + + $ $ @ @ @ @ + + # + $ $ + + m m - - = = | | ; ; = = 4 4 ; =     $ : $ : , , $ : ) ) ) ) ) ) ) ) ) ) _ _ g g j j d d b b o o 2 p A A 2 B p p r r s s l l 4 4 % % = = [ [ ; ; [ [ | | | | } } = = | | } } L | } } L < } } < < } } L | } } | | | | E E | | @ @ @ @ r r @ 5 % % # # x x x x q q > > & & q > w w w w 2 2 B B A A B 2 A A B B A A p p A A A A A A A A A A A A A A A A A A D D t t t t t t t t t t t t t t t t t t t t t t t t t t t t t t t t t t t t t t t t t t t t t t t t t t t t t t t t t t t t t t t t t t t t t t t t t t t t t t t t D D A A C C A A A A A A A A A A A A p p A a A A A A 2 B A A 2 2 p p B B B B H H & H > > > > x x : : % % % x # # # # @ @ # # @ @ @ @ | | @ @ | | @ @ | | | | } L | | } < L } } } | | = = } } = = } } K K K = 4 4 [ [ [ [ = = l l s s l l % % 2 2 A A 2 p A A A a c c d d d d g g 7 7 ) ) ) ) ) 3 ) ) ) ) : ' j j $ ' # # @ @ [ [ } } = = | - - | < < | |       @ & & : > : : @ @ @ @     $ $ # # # # # + + + @ @ + + . @ + +   @ 5 @ | |     | | ",
"    @ @   @ . . @ @ + + @ @ + +   @ + + @ 5 # # + + # # + # # +     # % 5 5 & & 5 5 | | ; = } } - - ; = [ [ = ; ; ; @ @ # % > > ' $ ' ' ) ) ) ) ) ) 3 ) ) ) _ _ F F g g e e c c a a A A 2 2 A A p 2 % % l l s s l l : : [ [ = = ; ; = = [ [ } L 4 = } } L [ | | } } L | } } < < L } L < } } L | | | < < | | @ @ E E 5 5 @ 5 # # # # x x x # > > x x q q > q & & & & w w w w 2 2 2 B p p B B A A p p A a A A A A A A A A A A A A A A A A A A D D t t t t t t t t t t t t t t t t t t t t t t t t t t t t t t t t t t t t t t t t t t t t t t t t t t t t t t t t t t t t t t t t t t t t t t t t t t t t t t t t D D A A A A A A A A A A A A A A p p A A A A A A 2 B A A 2 B B 2 w w 2 B H & & & q > q q x x > > x % % x # # # # r r # # @ @ @ @ | | @ @ | | | | | | n | * | < < L } L | } } L } = = } } = = } } K = } } = = = = [ [ } } 4 4 s s l l l s y y 2 2 2 2 A A 2 p 8 o b b d d g g g g _ _ ) ) ) ) ) 3 ) ) ) ) : ' , , $ $ $ $ < < ; ; ; ; } } } } | | - |     | |   @ 1 1 $ $ ' $ # + @     @ # # $ $ + + # # @ @ + + @ 5 # + @ @ @ @       @ @     @ ",
"    @ @   @ . . @ @ + + @ @ + + @ @ # + 5 5 % # + + # # # % # +     % # 5 5 & & 5 5 | | = = } } - - = = [ [ ; ; ; = @ @ % # > > $ $ $ ' ) ) ) ) ) ) ) 3 ) ) _ _ F F e g e d c c a a a a 2 2 A A p 2 % % l l s s l l : : [ [ = = ; ; = = [ [ } } = = } } } } | | } } | | } } < < L } L < } } L | | | < < | | @ @ E E 5 5 5 @ # # # # x x x # > > x x q q q > & & & & w w w w 2 2 2 B B p B B A A 2 p A A A A A A A A A A A A A A A A A A A A D D t t t t t t t t t t t t t t t t t t t t t t t t t t t t t t t t t t t t t t t t t t t t t t t t t t t t t t t t t t t t t t t t t t t t t t t t t t t t t t t t D D A A A A A A A A A A A A A A p p A A A A A A B 2 A A 2 B 2 2 w w 2 B H & & & q q > q x x q > x % % x # # # # r r # # @ @ @ @ | | @ @ | | | | | | | | | | < < } } L L } } L | = = } } = = } } = = } } = = = = [ [ } L 4 4 s s l l s s y y 2 2 2 2 A A 2 p 8 o b b d d g g g g _ _ ) ) ) ) ) 3 ) ) ) ) : ' , , $ $ $ $ < < ; ; ; ; } } } } | | | -     | |   @ 1 1 $ $ ' $ # +     @ @ # # $ $ + + # #   @ + + @ 5 # + @ @ @ @     @ @     @ @ ",
"  @       @ . @ + + @ @ + + 5 @ + + @ @ # # + + % # + + $ $ @ @   @ + + # # $ $ # + m m - - = = | | ; ; ; = 4 4 = = @   $ : $ : , , : : ) ) ) ) ) 3 ) ) ) ) _ _ g g g e e d b b o o 2 p A a 2 2 p p r r s s l l 4 4 % % = = [ [ s s 4 4 } } [ K } } = = | | } } | | } } L < } } < < } } L | } } | | | | @ @ E E 5 @ @ @ r r 5 5 % # # # x x x x > > x x q q > q & & & & & w w w 2 2 2 B p p B B A A A A A A A A A A A A A A A A A A A A A A D D t t t t t t t t t t t t t t t t t t t t t t t t t t t t t t t t t t t t t t t t t t t t t t t t t t t t t t t t t t t t t t t t t t t t t t t t t t t t t t t t D D A A C C A A C C A A A A A A A A p p A A B B A A 2 B 2 2 w w 2 B H H & w q q > q x x > > x % x x 5 5 r r 5 5 % # @ @ @ @ | | @ @ | | | | } } | | } < @ @ | | < L } } } } } [ K } = = } } = = } } = = 4 4 I I [ [ [ [ = = l l l s s l % % 2 2 A A 2 p A A A A c b d e g g F F 7 7 ) ) ) ) ) ) 3 ) ) ) : : ' ' ' $ # # @ @ [ [ } } = = | | - - < < | |     @ @ & & > : : : @ @ @ @     > $ + + # % + + + + @ 5 # + @ @ + +     @ @       @     ",
"  @       @ @ @ # + @ @ + +   @ + +   @ # # + + % # + # $ $ @ @ @ @ + + # # $ $ + + m m - - = = - | ; ; = = 4 4 = =     $ : $ : , , : : ) ) ) ) ) ) ) ) ) 3 _ _ g g g g e d b b o o p p A A B 2 p p r r s s l l 4 4 % % = = [ [ s s 4 4 } } [ K } } = = | | } } | | } } } L L } L @ } } L | } } | | | | @ @ E E 5 @ @ @ r r 5 5 % # # # x x x x : > x x q q > q & & & & & w w w 2 B B B p p B B A A A A A A A A A A A A A A A A A A A A A A D D t t t t t t t t t t t t t t t t t t t t t t t t t t t t t t t t t t t t t t t t t t t t t t t t t t t t t t t t t t t t t t t t t t t t t t t t t t t t t t t t D D A A C C A A C C A A A A A A A A p p A a B B A A 2 B p 2 w & B B & H & w q q q > x x > > x % x x 5 5 r r @ 5 % # @ @ @ @ | | @ @ | | | | } } L | } L @ @ | | < L } } L [ K K } } = = } } K = } } = = 4 4 I I [ [ [ [ = = l l s s l l % % 2 2 A A 2 p A A A A c b d e g g F F 7 7 ) ) ) ) ) ) ) 3 ) ) ' : ' ' > : # # @ @ [ [ } } = = | | | - < < | |     @ @ & & : > : : @ @   @     $ $ # + + # + + + + @ @ + + @   + +     @ @ @   @ @     ",
"      @ @   + # 5 @ + +   @ + +   @ + + 5 @ % % + + # % % % # + 5 @ + # @ 5 & & 5 5 * * = = | - = ; = ; 4 4 = ; 4 4     % # $ $ 1 1 ' ' ) ) ) ) 3 3 ) ) 3 3 7 7 F F g g e e c c a a a A A p p p w w x x l l s s l l : : = = } } = = . . = = } } = = } } = = } } = = | | | | < < | | | | = = @ @ = = | | | | @ @ | | @ @ E E r r 5 @ r r r r # % % # x x x x > q q > & & & & & w w w 2 2 2 B A A B 2 A A 2 p A A A A A A A A A A A A A A A A D D t t t t t t t t t t t t t t t t t t t t t t t t t t t t t t t t t t t t t t t t t t t t t t t t t t t t t t t t t t t t t t t t t t t t t t t t t t t t t t t t D D A A A A C C A A a A A A A A p p A A B 2 p p B B B 2 w & w w H H H & > q q q x x x x x # x x # # # # @ 5 r r 5 @ @ @ @ @ @ @ | | @ @ | | | | | | n | = = | | = = | | = = = = = = | - = = | - = = @ @ < < # # [ [ } L 4 = 4 4 s s 4 4 % % 2 2 2 B A A p p o o 8 8 8 o g g g g k k ) ) 3 ) ) 3 ) ) ) 3 ' ' 1 1 $ $ $ $     = ; ; ; } } - - | - | |     | | + + $ $ > > $ $ @ 5   @ # + # # $ $ + + + # + + % # 5 @ + + @ @ @     @   5   @ @ @ ",
"    @ @ @   + # @ @ + + @   + + @   + + @ 5 % % + + # % % % + + @ 5 # # @ 5 & & 5 5 * * = = | - = = ; = 4 4 ; ; 4 4     # % : $ 1 1 ' ' ) ) ) ) 3 3 ) 3 3 3 7 7 F F g g e e c c a a A A p p p p w w x x l l l s s l : : = = } } = = . . = = } } = = } } = = } } = = | | | | < < | | | | = = @ @ = = | | | | @ @ | | @ @ E E r r @ 5 r r r r # % # # x x x x q q > > & & & & & w w w 2 2 B B A A B 2 A A p p A a A A A A A A A A A A A A A A D D t t t t t t t t t t t t t t t t t t t t t t t t t t t t t t t t t t t t t t t t t t t t t t t t t t t t t t t t t t t t t t t t t t t t t t t t t t t t t t t t D D A A A A C C A A A A A A A A p p A A 2 B p p B B 2 2 w w w w H H H & > q q q x x x x x # x x # # # # @ 5 r r @ 5 @ @ @ @ @ @ | | @ @ | | | | | | | n = = | | = = | | = = = = = = - - = = - - = = @ @ < < # # [ [ } } = = 4 4 s s 4 4 % % 2 2 2 B A A p p o o 8 8 8 8 g g N g k k ) ) ) ) ) ) ) ) ) ) ' ' 1 1 $ $ $ $     ; ; ; ; } } | - | | - |     | | + + $ $ > > : $ 5 5   @ + + # # $ $ # + # + + + # # @ @ + + @ @   @   5 @       @ @ ",
"          @     + + @ @ + + @ 5 + +   @ # # + + % % + + $ $ 5 5 + + + + # # 1 1 # # m m | - = = | - 4 4 = ; 4 4 ; ; - | $ $ > > , , $ $ ) ) ) ) ) ) ) ) ) ) k k g g e g e d d d o o 2 p A A 2 B p p % % M M l l 4 4 % % } } = = ' ' # # } } = = } } K = } } = = | | | | | | } L | | = = | | | | n | * | @ @ | | @ @ | | @ @ @ @ @ 5 5 @ # r @ 5 % % r r x x x x q q > q & & & w w w w w 2 2 2 B A A p p A A 2 p A A A A A A A A A A A A A A D D t t t t t t t t t t t t t t t t t t t t t t t t t t t t t t t t t t t t t t t t t t t t t t t t t t t t t t t t t t t t t t t t t t t t t t t t t t t t t t t t D D A A A A A A A A A A A A A A A A p 2 2 p p B B 2 w w w w & H H & > q q q x x x x # # # x r r # # @ 5 % # @ @ @ @ @ @ @ @ | | @ @ | | | | n | * | = = | | = = | | | | | n = = | - = = | - = = } } = = # # = = = = = = = = l l s s l l : x 2 2 p p 2 p A a A a a 8 i i g g g , 7 7 3 3 ) ) ) ) ) ) ) ) ' : $ $ > > % % @ @ 4 4 } } ; = | | - - @   | |     @   & & > : : : @   5 @ @ @ $ $ % # + # + + + # # + + + @ @ + + @   @     @   5   @ ",
"  @       @     + + @ @ + + @ 5 # + @ @ # # + + % % + + $ $ 5 5 + + # + # # 1 1 # # m m | - = = - - 4 4 = ; 4 4 ; ; | - $ $ > > , , $ $ ) ) ) ) ) ) ) ) ) ) k k g g e g e d d d o o 2 p A A 2 B p p % % M M l l 4 4 % % } } = = ' ' # # } } = = } } = = } } = = | | | | | n | L | L = = | | | | | | | | @ @ | | @ @ | * @ @ @ @ @ 5 @ @ r r 5 5 % % r r x x x x > q q q w & & & w w w w 2 2 B B A A p p A A 2 p A A A A A A A A A A A A A A D D t t t t t t t t t t t t t t t t t t t t t t t t t t t t t t t t t t t t t t t t t t t t t t t t t t t t t t t t t t t t t t t t t t t t t t t t t t t t t t t t D D A A A A A A A A A A A A A A A A p 2 2 p p B 2 2 w w w w H H & H > q q > x x x x # # # % r r # # @ 5 # # @ @ @ @ @ @ @ @ | | @ @ | | | | n | * | = = | - = = | | | | | | = = | - = = | - = = } } = = # # = = = = = = = = s s l l s s x x 2 2 p p 2 p a a A A 8 8 i i g g g , 7 7 3 3 ) ) ) 3 ) ) ) ) : ' > $ > > % % @ @ 4 4 } } = m | | - |     | |     @ @ & & > : : : @   5 @ @ . $ $ # # + # # + + # + + + + @ @ + +     @ @   @     @   ",
"      @     @ @ @ @ + + @   + + @ @ + + @ 5 % % # + % % % % + + @ 5 # # 5 5 & & @ 5 * * = = | - = ; = ; 4 4 = ; 4 4     # % $ $ 1 1 : : ) ) ) ) ) ) ) ) 3 3 7 7 F F N g e e c c a a a a 2 p p 2 2 p x x l l M M l l : : = = = = 4 4 = = = = | - = = } } = = } } = = | | } < L | = = | | | | n | * | @ @ | | @ @ * * @ @ E E 5 5 @ @ 5 5 @ 5 # # r r # # # # x x x x q q > q & & & & w w w w 2 2 B B A A p p A a B p A a A A A A A A A A A A D D t t t t t t t t t t t t t t t t t t t t t t t t t t t t t t t t t t t t t t t t t t t t t t t t t t t t t t t t t t t t t t t t t t t t t t t t t t t t t t t t D D A A A A C C A A a a A A A A p p p 2 2 p 2 2 w w w w H H & & q > > q x x : > # # # x 5 r # % 5 5 r r @ @ @ 5 @ @ @ @ @ @ @ @ | | @ @ | | | | = = | | | | n | * | | | | | | | = = | - = = - - [ [ } L 4 4 = = [ [ } } = = 4 4 l l 4 4 % % p p B B A A 2 p o o 8 8 8 8 e g g g _ _ ) ) ) 3 ) ) ) ) ) ) ' ' 1 1 $ $ $ $     = ; ; ; } } - - | - | | | | | - + + $ $ > > $ $ @ 5   @ 5 5 # # $ $ + + # + + + # + 5 @ + + @ @ @ @ @     @ @   @   ",
"    @ @       @ @ @ + +   @ + +   @ + + @ 5 % % + + # % % % + # 5 @ + # @ 5 & & @ 5 | | = = | - = ; = ; 4 4 ; = [ 4     # % $ $ 1 1 : : ) ) ) ) ) ) ) ) 3 3 7 7 F , g g e e b c a a a a 2 p p 2 2 p x x l l 4 M l l : : = = = = 4 4 = = = = | | = = } } = = } } = = | | | } | | = = | | | | | n | * @ @ | | @ @ * * @ @ E E 5 5 @ @ 5 5 5 @ # # r r # % # # x x x x q q q > & & & & & w w w 2 2 B B A A p p A A 2 p a A A A A A A A A A A A D D t t t t t t t t t t t t t t t t t t t t t t t t t t t t t t t t t t t t t t t t t t t t t t t t t t t t t t t t t t t t t t t t t t t t t t t t t t t t t t t t D D A A A A C C A A a A A A A A 2 p p 2 2 p 2 2 w & w w H H & H > > > q x x > > # # # x 5 r % % 5 5 r r @ @ @ 5 @ @ @ @ @ @ @ @ | | @ @ | | | | = = | | | | | | n | * | | | | | = = | - = = - - [ [ } L 4 4 = = [ [ } } = = 4 4 l l 4 4 % % p p B B A A 2 p o o o 8 8 8 g g g g _ _ ) ) ) 3 ) ) ) ) ) ) ' ' 1 1 $ $ $ $     ; ; = ; ; } | - | | - | | | - | + + $ $ > > $ $ @ 5   @ 5 5 # # $ $ + + # # + + + # 5 @ + + @ @   @   @   @ @   @ @ ",
"@ @       @     + + @ @ + + @ @ + +   @ % # + + % % # + $ $ 5 5 + + + + % # 1 1 # # m m | - = = | - 4 4 = ; 4 4 ; ; | | $ $ > > , , $ $ ) ) ) ) ) ) ) ) ) ) k k g g e g d d e d o o 2 p A A 2 2 p p % % M 4 s s 4 4 % % } } [ K ; ; = = | | = = } } = = } } = = | | = = | | | L | L | | @ @ | | | | | | @ @ | | @ @ E E 5 @ @ @ @ @ @ @ r r 5 5 % # 5 5 % # # r x x x x q q > q & & & w w w w w 2 2 2 B A A B p A a B p A A A A A A A A A A D D t t t t t t t t t t t t t t t t t t t t t t t t t t t t t t t t t t t t t t t t t t t t t t t t t t t t t t t t t t t t t t t t t t t t t t t t t t t t t t t t D D A A A A A A A A A A A A p 2 p p B B B 2 w & B B H H & w > > q q x x > > x % % % r r # # @ 5 r r 5 @ @ 5 5 @ @ @ | | @ @ | | @ @ | | @ @ | | | | | | @ @ | | | | n | * | | | | - = = - - = = = = = = = = l l } } L [ } } l s s l l s z z 2 2 p p 2 p a a a A 8 8 i i g g g , 7 7 ) ) ) ) ) ) 3 ) ) ) : : $ ' > > % % @ @ 4 4 } } = m | | | -     | -     @ @ 1 & : > : : @ @ @ 5 @ @ $ $ # # + # + + + # + + + + @ @ + +     @       @ @ @   ",
"  @     @ @ @   + + @ @ + + @ @ + +   @ # # + + # % + + $ $ 5 5 + + + # % # 1 1 # # m m | - = = - - 4 4 = ; 4 4 ; ; | | $ $ > > , , $ : ) ) ) ) ) ) ) ) ) ) k k g g g e d d e d o o 2 p A A 2 2 2 p % % M 4 l l 4 4 % % } } [ K ; ; ; = | | = = } } = = } } = = | | = = | | | } | | | | @ @ | | | | | | @ @ | | @ @ E E 5 5 @ @ @ @ @ @ r r 5 5 % # 5 5 % # # r x x x x > q q q & & & & w w w w 2 2 B B A A p p A A 2 p A A A A A A A A A A D D t t t t t t t t t t t t t t t t t t t t t t t t t t t t t t t t t t t t t t t t t t t t t t t t t t t t t t t t t t t t t t t t t t t t t t t t t t t t t t t t D D A A A A A A A A A A A A p p p p B B B 2 w w 2 B H & & & q > > q x x : > % % % % r r # # @ 5 r r @ 5 @ 5 5 @ @ @ | | @ @ | | @ @ | | @ @ | | | | | | @ @ | | | | | n | * | | | - = = - - = = = = = = = = s s } } L [ } } s s l l s s z z 2 2 p p 2 p a a a a 8 8 i i g g , , 7 7 ) ) ) ) ) ) ) 3 ) ) ' : ' ' > > % % @ @ 4 4 } L = = - | | -     - -       @ 1 & > > $ ' @ @ 5 5 @   $ $ # # + # + + # + + + # +   @ + + @     @ @     @ @   ",
"      @     @ @ 5 @ + + @   + +   @ + + 5 @ % % + + % % % % + + @   # # 5 5 & & @ 5 * | = = | - = ; = ; 4 4 ; ; 4 4     % # $ $ 1 1 : : ) ) ) ) ) ) ) ) 3 3 7 7 F F g g e e b b o a a A A p p A 2 2 x x l l 4 4 4 4 : : = = = = [ [ } } = = } } = = } } K = } } = = | | | | | | | | @ @ | | @ @ | | | | | | @ @ | | @ @ @ @ r r E E 5 @ @ @ # # r r # % 5 5 % # # % > : x x q q q q w & & & & w w w 2 2 B 2 A A 2 p A A p p A A A A A A A A D D t t t t t t t t t t t t t t t t t t t t t t t t t t t t t t t t t t t t t t t t t t t t t t t t t t t t t t t t t t t t t t t t t t t t t t t t t t t t t t t t C C A A A A C C A A a a 2 2 A A B B B 2 w w w w H H H & > q q q x x q > % % % % r r # % r r # # @ 5 r r @ @ @ @ @ @ @ @ @ @ @ @ | | @ @ | | @ @ | | @ @ @ @ @ @ = = | | | | | | = = | - = = } } = = = = = = = ; [ [ } L = = 4 4 l s 4 4 % % A A 2 B A A p p o o 8 8 8 8 e g g g _ _ ) ) ) ) ) 3 ) ) ) ) : ' 1 1 $ $ $ $     ; ; ; = ; } | - | | | - | | | | + + $ $ > > $ $ + +   @ 5 5 # % $ $ # + # # + + # + @ @ + + @ 5 + + @ @ @ @ @   @ @ ",
"      @     @ @ @ @ + + @ @ + + @ @ + + @ 5 % % + + # % % % + # 5 @ + # 5 5 & & 5 5 * * = = | - = = ; = 4 4 ; ; 4 4     % % $ $ 1 1 : : ) ) ) ) ) ) ) ) 3 3 7 7 F F g g e e c b o a a A A p p A 2 2 x x l l 4 4 4 4 : : = = = = [ [ } } = = } } = = } } = = } } = = | | | | | | n | @ @ | | @ @ | * | | | | @ @ | | @ @ 5 @ r r E E 5 @ @ @ # # r r # # @ 5 # # # x : : x x q q q q & & & & & w w w 2 2 B 2 A A 2 p A A p p A A A A A A A A D D t t t t t t t t t t t t t t t t t t t t t t t t t t t t t t t t t t t t t t t t t t t t t t t t t t t t t t t t t t t t t t t t t t t t t t t t t t t t t t t t C C A A A A C C A A A A 2 B A A 2 B 2 2 w w w w H H & H > > > q x x : > % % % % r r % % r r # % @ @ r r 5 @ @ @ @ @ @ @ @ @ @ @ | | @ @ | * @ @ | | @ @ @ @ @ @ = = | | | | | | = = | - = = } } = = = = = = = ; [ [ } L = = 4 4 s s 4 4 % % A A 2 B A A p p o o o 8 8 8 e g g g _ _ ) ) ) ) ) 3 ) ) ) ) : ' 1 1 $ $ $ $     ; ; ; ; } } | - | | | | - | | | + + $ $ > > $ $ + +     5 5 % % $ $ + + # # + + + # @ @ + + 5 @ + + @ @ @ @     @ @ ",
"@         @ @   + + @ @ + + 5 @ + + + + # # + + % # # # $ $ 5 5 + + + + # % 1 1 # # m m - | = = - - 4 4 ; = [ 4 ; ; - | $ $ > > , , $ $ ) ) 3 3 3 ) ) ) ) ) k k g g g e d d e d o o 2 p A A 2 2 p p % % 4 4 s s 4 4 : : } } [ K = = = = | - = = } } = = } } = = = = = = - | | | | n | * @ @ @ @ @ @ | | @ @ | | E E | | @ @ E E 5 @ @ @ 5 @ @ @ # # 5 5 % # @ 5 % x x # > > x x q q q q & & & w w w w w 2 p p 2 A A 2 p a A p p A A B 2 A A D D t t t t t t t t t t t t t t t t t t t t t t t t t t t t t t t t t t t t t t t t t t t t t t t t t t t t t t t t t t t t t t t t t t t t t t t t t t t t t t t t D D B B A A A A A A A A A A B 2 p 2 w & w w H H H & > q q q x x > > x % % % r r # % r r # % @ 5 % # @ @ @ 5 @ @ @ @ @ @ @ @ | | @ @ | | @ @ | | @ @ | | @ @ | | | | | n | * = = = = = = - - = = } } = = = = [ [ } } } L [ } s s 4 4 s s z z 2 2 A A 2 p A A a a b b e d g g , , 7 7 ) 3 ) ) ) ) 3 ) ) ) : : ' ' > > % % @ @ 4 4 } } ; = | | - - @   - - |     @ & & > : : : @ @ @ 5   @ : : # # + # + + # # + + + + @   + + @ @ + +       @   @ ",
"  @     @ @ @   + + @ @ # + @ @ # + + + # # + + % % # # $ $ 5 5 + + + + % # 1 1 # # m m - - = = | - 4 4 = ; 4 4 ; ; | | $ $ > > , , $ $ ) ) 3 3 3 ) ) ) ) ) k k g g g g d d e d o o 2 p A A 2 B p p % % M 4 l s 4 4 : : } } [ [ = = = = | - = = } } = = } } = = = = = = - | | | | | n | @ @ @ @ @ @ | | @ @ | | E E | | @ @ E E 5 @ @ @ 5 @ @ @ # # @ 5 # # @ 5 % x % % > > x x q q q q & & & & w w w w 2 p p 2 A A p p A A p p A A B 2 A A D D t t t t t t t t t t t t t t t t t t t t t t t t t t t t t t t t t t t t t t t t t t t t t t t t t t t t t t t t t t t t t t t t t t t t t t t t t t t t t t t t D D B B A A A A A A A A A A 2 B B 2 w w w w H H & & q > q q x x > > x % % % r r % % r r % # @ 5 # # @ @ @ 5 5 @ @ @ @ @ @ @ | | @ @ | | @ @ | | @ @ | * @ @ | | | | | | | | = = = = = = - | = = } } = = = = [ [ } } } } L [ [ s 4 4 s s z z 2 2 A A 2 p A A a a b b d d d g , , 7 7 3 3 ) ) ) ) ) ) 3 ) : : ' ' > > % % @ @ 4 4 } } = m | | - - @   - - |     @ & & : > : : @   5 5   @ : : # # # + # + # # + + + + @   + + @ @ + +     @ @ @   ",
"      @       @ @ @ + +   @ + +   @ # # @ 5 % # + + % % % % + + @   # # 5 5 & & 5 5 * | = = | - = = ; = 4 4 ; ; 4 4     % % $ $ 1 1 : : ) ) ) ) 3 3 ) ) 3 3 7 7 , F g g e e c b o a a a 2 p A A w w x x l l 4 4 4 4 : : = = } } = = } } K } | | } } | | } } L | = = | | | | | | | | | | n | @ @ @ @ @ @ | | | * * | E E | | @ @ E E 5 @ @ @ r r 5 5 % # 5 5 # # # # x x x % > : x x q q q q & & & & w w B B p p B 2 A A 2 p A A p p A A A A D D t t t t t t t t t t t t t t t t t t t t t t t t t t t t t t t t t t t t t t t t t t t t t t t t t t t t t t t t t t t t t t t t t t t t t t t t t t t t t t t t D D A A A A A A A A A A B B p p w w w w & H & & q > q q x x > > x % % % r r r r r r # % @ 5 # # @ 5 # # @ @ @ @ @ @ @ @ @ @ @ @ | | @ @ | * @ @ @ @ | | | | | | | | | | = = | | | = | | } } | | = = } } = ; ; = = [ L } = = 4 4 s s 4 4 % % A A 2 p a A A A o o 8 8 8 8 g g g g _ _ ) ) ) ) ) 3 ) ) ) ) ' $ 1 1 $ $ $ $     = ; ; ; } } | - | | | - - | - - + + 1 1 > > $ $ + + @   @ 5 $ $ $ $ + + # # # + # # @ @ + + @ @ + # @ 5 @     @   5 ",
"    @ @ @   @ @ @ @ + + @ @ + + @ @ # # 5 @ % % + + # % % % + + @ @ + # 5 5 & & @ 5 | | = = | - = = ; = 4 4 ; ; 4 4     % % $ $ j 1 : ' ) ) ) ) 3 3 ) 3 3 3 7 7 F F g g d e c b a a A A p p A A w w x x l s 4 4 4 4 : : = = } } = = } } } } L | } } | | } } L | = = | | | | n | * | | | | | @ @ @ @ @ @ | | * * | | E E * * @ @ E E 5 @ @ @ r r 5 5 # # @ 5 # # # # x x x % > : x x q q > q & & & & & w B B p p B 2 A A 2 p A A p p A a A A D D t t t t t t t t t t t t t t t t t t t t t t t t t t t t t t t t t t t t t t t t t t t t t t t t t t t t t t t t t t t t t t t t t t t t t t t t t t t t t t t t D D A A A A A A A A A A 2 B p p w w w w H H & & q > q q x x > > % % % % r r r r r r # # @ 5 # # @ @ # # 5 @ @ @ @ @ @ @ @ @ @ @ | | @ @ | | @ @ @ @ | | | | | | | | | | = = | | = = | | } } | | = = } } = ; ; = = [ L L = = 4 4 s s 4 4 % % A A 2 p A A A A o o 8 8 8 8 g g g g _ _ ) ) ) ) ) ) ) ) ) ) $ $ 1 1 $ $ $ $     ; ; = ; } } - - | | - - - | | - + + 1 1 > > > $ + +     5 5 $ $ $ $ + + + # # + # #   @ + + @ @ + # @ 5   @ @   @ @ ",
"  @     @ @     + + @ @ + + @ @ + + + + # + + + % % # # $ $ 5 5 + + @ @ # # $ $ % % n | | | = = - - 4 4 ; ; 4 4 ; ; | - $ $ > : , , $ $ ) ) 3 ) ) ) ) ) ) ) k k g e g g e d d d a o 2 p A A p p 2 2 % % 4 4 s s 4 4 : : | | = = } } = = | | } } L | } L | | } } L | | | | | n | * | | | | | | | @ @ @ @ @ @ | | E E | | @ @ @ @ @ @ @ @ r r 5 @ # # @ 5 # # r r # % # # x x x # > > x x q q q > & & & & B B B B p p 2 2 A A p 2 a A 2 2 A A D D t t t t t t t t t t t t t t t t t t t t t t t t t t t t t t t t t t t t t t t t t t t t t t t t t t t t t t t t t t t t t t t t t t t t t t t t t t t t t t t t D D B B A A A A A A B B p p B 2 B B & H & & q q > q z z > > x % % % r r r r @ @ # # r r # # @ 5 # # @ 5 # # @ @ @ @ @ @ @ @ @ @ @ @ @ @ @ @ @ @ @ @ | | | | | n | * | | | | | | | | = = | | } } L | = = = = = = } } } } L [ [ s 4 4 s s > > 2 2 A A p 2 o o 8 a C 9 8 8 e d g g 7 7 3 3 ) ) ) ) ) ) ) ) : : 1 1 > > # #     4 4 ; = = ; - - - | - | - | - | @ @ & w : > > > @ @ 5 5 @ @ > > x % # # + # + # + + + + @ @ + + @ @ + +     @       ",
"@       @ @     + + @ @ + + @ 5 + + + + # + + + % # # # $ $ 5 5 + + @ @ # # $ $ % % n | | | = = - - 4 4 ; = 4 4 ; = | - $ $ $ > F , $ $ ) ) 3 ) ) ) ) ) ) ) k k g g g g e d d d o o 2 p A A p p p 2 % % 4 4 s s 4 4 : : | | = = } } = = | | } } | | } } L | } } | | | | | | | | n | * | | | | | @ @ @ @ @ @ | | E E | | @ @ @ @ @ @ @ @ r r @ 5 # # @ 5 # # r r # % r # x x x % > : x x q q > q & & & & B B B B p p 2 2 A A 2 p A A p 2 A A D D t t t t t t t t t t t t t t t t t t t t t t t t t t t t t t t t t t t t t t t t t t t t t t t t t t t t t t t t t t t t t t t t t t t t t t t t t t t t t t t t D D B B A A A A A A 2 B p p B B B B H H & H > q q q > z z > % % % % r r r r @ 5 # # r r # # @ 5 # # @ @ # # @ @ @ @ @ @ @ @ @ @ @ @ @ @ @ @ @ @ @ @ | | | | | n | * | | | | | | | | = = | | } } L | = = = = = = } } } L [ } s s 4 4 s s > > 2 2 A A 2 p o o 8 a 9 9 8 8 e d g g 7 7 3 3 ) ) ) ) ) ) ) ) : : 1 1 > > # #     4 4 ; = = ; - - | - - | | - * * @ @ & & > > > > @ @ 5 5 5 @ > > x % # # # + # + + + + + @ @ + + @ @ + + @   @   @   ",
"  @ @ @     @ @   @ + + 5 @ + + @ @ # # @ 5 # % # + % % % % # # @ @ + + @ 5 & w + + * * - - | - = = = m 4 4 ; ; 4 4     % % > > $ : ' ' ) ) ) ) ) ) ) ) 3 3 7 7 F F g g d d 8 8 a a A A 2 2 2 p p 2 x x M M 4 4 4 4 q q } } L [ | = = = } } | | } } L | } L | | = = | | | L | | | | < < | | @ @ @ @ @ @ @ @ @ @ E E 5 @ @ E 5 @ E E 5 @ 5 5 % # # r # # @ 5 # r @ 5 # # # # x x x % : : x x q q > q & & w & B B B B p p 2 2 a a A A p p A A D D t t t t t t t t t t t t t t t t t t t t t t t t t t t t t t t t t t t t t t t t t t t t t t t t t t t t t t t t t t t t t t t t t t t t t t t t t t t t t t t t C C B B B B A A 2 p A A p B B 2 w & & & q > q q x x > > % % % x r r # % 5 5 r r @ 5 % # # # # # r r # % @ @ @ @ @ @ @ @ | | @ @ @ @ @ @ @ @ @ @ | | | | | | n | * | | | = = | | = = | | } } L [ | = | | @ @ 4 4 } } | | = = 4 4 l s [ [ % % A A 2 2 A A p 2 o o o 8 8 8 g g g g _ _ ) ) ) ) ) ) ) ) _ _ $ : 1 1 $ $ % % | - ; ; ; = = = = = m | | - | - | | + + $ $ $ $ : $ 5 5 @   5 5 $ $ $ $ + + % % + + + # @ @ + + @ @ + # @ 5   @     @ @ ",
"  @ @ @     @ @   @ + + 5 @ + +   @ % # @ 5 % % + + # % % % # # @   + + @ 5 & w + + * * - - - | = = m = 4 4 ; ; 4 4     % % > > $ : ' ' ) ) ) ) ) ) ) ) 3 3 7 7 F F g g d d 8 8 a a a A 2 2 p p 2 2 x x M M M 4 4 4 q q } } } L [ | = = } } | | } } L | } L | | = = | | | | | | | | < < | | @ @ @ @ @ @ @ @ @ @ E E 5 @ @ E @ @ E E 5 @ 5 5 % # # r # # @ 5 # r @ 5 # # # # x x x % : : x x q q > q & & & & B B B B p p 2 2 a a A A p p A A D D t t t t t t t t t t t t t t t t t t t t t t t t t t t t t t t t t t t t t t t t t t t t t t t t t t t t t t t t t t t t t t t t t t t t t t t t t t t t t t t t C C B B B B A A 2 p A A p B 2 2 w & & & q > q q x x > > % % % x r r # % 5 5 r r @ 5 % # # # # # r r # # @ @ @ @ @ @ @ @ | | @ @ @ @ @ @ @ @ @ @ | | | | n | * | | | | | = = | | = = | | } } } L [ | = | @ @ 4 4 } } | | = = 4 4 s s [ [ % % A A 2 p a A p p o o 8 8 8 o g g g g _ _ ) ) ) ) ) ) ) ) _ _ $ : 1 1 $ $ % % | - ; ; ; ; = = = = m | | - | | - | + + $ $ $ $ $ : 5 5 @   5 5 $ $ $ $ + + % % + + + +   @ + + @ @ # + @ @ @     @ @ @ ",
"  @   @ + + @   + +   @ + + @ @ + + + + + # @ 5 % % % % > : 5 5 # + @   # # $ $ % % | - | | = = - - = ; ; = 4 4 ; = | | : $ $ > 1 1 : : _ _ ) ) ) ) ) ) ) 3 _ _ g g g g e d d d o o 2 p A A 2 B p p % % M 4 M M 4 4 : : | | = = l l = = | | = = | | } } | | } } @ @ } L | | | | n | * | @ @ | | @ @ @ @ @ 5 5 @ @ @ | * @ @ @ @ @ @ @ @ # # r r # # @ 5 r r 5 @ # # r r # % % # x x x # > > > : q q > q w w w & B B B B A A 2 p o o B B A A D D t t t t t t t t t t t t t t t t t t t t t t t t t t t t t t t t t t t t t t t t t t t t t t t t t t t t t t t t t t t t t t t t t t t t t t t t t t t t t t t t D D B B A A A A A A B 2 B B & w w w q q > q z z z > % x x x x # % % r r % # 5 5 @ 5 @ @ # # # # # # @ @ 5 @ @ @ @ @ @ @ @ @ | | @ @ @ @ @ @ @ @ @ @ | | | * | | | | n | * | = = - - - - - | = = = = @ . = ; ; = L } } } | - s s 4 4 4 4 z z 2 2 p p 2 2 a o A A c c a 8 d d g g 7 7 3 3 ) ) ) ) ) ) ) ) : : $ $ > > # #   @ 4 4 ; = = ; - - = = | - | - @   5 5 & & > > $ > @   5 5 @ @ > > % % x % + + # # @ @ + + @ @ + + @ @ + + @   @   @   ",
"@ @ @   + +     + +   @ + +   @ + + + + # # @ 5 % % % % > : @ 5 # + @ @ + # $ $ % % - | - | = = - - = ; ; = 4 4 ; ; m | : $ : : 1 1 : : _ _ ) ) ) ) ) ) ) 3 _ _ g g g g e d d d o o 2 p A A 2 B p p % % 4 4 [ M M 4 : : | | = = l l = = | | = = | | } } | | } } @ @ } L | | | | | n | * @ @ | | @ @ @ @ @ 5 @ @ @ @ | | @ @ @ @ @ @ @ @ # # r r # # 5 5 r r @ 5 # # r r # % % # x x x # > > : : q q > q w w H H B B B B A A p p o o 2 B A A D D t t t t t t t t t t t t t t t t t t t t t t t t t t t t t t t t t t t t t t t t t t t t t t t t t t t t t t t t t t t t t t t t t t t t t t t t t t t t t t t t D D B B A A A A A A B B B B & w w w q q > q z z > > x % x x % % % % r r % # @ 5 5 5 @ 5 # # # # # # @ @ 5 @ @ @ @ @ @ @ @ @ | | @ @ @ @ @ @ @ @ @ @ | | | | n | * | | | | | = = | - - - - | = = = = . . = ; ; = L L } } | - s s 4 4 4 4 z z 2 2 p p p 2 A o A A c c b 8 d d g g 7 7 3 3 ) ) ) ) ) ) ) ) : : $ $ $ > # #   @ 4 4 ; = = ; - - m = | | - -     @ 5 & & > > $ > 5   5 5 @ @ > > % % x % + + # #   @ + +   @ + + @ @ # +     @     @ ",
"      @ @ @ + + @ @ + +   @ + +   @ + # @ 5 # # + # $ $ % % # # @   + + 5 5 & w + + * * - - - - = = = = 4 4 ; ; 4 4     % % > > $ : ' ' ) ) ) ) ) ) ) ) ) ) k k F F g g d d c c a a a a 2 p p p 2 2 % x M M 4 4 4 4 q q } } L [ @ @ , , } } L [ } } | | } } L | | | | | | n | * | | | | | | | | | | @ @ @ @ r r E E 5 @ E E 5 @ @ @ r r @ 5 # # r r # # @ 5 r r @ 5 % # # # # % % # : : x x q > > q q q q q w & & & B B B B A A A A 2 B B B D D t t t t t t t t t t t t t t t t t t t t t t t t t t t t t t t t t t t t t t t t t t t t t t t t t t t t t t t t t t t t t t t t t t t t t t t t t t t t t t t t C C B B B B A A B B 2 B H H & w q q H H z z > > x x x x x # x x # # # % r r # # @ 5 # r @ @ # # # # # # @ @ @ @ @ @ @ @ @ @ @ @ @ @ @ @ | | @ @ | | @ @ | | | | | | | | | | | | = = | | | - - - } } ' ' , , # # } } | | = = 4 4 s s [ [ % % A A 2 B A A A a a o c 8 8 8 g g g g _ _ ) ) ) ) ) ) ) ) ) ) ' ' 1 1 $ $ % % | | ; ; ; ; = = = ; - - - | | - * | + + $ $ > > > $ @ 5     5 5 $ $ $ $ + + # % # + + + @ @ + +   @ # + @ @ @ @     @   ",
"    @ @ @ @ + + @ @ + + @   + + @   + # 5 5 + # + + $ $ % % # # @ @ + + @ 5 & w + + * * - - | - = = = = 4 4 ; ; 4 4     % % > $ $ $ ' ' ) ) ) ) ) ) ) ) ) ) k k F F g g d d c c a a a a 2 2 p p 2 2 % x M M 4 4 4 4 q q } } } L < @ , , } } } L [ } | | } } L | | | | | | | n | * | | | | | | | | | @ @ @ @ r r E E 5 @ E E 5 5 @ @ r r 5 5 % # # r # # @ 5 # r @ 5 % # # # # % # # $ : x x q > > > q q q q & & w & B B B B A A A A 2 B B B D D t t t t t t t t t t t t t t t t t t t t t t t t t t t t t t t t t t t t t t t t t t t t t t t t t t t t t t t t t t t t t t t t t t t t t t t t t t t t t t t t C C B B B B A A B B B B & H & w q q H H > z z > % x x x x # x x # # # x 5 r % # @ 5 # r @ @ # # # # # # @ @ @ @ @ @ @ @ @ @ @ @ @ @ @ @ | | @ @ | | @ @ | | | | n | * | | | | | = = | | | - - - } } ' ' , , # # } } L | = = 4 4 s s [ [ % % A A 2 B A A A A o o 8 8 8 8 g g g g _ _ ) ) ) ) ) ) ) ) ) ) ' ' 1 1 $ $ % % | | ; ; ; ; = = = = - - - - | | - * . + $ $ $ > : $ 5 5 @   5 5 $ $ $ $ + + % % + + + + @ @ + + @ . + + @ @   @     @ @ ",
"@ .     + + @ @ + + @ @ + +   @ # # + + # # 5 @ # % % % : : @ 5 + +   @ # # $ $ % % - | - | - - - - = ; ; ; 4 4 ; ; | | : $ : : 1 1 $ $ ) ) 3 3 3 3 ) ) 3 3 _ _ g g g g d d d d o o 2 p A A 2 B p p % % 4 4 M M 4 4 : : | | = = | | = = | | } } | | } } | | } } } L | = = | | | | | n | * | | | @ @ | | @ @ @ @ @ @ E E 5 @ @ @ r r 5 5 % # # r # # 5 5 r r @ 5 # # r r # % # # x x x % : : x x > > z z H H > q B B w w 2 2 B B p p w & A A D D t t t t t t t t t t t t t t t t t t t t t t t t t t t t t t t t t t t t t t t t t t t t t t t t t t t t t t t t t t t t t t t t t t t t t t t t t t t t t t t t D D H H A A 2 B B B H H & w H H & H > > > q x x q > % % % x # % % x r r # % @ 5 # # @ 5 # # @ 5 % # # # # % @ @ @ @ @ @ @ @ @ @ @ @ @ @ @ @ @ @ @ @ | | * | | | | n | * | | | | | | | | | | = = | | | L | < = = } L } } | - s s 4 4 4 4 z z 2 2 p p 2 2 a o A A c c a 8 d d g g 7 7 ) ) ) ) ) ) ) ) ) ) : : 1 1 > > # # @   4 4 ; = = ; - - = = | m - -     @ @ & w : > $ > @ @ 5 5 5 5 > > % % x % + + + # @ @ + + @ @ + + @ @ + +   @   @ @   ",
"@ @ @   + + @ @ + + @ @ + + @   + # + + # # 5 @ # % % % : : 5 @ + + @   # # $ $ % % - | | m - - - - ; ; = ; 4 4 ; = | | $ $ > : 1 1 $ $ ) ) 3 3 3 3 ) ) 3 3 _ _ g g g g d d d d o o 2 p A A 2 B p p % % M 4 M M M 4 : : | | = = | | = = | | } } | | } } L | } } | L = = | | | | n | * | | | | | @ @ * * @ @ @ @ @ @ E E 5 @ @ @ r r 5 5 % # # r # # @ 5 r r @ 5 # # r r # % r # x x x # > > x x : > > > & & q q B B w w 2 B B B p p & & A A D D t t t t t t t t t t t t t t t t t t t t t t t t t t t t t t t t t t t t t t t t t t t t t t t t t t t t t t t t t t t t t t t t t t t t t t t t t t t t t t t t D D H H A A 2 B B B & & & w w H H & > q > > x x q > x % % x x # % % r r % # 5 5 % # @ 5 % # @ 5 # # # # + # @ @ @ @ @ @ @ @ @ @ @ @ @ @ @ @ @ @ @ @ | | | | n | * | | | | | | | | | | | | | = = | | | | < < = = L } } } | - s s 4 4 4 4 z z 2 2 p p 2 2 o o a a c c a 8 d d g g 7 7 ) ) ) ) ) ) ) ) ) ) : : 1 1 $ > # #     4 4 ; = ; ; | - = = | - | - @   @ @ & & > > > > 5 @ 5 5 5 5 > > % % x % + + + # @ @ + + @ @ + # @ @ # +     @     @ ",
"@     @ @ @ # + @ @ + +   @ + + + # # # 5 @ # + # # $ $ % % % % @ @ + + @ 5 & & + + * * - - | - = = = = 4 4 ; ; 4 4     % % > $ ' ' : : ) ) ) ) ) ) ) ) 3 3 k k F F g g d d c c a a A A 2 2 p p 2 2 % x M M M 4 4 4 q q } } } } = = } } K = } } } } L | } } | | = = | | | | | | | | | | | | n | * | @ @ E E 5 @ @ @ 5 5 @ 5 # r @ 5 # # 5 5 % # # r # # 5 @ r r 5 5 # # r r # % # # x x x % : : x x : > > > & & H H & w w w 2 B > > 2 B B B D D t t t t t t t t t t t t t t t t t t t t t t t t t t t t t t t t t t t t t t t t t t t t t t t t t t t t t t t t t t t t t t t t t t t t t t t t t t t t t t t t C C B B & & z z H H & w q q H H > > z z x x x x # % x x # # x x r r # % r r # % r r # % @ 5 # # @ @ # # @ . # # @ 5 # # @ @ @ @ @ @ @ @ | | @ @ | | @ @ | | | | | | | n | * | | | - | | | | n | = = } } = = = = } } L | = = 4 4 s s [ [ % % A A B B A A A A o o 8 8 8 8 g g e e _ _ ) ) ) ) ) ) ) ) ) ) $ $ 1 1 $ $ % % | - ; ; = ; } } = = - - - - - | | | + + $ $ > $ : $ # +     + + $ $ $ $ + + % % # + + +   @ + + @ . + + @ @ + + @ @ + + ",
"@   @ @ @ @ # + @ @ + + @ @ + + + # # # 5 5 # # % # $ $ x % % % @ @ + + @ 5 & & + + * * - - | - = = = = 4 4 ; ; 4 4     % % > $ ' ' : : ) ) ) ) ) ) ) ) 3 3 k k F F g g d d c c a a a A 2 2 2 p p 2 x x M M M 4 4 4 q q } } } } = = } } K = } } } } | | } } | | = = | | | L | | | | | n | * | | | | @ @ E E 5 @ 5 @ @ 5 @ @ r r 5 5 # # @ 5 # # r r # # @ 5 r r @ 5 # # r r # % # # x x x % : : x x > > > z H & H H & w w w 2 B > > 2 B B B D D t t t t t t t t t t t t t t t t t t t t t t t t t t t t t t t t t t t t t t t t t t t t t t t t t t t t t t t t t t t t t t t t t t t t t t t t t t t t t t t t C C B B & & z z H H w w q q & & > > z z x x x x x # % x # # x x r r # % r r # # r r # # 5 5 % # @ @ # # @ @ # # @ 5 # # @ @ @ @ @ @ @ @ | | @ @ | | @ @ | * | | | | | n | * | | | - | | | | | n = = } } = = = = } } L | = = 4 4 s s [ [ % % A A 2 B A A A a a o c 8 8 8 g g g g _ _ ) ) ) ) ) ) ) ) ) ) > $ 1 1 $ $ % % | | ; ; ; ; } } = = - - | - | | | m + + : $ > > $ : + +     + + $ $ $ $ + + % % # + + + @ @ + + @ . + + @ @ + + @ @ # + ",
"+ #   @ + +   @ # + @ @ + + @   # # + + % % # + % % % % > > + # + +   @ # # $ $ # % | | | | | - - - ; ; ; = 4 4 ; ; | | $ $ > : 1 1 $ $ 3 3 3 ) ) ) ) ) ) ) k k g g g g d d d d o o 2 p A A p B p p % % 4 4 M M M 4 : : | | = = | | } } | | } } | | } } L | } } | | | L | L | | | | | n @ @ | | E E | | @ @ @ @ r r 5 @ r r 5 @ # # @ 5 # # r r # # @ 5 r r 5 @ # # r r # % # # x % % # x x % % % x x x q q q > & & q q w & & & w w H H B B C C t t t t t t t t t t t t t t t t t t t t t t t t t t t t t t t t t t t t t t t t t t t t t t t t t t t t t t t t t t t t t t t t t t t t t t t t t t t t t t t t D D H H p p 2 2 w w H H & & q > q q x x z z % % % x x % % x # # # % r r # % r r # % 5 5 % # @ @ # # 5 @ # # @ 5 # # # # # # @ @ @ @ @ @ @ @ @ @ @ @ | | | | | | n | * | | | | | | | | - - | | - - | | | < < = = } L } } - - s s 4 4 4 4 z z 2 2 A A 2 p o o 8 a 9 9 8 8 d d e g 7 7 3 3 ) ) ) ) ) ) ) ) ' ' 1 1 $ > # #     4 4 } L m = - | - - @   - - @     @ & w : > > > @ @ 5 5 5 5 : : % % x % + + # #   @ + + @   + + 5 @ + + 5 @ + + 5 @ ",
"+ +   @ + + . @ # + @ @ + +   @ # # + + % % # + % % % % > > # + + +   @ # # $ $ % % | | | | - - - - ; ; ; ; 4 4 ; ; m | $ $ > : 1 1 $ $ 3 3 3 ) ) ) ) ) ) ) k k g g g g d d d d o o 2 p A A 2 B p p % % 4 4 M M 4 4 : : | | = = | | } } | | } } L | } L | | } } L | } | | | | | n | * | @ @ | | E E | | @ @ @ @ r r 5 @ # r @ 5 # # 5 5 % # # r # # 5 5 r r @ 5 # # r r # % # # x % # # x x x % x x x x q q > q & & q > w & & & w w H H B B C C t t t t t t t t t t t t t t t t t t t t t t t t t t t t t t t t t t t t t t t t t t t t t t t t t t t t t t t t t t t t t t t t t t t t t t t t t t t t t t t t D D H H p p 2 2 w w H H & & > > q q x x > z % % % x x % x x # # # % r r # % r r # # @ 5 # # @ 5 # # @ 5 # # @ @ # # # # + # @ @ @ @ @ @ @ @ @ @ @ @ | | | | n | * | | | | | | | | | | - - | | - - | | | < < = = } L } } | - s s 4 4 4 4 z z 2 2 A A 2 p o o o 8 a 9 9 8 d d g g 7 7 3 3 ) ) ) ) ) ) ) ) ' ' 1 1 > > # #   @ 4 4 } } m = - | - -   @ | -     @ @ & & > > > > @ @ 5 5 5 5 > : % % x % + + # # @ 5 # + @   + + 5 @ + + 5 @ + + @ @ ",
"@ @ @ @ @ @ + +   @ + +   @ + + + + + % + + # % # # : : > : % % @ @ + + @ 5 & & + + | * - - - | = = = m 4 4 ; ; 4 4     % % > $ $ ' : : ) ) ) ) ) ) 3 ) ) 3 7 7 j F g g d d c c a a a a 2 2 p p 2 2 % x M M 4 4 4 4 q q } } } } | | < < L | < < } } L | } } | | | | | | | | | n | * < < L | @ @ | | @ @ E E 5 5 @ @ # # @ 5 r r 5 @ # # 5 5 % # @ 5 # # @ 5 # r r r # % # # x % # # x x x % : : # # $ : x x q q q > q q > q w w w w w & B B u u t t t t t t t t t t t t t t t t t t t t t t t t t t t t t t t t t t t t t t t t t t t t t t t t t t t t t t t t t t t t t t t t t t t t t t t t t t t t t t t t u u H H & H 2 2 H H & H > q q q q > z > x % % x % % % x # # x x # # # x # # # # @ 5 % # @ @ # # @ @ @ @ @ @ R R @ @ # # @ . # # @ @ @ @ | | @ @ @ @ @ @ | | | | | | | | | n | * | | | | } } L | | * @ @ | | - - } } | | = = 4 4 s s [ [ % % A A 2 2 A A A a a o c 8 8 8 g g g g k k ) ) ) ) ) ) ) ) _ _ $ : 1 1 > $ % % | | ; ; ; ; } } = = | - | - | | | m + + $ > > > > $ + + @ @ + + + % $ $ + # # % + + + # @ 5 + + @ @ + # 5 @ + # 5 @ + + ",
"@ @ @ @ @ @ + +   @ + + @ @ + + + + + # # + % % # # $ : : $ % % @ @ + + @ 5 & & + + * * - - | m = = = = 4 4 ; ; 4 4     % % > > $ : : : ) ) ) ) ) ) ) ) ) 3 7 7 j F g g d d c c a a a a 2 2 p p p 2 % x M M 4 4 4 4 q q } } } } | | < < | | < < L } L | } } L | | | | n | * | | | | < < L | @ @ | | @ @ E E 5 5 @ @ % # 5 5 r r @ 5 # # 5 5 # # @ 5 # # @ @ r r r r # # # # x x # # x x x % : : # # $ : x x q q > q q q > q w w w w H H B B u u t t t t t t t t t t t t t t t t t t t t t t t t t t t t t t t t t t t t t t t t t t t t t t t t t t t t t t t t t t t t t t t t t t t t t t t t t t t t t t t t D u H H & H 2 2 H H H & > q q q > > z z x % % x # % x x # # x x # # # % # # # # @ 5 # # @ 5 # # @ @ @ @ @ @ R R @ @ # # @ . # # @ @ @ @ | | @ @ @ @ @ @ | | * | | | | | n | * | | | | | } } L | | * @ @ | | | - } } L | = = 4 4 s s [ [ % % A A 2 p A A A A o o o 8 8 8 g g g g k k ) ) ) ) ) ) ) ) _ _ $ : 1 1 > $ % % | | ; ; = ; } } = = | - | | | m | | + + $ > > > $ $ + # @ @ + + % % $ $ # # % % + + % # 5 5 + + @ @ + + 5 @ + + @ @ + # ",
"@ @ @   # + @ @ + + @ @ + + @ @ : $ # # # x # # $ $ x % $ > + + + +   @ # # $ $ % % | *     - - - - ; ; = ; 4 4 ; ; | - $ $ : : 1 1 : $ _ _ ) ) ) ) 3 3 3 ) 7 k g e g g b b d d 8 o 2 p A A p 2 2 p % % 4 4 M M 4 4 : : | | = = | | } } | | } } | | } } | | } } @ @ | | | | - | | | | n @ @ | | E E | | @ @ @ @ r r 5 5 # # @ 5 # r @ 5 # # @ 5 # r @ 5 # r @ 5 # # r r % % # + x x # # : : # % x x x # > > x x q q > q & & & & 2 2 z z 2 B u C t t t t t t t t t t t t t t t t t t t t t t t t t t t t t t t t t t t t t t t t t t t t t t t t t t t t t t t t t t t t t t t t t t t t t t t t t t t t t t t t D D z z H H H H q q > q & & > > q q x x > z x x x x # % x x # # x x # # # % r # # # # + # # # # # + @ @ @ @ @ @ # # # # # + @ @ @ @ | | @ @ @ @ @ @ | | | * | | | | | n @ @ | | @   - - | | - - < < L | | | = = } L } } - - s s 4 4 4 4 z z 2 2 p p 2 2 o o A A b c b 8 d d g g 7 7 ) ) ) ) ) ) ) ) ) ) ' : > $ > > % # @   4 4 ; = = ; - - = =     - - @   @ @ & & > > > $ @ 5 5 5 5 5 > : # % x % # # # x + + # # @ 5 + + @ @ # + @ @ + + 5 @ ",
"@ @ @   # + @ @ + + @   + + @ @ $ $ + # % % # + $ $ x % $ > + + + + @   # # $ $ % % * *     - - - - ; ; ; = 4 4 ; ; m | $ $ $ > 1 1 : $ _ _ 3 ) ) ) 3 3 ) ) k k g g g g b b d d o o 2 p A A 2 B p p % % 4 4 [ M 4 4 : : | | = = | | } } | | } } | | } } | | } } @ @ | | | | - | | | | | @ @ | | E E | | @ @ @ @ r r @ 5 # # 5 @ r r 5 @ # # @ 5 # # @ 5 r r 5 @ # # r r # % r # x x # # : : # % x x x # > > x x q q > q & & H H p 2 z z 2 B C C t t t t t t t t t t t t t t t t t t t t t t t t t t t t t t t t t t t t t t t t t t t t t t t t t t t t t t t t t t t t t t t t t t t t t t t t t t t t t t t t D D z z H H H H > q > > & & q > > q x x : > % x x x x # % x # # x x # # # x # # # # + # # # # # # + @ @ . . @ @ # # # # # # @ @ @ @ | | @ @ @ @ @ @ | | | | | | | n | * @ @ | | @   - - - | | - < < L | | | = = } L } } - - s s 4 4 4 4 z z 2 2 p p 2 2 o o A A b c b 8 d d g g 7 7 ) ) ) ) ) ) ) ) ) ) : ' ' $ $ > % #   @ 4 4 = = = = - - = =     - - @   @ @ & w : > > > @ @ 5 5 5 5 > : % % x % # # # x + + + # @ 5 + + @ @ + # 5 @ + + 5 @ ",
"    @ @ @   + + @ @ + + @ @ + + # # : $ # # % % # # $ : : $ % % @ @ + + 5 5 & w + # @   - | - | = = = = [ [ ; ; 4 4     > $ > $ > $ $ ' ) ) 3 ) ) ) 3 ) ) 3 k k g g g g e e b c a a a a A A A A 2 B > > 4 4 4 4 4 4 : : = = = = = ; - - | | } } L [ | | } } | | | | E E | | | | | | n | * | @ @ E E 5 @ @ @ r r 5 @ # # @ 5 # # @ @ # # @ 5 # r @ @ r r 5 @ # r r r # # # # x % % # x x % % > : # # $ : x % > : : : q q q > & & & w q > & & u u t t t t t t t t t t t t t t t t t t t t t t t t t t t t t t t t t t t t t t t t t t t t t t t t t t t t t t t t t t t t t t t t t t t t t t t t t t t t t t t t C C % % 1 1 w w q > > q x x : > % x > > x x : : # % x : x % > : # # # x # # # # r r # # @ 5 # r @ 5 # # @ 5 # r @ @ # # @ 5 # # @ @ @ @ @ @ @ @ @ @ @ @ | | | | | | n | * | @ @ | | | | } } L | | | | | = = = = = = } L = = 4 4 s s [ [ % % 2 p B B A A p p f f b b b b g e g g k k ) ) ) ) ) ) ) ) _ _ : : 1 1 : : > $ | | = = = ; - - = = | - - - | | - * . + > > $ > > $ + + 5 @ # # $ $ $ $ # # x % # # % # + + % # @ @ + + . @ + +   @ # + ",
"@   . . @   + + @ @ + + @ @ + + # # : $ # # % % # # $ : $ $ % % @ 5 # + 5 5 & w # #     | - | | = = = = [ [ ; ; 4 4     > $ > $ $ $ $ ' ) ) ) 3 3 ) ) ) 3 ) k k g g g g e e c c a a A A A A A A B 2 > > 4 4 4 4 4 4 : : = = = = = ; - - | | } } } L | } } | | | | | E E | | | | | | | n | * @ @ E E 5 @ @ @ r r 5 @ # # 5 @ # # @ 5 # # @ 5 r r @ 5 r r @ 5 r r r r # % # # x % # # x x x # > > # # $ : x % : : : : q q > > & & & w q > & & u u t t t t t t t t t t t t t t t t t t t t t t t t t t t t t t t t t t t t t t t t t t t t t t t t t t t t t t t t t t t t t t t t t t t t t t t t t t t t t t t t C C % % 1 1 w w q > q q x x > > % x q > % x : : # % > : # % > : # # % % # + x # r r # # 5 5 % # @ 5 # # @ 5 # r @ @ # # @ 5 # # @ 5 @ @ @ @ @ @ @ @ @ @ | | | | | | n | * | @ @ | | | | } } | | | | | | = = = = = = } L = = 4 4 l s [ [ % % p p B B A A p p f f b b b b g g g g 7 k ) ) ) ) ) ) ) ) _ _ : : 1 1 : : > $ | | = = ; = - - = = | - - - - | | | # + $ > > $ : ' + + 5 @ # # $ $ $ $ # # x % # # % # + + % # @ @ + + . @ + + @ @ # + ",
"@ @ @ @ + . . 5 + + @   + + + + $ $ # # : $ # # $ $ % % > $ + + + +   @ # # $ $ % % | | < < | - - - = ; ; = 4 4 ; ; | | > > : : , , : : _ _ ) ) 3 ) ) ) 3 ) k _ g g g g d d b b o o p p A a 2 2 p p % x M [ [ M v v : : | | = = | - - - - | } } L | } } | | } } E E | | | | | | | | n | @ @ @ @ @ @ E E 5 5 @ @ r r 5 @ # # 5 @ # # 5 @ # r @ 5 r r @ @ r r 5 @ # # r r # % # # x x # # : : # % x x % % > : x x : > > : q q q > & w x x & & u C t t t t t t t t t t t t t t t t t t t t t t t t t t t t t t t t t t t t t t t t t t t t t t t t t t t t t t t t t t t t t t t t t t t t t t t t t t t t t t t t C C y y q q 1 1 q q > : q > x x q > x x : : # % x : % % > : x % % x # # # % r r # # @ 5 # # 5 5 % # @ 5 r r 5 @ # # 5 @ # # @ @ @ @ @ @ @ @ @ @ @ @ | | @ @ | | | | | | | | | | n | - - | | | | | | | n | * } } L [ } } - - 4 4 4 4 4 4 z z 2 2 A A p 2 a A o o c c d d e d d g 7 7 ) ) ) ) ) ) ) ) ) ) ' ' $ > > > x %     ; ; } } = = | - = = | | - | - | @ @ & & > > > > @ @ + + 5 5 : : # # $ $ + # $ $ # + + # + + + + @ @ + +   @ + +   @ ",
"@ @ @ @ + . @ @ + +   @ + + + + $ $ # # : $ # # $ $ % # : : # + + + @   # # $ $ % % | | < < - - - - = ; = = 4 4 ; ; m | > > : : , , : : _ _ ) ) ) ) ) 3 3 ) _ _ g g g g d d b b o o p p a a 2 2 p p % x [ [ M M v v : : | | = = | - - - | | } } L | } L | | } } E E | | | | | | n | * | @ @ @ @ @ @ E E 5 5 @ @ r r @ 5 # # @ @ # # @ . r r 5 @ # r @ @ r r 5 @ # # r r # % # # x % # # : : # % x x % % > : x x q > > : : q q > & w x x & & u C t t t t t t t t t t t t t t t t t t t t t t t t t t t t t t t t t t t t t t t t t t t t t t t t t t t t t t t t t t t t t t t t t t t t t t t t t t t t t t t t C C y y q q 1 1 q q > : > > x x q > x x : : % % > : # % : : # % x x % # # # r r # # @ 5 # # @ 5 # # @ 5 r r @ @ # # @ . # # @ @ @ @ @ @ @ @ @ @ @ @ | | @ @ | | | | | | | | | n | * } - - | | | | | | | | n } } L [ } } - - 4 4 4 4 4 4 z z 2 2 A A 2 p a A o o c c d d e d d g 7 7 ) ) ) ) ) ) ) ) ) ) ' : $ $ > > x %     ; ; } } = = - - = = | m - - * * @ @ & w : > > > @ @ + + 5 5 : : # # $ $ + # $ $ + + + # + + + +   @ + + @ @ + +   @ ",
"    @ @ @   + + @ @ % # # + # # # # : $ # # % % # # $ : $ $ % % @ @ + + @ 5 & & + # @   | - | | = ; = = [ [ ; ; 4 4     > $ > > > $ : ' 3 3 _ _ ) ) 3 3 ) ) 7 7 g g g g d d c c a a a a A A A A B 2 x x M 4 4 4 4 4 q q | | | | I I - - < < @ @ } L | | } } L | | | | | | n | * | | @ @ @ @ @ @ E E 5 @ @ @ r r 5 @ # # @ @ # # @ . # # @ @ r r 5 @ # r @ @ r r r r # % # # x % # # x x x # > > # # $ : x % : : x x > > > > q q w w x x q q f f t t t t t t t t t t t t t t t t t t t t t t t t t t t t t t t t t t t t t t t t t t t t t t t t t t t t t t t t t t t t t t t t t t t t t t t t t t t t t t t t a a y y q q i i > > q q x x > z x x q > % x : : # % x : % % > : # # % % r r # % 5 5 % # @ 5 # # @ 5 # # @ 5 r r @ @ # # @ . # # @ @ # # @ @ @ @ @ @ @ @ | | @ @ | | | | | | | - - - - | | | < < L | @ @ s s l l } } L | = = 4 4 s s [ [ % % p p 2 2 a A 2 p f f b b b b g e g g k k ) ) ) ) ) ) ) ) _ _ : : 1 1 $ : % % | | = = ; ; - - = = | - - - | - | | + + $ > > > $ : + + 5 @ # # $ $ $ $ # # x % # # % # + + % # @ @ + + . @ + + @ @ # + ",
"@   @ .     + + @ @ # # # + # # # # : $ # # % % # # $ : $ $ % % @ @ + + @ 5 & w + #     - | | m = = = = [ [ ; ; 4 4     $ $ > > $ $ ' ' ) 3 _ _ ) ) 3 3 ) ) 7 7 g g g g d d c c a a a a A A A A 2 B x x M 4 4 4 4 4 q q | | | | I I - - < < @ @ } L | | } } | | | | | | | | * * | | @ @ @ @ @ @ E E @ @ @ @ r r @ 5 # # @ @ # # 5 @ # # @ @ r r 5 @ # r @ 5 r r r r # % # # # x # # x x x # > > # # $ : x % : : x x q > > > q q w w x x q q f f t t t t t t t t t t t t t t t t t t t t t t t t t t t t t t t t t t t t t t t t t t t t t t t t t t t t t t t t t t t t t t t t t t t t t t t t t t t t t t t t a a y y q q i i > > q q x x > z x x > > x x : : x % : : x % : : # # # x 5 r % # 5 5 % # @ 5 # # 5 5 % # @ @ r r 5 @ # # 5 @ # # @ 5 # # @ 5 @ @ @ @ @ @ | | @ @ | | | | n | * | | - - | | | < < | | @ @ s s l l } } | | = = 4 4 s s [ [ % % p p p 2 A A p p f f b b b b g g g g 7 k ) ) ) ) ) ) ) ) _ _ : : 1 1 $ > % % | - = = ; ; - - = = - - | - | | | | + + $ > > > > $ + + 5 @ # # $ $ > $ # # x % # # % # + # # # @ @ + + . @ + + @ @ # + ",
". . . @ @ . . 5 + + # + # # # + $ $ # # : $ # # $ $ % % : : + # + + @   # # $ $ % % | | < < - - - - = ; = = 4 4 ; ; | - > > > : , , : ' _ _ ) 3 3 3 ) ) ) 3 k k g g e g b b b b o o p p a a 2 2 2 p x x [ [ [ M = = : : < < } } @ @ ' ' @ @ | | | | } } | | } } | | | | | | | | @ @ | | @ @ @ @ @ @ @ @ @ 5 @ @ r r @ @ # # @ @ # # @ @ r r @ @ r r @ @ r r @ @ # # r r % % # # x x # # : : % % x x # % : : % % : : x x q > > > 5 @ z z H H A A t t t t t t t t t t t t t t t t t t t t t t t t t t t t t t t t t t t t t t t t t t t t t t t t t t t t t t t t t t t t t t t t t t t t t t t t t t t t t t t t C C y y 1 1 | | q q : : > > x x > > x x : : % % : : % % : : % % x x # # # # @ 5 # # @ 5 # # @ 5 # # @ 5 r r @ @ r r @ @ @ @ @ @ # # @ 5 @ @ @ @ 5 @ | | @ @ | | @ @ | | | | | | | | | - < < | | < < # # # # # # L L L } | | 4 4 4 4 4 4 z z 2 2 A A p p a a a o c c d d d d g g 7 7 ) ) 3 3 ) ) _ _ ) ) ' ' $ $ > > # # @   ; ; = = m = - | = = | - - - | * @ @ & w : > > > @ @ + # 5 5 : : # # $ $ # # # % + + + # + + + + @   + +   @ + + @ @ ",
". . @ @ + . @ @ + + + # # # # + $ $ # # $ $ # # $ $ % % > $ + + + + @   # # $ $ % % | | < < - - - - ; ; = = 4 4 ; ; | | > > > : , , : : _ _ ) 3 3 3 3 ) 3 3 k k g g g g b b b b a o p p a a 2 2 p p x x [ [ [ M = = : : < < } } @ @ ' ' @ @ | | | | } } | | } } | | | | | | | | @ @ | | @ @ @ @ @ 5 @ @ @ 5 @ @ r r @ @ # # @ @ # # @ @ r r @ @ r r @ @ r r @ @ # # r r % % % # x x # % : : % % x x # % : : % % : : x x q > > > 5 5 z z H H A A t t t t t t t t t t t t t t t t t t t t t t t t t t t t t t t t t t t t t t t t t t t t t t t t t t t t t t t t t t t t t t t t t t t t t t t t t t t t t t t t C C y y 1 1 | | q q : : : > x x > > x x > : % % : : % % : : % % x x # # # # 5 @ # # @ 5 # # 5 @ # # @ 5 r r @ @ r r @ @ @ @ @ @ # # @ 5 @ @ @ @ 5 @ | | @ @ | | @ @ | | | | | | | | - - < < | | < < # # # # # # L L } } | | 4 4 4 4 4 4 z z 2 2 A A p p a a o o c c d d d d g g 7 7 ) ) 3 3 ) ) _ _ ) ) ' ' $ $ $ > # # @   ; ; = = = ; - - = = | - - - | * @ @ & & > > > > @ @ # + 5 5 : : # # $ $ # # # % + + + # # + + + @   + + @ @ # + @ @ ",
"  @ . .   @ # + + # # # # + % # # # $ $ # # % % # # $ : $ $ % %   @ # # 5 5 & w + #     - - | - - | = = ; ; = ; 4 4     $ $ > > $ $ $ ' 3 3 _ _ ) ) _ _ 3 3 7 7 g g d d e d c c a a a a A A A A p 2 > > 4 4 4 4 4 4 : : } } | | # # : ' | | @ @ } } | | } } | | | | | | | | * * * | @ @ @ @ @ @ 5 @ r r @ @ # # @ 5 # # @ 5 # # @ 5 # # @ @ r r @ @ r r @ @ r r r r # # # # # % % # x x x # : : % # $ : % % : : % x : > x x : > H H x x > q o o t t t t t t t t t t t t t t t t t t t t t t t t t t t t t t t t t t t t t t t t t t t t t t t t t t t t t t t t t t t t t t t t t t t t t t t t t t t t t t t t a a y y q q 1 1 : : > > > : > > x x > > x x > : % % : : % % : : % # % % r r % # @ 5 # # @ 5 # # 5 @ # # @ @ r r @ @ 5 @ @ @ r r @ @ # # @ 5 @ @ @ @ @ 5 | | | | | | * | | | | | | - | | | | | | } } < < $ $ | | } } < < } } [ [ M 4 [ [ % % 2 2 p 2 A A p p o o b b b b g g g g 7 7 _ _ 3 ) _ _ ) 3 _ _ : : 1 1 $ $ % % | | = = = ; - - = = | - - | | - * | + + $ > > > : : + # 5 @ # # : $ > $ + + + % # + # + + # # # @ @ + + . @ + + @ @ + + ",
"  @ . . @   # + + + # # # + # # # # : $ # # % % % # : $ $ $ % % @ 5 # # 5 5 & w # # @   - - | - - - = = ; ; ; = 4 4     $ $ > > $ $ ' ' ) 3 _ _ ) ) _ _ 3 3 7 7 g g d d d d c c a a a a a A A A p 2 > > 4 4 4 4 4 4 : : } } | | # # : ' | | @ @ } } | | } } | | | | | | | | | * | | @ @ @ @ @ @ @ 5 r r @ @ # # @ @ # # @ @ # # @ @ # # @ @ r r @ @ r r @ @ r r r r # # # # # % # # x x x # : : % # $ : % % : : % x > > x x > : H H x x q q o o t t t t t t t t t t t t t t t t t t t t t t t t t t t t t t t t t t t t t t t t t t t t t t t t t t t t t t t t t t t t t t t t t t t t t t t t t t t t t t t t a a y y q q 1 1 : : > > : : > > x x > > x x > : % % : : % % : : % # # x r r % # 5 @ # # 5 @ # # 5 5 # # @ 5 r r @ @ @ 5 @ @ r r @ @ # # @ @ @ @ @ 5 @ @ | | | | | | * | | | | | - - - | | | | | } } < < $ $ | | } } < < } } [ [ M 4 [ [ % % p 2 2 p A A p 2 o o b b b b g g , g 7 7 _ _ ) ) _ _ 3 3 _ _ : : 1 1 $ $ % % | - = = ; ; - - = = | - - - | - | | + + > > $ > : : + # @ @ # # : $ $ $ + + + # + + # # + + # # @ @ + + 5 @ + + @ @ + + ",
". . . @ + + @   # # # + + # + + $ $ # # $ $ # # $ $ % % : : + # + + + + + # 1 1 # % | - | | = = | - ; ; } } [ [ ; ; | | > > : > , , : ' _ _ ) 3 _ _ ) ) _ _ k k g g g g b b b b a o p p a a 2 2 2 p x x [ [ M 4 v v : : | | = = < < | | | | } } | | } } | | } } | | | | | | | * @ @ < < @ @ @ @ 5 @ @ @ r r @ @ r r @ @ # # @ @ # # @ 5 r r @ @ r r @ @ r r @ @ # # r r # % % # x x # # : ' % % : : % # : : % x : > x x > > x x & & % % q q o a t t t t t t t t t t t t t t t t t t t t t t t t t t t t t t t t t t t t t t t t t t t t t t t t t t t t t t t t t t t t t t t t t t t t t t t t t t t t t t t t C C r r 1 1 : > > q : : > > x x > : x x > : % % : : % % : : % # x x # % # # @ 5 # # 5 5 # # 5 @ # # 5 5 r r @ @ @ 5 @ @ r r @ @ # # @ 5 @ @ @ @ @ 5 @ @ @ @ | | @ @ | | | | | | | - - - - | | | < < = = | | = = | | } L L | 4 4 [ [ M 4 z z 2 2 A A 2 2 A A A A b c d d d d g g k 7 ) ) _ _ _ _ _ _ _ _ $ : ' $ > > # #     ; ; = = = ; - - = = | - | - | | @ @ & & > > > > @ @ + # 5 5 : : # # % % # + # + 5 5 # # # + + + @ @ + + @ @ + + @ @ ",
". . @ @ + # . @ # # + # # # + + : $ # # $ $ # # $ $ % # : : + + + # + + + # 1 1 % % | - | | = = | | ; ; } } [ [ ; ; | | > > : > , , : : _ _ ) 3 _ _ ) ) _ _ 7 k g g g e b b b b a o p p a a 2 2 p p x x [ [ [ M 4 v : : | | = = < < | | | | } } | | } } | | } } | | | | | | | | @ @ < < @ @ @ @ 5 @ @ @ r r @ @ r r @ @ # # @ @ # # @ @ r r @ @ r r @ @ r r @ @ # # r r % % # # x x # % : : % % : : % # : : % x > > x x > > x x & & % % q q o a t t t t t t t t t t t t t t t t t t t t t t t t t t t t t t t t t t t t t t t t t t t t t t t t t t t t t t t t t t t t t t t t t t t t t t t t t t t t t t t t C C r r 1 1 : > > q : : > > x x : > x x : > x % : : % % : : % % x x # % # # @ 5 # # 5 5 # # 5 5 # # 5 5 r r @ @ @ 5 @ @ r r @ @ # # @ 5 @ @ @ @ @ @ 5 @ @ @ | | @ @ | | | | | | * | | - - | | | < < = = | | = = | | | } L | 4 4 [ [ 4 4 z z 2 2 A A p 2 a a a a b c d d d d g g k 7 ) ) _ _ _ _ _ _ _ _ : : ' $ > > # #     ; ; ; = = = - - = = | | - | - | @ @ & w : > > > @ @ + # 5 5 : : # # # % + + # # 5 5 + # # + + + @ @ + + @ @ + + @ @ ",
"@   @ . 5 @ + + + + # # + + + # # % $ $ # # % % # # $ : $ $ % % @ @ # # 5 5 & & + # @   - - - | - - = = ; ; ; ; 4 4     $ $ > $ $ $ ' ' 3 3 7 k 3 3 _ _ 3 3 7 7 g g d d d d c c a o a a A A A A p 2 x x 4 4 4 4 4 4 q q | | | | } } | | | | < < } } | | } } | | | | < < | | | | | | @ @ @ @ @ 5 E E @ @ @ @ r r @ @ r r @ @ # # @ 5 # # @ @ r r @ @ r r @ @ r r r r % # # # x % % # x x # % : : % x : > x x : : % x > > x x > : H q % % q q o o t t t t t t t t t t t t t t t t t t t t t t t t t t t t t t t t t t t t t t t t t t t t t t t t t t t t t t t t t t t t t t t t t t t t t t t t t t t t t t t t a a y y q q 1 & : : > q : : > > x x > > x x > : % % : : % % : : % # # x r r # % 5 @ # # @ @ # # @ 5 # # @ @ r r @ @ r r @ @ # # @ 5 # # @ @ @ @ @ 5 @ @ | | | | | | @ @ | | | | | | | | } } | | } } < < = = | | } } < < - - ; ; 4 4 [ [ % % 2 2 2 p A A p p o o b c b b g g g g 7 7 _ _ ) ) _ _ 3 3 _ _ : : 1 1 $ $ % % | | = ; ; ; } } = = | - - | | - * | + + > > $ > : : # + 5 @ + # $ : $ $ + + + % # + # + + # # # 5 @ + + 5 @ + + @ @ + + ",
"@   . . 5 @ + + + # # # + + # # # # : $ # # % % % # : $ $ $ % % @ @ + # @ 5 & w + #     - - | - - - = = ; ; ; ; 4 4     $ $ > > $ : ' ' 3 3 7 k 3 3 _ _ ) 3 7 7 g g d d d d c c a a a a a A A A 2 2 x x 4 4 4 4 4 4 q q | | | | } } | | | | < < } } | | } } | | | | < < | | | | | | @ @ @ @ @ 5 E E @ @ @ @ r r @ @ r r @ @ # # @ 5 # # @ @ r r @ @ r r @ @ r r r r # % # # x % # # x % # % : : % x : : % x > : % x > > x x > > q q % % q q o o t t t t t t t t t t t t t t t t t t t t t t t t t t t t t t t t t t t t t t t t t t t t t t t t t t t t t t t t t t t t t t t t t t t t t t t t t t t t t t t t a a y y q q & & : : > q : : > > x x > > x x > : x % : : % x : : % # % % r r # % 5 5 # # 5 @ # # @ @ # # @ @ r r @ @ r r @ @ # # @ 5 # # @ @ @ @ @ 5 @ @ | | | | | | @ @ | | | | | | | | } } | | } } < < = = | | } } < < - - ; ; 4 4 [ [ % % 2 2 2 2 A A p p o o b c b b g g g g 7 7 _ _ ) ) _ _ 3 3 _ _ : : 1 1 $ $ % % | | = ; ; ; ; } = = | - - - | | - * . + > > > $ : ' + + @ @ # # : $ $ $ + + # # + + # # # + + # 5 @ + + 5 @ + # @ @ + + ",
"+ # @ @ + + @ @ + # + + # % + + : $ # # $ $ # # $ $ % % : : # + + + + + + # 1 1 % % | | | m = = | | = ; } } [ [ ; = | | $ > > : , , : : _ _ _ _ _ _ 3 3 _ _ k k g g g g b b b b o o p p a a 2 p p 2 % % K K 4 4 = = : : @ @ | | | | | | < < | | | | } } | | } } @ @ | | | | | | | | | | @ @ @ @ @ @ * * @ @ @ @ r r @ @ # # 5 @ # # @ @ r r @ @ r r @ @ r r @ @ # # r r % # # # x x # # $ : % % : : : : > : : > > : : : > > x x & & r r q q A A t t t t t t t t t t t t t t t t t t t t t t t t t t t t t t t t t t t t t t t t t t t t t t t t t t t t t t t t t t t t t t t t t t t t t t t t t t t t t t t t C C 5 @ 1 1 1 1 q q : : > > x x > > x x > : % % : : % # : : % % x x # # # # r r % # 5 5 r r @ 5 r r 5 @ r r @ @ r r @ @ r r 5 @ # # @ @ @ @ | | @ @ | | @ @ | | | | | | @ @ | | | - - - | | | - < < | | | - - | < < | | | | 4 4 [ [ 4 4 z z 2 2 A A 2 2 A A a a b c e d d d g g k 7 ) ) _ _ ) 3 _ _ 3 3 ' ' 1 1 > > # #     = 4 ; = = = | - = = | | - - * * @ @ & & > > > > @ @ + + 5 5 : : # # % % + + + # 5 5 # # # + + + @ @ + + @ @ + + @ @ ",
"# + @ @ + + @ @ % # + # % # + + $ $ # # $ $ # # $ $ % % : : + + + # + + + % 1 1 # % | | - | m = | - ; ; } } [ [ ; = | | $ > : : , , : : _ _ _ _ _ _ 3 ) _ _ k k g g g g b b b b o o p p a a p p 2 p x % K K 4 4 = = : : @ @ | | | | | | < < | | | | } } | | } } @ @ | | | | | | | | | | @ @ @ @ @ @ * * @ @ @ @ r r @ @ # # @ 5 # # 5 @ r r @ @ r r @ @ r r 5 @ # # r r % # # # x x # % : : % % : : : : : > : : : > > : : > x x & & r r q q A A t t t t t t t t t t t t t t t t t t t t t t t t t t t t t t t t t t t t t t t t t t t t t t t t t t t t t t t t t t t t t t t t t t t t t t t t t t t t t t t t C C 5 5 1 1 1 1 q q : : : > > x x > > x : > x % : : % % : : % % % x x # # # r r % # 5 5 r r @ 5 r r 5 5 r r 5 @ r r @ @ r r @ 5 # # 5 @ @ @ | | @ @ | | @ @ | | | | | | @ @ | | | | | - - | - - < < | | - - | - < < | | | | 4 4 [ [ 4 4 z z 2 2 A A p 2 A A a a b c e d d d g g k 7 ) ) _ _ 3 3 _ _ ) 3 ' ' 1 1 > > # #     4 4 ; = = = | - = = | | - - * * @ @ & & > > > > @ @ # + 5 5 : : # # # % + + + # 5 5 # # # + + + @ @ + + @ @ + + @ @ ",
"@ @ + + 5 @ + + + + # # % + # # + # : $ + % % % % % $ : : $ + # @ 5 # # 5 @ & w + #     - - - | - - = = = ; ; ; ; ; @ @ > $ $ > ' ' ' ' _ _ _ _ ) ) _ _ 3 3 k k g g d d 8 8 c c a a a a A A A A p 2 x x [ [ K K = = 1 1 | | < < | | @   | | < < | | < < | | < < | | @ @ | | | | | | < < | | @ @ E E @ @ @ @ r r @ 5 # # 5 @ r # @ 5 # # 5 5 # # @ 5 # # 5 5 # # @ 5 # # # # x % # % x x # % # x x # : : x x > : % x : > x x q q : > x % q q o a t t t t t t t t t t t t t t t t t t t t t t t t t t t t t t t t t t t t t t t t t t t t t t t t t t t t t t t t t t t t t t t t t t t t t t t t t t t t t t t t A A y y q q & & : : q q : : > > x x > : x % : : % % : : % % : : % # % % r r % # 5 5 # # @ 5 # # 5 5 # # @ 5 r r @ 5 # # 5 5 r r @ @ @ 5 @ @ @ @ * * | | | | | | * | | | | | @ @ | |     | | < < | | < < | | | | | | < < | | = = 4 4 = = x x A A p 2 a A p p f f c c b b g g , g k 7 3 3 ) ) _ _ 3 3 _ _ : : 1 1 : : % % | | ; = = ; ; } = = | - - | @   - | + + $ > > > $ : # + 5 5 # # + # $ $ # # x % + + # % + + + # # + # # + + + + @ @ + + ",
"@ @ + + @ @ + + + + # # + + # # + + > $ + + % % % % $ : $ $ + # @ @ # # @ 5 & & + #     - - * | - | = = = ; ; ; ; ; @ @ > $ > > ' ' ' ' _ _ _ _ ) ) _ _ 3 3 k k g g d d 8 8 c c a a a a a A A A 2 2 x x [ [ K K = = 1 1 | | < < | |     | | < < | | < < | | < < | |   @ | | | | | - < < | |   @ E E @ @ @ @ r r @ 5 # # @ 5 # # @ @ # # @ 5 # # 5 5 # # 5 @ # # 5 5 # # # # x x # % x x # % # x % % : : % x : > x x : > x x > q q > x % q q o a t t t t t t t t t t t t t t t t t t t t t t t t t t t t t t t t t t t t t t t t t t t t t t t t t t t t t t t t t t t t t t t t t t t t t t t t t t t t t t t t A A y y q q & & : : > q : : : > > x x > > x : : % % : : % % : : % # % % r r # % 5 5 # # @ 5 # # 5 5 # # 5 @ r r @ 5 # # 5 5 r r @ @ 5 5 @ @ @ @ | | | | | - | | | | | | * | @ @ | | @   | | < < | | < < | | - | | | < < | | = = 4 4 = = x x A A p 2 A A p 2 f f c c b b g g , g k 7 3 3 ) ) _ _ 3 3 _ _ : : 1 1 $ : # % | | ; = = ; ; } = = - - - | @   | m + + $ > > > : : # + 5 5 # % # # $ $ # # x % + + % % + # # # + + # # # + # + 5 @ + + ",
". . 5 @ . . @ @ + + + + + # % + $ $ # # : $ # + : : > : $ > % # + + + # # # 1 1 # % | * * m | - - | = = = = 4 4 = =     : : : : , , : : k k ) 3 _ _ ) ) ) 3 7 7 g g g e b b b b a o p p a a 2 2 p p x % = = 4 4 = = : : < < | |   @ | | @ @ < < < < | | < < | | @ @ | | | | | | < < | | @ @ | | @ @ E E @ 5 @ @ # # @ 5 # # 5 5 # # 5 @ # # @ 5 # # 5 5 # # 5 @ # # @ 5 % % # # : : % # % x x # : : x x : > x x : > x x > > q > > q r r q q A A t t t t t t t t t t t t t t t t t t t t t t t t t t t t t t t t t t t t t t t t t t t t t t t t t t t t t t t t t t t t t t t t t t t t t t t t t t t t t t t t o o y y q q > > q q : : > q : : > > x x > > x x : : % % : : % % x x # % # # r r % # 5 5 # # @ 5 # # 5 5 r r @ @ # # @ 5 r r 5 @ 5 @ @ @ @ @ @ @ @ 5 | | @ @ | | | | | | @ @ | | @   | | < < | | < < | |   @ | | < < | | | | 4 4 [ [ [ [ > > 2 2 A A p 2 a a o o 9 9 d d d d j j 7 7 ) ) _ _ 3 ) _ _ 3 3 : : $ $ > > # +     ; ; } } = = - - = =     - |     @ 5 & w : > > $ 5 5 + + + + $ $ % # % % + + % % # # + # + + # # + + # + @ @ + + @ @ ",
". . @ @ . . . @ + + + + # % + + $ $ # # : $ % # : : > : $ > % # + # + + # # 1 1 % % | * * m | - | m = = = = J 4 ; =     : : > : , , : ' k k 3 3 _ _ 3 ) ) 3 7 7 g g e e b b b b o o p p a a 2 2 p p % % K = 4 4 = = : : < < | | @   | | @ @ < < < < | | < < | | @ @ | | | | | | < < | | @ @ | |   @ E E @ 5 @ @ # # @ 5 # # 5 5 # # @ 5 # # 5 5 # # 5 @ # # 5 5 # # @ 5 % % % # : : % # % x % % : : % x : : % x > : x x > > q > q q r r q q A A t t t t t t t t t t t t t t t t t t t t t t t t t t t t t t t t t t t t t t t t t t t t t t t t t t t t t t t t t t t t t t t t t t t t t t t t t t t t t t t t o o y y q q > > q q : : > q : : > > x x > : x % : : % % : : % % x x # % # # r r # % 5 5 # # @ 5 # # 5 5 r r @ @ # # 5 5 r r 5 @ 5 5 @ @ @ @ @ @ @ @ | | @ @ | | | | | | @ @ | | @   | | < < | | < < | | @ @ | | < < | | | | 4 4 [ [ M [ > > 2 2 A A 2 p a a o o 9 9 d d d d j j k 7 ) ) _ _ ) ) _ _ 3 3 : : $ $ ' > # #     ; ; } } = = | - = =     - |     5 5 & w : > > $ 5 5 # + + + $ $ % # % % + # % % # # # # + + # # + + # + @ @ # + @ @ ",
"@ @ @ @ @ @ + + . @ % # + + + # % + $ $ # # : $ % % : : $ $ % % @ @ + # 5 5 & w # #     - - * | - - | - ; ; = = ; ; @ @ $ $ > > $ $ ' $ _ _ _ _ ) ) 3 3 ) ) 7 k g g d d 8 8 c c a a a a A A A A 2 2 x x [ [ K K K = q q | | < < } } | | | | @ @ | | < < | | < < | | @ @ | | | | | | @ @ | | @ @ E E @ 5 @ @ r r @ 5 r r 5 5 r r @ @ # # @ 5 # # @ 5 # # 5 5 # # r r % # # # x x x # % x # # : ' % % : : % x : : x x > > q > q q E E x x > > o o t t t t t t t t t t t t t t t t t t t t t t t t t t t t t t t t t t t t t t t t t t t t t t t t t t t t t t t t t t t t t t t t t t t t t t t t t t t t t t t t A A y y > > * * > > q q : > > q x x > > x x : : % % : : % % : : % # % % r r % # 5 5 # # 5 @ # # 5 5 # # 5 @ r r @ 5 # # @ 5 r r @ 5 5 @ @ @ 5 @ | | @ @ | | | | | | @ @ | | | | | | @   | | @   | | < < | | | | | } < < | | = = 4 4 = = x x A A 2 2 A A p 2 f f c c b b g g , g 7 7 _ _ 3 ) _ _ _ _ _ _ : : 1 1 : : # % | m = = = ; } } = = m | | - .   * * + + > > $ > : : # # 5 5 + # # + $ $ % # # x + + $ $ # + + # 5 5 # # @   + + @   + + ",
"@ @ . . @ @ + + . @ # # # + # # + + : $ # # : $ % % : : $ $ % % @ @ + # 5 5 & & # #     | - - | - - - - ; ; = m = ;   @ $ $ > > > $ : $ _ _ _ _ ) ) 3 3 3 ) k k g e d d 8 8 c c a a a a A A A A 2 2 x x [ [ K K = = q q | | < < } } | | | | @ @ | | < < | | < < | | @ @ | | | | | | @ @ | | @ @ E E @ 5 @ @ r r @ 5 r r @ 5 r r @ @ # # @ 5 # # @ 5 # # 5 5 # # r r % # # # x x % % x x # # : : % % : : % x : > x x : > > > q q E E x x z z o o t t t t t t t t t t t t t t t t t t t t t t t t t t t t t t t t t t t t t t t t t t t t t t t t t t t t t t t t t t t t t t t t t t t t t t t t t t t t t t t t A A y y > > * * > > > q q : > q % x : > x x : > x % : : % x : : # # x % r r % # 5 5 # # 5 5 # # 5 @ r # 5 @ r r 5 @ # # @ @ r r @ @ @ 5 @ @ @ 5 | | @ @ | | | | | | @ @ | | | | | -     | | @   | | < < | | | | L L < < | | = = 4 4 = = x x A A p 2 a A p p f f b c b b e g g g k 7 _ _ 3 ) _ _ _ _ _ _ : : 1 1 $ ' % % | | ; = ; ; } } = = | - | | .   * * + + $ > > > : : # # 5 5 + # # # $ $ % # % % # + $ $ # + # # 5 5 # # @   + +     # + ",
". . @ @ . . @ @ + + + + # % + + # # # # $ $ # # : $ % # $ : # + + + + + + % 1 1 % % * * | | | - - | = = = = ; ; ; =     : > : : , , : : k 7 3 3 _ _ 3 ) 3 3 k 7 g g g g 8 b 8 b o o p p a a 2 p p 2 % % K = 4 4 = = : : < < | | = = ; = < < | | < < | | < < | |   @ | | < < | | < < | | @ @ | | @ @ @ @ r r @ 5 r # @ 5 r r @ 5 # # @ 5 # # 5 5 # # 5 @ # # 5 @ # # r r % # # # x x % # x x % % : : % x : > > : > > > q q : > q w w r r q q A a t t t t t t t t t t t t t t t t t t t t t t t t t t t t t t t t t t t t t t t t t t t t t t t t t t t t t t t t t t t t t t t t t t t t t t t t t t t t t t t t A A 5 @ 2 2 1 1 q q : : > q : : > > x x > : % % : : % % : : % # % x # # # # r r % # @ 5 # # 5 5 # # 5 5 # # 5 @ # # @ 5 r r @ @ r r @ @ 5 @ @ @ @ @ | | @ @ | | | | | | @ @ | | @   | |     | | < < | | } } 4 4 < < | | < < [ [ M [ [ [ > > 2 2 A A p 2 a a a o 9 9 d d e d j j k 7 ) ) _ _ 3 ) _ _ 3 3 : : $ $ q > # +     ; ; = m = ; - - | -     - |     @ 5 & & > > > $ + + # # # # $ $ % % x % # # # x % # + % 5 5 # + @ 5 + +   @ @ @     ",
"@ @ @ @ . . @ @ + + + + # # + + + # % # : $ # % $ $ % % > $ + # + + + + + # 1 1 % % * * | | | - | m = = = = = ; ; =     : > : : , , : ' k 7 3 3 _ _ ) 3 3 3 7 7 g g g g 8 b 8 b a o p p a a 2 p p p x % K = 4 4 = = : : < < | | = = = ; < < | | < < | | < < | | @ @ | | < < | | < < | | @ @ | | @ @ @ @ r r @ 5 r # 5 @ r r 5 5 # # 5 @ # # @ 5 # # 5 5 # # 5 5 # # r r % # # # x % # % x x x # : : x x > > : > > > > q q : > q w w r r q q o a t t t t t t t t t t t t t t t t t t t t t t t t t t t t t t t t t t t t t t t t t t t t t t t t t t t t t t t t t t t t t t t t t t t t t t t t t t t t t t t t A A 5 @ 2 2 1 1 q q : : > q : : > > x x > : % % : : % x : : # % % x x # # # r r % # 5 5 # # 5 5 # # @ 5 # # @ @ # # @ 5 r r @ 5 # r @ @ @ 5 @ @ @ @ | | @ @ | | | | | | @ @ | | @   | |     | | < < | | } } 4 4 < < | | < < [ [ [ M [ [ > > 2 2 A A p 2 a A o o 9 9 d d d e j j k 7 ) ) _ _ 3 ) _ _ 3 3 : : $ $ $ > # +     ; ; = m = ; - - - |     - |     5 5 & w > > $ : + + + % # # $ $ % % x % # # % % # # + % 5 5 # + @ 5 # + @ @ @ @   @ ",
"@ @ + + @ @ # + + # % # + + # % + + $ : # # : $ % # $ : $ $ : $ @ @ + # 5 5 & w # #     - - | * - - | - ; ; = = ; ; . @ % % > > $ $ ' $ _ _ _ _ ) ) 3 3 3 ) k k j j d d d d c c o a a a A A A A p 2 > > [ [ K = = ; q q } } | | 4 4 @ @ ' : < < < < @ @ < < @ @ < < @ @ | | @ @ | |   @ | | @ @ @ @ 5 5 @ @ r r @ 5 r # 5 5 # # 5 @ # # 5 @ # # 5 5 # # 5 5 # # r r % # # # x % % # x x # % : : % x > : : : > > : : > q q > q q H H x % q q o a t t t t t t t t t t t t t t t t t t t t t t t t t t t t t t t t t t t t t t t t t t t t t t t t t t t t t t t t t t t t t t t t t t t t t t t t t t t t t t t t A A y y > q & & : : q q q > q q % x > > x x > : x % : : % % : : % # x % r r # # @ 5 # # 5 5 # # 5 @ # # 5 5 # # 5 @ r # 5 @ r r @ @ r r @ 5 5 @ * * E E | | E E | | | | | | @ @ | | @   | | @   | | # # = = | | } L L < | | = = [ [ K = x x A A 2 B A A p 2 f f b c b b e e e d k 7 ) 3 3 ) _ _ 3 3 _ _ : : 1 1 ' $ $ $     = = = ; = = m = - | | m @ @ * * + # $ $ $ $ : : + # + + % % # + : : # % x % + + # % + + # % + + + #   @ + + @ @ + + ",
"@ @ + + @ @ # + + + # % # + # # + + > $ + # $ $ % # : : $ $ : $ @ @ + # 5 5 & w + #     - - | - | - - - ; ; = = ; ; @ @ % % > > $ $ > : _ _ _ _ ) ) 3 3 ) ) k k j j d d d d c c a a a a a A A A 2 2 > > [ [ = = ; = q q } } | | 4 4 @ @ ' : < < < < @ @ < < @ @ < < @ @ | | @ @ | | @ @ | | @ @ @ @ @ 5 5 @ r r @ 5 r # @ 5 # # @ @ # # @ 5 # # 5 5 # # 5 @ # # r r % # # # x % # # x % # % : : % x > : : : : > > : : q q > q q H H x % q q o a t t t t t t t t t t t t t t t t t t t t t t t t t t t t t t t t t t t t t t t t t t t t t t t t t t t t t t t t t t t t t t t t t t t t t t t t t t t t t t t t A A y y > q & & : : q q > > q q x x > > x x : : % % : : % # : : % # # x r r # # @ 5 # # 5 5 # # 5 @ # # 5 5 # # @ 5 r r @ 5 # r @ 5 # r @ @ 5 5 * * E E | | E E | | | | | | @ @ | | @   | | @   | | # # = = | | } L L < | | = = [ [ K = x x A A B B A A p p f f b c b b e d e e 7 7 ) 3 ) ) _ _ 3 3 _ _ : : 1 1 > : : $     m = } ; ; = m = | - | | .   * * # # $ $ $ $ : : + # + + % % % # ' : # # x % + + % % # + % % # + # + @   + + @ @ + + ",
"# # + + # # + + $ $ # # : $ + % # + % # $ $ # # $ $ > $ $ > # # + + + + + % 1 1 % % * * | | | - | m = = | - = ; ; =     : : > : , , ' ' k 7 ) 3 _ _ ) ) ) 3 7 7 g g g g b b b b o o p p a a p p p 2 x x = = K K = m : : < < } } ' ' i i < < | |   @ < < @ @ < < @ @ < < @ @ | | @ @ | |   @ @ @ 5 5 @ @ r r @ 5 # # @ 5 r r 5 @ # # @ @ # # @ 5 # # 5 5 # # 5 @ % % r r % % # # x x # % : : % x : > x x : > > : : > > > > q q : w w y y 1 & a a t t t t t t t t t t t t t t t t t t t t t t t t t t t t t t t t t t t t t t t t t t t t t t t t t t t t t t t t t t t t t t t t t t t t t t t t t t t t t t t t C C y y q q & & q q : : > q : : > > x x : > x % : : % % : : % % x x # # # # r r # % 5 5 # # 5 @ # # 5 5 # # 5 5 r r @ @ r r @ @ r r 5 @ r r @ @ @ 5 | | E E | | @ @ | |   @ | | @   | |     | | | | | | : : % # < < | |   @ = = ; = = = : > 2 2 2 p 2 2 A A o o b c d d d d g g k 7 ) ) _ _ 3 3 _ _ _ _ ' ' 1 1 > > % % 5 @ ; ; ; = ; } - - | -     | m @ @ 5 5 & w > > > $ + + # # # # $ $ % % # % + + # # + + # % # # # x + + # + + + + +   @ ",
"# # + + # # + + $ $ # # : $ + + # # # % $ $ # # $ $ $ $ > > # # + + + + # # 1 1 % % * * | | | - | | m = - - = ; = =     : : : > , , : : k 7 3 3 _ _ ) 3 3 3 k 7 g g g g b b b b o o p p a a p p p p x % = = K K m m : : < < } } ' ' i i < < | |   @ < < @ @ < < @ @ < < @ @ | | @ @ | | @ @ @ @ 5 @ @ @ r r @ 5 # r @ 5 r r 5 5 # # @ 5 # # 5 5 # # 5 @ # # 5 5 # % r r # % % # x x # % : : % x > : % x > > : : > > > > > q q : w w y y 1 & a a t t t t t t t t t t t t t t t t t t t t t t t t t t t t t t t t t t t t t t t t t t t t t t t t t t t t t t t t t t t t t t t t t t t t t t t t t t t t t t t t C C y y q q 1 & q q : : > q : : > > x x > : % % : : % # : : % # x x # % # # r r # # @ 5 # # 5 5 # # 5 @ # # 5 5 r r @ @ r r @ @ r r 5 @ r r @ @ @ 5 | | E E | | @ @ | | @ @ | | @   | | @   | | | | | | : : % # < < | | @   = = ; = = = : > 2 2 p p 2 p a a o o b c d d d d g g 7 7 ) ) _ _ 3 3 _ _ _ _ ' ' 1 1 > > % % 5 @ ; ; ; = ; } - - - |     - |     5 5 & & > > > $ + + + # # # $ $ % % # % + + + # + + + # % # # % + + # + + + + + @   ",
"# % ' ' # + ' ' + # $ $ # # $ $ + # : $ # # : $ % % $ : > : % % # + # # 5 5 & & # # @   | | - | - - - - = = = = = ; @ @ % % > > $ $ ' $ _ _ _ _ ) ) 3 3 ) ) k k j j d d d d c c o o 9 o A A A A 2 2 > > = = K } = = 1 1 | | | | = = | | } L < < < < @ @ < < @ @ < < @ @ | | @ @ | | @ @ | | @ @ @ @ @ 5 5 5 r r 5 5 # # @ 5 r r @ 5 # # @ 5 # # 5 5 # # 5 5 # # # # # # r r % # # # x % # % : : % x : > > : > > > : q q > > > q & & % x q q o a t t t t t t t t t t t t t t t t t t t t t t t t t t t t t t t t t t t t t t t t t t t t t t t t t t t t t t t t t t t t t t t t t t t t t t t t t t t t t t t t A A y y > q w w : : > q : > > q x x : > x x : > x % : : % % : : % # # x r r # # r r # # @ 5 # # 5 5 # # 5 @ # # 5 @ r r @ @ r r @ 5 r r @ @ r r * * @ @ | | E E | | E E | | @ @ | | @   | | @   | | | | | - < < < } < < | | } } [ [ } } x x A A 2 B A A p 2 f f c c b b e e e d k 7 _ _ ) 3 _ _ _ _ _ _ : : 1 1 : : > $     ; = ; ; = m = ; | - | | .   * * # # $ $ $ $ : > # + + + $ $ % % : : # # % % # # $ $ # # $ $ # # $ $ + + # % + + # # ",
"# # ' ' + + ' ' # # $ $ # # $ $ # # $ $ # # $ $ % % : : > : % % + + # # 5 5 & w # #   @ | | | * | - - | = = = = = ; @ @ % % > > $ $ $ ' _ _ _ _ ) ) 3 3 ) ) k k j j d d d d c c o o 9 o A A A A 2 2 > > = = K } = = 1 1 | | | | = = | | } L < < < < @ @ < < @ @ < < @ @ | | @ @ | | @ @ | | @ @ @ @ 5 5 5 5 r r 5 5 # # 5 @ r r 5 @ # # @ 5 # # 5 @ r # 5 @ # # # # # % # r # % # # # x % % : : % x : > : : > > : : > q > > q q & & % x q q o a t t t t t t t t t t t t t t t t t t t t t t t t t t t t t t t t t t t t t t t t t t t t t t t t t t t t t t t t t t t t t t t t t t t t t t t t t t t t t t t t A A y y > q w w : : > q : > q q % x : > x x : > x % : : % % : : % # # x r r # # r r % # 5 5 # # 5 5 # # @ 5 # # @ @ r r @ @ r r @ @ r r 5 @ r r * * @ @ | | E E | | E E | | @ @ | | @   | | @   | | | | | - < < < } < < | | } } [ [ } } x x A A B B A A p 2 f f c c b b e e e e k 7 _ _ ) 3 _ _ _ _ _ _ : : 1 1 : : > $     ; = ; ; ; = m = | | m @ *   * * + # $ $ $ $ : > # # + + $ $ % % : : # # % % # # $ $ # # $ $ # # $ $ + + # % + + + # ",
"$ ' # # $ $ # # $ $ + # $ $ + # $ $ + # $ $ % % > > : $ : : # # + # # + + % 1 1 $ ' * *     - - - - = = - - = ; = =     : : : : , , : ' k k ) 3 _ _ 3 ) ) 3 7 7 g g g g b b 8 b o o a a A A 2 2 A A x x } } = = | | > > < < } }     } } | | @ @ @ @ < < @ @ < < @ @ < < @ @ | | @ @ < < @ @ @ @ 5 5 @ @ r r @ 5 r # 5 @ r r 5 5 # # @ 5 # # 5 5 # # 5 @ # # 5 5 # % r r % # # # x % # % : : % x > : : : > > : > q q > q q q q > w w y % & & a a t t t t t t t t t t t t t t t t t t t t t t t t t t t t t t t t t t t t t t t t t t t t t t t t t t t t t t t t t t t t t t t t t t t t t t t t t t t t t t t t A a 5 @ & & & & q q : : > q : : : > > x x > > x : : % % : : % % x x # # # # r r % # 5 5 # # 5 5 # # 5 @ # # 5 5 r r @ 5 # r @ 5 r r @ @ r r @ @ 5 @ E E @ @ | | | | | | @ @ | | @   | | @   | |   @ } } < < - | < < < < @ @ = = ; = = = > > 2 2 p p 2 p a a a o o 9 d d d d g g k 7 ) ) _ _ 3 3 _ _ 3 3 ' ' : ' > > % %   @ ; ; = m = ; - - - -     | m @ @ 5 5 & & > > > $ + + % % # % : : $ $ > : x % : : > $ : : % % : $ # # x % + # $ $ # + ",
"$ ' # # $ $ # # $ $ + # $ : # # $ $ # # $ $ # % : > : : $ $ % # # + + + # # 1 1 $ ' * *     | - - - = = | - ; ; = m     : : : : , , : ' 7 k 3 3 _ _ ) 3 3 3 7 k g g g g 8 b b b o o a a A a 2 p a a x x } } = = | | > > < < } }     } } | | @ @ @ @ < < @ @ < < @ @ < < @ @ | | @ @ < < @ @ @ @ 5 5 @ @ r r @ 5 # r @ 5 r r @ 5 # r @ 5 # # @ 5 # # 5 5 # # 5 @ % % r r # % # # x % # % : : % x > : : : > > : : > q > > > q q : w w % % & & a a t t t t t t t t t t t t t t t t t t t t t t t t t t t t t t t t t t t t t t t t t t t t t t t t t t t t t t t t t t t t t t t t t t t t t t t t t t t t t t t t a a 5 @ & & & & q q : : > q : : : > > x x > > x : : % % : : % # x % # # # # r r # % 5 5 # # 5 5 # # 5 @ r # 5 @ r r @ @ r r @ @ r r 5 @ r r @ @ @ @ * E @ @ | | | | | | @ @ | | @   | |     | | @   } } < < - | < < < < @ @ = = ; = = = > > 2 2 p p p 2 a a o o 9 9 d d d d g g k 7 ) ) _ _ 3 3 _ _ 3 3 ' ' : ' > > % % @   ; ; = m = ; - - - - @   | | @ . @ 5 & & > > $ $ + # % % + # $ > $ $ $ > % % : > $ $ : : % % : $ # # % x # # $ $ + # ",
"# # x % # % x % % # : $ + # $ $ % % : : ' $ > $ > $ > > > : ' : : > # % r r w & # #   @ | - | | | - - | = = } } = = @ @ + # > > $ : $ $ _ _ _ _ 3 3 _ _ S S 7 7 g g d d d d 9 9 a a A A A A A A p 2 > > = = | | | | 1 1 E E E E | | @ @ | * * * | * @ @ | | E E @ 5 @ @ | | @ @ @ @ @ @ @ @ 5 @ @ @ # # @ 5 r r 5 @ r r @ 5 # # @ 5 # # 5 5 # # # # # # 5 5 r r 5 5 # % % # x x # % x x # % > > x x > : x % > > : > q q q > & & & H z z > > o o t t t t t t t t t t t t t t t t t t t t t t t t t t t t t t t t t t t t t t t t t t t t t t t t t t t t t t t t t t t t t t t t t t t t t t t t t t t t t t t t A A x x > > q > q q 1 1 q q H H > > : > > x : > x % x x # % x x x # % x # # # # @ @ # # r r # % # # # # @ 5 r r 5 @ # # @ 5 @ @ * * r r r r r r @ @ @ 5 | * @ @ | | @ @ E E @ @ | | @ @ @ @ @ @ | | | | = = | | | | @ @ @ @ | | = = | | x x 8 8 2 2 p p p p o o b b b c g g g g k k _ _ ) 3 _ _ 3 3 _ _ : : 1 1 $ : : : @ @ ; = = ; - - = = | | | m | | m @ @ # 1 1 1 1 : : $ $ # # > : > x : : % % $ $ % # > : # % > : % % % # # % x % + + + # ",
"# # x % # % x % # # : $ # # $ $ # % : : $ $ > $ : $ > > : $ $ > : > # % r r w & # # @   | | | - | - - - = = } } = =   @ + # > > $ : $ $ _ _ _ _ 3 3 _ _ S S 7 7 g g d d d d 9 9 a a a A A A A A p p > > = = | | | | 1 1 E E E E | | @ @ | | * * * | @ @ | | @ E @ 5 @ @ | | @ @ @ @ @ @ @ @ 5 @ @ @ # # @ 5 r r @ 5 # r 5 @ # # 5 5 # # 5 5 # # # # # % 5 @ r r 5 5 # % % # x x # % x x x # > > x x > : x % > > > : > q q > & & & H z z > > o o t t t t t t t t t t t t t t t t t t t t t t t t t t t t t t t t t t t t t t t t t t t t t t t t t t t t t t t t t t t t t t t t t t t t t t t t t t t t t t t t A A x x : > H q q > w 1 q q & & > > : > > x > > x % % x x # x x # % x x # # # # 5 @ # # r r # % # # # # @ 5 r r @ 5 # # @ @ 5 5 * * r r r r r r @ @ @ 5 | * @ @ | | @ @ E E @ @ | | @ @ @ @ @ @ | | | | = = | | | | @ @ @ @ | | = = | | x x 8 8 2 2 p p p p o o b b b c g g g g k 7 _ _ ) 3 _ _ 3 3 _ _ : : 1 1 $ : : : @ @ ; = = ; - - = = | - | | | m | | # # 1 1 1 1 $ ' $ $ # # > : > > : : % % $ $ % # > : % % : $ # % % # # % x % + + # # ",
"$ $ # + $ $ # + % # + + % % # + $ $ # # : $ % % : : > : $ $ > > 1 1 # % % % & w + % | | | - | - | | = = } } = = | |     % % > $ 1 1 : : T T 3 3 _ _ 3 3 _ _ 7 k g e e g b b b b 8 o p p A A B B A A z z m m = = | | 1 1 % % @ @ 5 5 @ @ 5 @ * E r r @ 5 r # 5 @ R R @ @ @ @ 5 @ @ @ @ @ # # @ 5 % % # # # # r r % # # r # % 5 5 # r @ @ # # r r x x # % # # 5 @ # # r r x x # # x x # % x x x x > > x x : > > : > q q > q q % x y y % % & H A a t t t t t t t t t t t t t t t t t t t t t t t t t t t t t t t t t t t t t t t t t t t t t t t t t t t t t t t t t t t t t t t t t t t t t t t t t t t t t t t t o o r r z z * * 1 1 : > q q > q q q x x > > x x x x # % x x x % % x x # # % 5 @ # # 5 5 # # # # x % 5 @ r r r r % # # r r r @ @ # % 5 5 # # # # # # 5 @ 5 @ @ @ 5 5 @ @ # # # # # # 5 @ # # @ . # # @ 5 # # @ @ @ @ @ @ 5 @ = = | m m = : : 2 2 p 2 2 2 A A a a b c b b d d g g k 7 S S _ _ 3 3 _ _ _ _ ' $ $ $ $ > % % @ @ 4 4 ; = = = | - = = | | - - |     @ & & > > $ > # # $ : $ $ : : $ $ : : : : : : x % $ $ % # % % + # x % # # % # # # ",
"$ $ + + > $ + # # + + + # % # + $ $ # # : $ % % : : > : $ $ $ > 1 1 % % % % & & % % * * * | - - - | = = } } = = | |     % % : : 1 1 : : ' T 3 3 _ _ 3 3 _ _ k k e e g g b b b b 8 o p p A A B B A A z z m m m = | | 1 1 % % @ @ @ 5 5 @ @ 5 E E r r @ 5 r # 5 @ R R @ @ @ @ 5 @ @ @ @ @ # # @ 5 # # # # # # r r # % # r # % 5 5 # r @ @ # # r r x x # % # # 5 5 # # r r x x # # x % # % x x x x > > x x : > : : > q : > q q % x y y % % & H A a t t t t t t t t t t t t t t t t t t t t t t t t t t t t t t t t t t t t t t t t t t t t t t t t t t t t t t t t t t t t t t t t t t t t t t t t t t t t t t t t o o r r z z * * 1 1 : > q q q > q q x x > > x x x x x # % x x # x x # % # # 5 5 # # @ 5 # # # # % % @ 5 r r r r % # # r r r @ 5 r # 5 5 # # # # # # @ @ @ 5 5 @ @ 5 E @ # # # # # # 5 @ # # @ . # # @ 5 # # @ @ @ @ @ @ 5 @ = = = | m = : : 2 2 p 2 2 2 a a a a b c b c d d g g 7 7 S S _ _ 3 3 _ _ _ _ $ $ $ $ > > % % @ @ 4 4 = = = = - | = = | | - - | | @ @ & & > > > > # # : : $ $ $ : $ $ : : : : : : % % $ $ % # % % + + x % % # x % # % ",
"$ $ q > > $ : : : $ > > > : $ $ % % $ $ # % $ $ # # # % # # $ $ % # > > > > w w # # @ @ * | - | - - - - = = - - = = @ @ # # $ > $ $ $ $ _ _ _ _ 3 3 _ _ S S 7 7 g g e d 8 8 9 9 a a a a p p a a 2 2 > > = = m m = = : : | | | | = = | | | | * * @ @ 5 @ @ @ r r R R ' ' # # # # 5 @ # # # # : ' % % # # # # # % # r : : r r % # # r r # r r # # # # x x # % # # r r # % % # # x x x > : % x > > : $ 1 1 : > 1 1 : > q q > > q q B B % % q q C C t t t t t t t t t t t t t t t t t t t t t t t t t t t t t t t t t t t t t t t t t t t t t t t t t t t t t t t t t t t t t t t t t t t t t t t t t t t t t t t t A A % % & w w & q q 1 & q > & H z z z > > > > q q : > > x x > : % x : > # # x % # % # # # # x x # # # # 5 @ # # r # # x % # % # r r % % % % q q # # x % # % x % # # x x r r r r @ @ @ @ 5 @ @ @ | | | | | | | * | | | | = = ; = = = | | x x p p 2 p a a p p o o b b b c g e , g 7 7 _ _ ) ) _ _ _ _ _ _ : : 1 1 ' : : : @ @ = = = ; - - = = | - | * | - | * @ + > > > q : : $ : % % : : x % : : > : q > : > > > : : $ > : : $ > : : > > : $ : $ ",
"$ $ > > > $ : $ > : > > > : $ $ % % $ $ % # $ $ # # % % # # $ $ % # > > > > w w # # @ @ * * | - - - - - = = - - = = @ @ # # > > : $ $ $ _ _ _ _ 3 3 _ _ S S 7 7 e g d d 8 8 9 9 a a a a 2 p a A p 2 > > = = m m = = : : | | | | = = | | | | | | @ @ 5 @ @ @ r r R R ' ' # # # # 5 @ # # # # $ : % % # # # # # % # r : : r r % # # r r # r r % # # # x x % # # # r r % # # r % % x x : : % x > : : : 1 1 : > 1 1 : > q q > q q q B B % % q q C C t t t t t t t t t t t t t t t t t t t t t t t t t t t t t t t t t t t t t t t t t t t t t t t t t t t t t t t t t t t t t t t t t t t t t t t t t t t t t t t t A A % % & w w & q q 1 & q > H H > z z > > > q q > q > > x x > : x % : : % # # x % # % # # # x % # % # # 5 @ # # r # % % # # # # r r # % % x x q % # # x % # % x % # # x r r r r @ @ @ @ @ 5 @ @ | | | | | | | | | * | | = = ; = = = | | x x p p p 2 a A p p o o b b b c g g , g 7 7 _ _ ) 3 _ _ _ _ _ _ : : 1 1 : : : : @ @ ; = = ; - - = = | | - | * | | - + + $ > > q : : : $ # % : : x % : : : $ $ > > : : > : : $ > : : > > : : > > > : : : ",
"> $ + # $ $ # # > $ x % : : > : : $ $ : : $ $ > $ $ : : > : $ > 1 1 ' : & & & 1 % % * * * | - - | | = = - - = = | -     % x : > 1 1 : : T T 3 3 _ _ 3 3 _ _ k k e e g g b b 8 8 o o 2 p A A p 2 a A z z m n = = | | # # n n = = | | | | * | | | | | | * @ E | | | | < < @ @ @ @ 5 @ @ @ # # @ @ # # r r x % % # x x # % : : # # : > x x : : x x : : % x > : # % x x # % : : % % > > x x > : : : > q : > 1 1 : > q q > > & H q q B B % % H H A A t t t t t t t t t t t t t t t t t t t t t t t t t t t t t t t t t t t t t t t t t t t t t t t t t t t t t t t t t t t t t t t t t t t t t t t t t t t t t t t t a o 5 @ & q & & 1 1 q q H & q q & & > > > q q : > q > > : > > x > > x x > : # # : ' x x > : : : > : # # : ' x # # x % # % # @ @ # # # # x % 5 5 r r 5 @ 5 5 E E @ @ E E @ @ | | @ @ | | | | } } | | = = | | | | | | = = = = ; = = m m = : : 2 2 A A p 2 a a a a b c e d d d g g 7 7 S S _ _ 3 3 _ _ _ _ $ $ ' $ $ > % % @ @ 4 4 = = = = | - = = - | | | @ @ @ @ & & > > 1 1 ' : & 1 : : 1 1 q > > > > : : > : : : > % % : $ % # x % + + # + @ @ ",
"$ $ # + $ $ # # > $ x % > : : : $ $ : : : $ > > : $ : : > : : : 1 1 : : 1 & & 1 % % * * | - | - | - = = - - = = | |     % % > : 1 & : : ' T 3 3 _ _ 3 3 _ _ k k e e g g b b 8 8 o o 2 p A A p 2 a A z z n n = = | | # # n n = = | | | | * | | | | | | | @ E | | | | < < @ @ @ @ 5 @ @ @ # # @ @ # # r r % % # # x x % % : : % # : > x x : : x x : : x x : : % # x x # % : : % % > > x x > > : : > q : > 1 1 : > q q q > & & q q B B % % H H A a t t t t t t t t t t t t t t t t t t t t t t t t t t t t t t t t t t t t t t t t t t t t t t t t t t t t t t t t t t t t t t t t t t t t t t t t t t t t t t t t o o 5 @ & q & & & 1 q q & & q q H H > z q q > q q q > > : > > x > > x x > : # # : ' x x : > : : > : # # $ : % # # x % # % # @ @ # # # # # x 5 @ r r 5 @ 5 @ * E @ @ E E @ @ | | @ @ | | | | } } | | = = | | | | | | = = = = ; = = m = = : : 2 2 A A p 2 a a A A c c e d d d g g 7 7 S S _ _ 3 3 _ _ _ _ $ $ : $ $ > % % @ @ 4 4 = = = = | - = = | | - | @ @ @ @ & & > > 1 1 ' : & 1 $ : 1 1 > > > > : $ : > : : : > % % : $ % # # % + + # + @ @ ",
"# + % % # + # % + # % % % # # % % # $ $ % % > : $ $ > > > z 1 1 : > 1 1 q q w & 5 5 5 5 * | @   - - - - = = - - = = @ @ # # : > > $ $ $ _ _ _ _ 3 3 _ _ S S 7 7 e g d d 8 8 9 9 a a A A 2 p a a p p q q = = ; = | | # # = = | | = = @ @ | | * * | | | | | | @ E < < @ @ | | @ @ | | @   | | @ @ @ @ @ 5 E E r r @ @ # # r r # # @ 5 # x r r # % % % : : % # : : % # : : > : : q q > & & q q 1 & q > H & q q w w q q 1 & q > w w B B z z > > o o t t t t t t t t t t t t t t t t t t t t t t t t t t t t t t t t t t t t t t t t t t t t t t t t t t t t t t t t t t t t t t t t t t t t t t t t t t t t t t t t C C y y q > 2 2 1 1 1 & q q w & q q w & q q 1 & q > H & > > q q : > q > : : > : : : : > # # x % # % # # 5 5 # # 5 @ @ @ @ 5 5 5 5 @ r r @ 5 @ 5 @ @ @ @ | | @ @ | * @ @ | | @ @ | | | | } } | | | | | | | | | | = = | | = = ; = = = | | % % 2 p p 2 a A p p o o b b b b g g g g 7 7 _ _ ) ) _ _ _ _ _ _ : : 1 1 ' : : : @ @ = = = ; - - = = | - | * | | | - + + 1 1 1 1 q > 1 1 > > : : % % : : # # % % # # + # 5 5 + + 5 5 # + @ @ # +     @   ",
"+ + % % # + % % # + % % % # % % % # $ $ % % > : $ $ $ > > > 1 1 $ > 1 1 q > & & 5 5 5 5 * | @   - - - | m = - - = = @ @ # # : > $ $ > $ _ _ _ _ 3 3 _ _ S S 7 7 g g d d 8 8 9 9 a a A A 2 p A A p 2 q q = = = K | | # # = = | | = = @ @ | | * * | | | | | | @ E < < @ @ | | @ @ | | @ @ | |   @ @ @ @ 5 5 * r r @ @ # # r r % # @ @ x x r r % % % % : : % x : : # % : : > : : q > > H H > q & & > q & & > q w w q q & & > q w w B B z z z > o o t t t t t t t t t t t t t t t t t t t t t t t t t t t t t t t t t t t t t t t t t t t t t t t t t t t t t t t t t t t t t t t t t t t t t t t t t t t t t t t t C C y y q > 2 2 1 1 1 & q q w & q q & & > q w & q q w & > > q q : > q > : : : > : : : : % # % x # # # # 5 @ # # @ @ @ @ 5 @ @ 5 5 @ r r @ 5 5 @ @ @ @ @ | | @ @ | | @ @ | | @ @ | | | | } } | | | | | | | | | | = = | | = = ; = = = | | % % p 2 2 2 A A p 2 o o b b b b , g g g 7 7 _ _ ) ) _ _ _ _ _ _ : : 1 1 : : : > @ @ = = ; ; - - = = | | - | * | | | + + 1 1 1 1 : > 1 1 > > $ : % % : : # # % % # % # # 5 5 # + 5 5 + + @ @ # +       @ ",
"% % + + # % + + % % # # $ $ % # % % # # $ : # # > : % % > > $ $ > $ : : 1 & 1 1 % # * * @ @ * * | - = = } } = = | |     % % : : 1 1 ' : T T 3 3 _ _ 3 3 _ _ k k g e g g b b b b 8 o p p a A p 2 A a > > n n = = | | # # | | | | l l = = @ @ | | @ @ | | E E | | # # 4 4 @ @ | | @   | | @ @ | | r r | | r r @ @ r r @ @ # % 5 5 % % r r % x 5 @ z % % # x x # % x x % % x x x x > > x x q q > q > > > q & & & & 1 1 1 1 & w 1 1 & w x x H H A A t t t t t t t t t t t t t t t t t t t t t t t t t t t t t t t t t t t t t t t t t t t t t t t t t t t t t t t t t t t t t t t t t t t t t t t t t t t t t t t t o o y y & & & w w & 1 1 1 & q q 1 & q > q q > q q q x x : > x % : : # # x % # % : : # # # # r r # # # # # % 5 5 # # 5 @ @ 5 @ @ r r 5 @ @ @ @ @ @ 5 @ @ @ 5 @ 5 # # # # 4 4 | | | | | } | | | | | | * | = = l l | | | | | | = = n n = = x x i i A A p 2 a A a a b c e d d d g g 7 7 S S _ _ _ _ _ _ _ _ : $ 1 1 > > % % @ @ 4 4 = = = = | | = = * | | | * * @ @ & & > > $ $ : : > > x % % # # % % % % # + # 5 5 + + 5 @ # + @ @ # + @ @ + + @ @ ",
"# % + + % % + + x % # % $ $ + # % % # # : $ # # $ $ # % > > $ $ $ : : $ & & & 1 # # * * @ @ * * | | = m } } = = | |     % % : : 1 1 : : T T 3 3 _ _ 3 3 _ _ k k e e g g b b b b 8 o p p A A p 2 a A z z n n = = | | # # n | | | l l = = @ @ | | @   | | E E | | # # 4 4 @ @ | | @ @ | |   @ | | r r | | r r @ @ r r @ @ # % 5 @ z % r r % x 5 5 # % % # x x # % x x % % % x x x z z x x > q > > : > > > & & & 1 1 1 1 1 & w 1 1 & w x x H H A a t t t t t t t t t t t t t t t t t t t t t t t t t t t t t t t t t t t t t t t t t t t t t t t t t t t t t t t t t t t t t t t t t t t t t t t t t t t t t t t t o o y y & & & w w & 1 1 1 & q q 1 & q > q q q > q q x x : > x % : : # # # x % # : : % # # # r r % # # # # # @ 5 # # 5 @ @ 5 @ @ r r @ 5 @ @ @ @ 5 @ @ @ 5 @ @ @ # # % # 4 4 | | | | | } | | | | | | | * = = l l | | | | | | = = n n = = x x i i A A p 2 a A a a b c d d d d g g 7 7 S S _ _ _ _ _ _ _ _ : $ 1 1 q > % % @ @ 4 4 = = = = - | = = | - | * | * @ @ & & > > > $ $ : $ > x % % # % # % % % # + # 5 5 + + 5 @ + + @ @ + + @ @ + + @ @ ",
"+ # $ $ # # $ $ # # $ $ # # : $ + # % % # # $ $ % % $ $ $ $ : : : $ 1 1 q > & & @ @ @ @ * | - | | | | | = = } } = = @ @ % y > > $ $ : $ _ _ T T 3 3 _ _ S S 7 7 g g d d 8 8 9 9 a a a A A 2 p A p p > q = = | m = = : : | | E E : : 1 1 E E @ @ | | @ E E E @ 5 | | = = : : @ @ | | @ @ @ @ @ @ = = 4 4 # # # # r r # % % # # # v v @ @ # # x x # % x # # # @ 5 % % x x r r # % % % q > > : > q q x q q > > : > > > & & & 1 1 & q q % x H H C C t t t t t t t t t t t t t t t t t t t t t t t t t t t t t t t t t t t t t t t t t t t t t t t t t t t t t t t t t t t t t t t t t t t t t t t t t t t t t t t t a A z z H H H & & 1 & & q q q q > q q q > : : > q : : > > x : > x % x x # # x x E E x x # # # # 5 @ # # | | | = 5 @ # # @ @ # # E E r r l l 5 @ @ @ 5 5 * * @ @ | | : : = = @ @ } } @ @ | | | | | - # # 1 1 1 1 E E | m m = = = = K | | x x 8 8 2 p a a p p o o b b 8 b e e g g 7 7 _ _ 3 3 _ _ _ _ _ _ : : 1 1 ' : : : @ @ = = = ; - - = = | - | - - | | | 5 5 1 & 1 1 ' : $ : $ $ : : % # % % + + # # 5 5 % # 5 5 + + 5 @ @ 5 5 @ # + @ @ + + ",
"% # $ $ # # $ $ # # : $ # # : $ + + % % # # $ $ % % : $ $ $ : : $ : 1 1 > > H & @ @ @ @ * | - | | | | | = = } } = = @ @ % y > > > $ $ : _ _ T T 3 3 _ _ S S 7 7 g g d d 8 8 9 9 a a a a p p a a p p q q = = = | m = : : | | E E : : 1 1 E E @ @ | | E E E E @ 5 | | = = : : @ @ | | @ @ @ @ @ @ = = 4 4 # # # # r r # % % % # # v v @ @ # # x x # % x # # # @ @ # % x x r r % % # x > > : > q q x x q q > > > : > > & & & 1 1 1 q q % x H H C C t t t t t t t t t t t t t t t t t t t t t t t t t t t t t t t t t t t t t t t t t t t t t t t t t t t t t t t t t t t t t t t t t t t t t t t t t t t t t t t t A A z z H H H & 1 1 1 & q q q > q q q > : : : > q : : > > x : : % # % x % # x x E E x x # # # # @ 5 # # n | m m 5 @ # # @ @ # # E E r r l l 5 @ @ @ 5 5 * * @ @ | | : : = = @ @ } } @ @ | | | | | | # # 1 1 1 1 E E | m = = ; = = = | | % x 8 8 2 p a a p p o o b b b b g g g g 7 7 _ _ 3 3 _ _ _ _ _ _ : : 1 1 : : : : @ @ ; = ; ; - | = = | | - - | | | | @ 5 1 1 1 1 ' : $ : > $ : : # # % % # + + # 5 5 % # 5 5 + + @ @ 5 5 @ @ + + @ @ + + ",
"> $ + # $ : % # $ $ # # $ $ % # $ > # # $ $ # % : $ % # : : : : > $ : : & & & 1 5 5 * | @   | - | * = = } } = = - - - | : : : : 1 1 : : T T 3 3 _ _ 3 3 _ _ k k g e e g b b b b a o p p A A p 2 a A z z n | = = = = : : | | E E @ @ @ @ * E @ @ E E | | E E | | @ @ ' : @ @ @ @ 5 @ | | @ @ @ @ x x 1 1 p p # # x % r r # % # # # # : : % # % % : : r r @ @ m m > > x % x x # % > z 4 4 x x > > q > q q > > 5 5 : : > > 1 1 q q : > x % H H A A t t t t t t t t t t t t t t t t t t t t t t t t t t t t t t t t t t t t t t t t t t t t t t t t t t t t t t t t t t t t t t t t t t t t t t t t t t t t t t t t A A y y & & q > & H q q q > % % # x r r z > > : > > > : 5 @ z % : : % x > : x x n n # # # # r r # % # # # % @ 5 # # @ 5 r r 5 @ # r : : 1 1 5 @ r r 5 @ 5 @ | | @ @ 1 1 1 1 @ @ < < | | | | | | * | | | | | | | | | | = = = 4 4 = m m = : > 2 p a a A A a a A a b c d d d d g g 7 7 S S _ _ _ _ _ _ _ _ : $ 1 1 > > % % @ @ 4 4 = = = = - | = = | | - | * | @ @ & & > > > > % % : : % % > $ # # % % + + # # + + # # @ 5 # # 5 5 # # # + + + @ @ ",
"$ $ # # $ $ # # $ : % # $ $ % # > $ # # $ $ # % : $ % # $ > : : : > > $ & & & 1 5 5 * |     | - | * = = } } = = - - - | : : : > 1 1 ' : T T 3 3 _ _ 3 3 _ _ k k e e g g b b b b a o p p a A p p a a z z * * = = ; = q : | | E E @ @ @ @ E E @ @ E E | | E E | | @ @ : : @ @ @ @ @ @ * * @ @ 5 @ x x 1 1 p p # # x % r r # # # # # % : : % # % % : : r r @ @ m m : > x % x x # % > z 4 4 x x : > H > > q q : 5 @ z : : > 1 1 q q : > % % & H A A t t t t t t t t t t t t t t t t t t t t t t t t t t t t t t t t t t t t t t t t t t t t t t t t t t t t t t t t t t t t t t t t t t t t t t t t t t t t t t t t A A y y & & q > & H q q > > x % % % r r > > : > > > : : @ 5 # % : : % x > : x x n n # # # # r r # # # # # % @ 5 # # 5 5 r r @ @ r r : : 1 1 5 @ r r 5 @ 5 @ | | @ @ 1 1 1 1 @ @ < < | | | | | | * | | | | | | | | | = m m = 4 4 = m m = : > p p a a A A a a a a b c d d d d g g 7 7 S S _ _ _ _ _ _ _ _ $ $ 1 1 : > % % @ @ 4 4 = = = = | | = = | - | * | * @ @ & & > > $ > x % : : % % $ > # # % % + + # # # + # # @ 5 # # 5 5 % # + + + + @ @ ",
"# # # % # # : $ + # $ $ % # : $ # # $ $ x % : > % % : : $ $ $ $ $ : 1 1 1 1 & & 5 5 5 @ | - @ @ - - | | = = = = = = @ @ % % > > 1 1 ' $ _ _ T T _ _ _ _ _ _ k 7 g g d d 8 8 9 9 a o o 9 p p a a p p > q = = | | = = : : = = @ @ | | @ @ @ @ @ @ @ @ E E E E E E | | @ @ * * @ @ | | @ @ | | @ @ E E r r @ 5 r r @ @ r r r r : : > q x x # % : : # # x x x x 1 1 % # x x % x : > x x q q q > q > > > > q x x x x > q & & q q z z 5 @ & q & H C C t t t t t t t t t t t t t t t t t t t t t t t t t t t t t t t t t t t t t t t t t t t t t t t t t t t t t t t t t t t t t t t t t t t t t t t t t t t t t t t t p p x % z z 5 5 q q > q > > > q % x > > x x > : % % > > H & q > x x x x > q & & & & x x r r % x 5 5 r r z > % % # # # # 5 @ r r r r # % @ @ 5 5 @ @ 5 @ | | @ @ @ @ @ @ | | @ @ @ @ | | | | | | | * | | | | | | | | = = = = = ; = = m | x x p p 2 p a a p p a o c b b b g g g g 7 7 T T _ _ T T _ _ k k > > 1 1 : : % %     = = ; = | - = = | | | - | | - | @ 5 1 & & & > : : > % % : : % % : $ # # # x # + # # + + # # + + # # + + + # # + + # ",
"# # % % # # $ $ + # $ $ % # $ $ % # $ $ % # : : # % : : $ $ : $ $ : 1 1 1 1 & & @ 5 5 @ | | @   - - | | = m = = = = @ @ % % > > 1 1 : $ _ _ T T _ _ _ _ _ _ 7 7 g g d d 8 8 9 9 a o o o p p a a p p q q = = n n = = : : = = @ @ | | @ @ @ @ @ @ @ @ E E E E E E * * @ @ | | @ @ | | @   | * @ @ E E r r 5 @ r r 5 @ r r r r : : > q x x # # : : % # % x x x 1 1 % # x x % x > > x x > q q > q > > > q q % x x x > q & & q q > z 5 @ & q & H C C t t t t t t t t t t t t t t t t t t t t t t t t t t t t t t t t t t t t t t t t t t t t t t t t t t t t t t t t t t t t t t t t t t t t t t t t t t t t t t t t p p x % z z 5 5 q q q > q q q > % % q > x x > : % % > > & H q > x % x x : > H & & & x x r r x x 5 @ r r > > x % % # # # @ 5 r r r r # # @ 5 @ @ @ @ @ @ * * @ @ @ @ @ 5 | | @ @ @ @ * * | * * | * | | | | | | * | | = = = ; = = m = | | x x p p 2 p a a p p o o b b b b e g g g 7 7 T T _ _ T T _ _ k k > > 1 1 : : % %     = = = = | - = = | - | * | | | * 5 5 1 & 1 & > : : > % % : : % % : $ # # x % # + # + + + # # + + # # # + + # # + + # ",
"# % # # % % # # $ $ # # $ $ # # : $ % % > : # % : : $ $ > > : : > > > > w & & 1 5 5 * | @   | - | * = = } } = ; ; = @   $ > : > 1 1 : : T T _ _ k k 3 3 T T 7 7 d d g g b b b c f f a a A A 2 p A A z z n n = = | | # # 1 1 : : 1 1 > > & 1 x x x x E E @ 5 @ @ r r @ @ r r @ 5 r r @ 5 # r @ 5 5 @ 5 5 # # 5 @ # # 5 5 # # r r x x # % # # + # x x % # x x % x x x # % : : % % > > x x > > q > q q > > > q q q & & q q H H > q p p x % B B C C t t t t t t t t t t t t t t t t t t t t t t t t t t t t t t t t t t t t t t t t t t t t t t t t t t t t t t t t t t t t t t t t t t t t t t t t t t t t t t t t C C y y 2 2 H H & 1 q q 1 & q > q q x x > > x x : > > > : > r r z > % x x x % % x x # x x x r r % x r r % # # # x % # % # # # # # % @ @ # # # # @ 5 @ @ @ @ @ @ @ 5 @ @ @ @ @ @ @ @ @ 5 x x > : : : : > 1 1 : > : : % # : : = = n n = = : > 2 2 A A A A a a A A c c d d d d g g 7 k _ _ _ _ _ _ T T _ _ 1 1 1 1 > > # # @ @ = m - - = = | - | - | - = = * * @ @ & & > > $ $ : : $ : % % : : % % # x # # % x + + # # + + # # + + # # + + # # + + ",
"# % # # # % # # $ $ # # : $ # # $ $ % % : : % % > : : $ > > > : $ > > > H & 1 1 @ 5 * |     | | - | = = } } = ; = = @   $ > : : 1 1 : : T T _ _ k k 3 3 T T 7 7 d d g g b b b c f f a a A A 2 p A A > > n n = = | | # # 1 1 : > 1 1 : > 1 1 x x x x E E @ 5 @ @ r r @ @ r r @ @ r r 5 @ r r @ @ @ 5 5 5 # # @ 5 # # 5 5 # # r r % x x # # # + # x x # % x x x % x x # % : : % % > > x x : > H > q q > q q q > q & 1 q q H H > q p p x % B B C C t t t t t t t t t t t t t t t t t t t t t t t t t t t t t t t t t t t t t t t t t t t t t t t t t t t t t t t t t t t t t t t t t t t t t t t t t t t t t t t t C C y y 2 2 H H H & 1 q & & q > q q % x H > x x > > : > > q r r z > x % x x % % x x # x x x r r x x r r # # # # # % # r # # # # # % @ @ # # # # @ @ @ @ 5 @ @ @ @ @ @ @ @ @ @ 5 @ @ @ @ x x > : : : : : 1 1 : : > : # # : : = = n n = = > > 2 2 A A A A A a a a c c d d d d g g 7 7 _ _ _ _ _ _ T T _ _ 1 1 1 1 > > # # @ @ = = - - = = | | | - | | = = E * @ @ & & > > $ $ $ : : $ % % : : % % # x # # % x + + # # + + + # # + + # # + # # + + ",
"# # % % # # : $ # # $ $ % # $ $ % # $ $ % % : : $ $ > : : $ $ > $ : 1 1 q q w & * * @ @ * *     - - | | = = = = = = @ @ % % > > $ > 1 1 T T 7 k _ _ _ _ _ _ k k g g d d a 8 9 9 9 a o o A A A A 2 2 q q | | m m = = i i : : % # : : : > i i 2 2 w w i i j j d d & & w i & & w i & & w i & & 2 2 w w i 2 & & i i 1 & i 2 w & & w 1 1 i i & & w i & w w i w w i w & & & w > > q q x x q q > > q q > z & & q q q q q > w w H H & 1 & & z z H H C C t t t t t t t t t t t t t t t t t t t t t t t t t t t t t t t t t t t t t t t t t t t t t t t t t t t t t t t t t t t t t t t t t t t t t t t t t t t t t t t t a a x x q q w w q q & & q > q q q > & & > > q q x x > > x x > : x % q q 1 & & & & H w w & 1 w & w & p 2 1 & & w i w i 2 1 1 i i & & i i w 1 w w 1 1 w & w 1 i i & 1 w i i i 2 i & 1 1 1 1 1 2 2 w i i 2 # # : ' x # 1 1 % # = = ; = | n x x p p 2 p a a p p o o b b b b g g g g 7 7 T T _ _ T T _ _ k k > > 1 1 > : % %     ; = = = - | - - | | | - | * | * @ 5 1 & & & > : > > $ > : : $ $ : > % # % % + + # % + + # # + + # # + + # # + + # # ",
"# # % + % # $ $ # # $ $ % # $ $ # # : $ # % : : $ $ > : : $ $ > : $ 1 1 q q w & * * @ @ * | @   - - | | = m = = = = @ @ x % : > > $ & 1 T T k k _ _ _ _ _ _ k k g g d d 8 8 9 9 a o o o A A A A 2 2 > q n n = m m = i i : : % # : : > > i i 2 i w w i w j j d d & & i i & & i i & & i i & 1 2 2 w w i i & & i 2 w & 2 i & & w & 1 1 i i & 1 w w i w & i i & i i & & i w : > > q x x q q > q q q > : & & q q q q q q w w & H H & 1 & z z H H C C t t t t t t t t t t t t t t t t t t t t t t t t t t t t t t t t t t t t t t t t t t t t t t t t t t t t t t t t t t t t t t t t t t t t t t t t t t t t t t t t A a x x > q w w q q & & q > q q > z & H z z q q % x H > x x > > x x q q & & 1 & & & w w w & w w & w p 2 & & & w w w w i 1 1 i i & 1 p 2 1 1 w & w 1 w w & 1 i i & 1 i 2 i i i 2 1 1 1 1 1 1 2 2 2 w i 2 # # : ' x # 1 1 % # = = ; = | n x x p p p 2 a A p p o o b b b c e g g g 7 7 T T _ _ T T _ _ k k > > 1 1 > : % %     = = = = | | - - | | | | | - | * 5 5 1 & 1 & : : > > > $ : : $ $ : > # % % % + # # % + + # # + + # # # + + # # + + # ",
"# % # # % % # # $ $ # # $ $ % # $ $ # % : : : $ $ > : $ : : : : $ > > : 1 & q q @ @ @ @ @   | - | * = = } } = ; = = @   : $ : : 2 2 > $ 7 7 T T 7 k _ _ T T 7 7 d d g g b b b c f f a a a A A 2 p A > > n n = = | | > : % # @ @ # # @ 5 # # @ 5 # # @ @ x x r r : : % # % x % # x x # % x # # # : : % x > : : : > : % x q q : : > q : : q q > q q q > : 1 1 q q 1 1 1 1 2 2 p 2 2 2 2 2 p p p p p p 2 p p p 2 p a a p p p p w w i 2 x % B B A A t t t t t t t t t t t t t t t t t t t t t t t t t t t t t t t t t t t t t t t t t t t t t t t t t t t t t t t t t t t t t t t t t t t t t t t t t t t t t t t t a a x x & & w i & 2 2 p A A p p a a 2 2 p p B B p p 2 B p p 2 B p 2 i i i w q q 1 & q > > > q q q q % x > > : : > > x x > : % x x x % x : > : : : > # # # x % # % x % # # # # # # # % # 5 @ # # r # 5 @ # # @ @ # # @ @ # # = = | m = = > > 2 2 A A A A A A a a c c d d d d g g 7 7 _ _ _ _ _ _ T T _ _ 1 1 1 1 q > # # @ @ = = - | } } | - | * | | | * @ @ @ @ & & > > $ $ : $ $ $ : : : : $ $ : : # # % x + + % % + + # % + + # # + + # # + + ",
"# % # # % % # # : $ # # : $ # # $ $ # % : : $ $ > : $ $ : : : : > $ : : & & > q @ @ @ 5 . . | - | * = = } } = ; = =     : : : : 2 2 > $ 7 7 T T k k _ _ T T 7 7 d d e e b b b c f f a a a A A 2 p A > > * | = = | | : : % # < @ # # @ 5 % # @ 5 # # @ @ x x r r : : % # % x # # x x % # x x # % : : % x : : > : : : x x > q > : q q > : q q > > q q : : 1 1 q q 1 1 1 1 2 2 p 2 2 2 2 2 2 p p p p p 2 2 p p p p A A p 2 p p w w B 2 x % B B A A t t t t t t t t t t t t t t t t t t t t t t t t t t t t t t t t t t t t t t t t t t t t t t t t t t t t t t t t t t t t t t t t t t t t t t t t t t t t t t t t a a x x & & & w i 2 2 p A A p p a a p 2 2 p p B p p B B p p p 2 p 2 p 2 i w q q 1 & q > > > > q q q x x > : : : > > x x > : x % x x x % > > : $ : : % # % % # # x % # % # # # # # # # % 5 5 # # # # 5 @ # # @ @ # # @ 5 # # = = | m m = : > p 2 A A A A A A a a c c e d d d g g 7 7 _ _ _ _ _ _ T T _ _ 1 1 1 1 > > # # @ @ = = - | } } | - | * | | | * @ @ @ @ & & > > $ > : : $ $ $ : : : $ $ : : # # % x + + % % # + + # + + # # + + # # + + ",
"+ + # # + # # # + + # # + + # % + + : $ # # : : $ $ > q : : $ > : : & 1 : > & & 5 @ @ 5     @ @ - - | * = = } } = = @ @ # % : > $ $ 1 1 ' T k k _ _ _ _ _ _ k k g g d d 8 8 9 9 a o o o A A A A 2 p H H m m n n = = 1 1 @ @ @ @ 5 @ # # # # # % @ @ @ @ r r x x 5 5 # # 5 @ r # 5 @ # # @ 5 # # r r % # 5 5 # # r r % # # # x % # % # % % # + % % # x x % x > : : > 1 1 > > q q q q & & q > & & q q H & q > q q q > B B w w B B B 2 > > H H C C t t t t t t t t t t t t t t t t t t t t t t t t t t t t t t t t t t t t t t t t t t t t t t t t t t t t t t t t t t t t t t t t t t t t t t t t t t t t t t t t a a > > : > p p w & & w & & & w w H H & 1 q q q > q & & q q H & > > q q : > q > : : > > x % x x # # x % % # x x # % x % r r # % 5 @ r r 5 @ % % # # # # 5 @ r r @ 5 # # @ @ @ @ # # # # n | # # r r r r % # 5 5 @ @ % # | | n | = = | | > q o a p p a a p p o o b b b b d e g g 7 7 T T _ _ T T _ _ k 7 $ $ 1 1 ' : : :     | | } } | | - | * | | |     | | @ @ & & & & > : > > : : : : $ $ : : % % : : % # # % + + # # + + # # @ @ + + @ @ + + ",
"+ + # # # + # # # + + # # + + # # + $ > # # : $ $ $ > > : : : $ $ : 1 1 q > & & @ @ @ 5 5     @ - - | * = = } } = = @ @ # % > > $ > 1 1 T T 7 k _ _ _ _ _ _ 7 k g g d d 8 8 9 9 a o o o A A A A 2 p H H m m n n = = 1 1 @ @ @ @ @ 5 # # # # # % @ @ @ @ r r x x 5 5 # # @ 5 # # 5 5 # # 5 @ # # r r # % 5 5 # # r r % # # # x % # % # % # # x % # % x x x % : : : : 1 1 : > q q > q & & > > & & q q H & > q q > q q B B w w B 2 2 2 > q H H C C t t t t t t t t t t t t t t t t t t t t t t t t t t t t t t t t t t t t t t t t t t t t t t t t t t t t t t t t t t t t t t t t t t t t t t t t t t t t t t t t a a > > : > p p H H w w & H w w & H w & q > q q q q 1 & q > H & > > > q q : > q > : : > % % x x # # % % % # x x # % x % r r % # 5 5 r r @ 5 # # # # # # 5 @ # r @ @ # # 5 @ @ @ # # # # | | # # r r r r # # @ 5 @ @ # # | | | | ; = | | > q o a p p a a p p o o b b b b d e e e 7 7 T T _ _ T T _ _ k 7 $ $ 1 1 : : : :     | - = } | | - | * | | |     | | @ @ & & & & > : > > : : $ : $ $ $ : % % : : # # % x + + # # + + # # @ @ + + @ @ # + ",
"# % + + # # + + % # + + + # # + + # % + % % % # : $ # % : : $ $ : > $ : q q > > 5 5 * * @ @ * *     | | - | } } | | @ @ : : % % $ $ $ > 7 7 _ _ k 7 3 3 T T k 7 d d g g b b c c f f a a a a p p A A z > * | m m n n 1 1 % # E E @ @ # # @ 5 5 @ r r | | r r r r # # @ @ r r @ @ # # r r % # # r r r @ 5 # r @ 5 # # @ 5 # # 5 5 # # # # # # # # % x # # : : % x > > : : : > > > > > > : > q q > q q q q w w q q 1 & & & & w & H B B z z B B C C t t t t t t t t t t t t t t t t t t t t t t t t t t t t t t t t t t t t t t t t t t t t t t t t t t t t t t t t t t t t t t t t t t t t t t t t t t t t t t t t o o x x H H w w & H q q 1 & q > H & q q H H z z H H > q & & q q q q : : > > x % : : % % x x x % % x r r r r r r # # @ 5 # # r r @ 5 @ @ # # r r r r @ @ @ 5 @ @ # # @ 5 # # @ 5 # # @ @ r r @ @ # # 5 5 % % @ 5 @ @ @ @ 5 @ = = n n = m q q B 2 A A A A A A a a c c e d d d e g 7 7 _ _ T T _ _ T T T T 1 1 ' : > > # # | - | * < < | - @ @ * |     | | @ @ @ @ & 1 : : : : % # $ $ # # % % # # # # + # + + @ @ + + @ @ + + @ @ + + @ @ + + @ @ ",
"# # + + # # + + % # + + # # + + # # + + # % % # $ $ % # $ : : $ $ $ : : > q q > 5 5 * | @   | *     | | | - = } | - @ @ : : # % $ $ > > 7 7 _ _ k k 3 3 T T 7 7 d d g g b b c c f f a a A A 2 p A A > > * | m m m n 1 1 % # E E @ @ # # @ 5 5 5 r r | | r r r r # # @ 5 # r @ @ # # r r # # r r r r @ @ r r @ @ # % 5 5 # # 5 @ # # # # # # # % x x # # : : % % q > : : > > > > > > > : > q q > q q q q & w > q & & 1 & w w & H B B z z B B C C t t t t t t t t t t t t t t t t t t t t t t t t t t t t t t t t t t t t t t t t t t t t t t t t t t t t t t t t t t t t t t t t t t t t t t t t t t t t t t t t o o x x & & w w & H q q & & > q w & q q H H > > H & q q 1 & q > q q : : > > x % : : % % % x % % x x r r r r r r # # @ 5 # # r r @ 5 @ @ # # r r r r @ @ @ 5 @ @ # # @ 5 # # @ @ # # @ @ r r @ @ # # 5 @ z % 5 @ @ @ @ @ @ 5 = = | | = = q q B 2 A A A A a a a a c c e d d d g g 7 7 _ _ T T _ _ T T T T 1 1 ' : > > # # | - | * < < | | @   * |     | | @ @ @ @ & 1 : : : : # # $ $ % # % % % # # # # + + + @ @ + + @ @ + + @ @ # + @ @ # + @ @ ",
"+ + # # + + # % # # % % # # % % % # % % + + % # # # $ $ % % : : % # : : : : > q 5 5 * | * | - | | | | | | | | | = = | | x % > $ $ : 1 1 T T T T _ _ _ _ S S 7 7 g g d d 8 b 9 9 a o o o A A A A 2 p H H m n n n = = 1 1 5 @ @ @ l l | n @ @ # # @ @ r r E E @ 5 @ @ r r @ 5 # r @ 5 # # 5 @ # # 5 5 # # 5 5 # # r r # # r r % # # # # # r r % # # # : : % # % x % # x : % x > > x x q q > > q q q > & & q q & & & & 1 & q q H H > z q q & & C C t t t t t t t t t t t t t t t t t t t t t t t t t t t t t t t t t t t t t t t t t t t t t t t t t t t t t t t t t t t t t t t t t t t t t t t t t t t t t t t t a a > q q > q q q > & & & H H H > q & H z z q q q > & & > > > : > > > : % % : : % x : > % % % % r r # # r r % % r r % # 5 5 # # r r % # r r % # @ @ # # @ @ r r @ @ r r @ @ @ @ # # # # @ @ @ 5 5 5 # # 4 4 ; ; | | # # @ @ | | = = | | z z A A p p a a p p f f b b b b e e g e k 7 T T _ _ T T _ _ k 7 $ > > q % % : : = = - | - | | - | * | | | - | - | * @   > > > > % % : $ % % $ $ # # % % % # # % + + # # + + # # + + # # + + # # + + # # ",
"+ # # + + # x % % # # % # # % % # # % % + + # % % # $ $ % % : : % # : : : : q q @ 5 * * | * | * | | | | | | | | = = | - # % : : $ : 1 1 ' T T T _ _ _ _ S S 7 7 g g d d 8 8 9 9 9 o o o A A A A p p H H n n n n = = 1 1 @ @ @ @ l l n n @ @ # # 5 @ r r E E @ @ @ @ r r @ @ r r @ 5 # # 5 5 # # @ 5 # # 5 5 # # r r % # r r # # # # # # r r # % % # : : # # x x x % : : x x > > x x > q > > q > > > & & q > & w & & & & q > H H z z q > H H C C t t t t t t t t t t t t t t t t t t t t t t t t t t t t t t t t t t t t t t t t t t t t t t t t t t t t t t t t t t t t t t t t t t t t t t t t t t t t t t t t a a q > q > q q > > & & H H H H q > H H > > q q > q H H z > > q : : > > % % : : x x : : x % % % r r % # r r % % r r # # 5 5 # # r r # # r r % # @ @ # # 5 @ r r @ @ r r @ @ @ @ # # # # @ @ 5 5 5 5 # # 4 4 ; ; | | # # @ @ | | = = | | z z A A p p a a p p f f b b b b e e g g k 7 T T _ _ T T _ _ 7 7 > > q > % % : : = = - | - - | | - | * | | - - | | | 5 @ q > > > % % : : % y $ $ % # % % % # # # + + + # + + # # + + # # + + # # # + + # ",
"> > : : > : > : > > : : : > : : 1 1 q > $ $ > : 1 1 : $ 1 1 : $ $ $ > $ & & & H : : @ @ @ @       @     @ @ | -     | | 1 1 $ > : : $ $ 7 7 T T k k 3 3 T T k 7 d d d e b b b c o o A a a o p p o o > > | | | | | | : : r r | | | | # # x x @ @ r r r r R R E E r r @ @ r r @ 5 # # @ 5 # # @ 5 # # r r # # @ 5 # # # # # # r r % # # # # # # # x x % % % x # # : : x % > > % x : > > q q q > q q q > q q q q > w w q > w w q q x x > q B B C C t t t t t t t t t t t t t t t t t t t t t t t t t t t t t t t t t t t t t t t t t t t t t t t t t t t t t t t t t t t t t t t t t t t t t t t t t t t t t t t t f f > > q q 5 5 & & q q & & H H H H q > H H > > > q q > > q q > > > % x > > % x x x % % % % r r # % 5 5 # # r r % # r r % # # # # % 5 5 # # r r # # # # # # 5 5 # # 5 5 # # 5 @ @ @ @ @ @ @ @ @ # # x x # # @     @ @ @ @ @ | | | | m m q > 2 2 a a A A A a a o 9 9 d d d d g g 7 7 _ _ T T _ _ _ _ k 7 w & q > 1 1 ' : @ @ * | @ @ < < @ @     @ @   @ # + @ 5 1 & > > $ $ : $ 1 1 : : $ $ $ : : > : : : : $ > : : $ : : : $ $ : : $ $ : : : $ ",
"> > : : $ > > : : > : $ > $ : : 1 1 > > : $ > : 1 1 : $ 1 1 : $ $ $ > $ & & & & : : @ @ @     @ @         @ | |     | | 1 1 > $ $ : $ > 7 7 T T k k 3 3 T T 7 7 d d d e b b b c o o A a o o p p o o > > | | | | | | : : r r | | | | # # x x @ @ r r r r R R E E r r @ 5 # r @ 5 # # 5 @ r # 5 @ r # r r % # @ 5 # # # # # # r r # # # # # # # # x x % % x x % # : : % % : > x x : > > > q q > > q > q q q q q > w w q > w w q q x x q > B B C C t t t t t t t t t t t t t t t t t t t t t t t t t t t t t t t t t t t t t t t t t t t t t t t t t t t t t t t t t t t t t t t t t t t t t t t t t t t t t t t t f f > > > q 5 5 & & q q & & & H H H q > H H > > q > q q q q > > q > x x > > % x x x x % % % r r # % 5 5 # # r r # # r r # # # # % % 5 5 # # r r # # # # # # 5 @ r # 5 5 # # 5 @ @ @ @ @ @ @ @ @ r # x x # #     @ @ @ @ @ @ | | | | m m q > 2 2 a a a A a a o 9 9 9 d d d d g g 7 7 _ _ T T _ _ _ _ k 7 w & q > 1 1 > : @ @ * | @ @ < < @ @     @ @   @ # # @ 5 & & > > $ > : : 1 1 : : $ $ : : : > : : : : : : : : $ : : : $ $ : : : $ $ : : $ ",
"& & 2 2 & w p 2 & & 2 2 2 2 B 2 1 & 2 2 & & 2 2 2 2 2 2 B 2 2 2 w w B 2 w w 2 p > > > > % % > > x x > > y y : : % # % % & 1 i i g g g g T T 7 U _ _ _ _ _ _ k 7 g g d d 8 8 9 9 o a a o A A A a p p H H n n n n | | 1 1 5 5 5 5 : : > : # # # # E E @ @ E E r r @ @ # # 5 5 r r @ 5 # # r r # # r r % % r r % % % # % % 5 5 # % r r % % r r % % % % x x x % % x x x > : % x : > > : q > q q q q > > > q q q H H q q & & H H B B B B q > w w C C t t t t t t t t t t t t t t t t t t t t t t t t t t t t t t t t t t t t t t t t t t t t t t t t t t t t t t t t t t t t t t t t t t t t t t t t t t t t t t t t a a q > H H B B & & H H q > w w q > 1 1 > > q q > > q q > q q q x x > q x x > : % % % x x # x x # # # x r r % # r r % r r r # % r r % # r r % # r r % # r r % # @ @ # # 5 @ @ @ @ @ @ @ | | r r @ 5 # # : : : $ @ @ # # 5 @ | | | m | | z z A A p p a a A A f f b b c c e e e d 7 7 T T _ _ k k _ _ k 7 , , e d 1 & & 1 % % : > % % q > % % q > % x > > > > w & i i 2 2 w w B 2 w & i i & & w w & & w w & & i i 1 1 2 2 1 1 & & 1 1 & & & 1 & & ",
"& & 2 2 & w p 2 & & i 2 2 2 2 2 w & 2 2 & & 2 2 2 2 2 2 B 2 2 2 w w B 2 w w 2 p > > > > % % > > x % > > y y : : % % % # 1 1 2 2 g g g g T T U U _ _ _ _ _ _ 7 k g g d d 8 8 9 9 a a o 9 A A A a p p H H n n n | | | 1 1 5 5 5 5 : : > : # # # # E E @ @ E E r r @ @ # # 5 5 r r @ 5 # # r r % # r r % # r r # % r # # x 5 5 # % r r % % r r % % % % % x x # x x % x : > x x > q : : > q > q q q > > q q q q & & q > H H H H B B B B q q & w C C t t t t t t t t t t t t t t t t t t t t t t t t t t t t t t t t t t t t t t t t t t t t t t t t t t t t t t t t t t t t t t t t t t t t t t t t t t t t t t t t a a q > H H B B & & H H q q & w > > & 1 > > q q > > q q > > q q x x > q x x : > x % % x # # x x % # % % r r % % r r r r r r % % r r % % r r # # r r % % r r % # 5 @ # # @ @ 5 @ @ @ @ @ | | r r @ 5 # # : : $ $ @ @ # # 5 @ | | | = | | z z A A p p A A A a f f b b c c e e d e 7 7 T T _ _ k k _ _ 7 7 F , e e 1 & & 1 % % > > y y : > x % > > x % > > > > H & i i 2 2 w w 2 B w & i i & & w w & & w w H H i w 1 1 2 2 1 1 1 & & 1 1 & & 1 & & ",
"2 2 2 2 i 2 2 2 2 2 B 2 2 2 w i 2 B 2 2 2 2 2 B a a 2 p a a B 2 2 p 2 p a A p p w w & & & & & & & & : > 1 1 : > 1 1 1 w 2 2 w i , , ' ' ' T V V V _ ) ) _ _ _ _ g g g g b b b b o o 8 a a A 2 2 A A > > | | n n n | 1 1 # # @ 5 # # 5 5 # # 5 @ @ @ E E r r E E # # @ 5 r r @ 5 # # r r % # r r % # r r % % r r % % r r r r @ 5 % % r r % % # # x x % % % x % % : > x x > q : : q q > q q q > > > q q > H H q q & & H H w w w w 2 2 > > B B o o t t t t t t t t t t t t t t t t t t t t t t t t t t t t t t t t t t t t t t t t t t t t t t t t t t t t t t t t t t t t t t t t t t t t t t t t t t t t t t t t C C > > & w w w & & q q & & 1 & 1 1 > q > q q > > q q > > q q > > > % x > > x x > : % x x x % # % % r r % % r r % # r r % # # # x % r r % # r r # # 5 @ r # r r # % 5 5 # # @ @ 5 @ | | @ @ @ @ # # @ 5 # # 5 5 # # 5 @ @ @ | * | | | | q > 2 2 A A p p a a o 9 9 9 8 b d d g g 7 7 V V _ _ _ _ k k _ _ ' ' , , 2 2 w i i i q q w & q q w & 1 & & & & H 2 i & 1 2 2 B 2 2 p 2 2 p p 2 2 2 2 B B 2 B i i 2 2 i i 2 2 2 2 2 2 & & 2 2 & & 2 2 & & ",
"2 2 p 2 2 i 2 2 2 2 B 2 2 2 2 w 2 2 B 2 2 2 2 2 a a 2 2 a a 2 2 2 p 2 p a A p p w w w & & & & & & & > > 1 1 q > & 1 & & 2 p 2 i , , ' ' T T V V _ _ ) ) _ _ _ _ g g g g b b b b o o a a A a 2 2 A A > > | | n n n n 1 1 # # 5 @ # # 5 @ r # 5 5 5 @ E E r r E E # # @ 5 r r @ 5 # # r r # # r r % % r r % % r r # % r r r r 5 5 # % r r % # # # x x % % % x x # : : x % > > > : q q > > q q > > q q > > H H q q & & & H H w w w 2 2 > > B B o o t t t t t t t t t t t t t t t t t t t t t t t t t t t t t t t t t t t t t t t t t t t t t t t t t t t t t t t t t t t t t t t t t t t t t t t t t t t t t t t t C C > > w w w & & & q q & & & 1 & 1 q > q q q > > q > q q q > > q > x x > : x x > : % % % x % # # x r r # % r r % % r r % % # # # x r r # # r r % # 5 @ r # r r # # @ 5 # # 5 @ @ @ | | @ @ @ @ # # @ 5 # # 5 5 # # @ @ @ @ | * | | | | q > 2 2 A A p p A a a o 9 9 b b d d , g 7 7 V V _ _ _ _ k k _ _ T ' , , 2 2 2 w i i q q w & q q w & 1 1 w & 1 & 2 2 & & 2 2 2 2 p p B 2 p p 2 2 i i B 2 2 2 B 2 2 2 w i i w 2 2 2 2 & & 2 2 & & 2 2 & & ",
"> > $ $ $ > : $ > $ 1 1 q > 1 1 $ $ 1 1 > : 1 1 1 1 1 & & 1 & & q > w w w w & & # # % # 5 5 % # @ @ @ 5 * E 5 @ * * 1 1 q > & & 7 7 7 7 _ _ k k ) ) _ _ S S 7 7 j j d d 8 8 9 9 o a o o A a A A p p H H n n n n | | 1 1 5 5 5 5 r r % # r r % # @ @ r r E E r r @ 5 # # 5 5 # # r r % # r r % # r r % # # # x x % # # x 5 5 # # r r # % % # x x % % x x % % % x x x : > x % > > : : q q > > > q q > > q q > & & w w 2 2 w w 2 B B B H H B B C C t t t t t t t t t t t t t t t t t t t t t t t t t t t t t t t t t t t t t t t t t t t t t t t t t t t t t t t t t t t t t t t t t t t t t t t t t t t t t t t t o o H H w w 2 p w w 2 B w w 2 2 q > H H > > q q > q q q > > q > : : > q x x > q x x : : x % x x % # % % r r % # r r % # # # x x % # # # r r % # 5 5 r r 5 5 # % r r # # 5 @ # # 5 @ # # 5 @ # # @ 5 # # @ @ # # 5 @ # # @ @ | | m m | | z z A A p p A A p p f f b c c c e e e e 7 7 _ _ _ _ T T _ _ k k T T F F & & & H 1 1 5 5 @ @ 5 5 5 @ # # 5 5 % # + # x x & & 2 2 w & & & 1 1 1 1 q > & 1 > > 1 1 q > 1 1 > : : > : : > : : > > : : > > > ",
"> > $ $ > : $ $ > > 1 1 q > 1 1 : $ 1 1 > : 1 1 1 1 1 w & 1 & & q q w w w w & & # # # % 5 5 # # @ 5 5 5 E * @ @ * * 1 1 : > & 1 7 7 7 7 _ _ k k ) ) _ _ S S 7 7 j j d d 8 8 9 9 a a a o A A A A p p H H n n n | | | 1 1 5 5 5 5 r r % # r r % # @ @ r r E E r r @ 5 # # 5 5 # # r r # # r r # # r r % # # # x x % # % % 5 5 # # r r # % % # x x x % % x x % x x % x > > % x > > : : > q > > q q > > q q > q & & w w 2 2 w w B B B B & H B B C C t t t t t t t t t t t t t t t t t t t t t t t t t t t t t t t t t t t t t t t t t t t t t t t t t t t t t t t t t t t t t t t t t t t t t t t t t t t t t t t t o o H H w w 2 p w w 2 B w w B 2 > q & w > > > q q > > q q > q q > : : > x x > q x x : : % x x x # # x % r r % % r r # # # # % x # # # # r r % # 5 5 r r @ 5 % % r r % # @ @ # # 5 @ # # 5 @ # # 5 @ # # @ @ # # 5 @ # # @ @ | | m m m | > > A A p p a A p p f f b c c c e e e e k 7 _ _ _ _ T T _ _ k k T T F F & & & H 1 1 5 5 5 @ @ 5 5 @ # + @ 5 % % % # # x & & 2 2 w & & & 1 1 1 1 q > & 1 > > & 1 > > & 1 > : : > : : : : $ : > > $ > : : ",
"$ > > $ $ > > : $ $ > > 1 1 > > $ $ : > : $ $ > 1 1 > $ 1 1 $ $ & 1 & & 2 2 q q # % 5 5 5 5 5 5 @ @ * * @ @ * * @ @ : : 1 & & & 7 7 T T k 7 3 3 _ _ _ _ T T k 7 g g g g b b b b C C A A A a A A A a > > | | n n | | 1 1 # # @ 5 r r @ @ @ @ @ @ @ @ @ @ r r @ @ r r 5 5 # # r r # # r r % # r r % # r r % x x % % x r r r r r r % # # # x x x % % x x % x x x % > > % x > > : : q q > > 1 1 > q H H H H w w w & 2 2 w w 2 B H H B B q > p p o o t t t t t t t t t t t t t t t t t t t t t t t t t t t t t t t t t t t t t t t t t t t t t t t t t t t t t t t t t t t t t t t t t t t t t t t t t t t t t t t t C C > q 2 2 w w B 2 B B A A p 2 & & q q q > q q H H z > q > q q q q > : : > x x : > x % x x % % x x % # # x % # # x r r x x % % x x r r % # r r % # @ @ r # r r # # 5 5 # # 5 @ @ @ @ @ r r 5 @ # r @ @ 5 5 # # # # 5 @ @ @ | | | | | | q q 2 2 a a A A A a o o 9 9 o 8 d d g g 7 k _ _ T T _ _ k 7 _ _ T T T T i i 1 1 w & E E 5 5 @ @ # + @ @ r r @ 5 # % % # & & w w w i > > 1 1 > > > > : : > > : : : > > : > > : : : : % % : : x % > : x % ",
"$ > $ $ > : : : $ $ > > & 1 > > $ $ : > > : > $ 1 1 > $ & 1 $ $ H & & & B 2 q q # % 5 5 5 5 @ 5 5 @ | | @ @ * | @ @ : : 1 & & & 7 7 T T k 7 3 3 _ _ _ _ T T k 7 g g g g b b b b C C A A A a A A A A > > | | n n | | 1 1 # # @ 5 r r @ @ @ @ @ @ @ @ @ @ r r @ @ r r 5 5 # # r r # # r r # # r r % % r r % x x % % x r r r r r r % % % # % x x % % x x % x x % % : > x x : > > : q > q q 1 1 > q H H H H w w w & 2 2 w w B B H H B B q q 2 p a o t t t t t t t t t t t t t t t t t t t t t t t t t t t t t t t t t t t t t t t t t t t t t t t t t t t t t t t t t t t t t t t t t t t t t t t t t t t t t t t t C C > q 2 2 w w B 2 2 B A A p 2 & & q q q q > > & H q > > q q > > q q : : > x x : : x % x x x % % x x # # x % # % % r r % x x % % x r r # # r r % # 5 5 # # r r % # 5 5 # # 5 @ @ @ @ @ r r @ @ r r @ @ 5 5 # # # # 5 @ @ @ | * | | | | q q 2 2 A A A a A A o o 9 9 a 8 d d g g 7 k _ _ T T _ _ U 7 _ _ T T T T i i 1 1 1 w E E 5 5 @ @ # + @ @ r r @ 5 % % % # 1 & & w w i > > 1 1 > > > > $ > : : $ > > > $ > > > : : : $ % x : : % x : : % % ",
": : $ > $ $ : > > > $ $ $ > : : > > q > > > $ : > > & & : $ & & > : 1 & 2 2 & & # # % # 5 5 5 5 5 @ @ 5 * * @ @ @   $ $ > $ 2 2 U U 7 7 _ _ _ _ _ _ _ _ S S U U j j d d 8 8 9 9 a a o o A a A A p p H H n n | | | | 1 1 5 5 5 5 @ @ @ @ @ @ @ 5 @ @ # # r r r r @ @ # # r r # # r r % % r r # % r r % % % % x x # x % % r r % % # # x x % % x x % x : : x % > : % x > > : : q > q q q q > > 1 1 > q H H H H w w w w & w H H H H x x @ 5 > > f f t t t t t t t t t t t t t t t t t t t t t t t t t t t t t t t t t t t t t t t t t t t t t t t t t t t t t t t t t t t t t t t t t t t t t t t t t t t t t t t t a a z z 5 5 q > w w w w 2 B B B H & & w q > w w q q H H z > q q > : > > : : q > x x > : x % % x % # x x % # % % r r # % % % : > x % % x r r % # r r % # r r % x r r % # @ 5 r r @ 5 # # 5 5 5 5 5 @ # # | | 5 5 @ @ # # 5 @ | | | m | | > > A A A A a A A o f f b c b b e e e e 7 7 _ _ S S T T _ _ T T T T k 7 & & & H : > 5 5 5 @ @ @ @ 5 r r @ 5 % # # % % + 1 1 2 2 1 1 1 1 & 1 1 1 > : > > : $ q > : : : : : : > > : : : : > : : > > : : > ",
": > > > > $ > > > : $ $ > > > > > > > q > > $ > > $ & & : $ H & $ $ 1 & 2 2 & & # # # % 5 5 5 5 @ @ 5 5 * * @ @ @   $ $ > $ 2 2 U U 7 7 _ _ _ _ _ _ _ _ S S U U j j d d 8 8 9 9 a a o 9 A A A A p p H H n n | | | | 1 1 @ 5 5 5 @ @ @ @ @ @ @ 5 @ @ # # r r r r @ 5 # # r r # # r r % % r r % % r r % % # % % x % # x % r r % % % # x x % # x x % x > : % x > : % x > : : : > q > > > q q > 1 1 > q H H H H w w w w w & w H H H x x @ 5 > > f f t t t t t t t t t t t t t t t t t t t t t t t t t t t t t t t t t t t t t t t t t t t t t t t t t t t t t t t t t t t t t t t t t t t t t t t t t t t t t t t t a a z z 5 5 q q & & w w B 2 B B & H w w q > w w q q H H q > q > : > > > : : q > x x > : % % x x % % x x % x % % r r % % # % : : x % x x r r % # r r % # r r % x r r # % 5 5 # r @ 5 # # 5 5 5 5 @ @ # # | | 5 5 5 @ # # @ @ | | m m | | z z A A A A A a A A f f b c b b e e e e 7 7 _ _ S S T T _ _ T T T T 7 7 & & & & : > 5 5 @ @ @ @ @ 5 r r @ 5 # % # # % % 1 1 2 2 1 1 1 1 1 & 1 1 : : > > : : q > : : : $ : : > > : : : : : $ > > : $ $ > ",
"> > $ $ > > > $ $ > > : : > : : > > q > > > $ > & & > > 1 & q 1 & & & H 2 i 1 1 % # 5 5 % % 5 5 + + @ @ @ 5     @ 5 > > H & 1 & 7 7 T T k 7 _ _ k k _ _ T T T T g g g g b b b b C C A A A a A A A A > > | | | | | | 1 1 # # @ @ 5 @ @ @ @ @ @ @ # # # # Q Q r r % # r r % # r r % x r r % % r r % % # # x x x % > : % % # % % # x x % % % x x # : : % x > : x x > q : : q > q q q q > > 1 1 > q & & q q & w B B A a a A a o A A o o * * 5 5 C C t t t t t t t t t t t t t t t t t t t t t t t t t t t t t t t t t t t t t t t t t t t t t t t t t t t t t t t t t t t t t t t t t t t t t t t t t t t t t t t t C C v v r r p p o o a a A a o a w w w & & & q q H H z > q q > > q q > : : > x x : > x x x x % % x x % x x % # # x % r r % x x x > : # # x % r r # % r # % % r r % # r r % # @ 5 r # 5 @ @ 5 5 @ @ 5 5 @ @ 5 @ @ # # 5 @ @ @ | | | | | | q > p 2 A A a A o o 9 o o 9 9 8 d d g g 7 k 3 3 T T T T T T T T 7 7 7 7 i i 1 1 & & 5 @ 5 5 @ @ # # @ 5 # # 5 5 # % % % & 1 i i 2 2 $ $ 1 1 : > > q : > $ $ : > > : : : > > > : $ : % % : : % % : : # % ",
"> > $ $ > > : $ $ > : $ > > $ : $ : q > > : > > & & q > & & 1 1 & & & & 2 2 & 1 % % 5 5 % % 5 5 + + @ @ @ 5     5 5 q > H & & & 7 7 T T k 7 _ _ k k _ _ T T T T g g g g b b b b C C A A A A a A A A > > | | n n | | 1 1 # # @ @ 5 5 @ @ @ @ @ @ # # # # Q Q r r % # r r % # r r % x r r % % r r % % % # x x % % > : % % # % # # x x % % x x % x > : % % : > x x > > : : q > > > q q > > 1 1 > q H H q > w w B B A a A A o o A A o o * * 5 5 C C t t t t t t t t t t t t t t t t t t t t t t t t t t t t t t t t t t t t t t t t t t t t t t t t t t t t t t t t t t t t t t t t t t t t t t t t t t t t t t t t C C v v r r p p o o a a a A a o w w w & & & q > H H > > q q > > q q > : > > % x > > x x % x % % % x x # x % # # x % r r x x % x > : # # x % r r x % % # x % r r % # r r % # @ 5 r # @ @ 5 5 @ @ @ 5 5 @ @ 5 5 @ # # 5 @ @ @ | | | | | | q > B 2 a a A A o o o o 9 9 8 8 d d g g 7 k 3 3 T T T T T T T T 7 7 7 7 i i & 1 & & 5 @ 5 5 5 @ # # 5 5 # + @ 5 % % % # 1 & i i 2 2 $ $ 1 1 : $ > q : $ $ $ $ > : : $ > > > > : : : % % : > % % : : % % ",
"$ $ > > $ $ > > : $ > > q > 1 1 $ $ 1 1 & 1 i i ' $ 1 1 $ > 1 1 $ $ 2 2 B 2 w & % # % % + + + + @ 5 # # @ 5 5 5     $ $ > $ 2 2 T T 7 7 7 7 7 7 T T k k T T 7 7 g g e d 8 8 9 9 a a 8 o A A A A p p H H n n | | | | 1 1 5 5 5 5 # # # # # # # # 5 @ # # # # % x # # # # r r # # r r % # r r # % r # % x x % % x x % : : r r % % % # % x % % % x x # : : x x > : # x : > > : q q > > & 1 > q 1 1 > q w w w & 2 p p p a o A A A a p 2 y y * * C C t t t t t t t t t t t t t t t t t t t t t t t t t t t t t t t t t t t t t t t t t t t t t t t t t t t t t t t t t t t t t t t t t t t t t t t t t t t t t t t t a a * * > > B 2 2 p a o o o 9 o & & w w q q & & q q & & > > q q > > q q : : : > x x : > % % % x x # : : x % % x % # x % % % : > x % x x % # % % r r % % r r % % r r # # @ 5 % % % # # # @ 5 # # 5 5 # % % # 5 5 @ @ # # @ @ | | m m | | > > A A A a A A A A f f b c b b e e e e 7 7 T T T T T T T T 7 7 7 U F F & & & H 1 1 5 5 @ @ # + # % % % 5 5 % % % # $ : 1 1 2 2 w & & 1 : > & 1 ' ' 1 1 : ' 1 1 q > 1 1 : : $ > > $ > > > : > > > : > > ",
"$ $ > > $ $ > > : $ > > > q 1 1 $ $ 1 1 1 1 B 2 : $ 1 1 $ > 1 1 $ $ 2 2 B 2 w & % % % # + + + + @ 5 # # @ @ 5 5     $ $ $ : 2 2 T T 7 7 7 U 7 7 T T 7 k T T 7 7 g g d d 8 8 9 9 a a 8 o A A A a p p H H n n | | | | 1 1 @ 5 5 5 # # # # # # # # @ @ # # # # x x % # # # r r % # r r % % r r % % # # x x % % % x x x : : r r % % % # x x % % % x % # : : x % > : x x > q : : q q > > & 1 q > w 1 > q w w w & 2 p p p o o a a A A p 2 y y * * C C t t t t t t t t t t t t t t t t t t t t t t t t t t t t t t t t t t t t t t t t t t t t t t t t t t t t t t t t t t t t t t t t t t t t t t t t t t t t t t t t a a * * > > B 2 p p o o a o o 9 & & w w q > w w q q H H > > q q > > q q : : > > % x > : % x x x % % : > x % x x # # x % % % : > x % x x # # x % r r x % r r % # r r % # @ 5 # % # # # # 5 @ # # 5 @ % % % # 5 5 @ @ # # 5 @ | | | m | | > > A A A A A a A A f f b c b b e e e e k 7 T T T T T T T T 7 7 7 U F F & & & H 1 1 5 5 @ @ # % # # % % 5 5 % % % # $ : 1 1 2 2 1 & 1 1 q > & 1 ' ' 1 1 : ' 1 1 > q 1 1 : : $ > > $ > > > $ > > > : > > ",
"> > : : > : : : > > : : 1 1 $ $ 1 1 : $ $ $ + + : $ : $ 1 1 $ $ & & & H 2 i 1 1 : $ # # % # 5 5 % % 5 5 + + @ @ @ 5 z z & & & H F F T T 7 7 T T 7 7 T T T T 7 7 g g g g c b c b f f a a A a 2 p a a > > | | n n | | 1 1 # # 5 @ | * * E # # 5 @ # # @ @ r r r r % # r r % # r r % x r r % % r r % x x % % x % # : : % x x x % % % x % # x % % % : : % x > : x x : > > : q q > > q q > > 1 1 > q w & q q w w w & 2 p 2 2 A A 2 2 A A y y 5 5 o o t t t t t t t t t t t t t t t t t t t t t t t t t t t t t t t t t t t t t t t t t t t t t t t t t t t t t t t t t t t t t t t t t t t t t t t t t t t t t t t t a o * * & & p p A A p 2 2 p 2 2 w w & & H H q q & & q q q q > > q q > > q q : : > > x x > : x % x x % x > : # # x x r r % x x % : : x % x x # # x % 5 5 # # # # # x % r r r # # # # @ @ # # # # # # r r % # m m # # @ @ 5 @ | | | | | | q q 2 2 A a A A o o o o o 9 9 8 d d g g W W T T T T T T 7 7 7 U 7 7 U U i i 1 & & 1 5 5 # + @ 5 % % % # % % # # : $ % # & & 2 2 i i q > 1 1 : > $ $ ' ' # # # # > > : > 1 1 > q > > : : q > > : : > : : ",
"> > : > : > > : $ : : : 1 1 $ $ 1 1 : > $ $ + + : $ : : 1 1 $ $ 1 & & & 2 2 & 1 $ $ # # % % 5 5 % % 5 5 + + @ @ @ 5 > > H & 1 & F F T T k 7 T T 7 7 T T T T 7 7 g g g g c b c c f f a a a A 2 p a a > > | | | | | | q 1 # # @ @ | * * E # # @ 5 # # @ @ r r r r # # r r % # r r # % r r % % r r x x % % x x % x : : % x x x % % x x % % x x % x : : x x > : # x > > : : q > > : q > q q 1 1 > q w & q > w w w w B 2 2 2 A A 2 2 a a y y 5 5 o o t t t t t t t t t t t t t t t t t t t t t t t t t t t t t t t t t t t t t t t t t t t t t t t t t t t t t t t t t t t t t t t t t t t t t t t t t t t t t t t t a o * * & & p p a a 2 2 p 2 2 2 w w & & & w q q & & q q q > q q q > > q > q > : > > x x > : % % x x x % > : % # x x r r x x % x > : % % % x % # x % 5 5 # # # # % % r r r r % # # # @ @ # # # # # # r r # # m m # # 5 @ @ @ | | | | | | q q p 2 A A a A o o 9 o 9 9 o 8 d d g g W W T T T T T T k 7 7 7 7 7 U U i i 1 & & & 5 5 # # @ 5 % % # % % # # # : $ % # & & 2 2 i i q > 1 1 q > $ $ ' ' # # # # > > : > 1 1 > q > > : : q > > : q > > : ",
"$ : $ > > : > > > > > $ 1 , ' T 3 ) ) ) ! ! 3 3 T T F F F F g g & & & H 1 & & & : > > > y y : $ # + + # # + + + @ 5 $ $ H H w & F F , F 7 7 7 7 7 7 7 7 T T 7 7 g g d d 8 8 9 9 a a 8 o A A A A p 2 > q n n n | | | i i r r r r l l E E @ @ % % r r % # R R r r % # # % % # x x r r % # r r % # # # x : % x x x % % x x x % % x x % : : % x > : x x : : x % > > : : > q > > q > q q 1 1 q > w w q q H H H H w w w w 2 p 2 2 A A 2 2 % % 5 5 f f t t t t t t t t t t t t t t t t t t t t t t t t t t t t t t t t t t t t t t t t t t t t t t t t t t t t t t t t t t t t t t t t t t t t t t t t t t t t t t t t A A 5 5 q > A a B B p p B B B B & & H H q q & & q q H H q > q q > q q q > : : > x x : > % % : : x x > q x x : : x x > : % % x x % % x % # x % % % # x x % # x x x % % x x # # # @ 5 # # @ @ # # r r : : 4 4 4 4 @ @ # # 5 @ | | m m | | > > A A A a A A A A f f b b b b e e e e 7 7 7 7 U U k 7 T T k 7 T T F F & & 2 2 $ $ # # % # : $ % # $ : % # : $ % # > > H & i w 1 1 2 2 j j , , ' T ' ' S S S S X X ) ) T T 7 7 $ $ : $ ' > : > $ $ > > ",
"> : : > > > > > > > > > , , ' T 3 ) ) ) ! ! 3 3 T T F F F F g g & & & H 1 & & & > > $ > % % : $ + + # # + + + + @ 5 $ $ H H w & F F , F 7 7 7 7 7 7 7 7 T T k 7 g g d d 8 8 9 9 a a a o A A A A p 2 q > n n n | | | i i r r r r l l E E @ @ # % r r % # R R r r % # # % # # x % r r x # r r # % # # : : % % % x x # x % % % % x x # : : x % : : x % > : x x : > > : q q > > > q q > 1 1 > q w & q q & & H H w w w w p p B 2 a a 2 2 % % 5 5 f f t t t t t t t t t t t t t t t t t t t t t t t t t t t t t t t t t t t t t t t t t t t t t t t t t t t t t t t t t t t t t t t t t t t t t t t t t t t t t t t t a A 5 5 q > a a B B p p B B B B & & & w q q & & q q & & > > > q q > > q q : : > x x > : % % : : x % > : x x : : x % > : x % % x % # x % % % # % % # x x % # x x % # x x # # # # 5 @ # # @ @ # # r r : : 4 4 4 4 @ @ # # 5 @ | | m m m | > > A a A A A a A A f f b b b b e e g e 7 7 7 7 U U 7 7 T T 7 7 T T F F & & 2 2 $ $ # # % # : $ % # $ : % # $ $ # % > > H & i w 1 1 2 2 j j , , ' T ' ' S S S S X X ) ) T T 7 7 $ $ $ : $ $ > $ $ > : > ",
"$ $ > > : : > > H & & & T T S S X X { { ! ! k k F , , , g g g , & & & & B 2 & & > > % % : $ + + > $ # % % # # # : $ $ > H & & & F F 7 7 U U U U U 7 T T 7 7 7 U e e e g b b c b o o A a 8 a 2 2 p p > > | | | | @ @ 1 1 # # @ @ 1 1 i i # # @ 5 # # # r r r R R % % % # % x # # x % r r # # r r % x x % % x x % x x % # : : x % x x # % : : x x : > x % > > x x > : : : > q > > q q > > & 1 q q & & q q w w w & 2 B B B p p B 2 p p y y % % o o t t t t t t t t t t t t t t t t t t t t t t t t t t t t t t t t t t t t t t t t t t t t t t t t t t t t t t t t t t t t t t t t t t t t t t t t t t t t t t t t a o * E H H B 2 2 p B B B 2 & w B 2 & & H H q q & & > > q q > > q q : : > q > : > > x x : > x % > > x x > : % % : : % x x x % % x x % % x % # x % % r r % x x % x x r r % # r r % # @ @ # # @ 5 # # 5 5 i i 1 1 # # # # # # | | | | | | q q 2 2 A A A A o o o o 9 9 8 8 d d g g 7 U T T 7 7 T T 7 7 T T F F F F 2 2 & & & & + + $ $ $ ' : : : : : $ % % > > > > & & & & & & & & e e g , g g , , 7 7 S S ! ! { { X X S S $ $ $ $ > > > $ $ > $ $ ",
": $ > > > > > $ & & & & T T S S X X { { ! ! k k , g , g g g g , & & & & 2 2 & & > > % % $ $ + + $ $ % % # # # # $ $ > > & & & & F F 7 7 7 U U U U 7 T T U 7 7 7 d e g g b b c b o o o A 8 a 2 2 p p > > | | | | @ @ 1 1 # # @ @ 1 1 i i # # 5 @ # # r r r r R R % % % # x % # # x % r r # # r r x x % % x x % x x % # % : : x % % x % # : : x x > : # x > > x x > : : : q q > > q > q q 1 1 q q & & q q w w w & B B B B p p B 2 p p y y % % o o t t t t t t t t t t t t t t t t t t t t t t t t t t t t t t t t t t t t t t t t t t t t t t t t t t t t t t t t t t t t t t t t t t t t t t t t t t t t t t t t o o * E H H B 2 2 p B B B 2 & w 2 2 1 & & w q q & H q > q q > > q q > : > q > : > > x x : : x % > : x x : : % x > : % % % x x # x % % % % x % # x % 5 r x x x % % x r r # % r r % # @ @ # # 5 @ # # 5 @ i i 1 1 # # # # # # | | | | | | q q 2 2 A A A A o o 9 o 9 9 a 8 d d e g 7 U T T 7 7 T T 7 7 T T F F F F 2 2 & w & & + + $ $ $ ' : : : : : $ % % > $ > > & & & & & & & & e e , , g g , , 7 7 S S ! ! { { X X S S $ $ $ $ $ > > $ $ > $ $ ",
"> > > > $ > $ $ , g ' : ) ) { { Y Y X X F F e e e e e e , g d e & & i i & & i i : : > : : ' , g ) ) ) 3 3 ) ) 3 S S ' T T T , g F F , F 7 7 7 7 7 7 7 7 T T U 7 g g d d 8 8 9 9 a a o o A a A A 2 2 H H n n | * * | i i # # r r @ @ r r # # # # r r # # R R r r r r % # r r # % r r % # r r % # % % % x x # x % # # x x % # x x % % : > x % : : x % > : x x : > > : : q > > q > q q 1 1 q q & & q q & & & & w w w w 2 p 2 2 2 p 2 2 x x r r f f t t t t t t t t t t t t t t t t t t t t t t t t t t t t t t t t t t t t t t t t t t t t t t t t t t t t t t t t t t t t t t t t t t t t t t t t t t t t t t t t a A 5 5 > > A a B B p p B B B B & & & & q q & & > q & & q > > q q > > q q : : > x x : > x % > : % x > : % % % x % # x % % # x x % # x x % % % x r r # % r # % x # # x % 5 5 # # 5 @ # # @ 5 # # 5 5 r r % # # + @ @ # # 5 @ | | m n n n > > A A A A A A a A f f b c b b d d e d 7 7 T T T T U 7 T T F F F , F F 2 2 p 2 _ _ ) ) ! ! ) ) 3 ) _ _ T T T ' : $ 1 1 & & i i 1 1 2 i e e e e i i , g g g g , S S Y Y { { ) ) T T , , > > > $ > > > > ",
"> $ > > > > > $ , g ' ' ) ) { { Y Y X X F F e e e e e e , , e e & & i i 1 & i i : : : $ ' ' , g ) ) ) 3 ) ) ) 3 S S ' T T T , g F F , F 7 7 7 7 7 7 7 7 T T 7 7 g g d d 8 8 9 9 a a o o A a A A 2 2 & H n n | * * | i i # # r r @ 5 # r # # # # r r # # R R r r r r % # r r % # r r % # r r # % % % % x x # x % # # x x % % x x % x : : % % : > x % : : % x > : : : q q > > q q > > & 1 q q & & q q & & & & & w w w p p B 2 p p 2 2 % x r r f f t t t t t t t t t t t t t t t t t t t t t t t t t t t t t t t t t t t t t t t t t t t t t t t t t t t t t t t t t t t t t t t t t t t t t t t t t t t t t t t t A A 5 5 > > A A B B p p B B B B H & & w q q & H q > H H > > q q > > > q : : : > x x : > % x : > x % : : x % x x # % x x % # # x # # x % % % % x r r % % % # % x # # # x 5 5 # # @ 5 # # @ @ # # @ 5 r r # # # + @ @ # # 5 @ | | | | | | q > A a A A A A a A f f b c 8 8 d d e e 7 7 T T T T 7 7 T T F F F , F F 2 2 p 2 _ _ ) ) ! ! ) ) 3 ) _ _ T T T ' : $ 1 1 1 & 2 2 & 1 i i e e e e i i g e g g g , S S Y Y { { ) ) T T , , > > > $ > > > > ",
"1 & > $ 1 & $ > , g . . ! ! { { { { 3 3 F , e d e e g , e d g g 2 2 2 2 2 2 & & & F 2 2 , , . . ! ! { { { { { { X X X X S S ' T F F 7 7 U U U U 7 7 T T 7 7 7 7 d e e g b b c b o o a a 8 a 2 2 A A > > | | | | @ @ 1 1 # # @ @ r r @ 5 % r @ 5 # # r r r r R R % # r r # % r r # % r r % % r r % x x % x % % # x x % % x x % # # x % % : > x % : : x x > q x x : > > : : q > > q q > > & 1 q q & & & H H w w & 2 2 2 B A A p p a A % % x % o o t t t t t t t t t t t t t t t t t t t t t t t t t t t t t t t t t t t t t t t t t t t t t t t t t t t t t t t t t t t t t t t t t t t t t t t t t t t t t t t t o o * E H H B 2 p p B 2 p 2 & w w w w & & & q q & & q q q q > q q q > > q > : : : > x x : > % x x x % % x x # # x x % # # x % # # x % # % x x % # % % r r % # # x % r r # # r r % # @ @ # # @ 5 r r @ 5 # # 5 5 # # # # # # | | | | | | q q p p A A A A o o o o 9 9 o 8 d d g g 7 7 T T U 7 7 7 F F 7 7 F F F F e e . . ! ! Z Z { { { { X X ! ! . . T T i i i i 2 2 i 2 i i 2 i e e 2 2 , g 2 i e e g g T T Y Y { { { { . . T T & & > > > > $ > ",
"& & > > & 1 > > , g . . ! ! { { { { 3 3 F , e e e e , g d d e g 2 2 2 2 2 2 & & & 1 i 2 , , . . ! ! { { { { { { X X X X S S ' T F F 7 7 U U U U 7 7 T T U 7 7 7 e e g g b b c c o o o A a a 2 2 a A > > | | | | @ @ 1 1 # # @ @ r r @ 5 % r @ @ # # r r r r R R % # r r % # r r % # r r % x r r % x x % # % % # x x % # x x # # x x % # : : x % > : x x : > x x > q : : q q > > q q > > 1 1 q > H H H H w w w & 2 2 2 2 A A 2 p a a % % x % o o t t t t t t t t t t t t t t t t t t t t t t t t t t t t t t t t t t t t t t t t t t t t t t t t t t t t t t t t t t t t t t t t t t t t t t t t t t t t t t t t o o * E H H B 2 p p B B B 2 w w w & & & & & q q & & > q q > q q q > > q > q : : > q x x : > x % x x x % % x x # # x # # x % # % x % % # x x % % x % r r % % % # x x r r # # r r % # @ @ # # 5 @ # r @ 5 # # 5 5 # # # # # # | | | | | | q q p p a a A A o o o o o 9 9 8 d d g g 7 7 T T U 7 7 7 F F 7 7 F F F F e e . . ! ! Z Z { { { { X X ! ! . . T T i i i i i 2 i 2 i i i 2 e e 2 2 e e 2 i e e g g T T Y Y { { { { . . T T & & > > > $ > > ",
"> > & & $ $ & & T T S S X X X X } } g g g e e e e e e e , , g g , g , , g , , , g g , , T T 3 3 { { Z Z ` ` / / / / { { ! ! k k F F W W W W W W U 7 7 7 T T U 7 , g d d b 8 C 9 a a o o A a A A p p H H n | | | | | i i # # # # # # % x @ @ # # r r # # r r % # # # # # r r # % r r % % r r x % % # x x % # x x % % x x % x x % x x > : # x > : % x > : x x > > : : q > > : q > > > & 1 q > w w q q H w w & B 2 2 B A A B B w w w & y y 5 5 f f t t t t t t t t t t t t t t t t t t t t t t t t t t t t t t t t t t t t t t t t t t t t t t t t t t t t t t t t t t t t t t t t t t t t t t t t t t t t t t t t o a 5 5 z z B B B B p p B B B B H & w w q q & & q q H H z > q q > > > q : : > > % x > > x x : > x % x x % % % x x # x % r r % # # # x x # # x % # % # # @ 5 % % % % # % 5 5 r r # # # # # # # # @ 5 # # # + + # # # # # @ @ @ @ n n * * > > A a A A a a A a f f b c b b d d e e 7 7 7 7 U U 7 7 T T W W , F F F T T ! ! ^ ^ Z Z / / / / Z Z { { S S k k U 7 g g e e g e , , g e g g , g e e b b g e 8 b , , T T { { { { S S ' T 1 1 & 1 $ > 1 1 ",
"> > & & $ $ & & T T S S X X X X } } g g e e e e e e e e , , e g g , , , g , , , g g , , T T 3 3 { { Z Z ` ` / / / / { { ! ! k k , F W W W W W W 7 7 7 7 T T 7 7 g g d d 8 8 C 9 a a o o A a A A p p H H | | | | | | i i # # # # # # # % @ @ # # r r # # r r # % # # # # r r % # r r % # r r % x # # x % # % x % % % % x x # x % x x > : # x > : x x > q x x : > : : > q > > q q > > & 1 q q & & q q w w & & p 2 2 B A A B B w w w & y y 5 5 f f t t t t t t t t t t t t t t t t t t t t t t t t t t t t t t t t t t t t t t t t t t t t t t t t t t t t t t t t t t t t t t t t t t t t t t t t t t t t t t t t a a 5 5 z z B B B B p p B B B B & & & w q q & & q q H H > > q q > > q q : : > > x x > q x x : : x % % x % # x % % % x x r r % % % # % x # # x x % # # # 5 @ % % % % # % 5 5 r r # # # # % # # # 5 5 # # # + + # # # # # 5 @ @ @ | n * * > > a a A a o a A A f f b c b b d d e e 7 7 7 7 U U 7 7 T T W W , F F F T T ! ! ^ ^ Z Z / / / / Z Z { { S S k k 7 7 g g e e g e , , g e g g e g e e b b d g b b , , T T { { { { S S ' T 1 1 & 1 > $ & 1 ",
"& & > > & & & w T T S S X X X X 7 7 g g 2 2 e e , F T T T T T ' 7 7 T ' T T S S ' T S S 3 3 3 3 ) ) { { / / ` ` ^ ^ ^ ^ S S 3 3 g g T T 7 U 7 7 7 7 U U U 7 7 7 e d e g b b b c o o a a 8 a 2 2 a A > q * * | | @ @ 1 1 # # @ 5 # # # + # # @ 5 # # r r % # r r % # r r % x r r % # r r # % r r x x % % x x # # x x x % > : % % : > x x > > x x > : x % > > % x > > : : q > q q q q > > 1 1 q > w 1 & & B B w w 2 2 B B p p B 2 a a y y r r o o t t t t t t t t t t t t t t t t t t t t t t t t t t t t t t t t t t t t t t t t t t t t t t t t t t t t t t t t t t t t t t t t t t t t t t t t t t t t t t t t C C E E & & H H p p B 2 p 2 w w 2 2 w w & & q q & & > q q q > q q q > > q > : : > > % x > > x x : : x % x x # % x : % x % % % # % x % % % x % # x % 5 5 # # r r x x # % # % 5 5 # # # # % # # # # # r r % # # + # # # # # # | | | | | | H H p p A A A A o o o o 9 9 o 8 b b g g 7 7 T T 7 7 7 7 F F 7 7 F F g g S S X X { { Z Z / / ( ( Z Z ) ) 3 ) ) ) S S S S ' ' S S T T : ' T T T ' ' ' ' ' e e g e e e ' T ! ! { { S S S S & & $ $ 1 1 $ > ",
"& & > > & & & w T T S S X X X X 7 7 g g 2 2 e e , F T T T T T ' 7 7 T T T T S S ' T S S 3 3 3 3 ) ) { { / / ` ` ^ ^ ^ ^ S S 3 3 g g T T 7 U 7 7 7 7 7 U 7 7 7 7 e e g g b b c c o o A a a a 2 2 a A > q * * | | @ @ 1 1 # # @ 5 # # # + # # 5 @ r # r r # # r r # % r r x % r r % # r r # % r # % x # % % x % # x % % % : : x % > : x x : > x x : > x % > > x x : > > : q q > > q > q q 1 1 q q & & & H B B w w 2 2 2 B B p B B a a y y r r o o t t t t t t t t t t t t t t t t t t t t t t t t t t t t t t t t t t t t t t t t t t t t t t t t t t t t t t t t t t t t t t t t t t t t t t t t t t t t t t t t C C E E H H H H p p B B B 2 & w 2 2 & w w & q q H H > q > q q > q > q q q q > : > > % x > > x x : : % x x x % % : : x % % % % # % x % % x x % # % % 5 5 # # r r % x x # % % 5 5 # # # # # # # # # # r r # # # + + # # # # # | | | | | | H H p p A A A A o o 9 o 9 9 8 8 b b g g 7 7 T T 7 7 7 7 F F 7 7 F F g g S S X X { { Z Z / / ( ( Z Z ) ) ) 3 ) ) S S S S ' ' S S T T ' : T T T T ' ' ' ' e e e , e e T T ! ! { { S S S S & & $ $ 1 1 > > ",
", F F g j F , , T T 3 3 3 3 ' T 3 3 3 3 ) ) _ _ ) ) ) ) ) 3 3 ) 3 3 3 3 ! ! 3 3 3 3 ) ) 3 3 ) 3 S S S S { { / / Z Z { { S S ' T g g F F 7 7 W W 7 7 7 7 T T 7 7 g g d d 8 8 9 9 a a o o A A A A p p H H n | E E | | i i # # # # # # # # r r # # r r % # r r % # # # x x # # x % r r % # @ 5 r # r r % x x % x % % % % x x x : > x x > : x % > > x x > : x % > > : : > q > > q q > > 1 1 > q w & q q w w w & 2 B B B p p B 2 a a 2 2 y % 5 5 f f t t t t t t t t t t t t t t t t t t t t t t t t t t t t t t t t t t t t t t t t t t t t t t t t t t t t t t t t t t t t t t t t t t t t t t t t t t t t t t t t a a 5 5 H H A A p 2 p p B 2 B B w w w w q q & & q q & & > q q q > > q q > : > q : : > q x x > > % x > : % % % x x x : > % % % x x # x % % % x x % # # # r r % # r r % x # # x x % # # % # # # # r r # # # # # # # # # # @ @ 5 @ | | * * > q a a A a o a A a f f b c c c d d e d 7 7 7 7 U U U 7 7 7 W W F F g g S S S S { { { { Z Z { { ) ) ) 3 S S S S S S S S 3 ) ) ) ) ) ) 3 3 3 ) ) ) 3 S S S S S S 3 3 T T ) ) S S ) ) k k F , W W F F F g ",
", F F g F F g , T T 3 3 3 3 ' T 3 3 ) 3 3 ) _ _ ) ) ) ) 3 3 3 ) 3 3 ) 3 ! ! 3 3 3 3 3 3 3 3 3 ) S S S S { { / / Z Z { { S S ' T g g F F 7 7 W W 7 7 7 7 T T U 7 g g d d 8 8 9 9 a a o o A A A A p p H H | | E E | | i i # # # # # # # # r r % # r r % # r r % # # # x % # % x % r r % # @ 5 r # r r x x % % % x x # x % x x : > x % > > x x > > % x > > x x : > > : : q > > q q > > & 1 q q & & q q & w w & B 2 B B p p B 2 A A p 2 y % 5 5 f f t t t t t t t t t t t t t t t t t t t t t t t t t t t t t t t t t t t t t t t t t t t t t t t t t t t t t t t t t t t t t t t t t t t t t t t t t t t t t t t t o a 5 5 H H A A p 2 p p B B B 2 w w w & q > w w q q H H > > > q q > > q q : : q > : > > x x : > x x > : x % x x x % > : % % % x % # x % % % x x # # # # r r # % r r x % # # x x # # # % # # # # r r % # # # # # # # # # @ @ @ @ n n * * > q a a a A a o a A f f b c c c d d e d 7 7 7 7 U U U 7 7 7 W W F F g g S S S S { { { { Z Z { { ) ) 3 ) S S S S S S S S ) ) 3 ) ) ) ) 3 ) 3 ) ) ) 3 S S S S S S 3 3 T T ) ) S S 3 ) _ k , F W W F F , g ",
"' T . . . . . . ) ) S S 3 3 S S S S ! ! ) ) ! ! S S ! ! ) ) ) 3 3 3 3 ) ) 3 3 3 3 3 3 3 _ _ 3 3 T T 3 3 3 ) { { { { ! ! S S T T , g T T W W 7 7 7 7 U U U 7 7 7 e e g g b b c c o o a A o o A A A a > q * E | | @ @ 1 1 # # @ 5 # # # + # # r r % # r r % # r r % x # # x x % # # % r r % # @ 5 # % % % : > x % x x # % : > > : : q > : : > x x : > % x > > % x > > : : q q > q q q > > 1 1 > q H H H & 2 B & w p p B B p p B 2 a A y y % % o o t t t t t t t t t t t t t t t t t t t t t t t t t t t t t t t t t t t t t t t t t t t t t t t t t t t t t t t t t t t t t t t t t t t t t t t t t t t t t t t t C C 5 5 & & a a p p B 2 p 2 w w w w & & & w q q & & q > H H > > q q > > q > : > > x x : > > x x > : x % > : % x > : x x : : % x > : x x : : % % % # % r # % r # % x # % x x % # % % # # # # # % x # # # x % # % # # # # # # | | | | | | H H p p A A A a o o o 9 9 8 8 8 8 b g g 7 7 T T U 7 7 7 F F F F F F F F 7 7 S S 3 ) { { { { ) ) T T _ _ T T S S S S S S ) ) 3 ) ) 3 S S 3 3 ! ! S S ) ) ! ! ! ! 3 3 ) 3 S S ) ) ) 3 3 ) S S S S T T S S ",
"' T S . . . . . ) ) S S 3 3 S S S S ! ! ) ) ! ! S S ! ! 3 ) ) ) 3 3 3 3 ) 3 3 3 3 3 3 3 _ _ 3 ) T T 3 3 ) ) { { { { ! ! S S ' T g g T T W W 7 7 7 7 U U 7 7 7 7 d e g g b b c b o o a A o o A A A o q > E E | | @ @ 1 1 # # 5 @ % % # # # # r r # # r r # % r # % x # % x x # # x % r r # % 5 5 # % % % : : x % x x # % > > : : q > > : q > x x > q x x : > x x > q : : q q > > > q q > 1 1 q > w 1 & & 2 B w w 2 p B B p p B 2 A A y y y % o o t t t t t t t t t t t t t t t t t t t t t t t t t t t t t t t t t t t t t t t t t t t t t t t t t t t t t t t t t t t t t t t t t t t t t t t t t t t t t t t t C C 5 5 H H a a p p B B B 2 w w w w & & & w q > w w q q H H > > q > q q q q > : > > x x > : x % > : % % : > x % : > x x > : x % : : x % > : x % % % r r % % # # x % % # x x % # x # # # # # # # # % % # x % # # # # # # # # | | | | | | H H p p A A A A o o o 9 9 8 8 8 b b g g 7 7 T T 7 7 7 7 F F F F F F F F 7 7 S S 3 ) { { { { ) ) T T _ _ T T S S S S S S ) ) 3 ) 3 3 S S 3 3 ! ! S S ) ) ! ! ! ! 3 ) ) ) S S ) ) ) 3 3 3 S S S S T T S S ",
"! ! ! ! ! ! ! ! ! ! ! ! ! ! ) 3 ! ! S S ! ! S S S S S S 3 3 S S S S T T S S T T T ' ' : ' T , g 1 1 , g F F X X S S S S ' : ' T c c j j , , F F 7 7 7 7 T T W W g g d d 8 b 9 9 o a o o A A A A p p H H * * E E | | i w r r % # r r % # % % r r r r % # r r % # r r % x # # x x % % x x % x : : % % : > : : > : # % : : x x > > % x > > x x : > x x > q x x : > > > q q > > q q > q q q > > & 1 q q & & H H B B & w B 2 B B p p B 2 x x % % u u t t t t t t t t t t t t t t t t t t t t t t t t t t t t t t t t t t t t t t t t t t t t t t t t t t t t t t t t t t t t t t t t t t t t t t t t t t t t t t t t A A y y z z p p B 2 p p 2 B B B H & B B H & w w q q & & q q > q q > q q > q q q > > q > x x > : % % > > % x q > : > > x x : x x % x > : # x : > x % : : % x > : % % x x % # # x % # % % r r % % # % x x % # # # @ @ # # 5 @ @ @ | | * * > > a A A A a o o a f f b c c b d d e d 7 7 7 7 U U U 7 7 U F F F F d d ' : ' T S S S S X X T T , , , g ' ' ' : T T T T T ' T T S S S S S S S S S S S S X X ) ) X X ) ) ! ! ) ) X X ! ! X X ! ! X X ) ) ",
"! ! ! ! ! ! ! ! ! ! ! ! ! ! 3 3 ! ! S S ! ! S S S S S S 3 3 S S S S T T S S ' T ' : ' T ' : , , 1 1 , , F F X X S S S S ' T $ $ c c j j , , F F 7 7 7 7 T T W W g g d d b 8 9 9 a o o 9 A A A a p p H H * * E E | | i w r r # % r # % x # % r r r r # # r r % # r r % x # # x % % % x x % x > : % % > > : : : : % % : > x x > > x x > q x x : > x x : > x % > > > > q q > > q q > q q q > > & 1 q q & & & H B B & w 2 2 B B p p B 2 x x % % u u t t t t t t t t t t t t t t t t t t t t t t t t t t t t t t t t t t t t t t t t t t t t t t t t t t t t t t t t t t t t t t t t t t t t t t t t t t t t t t t t A A y y z z p p B 2 p p B 2 B B & H w B & H w w q q & & q q q > q q q > > q > q : > > q x x > : % % > > x x > q > : > > x x x x % x > : # x : : x % > : x % : : x % x x # % x : # # x % r r x % % % x % # x % # 5 @ # # @ @ @ @ | | | | > > A A A A o o A a f f b c c b d d d d 7 7 7 7 U U 7 7 U 7 F F F F d d ' ' : ' S S S S X X T T , , g , ' : ' T T T T T ' T T T S S S S S S S S S S S S X X ) ) X X ) ) ! ! ) ) X X ! ! X X ! ! X X ) ) ",
"! ! ! ! ! ! ! ! 3 3 3 ) ) 3 3 3 S S 3 3 3 3 S S T T 3 3 7 7 T ' W W 7 7 F F g , , , g , g g e e e d d g T T S S T T T ' W F e g 9 9 ' ' W W 7 7 7 U U U U 7 7 7 e e e e 8 8 b c f f A A A a A A A A q > @ @ | n E E & 1 # # @ @ l l | | x x % x x x r r r r r r # % % # x x % # x # % % % x x # : : x % > > % x x x x x > q > > q > x x > q x x : > x x > > % x q q > q q q > > q > q : > q > q H & q q w w w & B 2 w w 2 p 2 2 a a y y y y C C t t t t t t t t t t t t t t t t t t t t t t t t t t t t t t t t t t t t t t t t t t t t t t t t t t t t t t t t t t t t t t t t t t t t t t t t t t t t t t t t C C 5 5 q > B B p p B B B 2 w w B B H & w w H H H H q > H H > > q q > > q q > q q q > > q > x x : > x % > > x x > q > : > > x % % x % # > > % x x x x % % x % # x % % # x x % # # x % # % % r r % x x % | | l l # # # # # # | | | | | | q q 2 2 o o A a o o o o o 9 8 8 d d d e W W T T U 7 7 7 W F F F F e g g e e j j T T T ' S S ' T b b e e e e , g g g F F F F F , F F F g 7 7 T T T T V V S S 3 ) S S 3 ) ) ) ) ) 3 ) ) ) ) ) X X ! ! ! ! ",
"! ! ! ! ! ! ! ! 3 3 ) 3 ) 3 3 3 S S 3 3 3 3 S S T T 3 3 7 7 T T W W 7 7 F F F g , , , , g e e e e d d g T T S S ' T T T , F e g 9 9 ' ' W W 7 7 7 U U U 7 7 7 7 e e e e 8 8 b c f f a a A A A a A A q > @ @ | | * E 1 1 # # @ @ l l | | x x % x x x r r r r r r # % # # x % # % x % % % % x % # : : x x : > x % x x % x : > > > > q x x : > x % > > x x > q x x > q > > > q q > > q q > q q q > & & q q & w & & p 2 w w 2 p 2 2 a a y y % % C C t t t t t t t t t t t t t t t t t t t t t t t t t t t t t t t t t t t t t t t t t t t t t t t t t t t t t t t t t t t t t t t t t t t t t t t t t t t t t t t t C C 5 5 q q B B p p B B 2 2 w w B 2 H H w w H H H H q q & w > > q > q q q > > q > q : > q > x x > : x % > > x x > q : : q > x % % x % # > > x x x x x % % x x % x x % # % x # # x % % # # x % r r x % x | | l l # # # # # # | | * * | | q > 2 2 o o A a o o o o o 9 8 8 d d d e W W T T 7 7 7 7 F F F F F e g g g e j j T T T T S S ' T b b e e e e , g g g F F F F F e F F g , 7 7 T T T T V V S S 3 ) S S ) 3 ) ) ) 3 ) ) ) ) ) ) X X ! ! ! ! ",
"3 3 S S S S S S S S T T T T ' T T T ' ' ' ' T ' : $ , g , , , g i i a a 2 2 a a A A f f C 9 f f o 9 9 9 ' : ' T ' : , g i i a 9 ' ' F F , , F F 7 7 7 7 T T W W g g d d e e 9 9 o a o o A A A a p p H H * * E E | | i w # # # # r r > > % # # # # % x # r r % # r r % x r r % x x # x x % # x x % % : : x % x x # % > > x x > q x x > q x x : > x x > > x x > q > > q q > > q q > q q q > > H & q q H H H H B B & w 2 2 p 2 2 p p p x x r r f f t t t t t t t t t t t t t t t t t t t t t t t t t t t t t t t t t t t t t t t t t t t t t t t t t t t t t t t t t t t t t t t t t t t t t t t t t t t t t t t t A A y y z z B 2 2 B B 2 2 B B B & H w w & & H H q q & & > q > q q > q q > > q q > > q q x x > q x x : > x x > > : : > q x x > : % x x x % x : > x # # x % # % x % # x x % # x x # # % % r r % % r r 1 1 > : % x @ @ # # 5 @ @ @ | | | | > > A A A A C C A A f f b c c c d d e d 7 7 T T T T 7 7 7 7 W W 7 7 W W 9 9 8 8 1 1 ' : $ $ 1 1 2 i f f f f f u a a o o 8 8 a a i i 8 8 , g e e ' : , , ' : j j T T ' : ' T ' ' S S S S V V S S S S S S ",
"3 3 S S S S S S S S T T T T T T T ' ' ' ' ' ' : : $ , , , , , , i i a a 2 p a a a a f f 9 9 f f o 9 f 9 ' ' ' : $ $ , g i i a 9 ' : F F , , F F 7 7 7 7 T T W W g g d d e e o 9 9 o a o o A A A p p H H * * E E | | w w # # # # r r > > # # # # # # x x r r % # r r x x r r x x % # # x % # % x x % > : % x x % x % > > % x q q x x > q x x : > x x > > : x : > > > q > q q q > > q > q : > & & q q & & & & B B w w 2 2 2 2 p 2 p p x x r r f f t t t t t t t t t t t t t t t t t t t t t t t t t t t t t t t t t t t t t t t t t t t t t t t t t t t t t t t t t t t t t t t t t t t t t t t t t t t t t t t t A A y y z z B 2 2 B B 2 B B B B & & & w & & H H q q & & > q q > q q q > > q > q : > q > x x > q x x : > x x > > : : : > x x : > % x x x x % > : % % % % % # % x # # x x x % % x x # # x r r % # r r 1 1 > : % % 5 @ # # 5 @ @ @ | n * * > > a A A A C C A A f f b c c c d d e d 7 7 T T T T 7 7 7 7 W W 7 7 W W 9 9 8 8 1 1 ' : $ $ 1 1 i 2 f f f u u u a a o o o 8 a a i i 8 8 , , g e ' : , , ' ' j j T T ' ' : ' ' ' S S S S V V S S S S S S ",
"7 7 T T T T ' T 7 7 7 7 W W F F g g , F e e , , b b 2 2 0 0 b b f f f f f 9 f f f u u f 9 9 u 9 2 2 p 2 i i i i e e b b f 9 & & g g F F W W 7 7 U U U 7 7 7 7 7 e e e e 8 8 8 b C C A A A A A a A A q q @ @ | n @ @ 1 1 # # 5 5 & 1 # # # % r r % # r r x x r r % x # # x % r r % % r r % % # % : : % x > : % % : : x % > : x x > > % x > > x x : > x x : > > > q q > q q q > > q > q : > q q > w w q q H w & & p 2 B B p p B 2 B B % % x % C C t t t t t t t t t t t t t t t t t t t t t t t t t t t t t t t t t t t t t t t t t t t t t t t t t t t t t t t t t t t t t t t t t t t t t t t t t t t t t t t t C C 5 5 H H H H p p B 2 p p w w 2 B H H H H q q & & q q H & q > > q q > > q q > q q x x > q x x : > x x > > : x q > : > > x x : x : % x > : x x x x % # # x % # % x % % : > x % % % % # % x r r r r r r 1 1 > : # # # # # # | | * E | | H H p p o o A a o o C C 9 9 o 8 d d e g W W T T 7 7 7 7 W W U U , F F F 9 9 9 9 8 b e e e e w i i i i 2 f f f u 9 9 9 f f o 9 f 9 9 9 9 9 9 8 b b b e e e e , , g , F F , , F F F F T T T ' T T 7 7 _ _ ",
"7 7 T T T ' T T U 7 7 7 W W F F g g , , e e , , b b 2 2 0 0 b b f f f f f 9 f f f f u u 9 9 9 9 2 2 p 2 i i i i e e b b 9 9 & & g g F F W W 7 7 U U U U 7 7 7 7 e e e e 8 8 b b C C A A A A A A a A q > @ @ | | @ @ 1 1 # # 5 @ 1 1 # # # % r r % # r r x x r r x x # # x % r r % % r r % % % # : : x % > : x % : : % x > : x x > > x x > : x % > > x x : > > > q q > > q q > > q q > q q q > q & & q q w w & & 2 2 2 B p p 2 2 B B % % x % C C t t t t t t t t t t t t t t t t t t t t t t t t t t t t t t t t t t t t t t t t t t t t t t t t t t t t t t t t t t t t t t t t t t t t t t t t t t t t t t t t C C 5 5 & & H H p p B B p p w w 2 B H H & & q q & & > q & & q > > q q > > q q > q q x x : > x % > > x x > q x x q q > : > > x x : > % % : > x % x x # % x x % % x x % x : : % % % % % # % x r r r r r r 1 1 > : # # # # # # | | E E | | H H p p o o o A a o C C 9 9 a 8 d d e g W W T T 7 7 7 7 W W U U F F F F 9 9 9 9 b b e e e e 2 i i i i 2 f f f f u 9 9 f f o 9 f 9 9 9 9 9 9 b 8 8 b e e e e , , g , F F , , F F F F T T T ' T T 7 7 _ _ ",
"' ' 1 1 & 1 i 2 i i 2 2 2 2 a 8 a a 9 9 9 o f f 9 f f 9 f f f f f u 9 f a a f f > > p 2 9 9 9 9 b 8 a a o 8 9 9 9 o f f & & B B , g , , , F F F 7 7 U 7 T T W W g g d d d d 9 9 8 o o o A a A A p p H H * * 5 @ | | i i # # # # r r % # r r % # r r % # # r x x r r % x x % x % r r % # # # x x # % : > x x % x x x > > % x > > x x : > x x > > % x > > x x q > q q q > > q > q : > q q > > & 1 q q & & H H B B & w 2 2 2 p 2 p 2 2 > z y y D D t t t t t t t t t t t t t t t t t t t t t t t t t t t t t t t t t t t t t t t t t t t t t t t t t t t t t t t t t t t t t t t t t t t t t t t t t t t t t t t t A A y y q > B B B B p p B 2 B B & H w w q > w w q q H H > q > q q > q q > > > q q > : > x x > q x x : > x x > > : x q > x x > : x % x x % % : > # # x % # % x % % % x x % % x x 5 5 # # # # % x @ 5 # # 5 5 # # 5 5 # # # # @ @ | n E E > > A A A A o o A A f f b c b b d d e d 7 7 7 7 T T U 7 7 7 F F F F , g i i 9 9 2 2 9 9 8 b 0 0 8 8 a a a o 8 9 9 f a a A A o o p p u u f f f u f f f f f o 9 f 8 8 0 0 2 2 8 8 i i i i 1 1 & 1 ' : , , ",
"' ' 1 1 & 1 i i i i 2 2 2 2 a 8 a a 9 9 o o f f f f f 9 f f f f f f 9 f a a f f > > p 2 9 9 9 9 b 8 a a a 8 9 9 9 o f f & & B B , g , , , F F F 7 7 7 7 T T W W g g d d e d 9 9 a o o o A a A A p p H H * * 5 @ * * i i # # # # r r # # r r % % r r % # r r x x r r % x x % x % r r # % r # % x # % > > % x x x x % > > % x > > x x : > x x > > x x > : x % q > q q q > > q > q : > q q > > H & q > H H H H B B w w 2 2 2 2 2 p 2 2 z z y y D D t t t t t t t t t t t t t t t t t t t t t t t t t t t t t t t t t t t t t t t t t t t t t t t t t t t t t t t t t t t t t t t t t t t t t t t t t t t t t t t t A A y y q > B B B B p p 2 B B B H & w w q q & & q q H H > q q > q q q > > q > q : > q > x x : > x % > > x x > q x x > > % x > : % % % x % # : : x # x x % # x x % % x x % % x x 5 5 # # # # x x @ 5 # # @ 5 # # 5 5 # % # # @ @ | | E E > > A A A A o o A A f f c b c b e d e d 7 7 7 7 T T 7 7 7 7 F F F F g g i i 9 9 2 2 9 9 8 8 9 0 8 8 a a a a f 9 9 f a a a o o o p p u u u f u u f f 9 f 9 9 9 9 b 8 0 0 2 2 8 8 i i i i 1 1 1 & ' : , , ",
"e e e e 8 8 b 8 9 9 9 9 9 9 9 9 9 9 9 f 9 9 u u f f a a f f f f p p 2 2 a a i i & & & & & 1 i 2 2 i & & f f 2 i x x & & B B B B e e g , g g F F W W 7 7 7 7 7 7 d d e d 8 8 c b f f A a a o A A A A > q @ @ | | @ @ 1 & x x % # # # r r # % r r % x r r Q Q r r # % r # % x # % r % % # x x % # x # % % % x % # : : x x > > % x > > x x : > x x > > x x > q q > q > q q q > > q > q : > q q > q & & q q w w & & 2 2 B B p p 2 2 A A z z z z C C t t t t t t t t t t t t t t t t t t t t t t t t t t t t t t t t t t t t t t t t t t t t t t t t t t t t t t t t t t t t t t t t t t t t t t t t t t t t t t t t C C y y H H B 2 A A p 2 p p w w w & & & & & q q H H > q & & q > q > q q q > > q > q x x > q x x : > x x > > : x q > x x > q x x : : x % x x % # % % r r % # # # x % # % x % # # # # r r x x % # # # r r # # @ 5 # # # + # # 5 @ E E | | H H p p a a A A o o 9 C 9 9 8 8 e d d e W W T T 7 7 7 7 W W U U g g e e 8 8 i i i i i 2 2 i i i i i 2 2 i i > > & & & & i i 2 2 2 p 2 i f f u u 9 9 a a C 9 f f o 9 f 9 f f f 9 9 f 0 0 8 b 8 8 8 b e e ",
"e e e e 8 8 b 8 9 9 9 9 9 9 9 9 9 9 9 f C 9 f u f f a a f f f f p p 2 2 a A 2 2 & w & & & 1 i i i i 1 & f f i i x x & & 2 B B 2 e e g , g g F F W W 7 7 7 7 7 7 d d e d 8 8 b c f f A a a a A a A A > q @ @ | * @ @ 1 & x x % # # # r r # % r r % x r r Q Q r r % % % # % x # # % % % # % x # # x x % % % x x # : : x % > > x x > : x % > > x x > > % x > q q > q q > q q q > > q > q : > q q q & & q q w w & & 2 2 2 B B p p 2 a a z z z z C C t t t t t t t t t t t t t t t t t t t t t t t t t t t t t t t t t t t t t t t t t t t t t t t t t t t t t t t t t t t t t t t t t t t t t t t t t t t t t t t t C C y y H H B 2 A A p 2 p p w w w w & & & w q q & & q q H & > > q q > > q q > q q q x x > q x x : > x x > > : x q > x x : > x % : : % % x % # x % % r r # % r # % x # % r % # # # # r r x x % # # # r r # % 5 5 # # # # % # @ @ E E | | H H p p A a a A a o C C 9 9 8 8 e d e e W W T T U 7 7 7 W W U U g g , g 8 8 i i i i i i 2 2 i i 2 2 i w i 2 > > & & & & 2 i 2 2 2 p 2 i f f u u 9 9 8 a 9 9 f f 9 9 9 f f f f 9 9 0 0 0 8 b 8 8 b b e e ",
"f f f 9 9 9 f f f f D u u f 9 9 a a 9 9 o a a o o a f f f u 2 2 B B A a a A A A & & & & > > & 1 : : 1 1 ' : : > % % i i i i 2 2 e e e e g g g g U U 7 U U U W W g g d d d d 9 9 o 9 o o A a A A p p H H * * 5 @ E E i i # # # # # # # x % r r x # # x x r r Q Q r r % % r r % % % # x x # # x % # % x % % % x x x % > : % x > > % x > > x x : > x x > > > > q > q > > q q > > q q > q q q > & & q q H H H H B 2 w w 2 p 2 2 a a p p q > % % D D t t t t t t t t t t t t t t t t t t t t t t t t t t t t t t t t t t t t t t t t t t t t t t t t t t t t t t t t t t t t t t t t t t t t t t t t t t t t t t t t C C y y q > p p B 2 A A B B B B H & w w q q & & q q & & q q q q > > > q q > > q x x > q x x : > x x > > : x q > x x > > % x > : % % x x % % x x # # x # # # x % r r x % r r # % r # % x # % > : r r % # # % # % r r % % % # @ @ | n E E q > a a A a o a A a f f b c c c d d d d 7 7 7 7 7 7 W W F F , F g g e d 2 2 8 8 2 2 > > $ > q q > > & & > > > $ & 1 i 2 2 i a a i i 2 2 p 2 u f o o f f 8 a a 9 9 9 9 9 f u f f f u f f f f f f f f f f ",
"f f f 9 9 9 f f f u D u 9 f 9 9 a a 9 9 a a a o o a 9 f u f 2 2 B B a a A A A A w & & & > > & 1 ' : 1 1 ' : : > % % i i i i i 2 e e e e g g g g U U U U U 7 W W g g d d d d 9 9 o o 9 o A A A a p p H H * * 5 @ E E i i # # # # # # % % r r % % # # x x r r Q Q r r # % r r % % % % x % # x % % % x x x x % % x x % : > x x > : x % > > x x > > x x > q > > q > q > q > q q q > > q > q : > & & q q H H H H B B w w 2 2 2 2 A A p p q > % % D D t t t t t t t t t t t t t t t t t t t t t t t t t t t t t t t t t t t t t t t t t t t t t t t t t t t t t t t t t t t t t t t t t t t t t t t t t t t t t t t t C C y y q > p p 2 2 A A 2 B B B H & w w q > w w q q H H > q q > q q q > > q > q x x : > x % > > x x > q x x > > x x > : x % > : % % % x % # x % % # x % % # x % r r % # r r % # # # x x % % : > # r # % r # % x # r # % r # @ @ | n E E q q a a A A o o A A f f c c b c d d d d 7 7 7 7 7 7 W W F F , F g e d d 2 2 8 8 2 2 > > > > q q > > & & > > > $ & 1 2 2 p 2 A o 2 2 p 2 i i f f o o f f 8 a a 9 9 9 9 9 9 f u f f f 0 f f f f f f f f f ",
"9 9 f 9 8 a 8 8 i i i i a o o 9 f f f 9 u u f u u f o o A A 2 2 A A 2 2 A A 2 2 p p 2 2 i i 1 1 & 1 1 1 & 1 > > & & i i a 8 2 2 e d , g g g W W W W 7 7 7 U 7 7 d d e d 8 8 c b f f a a A a 2 p A A > q @ @ | | @ @ w w : : # # # x % # % x % # # x # # x % r r x x r r % x # # x % # % x % # # x % % % : : % x > : x x > > x x > q x x : > x x > > : > > q q > q > q q q > > q > q : > q q > q & & q q & w & & 2 B w w p p 2 2 A A z z z z C C t t t t t t t t t t t t t t t t t t t t t t t t t t t t t t t t t t t t t t t t t t t t t t t t t t t t t t t t t t t t t t t t t t t t t t t t t t t t t t t t C C y y & & B B A A p 2 p p B 2 B B H H H H q q & & q q & & > q q q > > > q q > : > x x : > x % > > x x > q x x > > x x > q x x : : x % : : x % x x # % x x # # x % % # % % r r % x # # : : % x x % # # x % # % # # # # # # @ @ E E | | H H p p A a A A o o C C 9 9 8 a b 8 e e W W T T 7 7 W W g g , F e e e e a a i i A p > > & & > q H & & & & & 1 1 i 2 2 i a a p p a a i i a a 2 2 f f o a f 9 9 f f f f o u u p p 2 p a a o o i i A a f 9 ",
"9 9 f 9 8 a 8 8 i i 2 2 o o 9 9 f f f o u u u f u f o o a o 2 2 A A 2 2 A A 2 2 p p 2 2 i i 1 1 & 1 1 1 & 1 > > & & i i a 8 2 2 d d g e e g W W W W 7 7 U 7 7 7 d d e d 8 8 c b f f a a a A 2 p A A > q @ @ * * 5 @ w w : : % # % % % # % x # # x x % # x x r r x x r r % x # # x x % # x x # # % % % % : : % % : > x x > > x x : > x % > > x x > q > > q > > q q > q > > q q > > q q > q q q > & & q > w w w & 2 B w w p p B 2 a A z z z z C C t t t t t t t t t t t t t t t t t t t t t t t t t t t t t t t t t t t t t t t t t t t t t t t t t t t t t t t t t t t t t t t t t t t t t t t t t t t t t t t t C C y y & & 2 B A A p 2 p p B B B B & & & w q > w w q q H H > > q q > q q q > > q > x x > > % x > > x x : > x x > > x x : > x % : : % % : : x % x x % % x x # # x x # # x % r r x % x # : : x x % # # x % # % # # # # # % # @ @ E E | | H H p p A A A A o o C C o 9 9 8 b b e e W W T T 7 7 W W g g , , e e d e a a i i A p > > & & > q & & & & & 1 1 1 i 2 2 i a a p p a A 2 2 a a p 2 f f o a 9 9 f f f f f o u u p p p 2 A A o o i 2 A A f f ",
"& H w & & & w & & & i i 2 2 p p p p A A A A f f 2 i a a p p A a p p a A A a a o 2 2 8 8 i i i 2 2 2 2 2 & w 2 2 B 2 2 p 2 i a a p 2 2 2 & & H & > > & & U U U U e e e d 8 8 9 9 o a o o A A A A A a & & E E @ @ E E i i # # # x % % % x r r % % % # x x Q Q x x % % x x % x : : % % % x x % x x x x : > x % > > x x > q x x > > x x : > x % > > > > > q > > > q > q q q > > q > q : > q q q & & H H w w & w B 2 2 2 a a p p A A A A q > q z D D t t t t t t t t t t t t t t t t t t t t t t t t t t t t t t t t t t t t t t t t t t t t t t t t t t t t t t t t t t t t t t t t t t t t t t t t t t t t t t t t C C z z H H A A p p A a p p p p H H w w q q & & q > w w q q q > q q q > > q > q : > q > x x > > % x > > x x : > x x > > x x > > % x > > x x : > x x > : % x x x % % x x % % % x % # : : x # x x % # # r : : x % % # : : # # @ @ | | @ @ q > a A A A a o A A f f c c b b e e d d 7 7 U 7 1 1 i i & & 2 2 2 2 B 2 2 2 a a i i 2 2 w w 2 i i i 2 2 p 2 i i p p a A A a a a p p a A 2 2 A a i 2 p p f f f f p p a a 2 2 i 2 & & & w w & & & & & w w ",
"w & w & & & w & & & 2 2 p 2 B p p p a a A A f f i 2 A A p 2 A A 2 p a A A a a o 2 2 8 8 i i i i 2 2 2 i i w 2 2 p 2 2 p 2 i a a p 2 2 2 & & H & > > & & U U U U e e e d 8 8 9 9 o o 9 o A A A A a A q & E E @ @ E E i i # # # % % # x x r r # % r # % x Q Q x x x % % x x % : : % % % x x x x x % x > : % x : > x % > > x x > q x x > > x x > > > > > q q > q > q q q > > q > q : > q q > q & & & H H w w w B 2 2 2 A A p p a A A A > q z z D D t t t t t t t t t t t t t t t t t t t t t t t t t t t t t t t t t t t t t t t t t t t t t t t t t t t t t t t t t t t t t t t t t t t t t t t t t t t t t t t t C C > > H H A A p p A A p p p p & & w w q q & & q q H & > q > q q > q q > > q > q q q q x x > q x x : > x x > > : x q > x x > > x x > : x % > > x x > : % x x x % % x x % % x x % # : : x % x x # % r r : : % # % # : : # # 5 @ | * @ @ q q a a A A o o A A f f c c b b e e d d 7 7 U 7 1 1 i i & & i i 2 2 2 2 p 2 a a i i 2 2 w w p 2 i i i 2 2 2 p 2 i A A a a A A o p p a A 2 2 a a i i p p f f f f p p a A 2 2 2 i w & & w w & & & & & & w ",
"w w & & p 2 w & 2 2 2 2 2 p 2 i a a p p A A 2 p C C a a o o a a f 9 p p a A 2 2 8 8 i i & & > > & & > > > q > > > $ > > q > z z q q % x > > : : 1 1 1 1 7 7 U U d d e d c b c c f f a a A a a A a A H H @ @ E E @ @ w w : : # # x % # % # # 5 5 x x % # # x Q Q x x # # x % # % x % % % > > % x > > x x : > x x > > x x > > x x > : x % q q > > q q q > q > q q q > > q > q : > q q > q & & q > H H H H w w 2 B A A p p a A A p a o z z q q u u t t t t t t t t t t t t t t t t t t t t t t t t t t t t t t t t t t t t t t t t t t t t t t t t t t t t t t t t t t t t t t t t t t t t t t t t t t t t t t t t C C y y & w A A A a p p a a B 2 2 B H H H H q q & & q q H H > q q q > q q q > > q > q : > q q > > > x x > : x % > > x x > > x x > q x x : > x x > > : x : : x % x x # % x : # % % x % # x % % # x % # # # # 5 @ x x % # # # @ @ @ @ | | & & p p a a A a o a C C 9 9 a 8 b b e e F F T T 1 1 1 1 q > > q H H q > & & x x > > > $ q > > > & & > q & & > > & & i i a a p p a A A a a a p p a a A A o a 2 2 p 2 i i p p 2 2 2 i w i 2 2 & w w w & w ",
"w w w & p 2 w & 2 2 2 B p p 2 2 a a p p A A 2 p C C A A o o a a f 9 p p a A 2 2 8 8 i i & & > > & & > > > q q > > > > $ q > > z q q % x > > : : 1 1 1 1 7 7 7 U d d e d c b c c f f A a a a a A a A H H @ @ E E @ @ w w : : # # # x % # % # 5 5 x x # # x % Q Q x x # # x x % # x x % % : > x x > : x % > > x x > > x x : > x % > > x x > q q > > q q > q q > q q q > > q > q : > q q > & & q q & & & & w w 2 B A A p p A a p p a o z z q > u u t t t t t t t t t t t t t t t t t t t t t t t t t t t t t t t t t t t t t t t t t t t t t t t t t t t t t t t t t t t t t t t t t t t t t t t t t t t t t t t t C C y y & w A A A a p p a a B 2 2 B H H H H q q & & q q & & > q q q > > q > q q q > > q > q : > q > x x > > x x > : x % > > x x > > x x > > % x > > x x : > x % % x % # : : x % % x % # x % % # x % # # # # 5 5 x x % # # # @ 5 @ @ | * & & p p a a a A a o C C 9 9 a 8 b b e e F F T T 1 1 1 1 > q > > H & > > & & x x > > > > q > > > & 1 > > & & > > & & 2 2 A A p p a A A a a a p p a a a A A o 2 2 p 2 i i p p 2 2 2 2 & w 2 2 & & w w & & ",
"& & 2 2 2 p 2 2 p 2 a a p 2 a a 2 p A a a A A o a a A A 8 8 a a & & & & & 1 1 1 & & & F 5 5 % # + + # # 5 @ 5 5 * E @ @ * * x % % % : : : : 1 1 , , , , T T F F e e 8 b b b C 9 9 o a o A A A a A A q & E E @ @ E E i i # # x % v v E E r r # # # # % x Q Q x x # % % x % # x % % % : : % x > : : : q > : > > x x : x : x x > q > > q > > > q q > > q q > > q > q q q > > q > q : > & & q > H H H H B B & w 2 2 & w 2 2 w w A A A a > q z z D D t t t t t t t t t t t t t t t t t t t t t t t t t t t t t t t t t t t t t t t t t t t t t t t t t t t t t t t t t t t t t t t t t t t t t t t t t t t t t t t t C C > > H H A A p p A a p p A A w w w & & & & & q > w w q q H H > > q q > > q q > > q q > q q q > > q > x x > q > > q q % x : > x % > > > : : > x x : > % x > : % x x x % % x x % % : : x % % # # # x % 5 @ | | # # : > # # @ @ * * 5 @ q > a A p p A A A A f f 9 9 c c d d d d 7 7 7 7 F j d e 1 & 1 1 > > > > r r 5 5 * | 5 5 5 5 r r 5 5 % % # % r r > > & & & & & & & w w w 2 2 A A o a 8 o o A a a i 2 A a 2 2 a a B 2 p p B 2 2 2 w & i 2 ",
"w & 2 2 p 2 B 2 2 2 a a 2 p A a 2 p A a a a A A o a a a o 8 a A & & & & & 1 1 1 & & & 1 5 5 % # + + # # 5 @ 5 5 * E @ @ * * x % y % : : : : 1 1 , , , , T T F F e e b b b b C 9 o o A a A A A A A a & & E E @ @ E E i i # # # % v v E E r r # # # # % x Q Q x x # % x x % % x x % x : : x x : > > : q q > : : > x x : > % x q > > > q > > > q q > > q q > > q > q q q > > q > q : > & & q q & & H H B B w w 2 2 w w 2 2 w w A A A a > q z z D D t t t t t t t t t t t t t t t t t t t t t t t t t t t t t t t t t t t t t t t t t t t t t t t t t t t t t t t t t t t t t t t t t t t t t t t t t t t t t t t t C C z z H H A A p p A A p p a a w w w & & & & & q q & & q q H & > q q > q q q > > q > q : > q q > > > q x x > > > > > q x x > q x x : > : : : > x x : > % x > : % % % x x # x % % % : : x % % # # # # x 5 @ | | # # : : % # 5 @ | * @ @ q > a A p p a a A A f f 9 9 c c d d d d 7 7 7 7 F j d e 1 1 & 1 > > > > r r 5 5 E * 5 5 5 5 r r 5 5 % % # % r r : > & & & & & & & & & w 2 2 a a A A o o A a a a i i A a 2 2 8 a B 2 p p B 2 2 2 & w 2 2 ",
"2 2 p 2 A o p p A A 2 p a a i i A a 8 8 a a p 2 i i & & & 1 > > > > > > & & > q w w > > % % r r $ $ # # # # 5 @ 5 5 5 @ 5 5 # # 1 1 & & i i 2 2 , g ' ' 7 7 7 7 d d d d c b b c C C A A A A A A A a & & @ @ E E @ @ w w : : # # n n @ @ x x % # # x % # % x Q Q x x # % x x x % > : % x > > > : : q > > q q > : : > : : > q > q q q > q q q > > > q > > q q > > q q > q q q > > & & q q & & > q & & & H 2 2 p 2 2 p w w 2 2 w w B B H & B B D D t t t t t t t t t t t t t t t t t t t t t t t t t t t t t t t t t t t t t t t t t t t t t t t t t t t t t t t t t t t t t t t t t t t t t t t t t t t t t t t t D D H H B B A A p p B B A A 2 2 2 B H H w w q q & & q q & & q q & & q > q q > q q q > > q q > q q > > q q > q > > q > > q q > > q q > : > q : > > q : : > : % % : > % % : > % % : : % % % x # # # % % x * * = = : > # # # # @ 5 @ @ E E & & p p A A A A o o C C C 9 8 8 b b e e W W T T j j , F 8 8 i i 2 2 w & > > 5 5 @ 5 5 5 % % 5 5 % % r r # % % % H H & & & & > > > q > > > $ > > & & & & 2 2 2 i a a a a a a p p A a p p A a p 2 2 2 w w ",
"B 2 2 2 a a p p A A 2 p a a i 2 A a 8 8 a a p 2 i i & & & 1 > > > > > > & & > q w w > > % % r r $ $ # # + # @ @ 5 5 @ @ @ 5 # # 1 1 & 1 i 2 2 i , g ' ' 7 7 7 7 d d d d c b c c C C A A A A A A A a H H @ @ E E @ @ w w : > # # n n @ @ x x # # x x # # % x Q Q x x # # x x x # : > # x > q : : q q > > q q : > : > : > : q q > > q > > q > > > q q > > q q > q q > > > q q > > & & q q & & q > & & & & p 2 2 B p p w w 2 2 w w 2 B H H B B D D t t t t t t t t t t t t t t t t t t t t t t t t t t t t t t t t t t t t t t t t t t t t t t t t t t t t t t t t t t t t t t t t t t t t t t t t t t t t t t t t D D H H B B A A 2 p B B A A p 2 2 B H H w w q q & & q q & & q q & & q > q q > > > q q > > q q > q q > > q q q > q q > > q q q > > q q : > : > : > : > : : > % % : > % % : : % % : > % % x x # # % % x x * * = = : > # # # # @ @ 5 @ E E & & p p A a A A o o C C C 9 8 8 b b e e W W T T j j , , 8 8 i i 2 2 w & > > 5 5 5 @ 5 5 % % 5 5 % % r r # % % % H H & & & & > > > q > > > > q > & & & & 2 2 2 2 A A o a a a p p A a p p A a 2 i i i 2 w ",
"2 2 a a 2 2 A A 2 2 p 2 i i p 2 1 1 & 1 q > > > : : > > > $ > q x x & 1 1 & 2 2 2 p 2 i & & w w & & H H H H H H > > & & H H 2 2 i 2 8 8 d e j j 7 7 F F T T W W e e b b 8 8 9 9 9 o o a A A A A a A & & E E @ @ @ @ 2 2 % % : : : : 1 1 % % : > # # % x x x x x x % : : % % : : x x > q : : > q : : q q : : > q q > > q q > q q q > > q q > q q > q q > > > q q q > > q q > q q > q & & q q & & H H H H w w A A A A a A A A o o p p A a A A u u t t t t t t t t t t t t t t t t t t t t t t t t t t t t t t t t t t t t t t t t t t t t t t t t t t t t t t t t t t t t t t t t t t t t t t t t t t t t t t t t C C B B A A u C A A C C C C C C w w w w w & & & q q & & q > & & q q q q > > q q > q q > q > q q > > > q q > q q > > q > > q q > > > q q > > q q > : > : > x > : % % : : % x > : % % : : x % % x % % : > > q & & # # : > # # @ @ E E @ @ q q a A p p A a A A f f f 9 c c d d d d F F U 7 7 7 F F , , e e p p 2 p & & & & > > & & q q & & & & & w & & & & & & 2 B & & w w q q > q q > > > x x > > > > q q q q & & & & 2 2 p 2 a A 2 2 a A 2 2 2 p ",
"i i a a p 2 A A 2 2 2 p i i 2 2 1 1 & 1 > > > > : : : > > : : > % x 1 1 & 1 i 2 2 2 i 2 & & & w & & H H H H H H > > & & H H 2 2 i i a 8 e e j j 7 7 F F T T W W e e b b b 8 9 9 o o o a A A A A a A & & E E @ @ @ @ 2 2 % % : : : : 1 1 % % : > # # x x x x x % % % : : x % : > # x > q : : > > : : > q : > q : > q q > > > q q > > q q > > q q > q q > q > q q > > q q > q q > q > & & q q & & & H H H w w A A A A a A A A o o p p A a A A f u t t t t t t t t t t t t t t t t t t t t t t t t t t t t t t t t t t t t t t t t t t t t t t t t t t t t t t t t t t t t t t t t t t t t t t t t t t t t t t t t C C B B A A C C A A C C C C C C w w w & & & & H q q & & q > & & q > q q > > q q > q q > q > q q q > > q q > q q > > q > > > q q > > > q q > > q : > : > x x > : % % : : % x > : % % : > % % x % % x > q > q & & # # : : % # @ @ E E @ @ q q a A p p a A A A f f 9 9 c c d d d d F F 7 7 7 7 F F , , e e p p p 2 & & & w > > & & q q & & & & & & & & w & & & i i & & w w q q q > > > > > % x > > > > q q q q & 1 & & i i 2 2 a A 2 2 a A 2 2 p p ",
"a a p 2 i i w & & & > > > > : : > q : : : : % % > > $ q 1 1 1 1 2 2 p 2 A o 2 p p 2 w H H H H & & & > > H H > > & & > q & & B B B 2 i i e e , , F F 7 7 7 7 F F d d d d b b c c C C A A u C A A A A H H @ @ E E 5 5 i i : > # # > > > : : > # x x x # # % x x x : > % % : : x x > > : : > q : : q q x x > > > q q > > > q q > > q q q > > q q > q q > q > q q > q q > > > q q q & & q q & & q q & & & & B B B B p p p p A a p p f f w w 2 B C C t t t t t t t t t t t t t t t t t t t t t t t t t t t t t t t t t t t t t t t t t t t t t t t t t t t t t t t t t t t t t t t t t t t t t t t t t t t t t t t t D D H H C C A A A A 2 p a A 2 B B B H H w w q q & & q > & & q q & & q > q q > > q q > q q > q > q q > > q q > > q q q > > q q > > q q > q q > q > q q : > : > x x : % % : > x x > : % % x x # # : > # x > : % % : : % % : : @ @ @ @ E E & & p 2 A A A A a o C C 9 9 a 8 d d g g W W 7 U U 7 7 7 F , g , p p 2 2 2 2 & & > q q > q q q > & & > > & & > q w w w & a a p p p p 2 2 B 2 > q q > x x > $ q > > > > q > > > > & & & & i i w w 2 i 2 2 ",
"a a 2 2 p 2 w w & & > > > > : : > > : : : : % % : > > $ 1 1 1 1 2 2 2 i a a p p 2 p H H H H & & & & > > H H > > & & > q & & 2 B 2 2 i i e e g , F F 7 7 7 7 F F d d d d b b c c C C A A C C A A A a H H @ @ E E @ 5 i i : > # # > > : : : > # x x x # # x x x % : > % % : : x x > : : > : > : : q q x x > > > > q q > > > q q > > q q > q q > > > q q > > q q > q q > > q q > q & & q q & & q q & & & & B B B B p p p p a a p p f f w w 2 B C C t t t t t t t t t t t t t t t t t t t t t t t t t t t t t t t t t t t t t t t t t t t t t t t t t t t t t t t t t t t t t t t t t t t t t t t t t t t t t t t t D D H H C C A A A a p p A a p B B B H H w w q q & & q > & & q q & & q q q q > > q q > q q > q > q q > > q q > > q q > > > q > q q > > > q q > > q q > : > : > x x : % % : > > x > : % % x x # # : : % x : > % % : : x % : : @ @ @ @ E E & & p 2 A A A A o o C C o 9 8 8 d d g g W W 7 U U 7 7 7 F , , g i p p 2 2 2 w & > q > > > q > > & & > > & & > q w w & & a a p p p p p 2 B 2 q q > > % x > $ q > > > > q > > > > & & & & 2 B w w 2 i 2 2 ",
"> $ & 1 : : : > % x : : % % > : > : > > > > & & & & 2 2 2 B p 2 2 2 A A 2 2 A A 2 w w > > > & & > : : > > : > > $ q : : 1 & 2 i 2 2 2 2 F F F F U 7 7 7 7 7 W W e e b b 8 8 9 9 o o a A A A A A A a & & E E @ @ @ @ 2 2 % % : > # # % % x % x x # # % x x x x % % % : > x x > : : > q : x x > q : : q q > : q q > > q q q > q q q > q q > > > q q > > q q > q q q > > q q > & & q q & & q q & & H H w w w & 2 2 2 B p p p 2 A A A A w w 2 B D D t t t t t t t t t t t t t t t t t t t t t t t t t t t t t t t t t t t t t t t t t t t t t t t t t t t t t t t t t t t t t t t t t t t t t t t t t t t t t t t t C C B B B B A A B B p p B B 2 2 w & & w w & w w q q & & q q & & q > & & q > q q q > > q q > q q > q > q q > > q > q q > > > q q > > q q q > q q > q > q x x > > x x > : : x > : % % : : % % x x x # x x # # % # # % : > # # @ @ E E 5 @ H H a A A A o o a A f f 9 9 c c d d d d W 7 7 7 7 7 7 U F , g , 2 2 p 2 w w 2 i x x > > x x > > > q > : > > q > q q H H p p a A 2 p a A 2 2 2 2 & w 2 2 & & & & > q > q x x > $ x % > > x x > > > > & & ",
"$ $ & 1 : : > > % % > $ x % : : > : > > > > & & & & 2 2 B B p p 2 2 A A 2 2 A A 2 w & & > > & & > > > > : > > > $ q : : & & i i 2 B 2 2 F F F F U 7 7 7 7 7 W W e e b b 8 8 9 9 9 o o a A A A A a A & & E E @ @ @ @ 2 2 % % : : % # % % x % x x # # x x x x % x x # > q x x > : : : > q x x > q : > q : > : > q : > q q q > q q : > q q > > > q q > > q q > q q > q q > > > & & q q & & q q & & & H w w w & 2 2 2 B p p B 2 A A A A w w 2 B D D t t t t t t t t t t t t t t t t t t t t t t t t t t t t t t t t t t t t t t t t t t t t t t t t t t t t t t t t t t t t t t t t t t t t t t t t t t t t t t t t C C B B B B A A B B p p B B B 2 & & w w w & w w q q & & q q & & q q & & q > q q > q q > > > q q > > q q > q q > > q q > > > q q > > q q q > q q q > q q x x > : % x > : % x : > % % : : x % x x x % x x # # # # % # : > # # @ @ E E @ @ H H a a A A o o a A f f f 9 c c d d d d U 7 7 7 7 7 7 U , g , , 2 2 p 2 w w 2 2 x x > > x x > > > q > > > > q q > q & & p p a A 2 p a a i i 2 2 w w B 2 w & & & > > q q x x > > x % > > x % > > > $ & 1 ",
"> : $ $ : : # % : : : : > q > > i i w & 2 2 w w 2 2 p 2 2 2 p 2 a A p 2 A A o A & & > > q > % % > > % % > : % % # % 5 5 w & & & i i & & F F 7 7 7 U T T U 7 7 7 d d d d b b b c f f A A A A a A A A H H @ @ E E @ 5 i i : : % # # # 5 5 : > # # % x # # x x x x x % x x > q x x > q : : q > : : > q q > > q q : q q > > q q > q q > q > q q > > q > > q q > > > q q > > & & q q & & q q & & & & & H w & p 2 & w 2 2 w & 2 2 B B A A H H B B f f t t t t t t t t t t t t t t t t t t t t t t t t t t t t t t t t t t t t t t t t t t t t t t t t t t t t t t t t t t t t t t t t t t t t t t t t t t t t t t t t D D H H A A 2 B B 2 2 B B 2 & w B B H H w w & & & H q q & & q q & & q q & & q > q q q > > q q > q q > q > q q > & & q > q q > > > q q > q > q q > q > q > q x x > q x x > > x x > : % % : : % % x x % % : : % # : : % x : : @ @ @ @ E E & & A A A A a A C C C C 9 9 a 8 d d e e F F T T 7 7 7 7 F F , , i 2 2 p 2 i & & & & % % > $ x % : > x x : > > > & & > > a a A A o a 2 2 a a 2 B p p w w B 2 w w 2 2 & w & & > > > > x x > q % % : > % % ",
"> $ : $ $ : % x : > : : > > > q 2 2 & & 2 2 & w 2 2 B 2 2 2 2 2 a A p 2 a a A A w & > q > > % % > > % % > $ x % % % 5 5 w & & & 2 2 & & F F 7 7 7 U T T 7 7 7 7 d d d d b b c c f f A A A A A a A A H H @ @ E E @ 5 i i : > # # # # 5 5 : > # # % x # # % x x x x x % x > q x x > q : : q > : > q : > q q q > : q q q > > q q > q q > q > q q > > q > > q q > > q q > q & & q > & & q q & & & & & & H w 2 2 w & 2 2 & w 2 2 B B A A H H B B f f t t t t t t t t t t t t t t t t t t t t t t t t t t t t t t t t t t t t t t t t t t t t t t t t t t t t t t t t t t t t t t t t t t t t t t t t t t t t t t t t D D H H A A B B B 2 B B B 2 w w 2 B H H w w & & & & q q & & q q & & q q & & q > q q > > > q q > > q q > q q > > & & q > q q > > q q > q q q > > > q > q > > x x > q x x > > x x > : % % : : x % x x % % : : # # : : x x > : @ @ @ @ E E & & A A A A a A C C C C 9 9 a 8 d d e e F F T T 7 7 7 7 F F , g i i 2 2 i 2 & & & w % % > $ x % : > x x > $ > > & & > q a a A A o a 2 2 a a 2 B p p w w 2 2 w w 2 2 & & & & > > $ > z x > q % % : > % % ",
"x % > > x x q q H H w w & & & w & & 2 2 & H 2 2 & w 2 2 B 2 2 2 2 i a a p p a A > > > > x % > > x % % % # % r % $ % % # & & B 2 2 2 i 2 F F F F U 7 7 7 U U W W e e b b 8 8 9 9 8 a o o a A A A 2 p & & 5 5 5 5 E E 2 2 % x x x r r % % r r % % x % x x % % : > > x > q x x > > x x > : % x > q x x > q x x > : : : q q > > q q > q q > q > & 1 q q & & > > H H q q & & q > & & q q & & & H w & H H w w & & 2 2 w & 2 2 w w 2 B B B H H H H D D t t t t t t t t t t t t t t t t t t t t t t t t t t t t t t t t t t t t t t t t t t t t t t t t t t t t t t t t t t t t t t t t t t t t t t t t t t t t t t t t f f w & & & p p B B B 2 B B B 2 & & B B H H w w q q & & q q & & q q & & > q & & z z H H q q w & q q H H q > H H q > q q > > > q x x > > x x > : % x > > q > > q x x > > x x > q x x q > % x > > % x % % # # % x % % : : # # r r E E @ 5 q q a a A A o o o a f f 9 9 9 9 d d d d F F 7 7 7 7 7 7 7 7 W W i i i i 2 2 B 2 % % # % # # % % x % % x % % > $ > > q q A A a A 2 2 A A 2 2 p p 2 2 2 2 & & 2 2 w & 2 2 w w 2 2 w & w i > > q > % % % x ",
"% % > > x x > q H & w w & & & w & & 2 2 w & 2 2 & w 2 2 B 2 2 2 2 2 A A p p a a > > $ > z % > > x % % % % # % r % $ % # & & B 2 2 i 2 2 F F F F 7 7 7 7 U U W W e e b b 8 8 9 9 8 a o o a A A A p 2 & & 5 5 5 5 E E 2 2 % x x x r r % % r r % % % x % x x % > q x x > > x x > > x x > > x x > > x x > q x x > : : : q q q > > q q > q q > q 1 1 q q w & q > H H q > & & q q & & q q & & & H H H w H w w & & p 2 w w 2 B w w 2 B B B H H H H D D t t t t t t t t t t t t t t t t t t t t t t t t t t t t t t t t t t t t t t t t t t t t t t t t t t t t t t t t t t t t t t t t t t t t t t t t t t t t t t t t f f w & & & p 2 B B B 2 B B 2 2 w & 2 B H H w w q q & & q > & & q q & & q > H H z z H H q q & H q q H H q > & H > q q q > > q q x x > q x x > > x x > > > q > > x x > > x x > q x x > > % x > > % % % % # # # % x % : > # # # r E E @ 5 q q a a A A o o a A f f 9 9 9 9 d d d d F F 7 7 7 7 7 7 7 7 W W 2 i i i 2 2 B 2 % % # % # # % % x % % x % % > > : > > q A A a A 2 2 A A p 2 p p 2 2 p 2 1 & 2 B & w 2 2 & w 2 2 & & i w > > > > x % x x ",
"H H & & 2 2 & & w w & & & w & & w w & w i 2 & & p 2 & H 2 2 p 2 p p 2 2 a a a a & & > > > > % % x x x % % % r r % % : : 2 i 2 2 a 8 2 2 W W 7 7 7 7 T T 7 7 7 7 d d e d b b c c C C A A C C A A A o q q r r E E @ 5 w w q > x % % x % % % x % x x % % % x % x x > q : : > > % % : : x % : > x x > > : > : > x x : > q > > q q > & & q > q q q > > q q > & H > > H H > q & & q q & & q q & & & H w & H H B B w w 2 B w w 2 2 2 B z z H H A A C C t t t t t t t t t t t t t t t t t t t t t t t t t t t t t t t t t t t t t t t t t t t t t t t t t t t t t t t t t t t t t t t t t t t t t t t t t t t t t t t t u u & & w w z z 2 2 w & 2 2 w w 2 B H H w w H H H w H H H H q q & & q > & & q q q q > > & & q q & & q > q q > > > q q > > q x x > > x x > > x x > > : > q > x x > > > > > q x x > > x x > q x x % x x # x x # # x x x x x x @ @ @ 5 E E & & p 2 A A A A a o o o 9 9 b 8 8 b e d W W T T U 7 7 7 F F F F b 8 2 2 2 2 2 2 > > % % % % % % % x % % : : x x > > > > o o A A A A 2 2 p p 2 2 p 2 2 2 2 2 w & 2 2 w > 2 2 w w 2 2 w & 2 2 w & & w q q ",
"& & w > B 2 & & w w w & w w > w w w & w i 2 & & i i w & 2 2 2 2 p p 2 2 a a a a & & > > > > % % x x x % % % r r % % : : 2 i 2 2 a 8 2 2 W W 7 7 7 7 T T 7 7 7 7 d d d e b b c c C C A A u C A A A o q q r r E E @ 5 w w q > x % % % x % x x % % x x x % x x % % : > > : > > % % : : x % : > x x > : : : q > x x > > : > q q > > & & q > q q > > q q > > & H > > H H q > & H q q & & q > & & H H w w & & B B w w 2 B w w 2 2 B B z z H H A A C C t t t t t t t t t t t t t t t t t t t t t t t t t t t t t t t t t t t t t t t t t t t t t t t t t t t t t t t t t t t t t t t t t t t t t t t t t t t t t t t t f u & & w w z z 2 2 w & 2 2 w w B B H H w w & H H H w H H & q > & & q q H H q > q q > > & & q q & & q > q q > q q > > > q q x x > > x x > > x x > > > > > > x x > > : > q > x x > > x x q > % x x x x % x x % # x x x x x x @ @ @ 5 E E & & p p A a A A o o o o 9 9 b 8 b b e d W W T T U 7 7 7 F F F F b 8 p 2 2 2 2 2 > > % % % % % % % x x % : : x x > > > > o o A A A A 2 2 2 p p 2 2 2 p 2 2 2 & & B 2 & & 2 2 w w 2 2 w & 2 2 & & & w > q ",
"& & 2 2 & & w w & & & & w > w & & & w w > w i 2 & & B 2 2 2 p p 2 p a a a a o o 2 2 p 2 & & w w & & w & & 1 & & q q 2 2 2 2 p 2 w & 2 i F F F F T T 7 7 U U W W e e b b 8 8 9 9 8 a o o a A A A p p w & 5 5 5 5 5 5 2 2 % x x x r r % x x # x x x x x % x x % x x x q q > : q > x x > > : > q > x x > : : : q > : > q : > q H H q > q q q > & 1 > q q > > > & H > q H H q > & H q q & & H H & & & H w & w w 2 B H & B B B 2 B p H H H H B B C C t t t t t t t t t t t t t t t t t t t t t t t t t t t t t t t t t t t t t t t t t t t t t t t t t t t t t t t t t t t t t t t t t t t t t t t t t t t t t t t t C C B B & & & H w & 2 2 w & 2 2 w & & w w H H H w H H & q q & & q > & & q q & H > > H H > q H & q > & & q > H H > q q > > > q q x x > : % x > > x x > > x x > > > q > > x x > q x x > > x x > > x % % x % x x % % x : > # # # r E E @ 5 q q a A A A o a A A f f 9 9 9 9 d d b b U U U 7 U U 7 7 7 7 W W w i 8 8 B 2 2 p & & & & q q & & & 1 & & 1 & 2 2 w & 2 2 a a a o A A A A p 2 p p p 2 2 2 w & 2 2 & & B 2 w & i i w & & w & & w w & & w & ",
"& & 2 2 & & w & & & & w > w & & & & w w w > i 2 & & 2 2 2 2 p p 2 2 A A a a a o 2 2 p 2 & & & w w & & w & 1 & & > q 2 2 2 2 p 2 w & 2 i F F F F T T 7 7 U U W W e e b b 8 8 9 9 8 a o o a A A A p p H & 5 5 5 5 5 5 i i : x x x r r x x x % x x % x x x x % x x % x q q > : q > x x > : : : q > x x > : : : q > : : > q : > H H q > q q > q & 1 > > q q > > & H q q & & q > & & q q & H H H H w H H & w w w B B H H B B B 2 B p H H H H B B C C t t t t t t t t t t t t t t t t t t t t t t t t t t t t t t t t t t t t t t t t t t t t t t t t t t t t t t t t t t t t t t t t t t t t t t t t t t t t t t t t C C B B & & & w w H 2 2 w & 2 2 w & w w & H & & & H w & q q & & q > & & q q & H > q & & z q & & q q & & q > H H > > q q > > > q x x > > x x > > x % > q x x > > > q > > x x q q x x > > x x > > x % % x % x x % % x : : % # # r E E 5 5 q q a a A A A A a o f f 9 9 9 9 d d b b U U U 7 U U 7 U 7 7 W W w i 8 8 B 2 2 p & & & & q q & & & 1 & & & 1 2 2 w & 2 2 a a a o A A A A 2 2 p p p 2 2 2 w & B 2 & & 2 2 & & 2 2 & & w & & & w w & & & w ",
"& w H H & & w > w & & H & & H & & & & w w w & & & w w w 2 p 2 2 A A 2 p A A a a 2 2 > > > > % % % # # # % % 5 5 % # 5 5 & & & & i i & & F F T T 7 7 T T 7 7 7 7 d d e d c c c c C C A A o o a A A A q q r r E E r r w w q > % % x % % % % x % % > q x x > > x % : > > q q > : : > : > x x > x x > > : > q > : > q : > q H H > > q q > > & 1 > > q q > > & & q > H H > q & & q q & & q q & & & & H w & w 2 2 w & 2 B w w 2 B w w A A H H B B C C t t t t t t t t t t t t t t t t t t t t t t t t t t t t t t t t t t t t t t t t t t t t t t t t t t t t t t t t t t t t t t t t t t t t t t t t t t t t t t t t D D H H B B B 2 2 2 w & 2 2 w w B B H H w & & & H w q q & & q > & & q q & H > > H H > > & & q q & & q > H H q > q q > > q q > > > q x x > : % x > > x x > : % x q q q > > q q > q > x x > : % x > > x % : : % x x x x % x x @ @ @ 5 E E & & p p A a A A f C a o 9 9 o 9 b b d d F F T T 7 7 T T 7 7 7 7 2 2 w i w w & 1 % % % % x x % % : $ % % : > : : q q q > o o A a C C a a a o 2 2 2 p 2 2 2 p & & 2 2 & & 2 2 & & w w & 1 2 2 w & w w w & ",
"& w & & & & w > w & & & & & H H & & w > w w & & w & w w 2 p 2 2 a A 2 p A A a a 2 2 > > > > % % % % # # # % 5 5 % # 5 5 & & & & 2 2 & & F F T T 7 7 T T 7 7 7 7 d d d d c c c c C C a A o o a A A A q q r r E E r r w w q > % % x % % % x x x % : > x x > > x % > q > > q q : : q > x x > > x x > > > : > q : > q q > q & & z q q q > > & 1 > q q > > > & H > q & & z q & & q q & & q q & & & H w w & H 2 2 w & 2 B w w 2 2 w w A A & H B B C C t t t t t t t t t t t t t t t t t t t t t t t t t t t t t t t t t t t t t t t t t t t t t t t t t t t t t t t t t t t t t t t t t t t t t t t t t t t t t t t t D D H H B B B 2 2 2 w & 2 2 w w B B & & & H w & H H q q & & q > & & q q & H > > H H q > & H q q H H q > & H q q q q > > q q > q > q x x > > x x > > x x > > x x > q q > q q > q > > x x > > x % > > x % : > % % x % x x x % @ @ @ 5 E E & & p p a a A A C C o o 9 9 o 9 b b d d F F T T 7 7 T T U 7 7 7 2 2 w i w w & & % % % % x x % % : : x % > > > : q q q > o o o A C C a a a o 2 2 2 2 2 2 2 2 w & B 2 & & p 2 w & & w w & 2 2 & & w w & & ",
"w & & & q q & & q q & & > q & & & & w w w & i 2 p 2 a a p 2 A A 2 2 p 2 2 2 a a > > > > % % % % # # # % 5 5 % # 5 5 r r & & & & & w w w 7 7 7 7 T T T T T T 7 7 e e b b 8 8 9 9 o o f f A A a A p p & & @ 5 r r @ 5 2 2 % x x x J J * * x x > > x x > > x % > > q > > > : : > q : > : > x x : > x x > : : : q > : > 1 1 q q & & q > q q > > 1 1 > > & & q q & & q q & & > q & & q q & & H H w w & & & & w w w w w & 2 2 B B 2 2 2 B H H B B D D t t t t t t t t t t t t t t t t t t t t t t t t t t t t t t t t t t t t t t t t t t t t t t t t t t t t t t t t t t t t t t t t t t t t t t t t t t t t t t t t C C B B & & A A 2 B 2 2 w & w w & w w w w & w w H H H H q q & & q > & & q q & H > > H & q > & & q > q q > > & & q > q q > > q q : : > : > x x > x x > > > > > q q > q q q > q q : > : > x x : > x x & & n n 4 4 x x > > x % r r E E 5 5 q q a a A A o o o a f f f 9 9 9 d d d d 7 7 T T T T 7 7 T T F F & & 2 2 w w 2 B > q % % % % x % % % : : x % : $ x x > q 2 p a a 2 2 2 2 2 p A a p p a a p 2 p 2 & & B 2 & & w w & & w & & & w w w & & & ",
"w & & & > q & & q q & & > q & & & & w w w & i 2 2 2 a a 2 2 a a p 2 2 p 2 2 a a > > > > % % % % % # # % 5 5 # % E 5 r r & & & & & & & w 7 7 7 7 T T T T T T 7 7 e e b b 8 8 9 9 9 o o f A A A A a p H & @ 5 r r @ 5 2 2 % x x x J J * * x x > : % x > > x x > q > > > > : : > q : : > : > x x > x x > : : : > q : > H 1 > q & & q > q q > > & 1 > > H H > q H H q > & H q q H & q > & & H H w w & & & & & w w w w w 2 B B B 2 2 B 2 H H B B D D t t t t t t t t t t t t t t t t t t t t t t t t t t t t t t t t t t t t t t t t t t t t t t t t t t t t t t t t t t t t t t t t t t t t t t t t t t t t t t t t C C B B & & A A p 2 2 2 w & w w w & w w w & & w w H & & q q & & q q & & > q H H q > & H q q H & > q q > > > & H > q q > > q q : : : > : > x x > x x > q > > q q > q q q q > q q : : > : > x x > x x & & n n 4 4 x x > > x % r r E E 5 5 q q a a A A o o a A f f f 9 9 9 d e e d 7 7 T T T T 7 7 T T F F & & 2 2 w w 2 B > > x % % % % x % % : : x % > : % x q q p p A A 2 2 2 2 p p A a 2 p a a p 2 2 p & & 2 p & & w w & & w & & & w w > w & & ",
"& & > q & & > > & & & & & & w & w w & & 2 p p p 2 p 2 2 2 p & w 2 2 2 2 p p 2 2 q q x x > > % % % x r r # % 5 5 r r # % & & & & 2 2 w & F F T T 7 7 T T 7 7 7 7 d d d e c c c c f f 9 o o a A A A a q q 5 r 5 5 r r w w > q % % > q & & w w x x > > x x > > x % q q > q > q > q > q q > > q q > > q : : q q > q & 1 q q & & q q H H > > 1 1 > q q > q q & & q > H H > > H H q q & & & & w w & H & w H H B 2 & w B B w w 2 p p p A A H H A A C C t t t t t t t t t t t t t t t t t t t t t t t t t t t t t t t t t t t t t t t t t t t t t t t t t t t t t t t t t t t t t t t t t t t t t t t t t t t t t t t t u u & H B B 2 2 p p B B 2 2 & w 2 2 & w w w & w w w & H H H w H H & q q & & q q & & q q & & q q q q > > & & q > & & q > q q > q q > : : > q x x > q > q q > > > q q > > q > q > > q q : > : > x x x > q & & # % : : % x x x 5 5 5 5 E E & & p p a a A A u C o o o f b 8 b b d e W W T T 7 7 T T 7 7 7 7 2 i i i 2 2 & & q > 5 5 % # % % % x % % > > % % : > > > a a 2 p A A B B 2 2 & & 2 2 w & p p p 2 p p w w p 2 & & w w > w w w & w & & & & ",
"& w q q & & q > & & & 1 & & H H w w & & 2 p 2 p p 2 2 2 2 2 & w 2 2 2 2 p p 2 2 q q x x q > % % % % r r % # 5 5 r r % % & & & & 2 2 w & F F T T 7 7 T T 7 7 7 7 e d d d c c c c f f o o a o A A A o q q r r @ 5 r r w w > > x % : > H H w w x x > : % x > > x x q q q > > q > q > q > q q > > > q > : : > q : > 1 1 q q w & q q H H > > 1 1 q > q q q q w & q > H H > q & & z q & & & & H w & H w w & H 2 2 & w B B w w 2 p p p A a & & A A u C t t t t t t t t t t t t t t t t t t t t t t t t t t t t t t t t t t t t t t t t t t t t t t t t t t t t t t t t t t t t t t t t t t t t t t t t t t t t t t t t u u & H B B B 2 2 p B B 2 2 w w 2 B w w w w & w w w & H & & & H w & q q & & q q & & q q w & q q > q q > & H > q H & q q > q > q q > : : > > x x > q q > > q q > q q > q > > q > > q q : > q x x x x > > & & # % : > # x x x 5 5 5 5 E E & & p p a A A A C C o o 9 9 o 8 b b d e W W T T 7 7 T T U 7 7 7 i i i i 2 2 & & > > 5 5 % # % % x x % % : > % % : > > > a a p 2 A A 2 B p 2 & & 2 2 w & 2 p p 2 p p w w 2 2 w & w w w > w w & & w & & & ",
"q q & & & & & & & & w w & w 2 2 p 2 2 2 & & 2 2 & & w & & & 2 2 p 2 2 2 2 2 A A > > > > % % % % # # % # 5 5 r r @ 5 > q > > & & i i 2 2 F F F F T T 7 7 7 U U U e e b b 8 8 9 9 o o f f A A a a A o w w 5 5 r r 5 5 i 2 % x x x & & q q % % : > > x > > x x > > : > q > : : > q : > H 1 > q & 1 > q q > : : 1 1 q > & & q q & & q q 1 1 q > 1 1 q > 1 1 > q 1 1 q > q q > q & & q q & & H H w w & & & w w w B 2 2 B p p w w & w w H H H B B D D t t t t t t t t t t t t t t t t t t t t t t t t t t t t t t t t t t t t t t t t t t t t t t t t t t t t t t t t t t t t t t t t t t t t t t t t t t t t t t t t C C B B H H 2 2 w & 2 2 B B p p B B B 2 & w 2 B & & w w H & w w & H & w q q & & q > & & q q & H > > q q q q & & q q & & > q > q > q > q q > > q q > q q > q > q q > > q x x > > > > > > x x > > x % > q & & & & x x > > x % r r E E 5 5 q q a a A A o o a A f f 9 9 o 9 d d d d U U 7 7 U U 7 7 7 7 W W i i 2 2 & & w w x x % % % # # % % % % x % x > : % x q q p p a a 2 2 2 2 w w 2 2 & & w w & & B 2 2 2 p 2 p 2 2 2 & & w w > w w & & w & & ",
"q q & & & & & & w > w & & w 2 2 2 p 2 2 & & 2 2 & & w & & & 2 2 2 p 2 2 2 2 a a > > > > % % % % # # % # 5 5 r r @ 5 > q > > & & i i i 2 F F F F T T 7 7 7 U U U e e b b 8 8 9 9 o o f f A A a a a A 2 w 5 5 r r 5 5 i 2 x x x % & & q q % % : > x x > : % x > > > q > > > : > q : > H 1 > > 1 1 > > q q > : 1 1 q > 1 & & q & & q > 1 1 q > 1 1 > q & 1 > q & 1 > > q q q > & H q q & & & & w w w & w w w & 2 2 B 2 p p w & w w & H & H B B D D t t t t t t t t t t t t t t t t t t t t t t t t t t t t t t t t t t t t t t t t t t t t t t t t t t t t t t t t t t t t t t t t t t t t t t t t t t t t t t t t C C B B & & 2 2 w & 2 2 B B p p B B 2 2 w w 2 B & & & w w H & w H H H H q q & & q q & & q q & & > q q > & q & & q q & & q > q q > > > q q > > q q > q q > > q q > : q > x x > q > q > > x x q > x % : > & & & H x x > > x % r r E E @ 5 q q a a A A o o a a f f 9 9 9 9 d d d d U U 7 7 U U 7 U 7 7 W W 2 i i 2 & & w w x x % % # # % % % % % x x % > : % x q q 2 p a a p 2 2 2 w w 2 2 & & w w w & B 2 2 2 p 2 2 p 2 2 & & w w > w w w & w & & ",
"& & & & w w & & 2 2 2 2 2 p & & 1 & & q & & 1 & 2 2 w & w w & & 2 2 2 2 p p 2 2 q > % % % x r r # % 5 5 # % @ 5 # % r % w & 2 2 2 2 w w W W U 7 7 7 T T 7 7 7 7 d d e d c c c c f f o o a o A A o o & & r r @ 5 r r w w > > % % q q x x x x x % : > x x > > x x > q : > q : > H 1 1 > > & 1 > q 1 1 > > & 1 > q & 1 q q w & q q 1 1 q > 1 1 > > q q > q & & q q & & q q & & > q & w w & w w w & 2 2 & w 2 2 w w & w w H w w w & p p q q a a C C t t t t t t t t t t t t t t t t t t t t t t t t t t t t t t t t t t t t t t t t t t t t t t t t t t t t t t t t t t t t t t t t t t t t t t t t t t t t t t t t D u & H B B w w w & H & w w w w B 2 B B B 2 w w w & w w w & H & & & & H w & q q & & q q & & q q q q > > & H q q & & q q & 1 > q q > > > q q > > & & q > q q > > q q x x > > x x > q x x > : % x q x x x q q x x > : % x x x 5 5 5 5 E E & & p 2 A A A A C C a o o 9 b 8 8 b g e W W T T 7 7 U U 7 7 F F 2 2 p 2 2 2 & & > > r r % % # % % % % % : > % % : > > > o a 2 2 A A 2 B B 2 w & 2 i & & 1 & & & & & & w w w w w a a 2 2 p p w w & w & & ",
"& w > w & & & & 2 2 2 2 2 2 & & & & q q & & & & 2 2 & & & w w & 2 2 p 2 2 p p 2 > > % % % x r r % % 5 5 # % E 5 # % % % w & 2 2 2 2 w w W W U 7 7 7 T T 7 7 7 7 d d e d c c c c f f 9 o o o a A A o & & r r @ 5 r r w w q > % % q q x x x x x x q > x x > > x x q q > : q q > q & 1 > q 1 1 q > 1 1 > > 1 1 q > 1 1 q q & H q q 1 1 q > 1 1 > > q q > q & & q > & & q q H & q > w w & w w w & H 2 2 w & 2 2 w & w w w & w w w & p p q q a a C C t t t t t t t t t t t t t t t t t t t t t t t t t t t t t t t t t t t t t t t t t t t t t t t t t t t t t t t t t t t t t t t t t t t t t t t t t t t t t t t t u u & H B B w w w & H & w w w w 2 B B B 2 2 & w w w w & w w H H & & & H w & q q & & q > & & q > q q q > & & > q & & q q & & > > q q > > > q q > & & q > q q > > q > x x > q x x > q x x > : % x q x x x > q x x : > # x x x 5 5 5 5 E E & & p p a a A A C C a o 9 9 o 8 8 b g e W W T T 7 7 U U 7 7 F F 2 2 2 p 2 2 & & > > r r % % # % % % % % : > % % : > > > o a 2 2 a A B B 2 2 w & 2 i & & & w & & & & & w w w w w a a p 2 p p w w w w & & ",
"w & 2 2 i 2 2 2 & & & & > q & & > q & & & & w w & w 2 2 & & w w & & a a 2 p A a & & > > % % > > % % % x # % % % @ @ : : & & & 1 & j j j 7 7 7 U 7 7 7 7 T T 7 7 d d 8 b 8 8 9 9 o o a o A A A o p p w & 5 5 r r r r p p q > q q > > > q x x > q > > q q > q > > x x q > : > q : > H 1 1 > q & 1 > q 1 1 > q 1 1 q q & H > > H H > > H H q q & & H H & w H H H H w H w w & H 2 B w w p p w & w w q > q q & & 2 2 w & 2 2 B 2 2 B y y B B B B C C t t t t t t t t t t t t t t t t t t t t t t t t t t t t t t t t t t t t t t t t t t t t t t t t t t t t t t t t t t t t t t t t t t t t t t t t t t t t t t t t C C B B & w q > & & p 2 w w w & w w H H & H w w & & B B B B 2 B B 2 B B w w w & w & w w > q & & q q & & q q & & > q q q > > q q > q q > q q w & > q > q > q > q x x q q > > q q > > q q > q q > % % x x > > q q q > q q x x # # 5 5 r r q q a a A A o o o a f f 8 8 9 9 d d e d 7 7 7 7 T T 7 7 T T W W F , e e & & w w r r # % # # % % % % > > > : > > > > & & a A A A 2 2 2 B w & & w w & w w & & & w > q & & q q 1 & q q & & 2 2 p p 2 2 2 2 ",
"w w p 2 2 2 p 2 & & & & q q & & q q & & & & w w & w 2 2 & & & w & w a a 2 p A a & & q > % % : > % % % % % # # % @ @ : : & & & 1 & j j j 7 7 7 7 U 7 7 7 T T 7 7 d d 8 b 8 8 9 C o o a o A A a A p p & & 5 5 r r r r p p > q q > > > q > x x > > q > > q > q > q x x > : : : q > : > 1 1 q > 1 1 > > 1 1 > q 1 1 q q & & q > H H > > H H > q H H H H w w H H & & & H w & H w B B w w p p w & w w > q q > & & p 2 & & p 2 2 2 B 2 % y B B B B C C t t t t t t t t t t t t t t t t t t t t t t t t t t t t t t t t t t t t t t t t t t t t t t t t t t t t t t t t t t t t t t t t t t t t t t t t t t t t t t t t C C B B & w > q & & p p w & w w & & & H H H w w & & B B B B 2 B B 2 B B w w & & & & w w q q & & q > & & q q & H > > q q q > > q q > q q q q & H q > q q q > : q > x q q q > > q > q > q > q q q x % % x > q q q q > q q x x # # 5 5 r r q q a a A A o o o o f f o 8 9 9 d d d d 7 7 7 7 T T 7 7 T T W W F , e e & & & w r r # % # # % % % % : > > : q > > > & & A A A A 2 2 B B w & & w w & w w & & & w q q & & q q 1 & q q & & 2 2 p p 2 2 2 2 ",
"2 2 & & w > q q & & > q & & > q & & q q & & & & & & & & 2 2 2 B p p 2 2 2 p p 2 & & % % % x r r # % E 5 5 5 5 @ % % 5 @ 1 & & & , , , , U U U 7 7 7 7 7 7 7 U 7 b b e d c c c c f f o a A A A o a a q q r r 5 5 % % 2 2 q q > q > > x x > > x x q q q > > q q > > > : : > q : > 1 1 q > 1 1 > > q q q > & H q q & & q q & & q > H H q > & H q > H H H H w w & & 2 2 2 B B 2 H H H H q > q q H H w w & & B B q q & w 2 B 2 2 B B 2 B H H B B C C t t t t t t t t t t t t t t t t t t t t t t t t t t t t t t t t t t t t t t t t t t t t t t t t t t t t t t t t t t t t t t t t t t t t t t t t t t t t t t t t C C H H p p q q B B w w p 2 2 B B B H H w w q q & & q > w w q q B B B 2 2 p & & p 2 & & & & q q & & q q & & q q q q q > & H q q & & q > q q > q q > q > & & q > q q > > q q > > q q > q q > q > > > x % : > > > q q > q > > r r r r 5 5 & & p 2 A A A A u C A o 9 9 8 8 b 8 d e W W U U 7 7 T T U 7 U 7 g , , , 2 2 w & 5 5 5 @ % # 5 5 % % % % : > % % : > > > A A 2 2 A A 2 B 2 2 w & & & & & & & & & & & & & & & & & & & & & H & q q w w & & ",
"2 2 & & & & q q & & q q & & q > & & q > & & & & & & & & 2 2 p 2 2 p 2 2 p 2 2 2 & & % % % x r r # # 5 5 5 5 @ @ % % 5 @ 1 & & & , , , , U U 7 7 7 7 7 7 7 7 U 7 b b e d c c c c f f o 8 a A A A o a q q r r 5 5 % % 2 2 q q > q > > x x > > x x > q : > q q > > > q > : > q : > H 1 > > 1 1 q > q q q > & H q q & & q > & & q > H H q > & H q > H H H H w w & H 2 2 B B B 2 w H H H q > q q H H w w & & B B q q & w B B B 2 B B 2 B H H B B C C t t t t t t t t t t t t t t t t t t t t t t t t t t t t t t t t t t t t t t t t t t t t t t t t t t t t t t t t t t t t t t t t t t t t t t t t t t t t t t t t C C H H p p > q B B w w p 2 B B B 2 w H w w q q & H > q w w q q B B B B 2 2 & & p 2 & & & & q q & & q q & & > q q q q > & H q q & & > q > > q q q q > > & & q > q q q > > q q > q q > q > q q > > > x % : > > > q q q > > q r r r r 5 5 & & p 2 A A A A C C o o 9 9 8 8 b 8 e e W W 7 U U 7 T T 7 7 7 7 F , , , 2 2 w & 5 5 5 @ % # 5 5 % # % % > > % % > > > > A A 2 2 A A 2 B 2 2 w & & & & & & & & & & & w & & & & & & w & & H & q q w w & & ",
"> q & & > q & & q q & & q > q q > q & & q q & & & & 2 2 2 B 2 2 p 2 2 2 2 2 a A > > > > % x q > % % % x % # % % % # i i 2 2 2 2 , , , , 7 7 7 U 7 7 7 7 7 7 W W d d b b b 8 9 9 9 o o o A A o a p p & & 5 5 r r r r p p q > > q x x > > x x > > q > q q > q > q > : > q : > q q > > 1 1 > > 1 1 q > q q > q & & z q & & > q q > > > & H > q H H H H w w w w B 2 H H q > q q & & & H w & H H & & & H w & 2 B z z w w & w w w 2 2 B B 2 B B B D D t t t t t t t t t t t t t t t t t t t t t t t t t t t t t t t t t t t t t t t t t t t t t t t t t t t t t t t t t t t t t t t t t t t t t t t t t t t t t t t t C C H & p 2 p p w & 2 2 w & B B E E 2 B H H B B H H w w H H H H q > H H H w H H & w w w & H & w q q & & q q & & q > H & q q & w q q > q > q 1 & > q & & q > q q > > q q x x > q > > q q : > q q x x > > x x > : % x q q x x # % 5 5 r r q q a a A A o o o o f f 8 8 9 9 d d e d F F 7 7 7 7 7 7 7 7 F , j j g g 2 2 p 2 & w x x % % : > : : q > > : q > > : & & 1 & p p 2 B B 2 2 2 2 p w w 2 2 w & & w q q & & q q & & q q & & & & & & q > & & ",
"q > & & q q & & q q & & q > q q > q & & q q & & & & 2 2 2 2 p 2 2 p 2 2 2 2 a a > > > > % x > > % % % x # # % % % # i i 2 2 2 2 F , , , U 7 7 7 U 7 7 7 7 7 W W d d b b 8 8 9 9 o o o o A A o 8 p p w & 5 5 r r r r p p > q > q x x > > x x > > q > > q q > q q : > q : > q q > > > 1 1 > > 1 1 > > q q > q & & z q & & > > q q > > & H q q & & H H & w w w 2 B H & q q > > & & & & w w H & w H & & w w B B z z w w w & w w 2 2 B B 2 B B B D D t t t t t t t t t t t t t t t t t t t t t t t t t t t t t t t t t t t t t t t t t t t t t t t t t t t t t t t t t t t t t t t t t t t t t t t t t t t t t t t t C C H & 2 2 p p w w 2 B w w 2 B E E 2 B H H B B H H w w & & & H > > H H & & & H w & w w & H & w q q & & q q & & q q & 1 & q & w q q q q > q 1 & q q & & q > q q > > q q x x > > > q q > > > q q x x > q x x > > x x > q x x # % 5 5 r r q q a A A A o a o o f f 8 8 9 9 d d d d F F 7 7 7 7 7 7 7 7 F , j j g g 2 2 p 2 & w x x % x > : : : q > > : > > > > & & & w p p B B 2 2 2 2 2 p w w 2 2 & w & & q q & & q q & & q > & & & & & & q > & & ",
"q q > > > q > > q q > > q q q > & & q q & w & & 2 2 w w 2 2 w & 2 2 2 2 a A 2 2 > > % % > > % % % # # # % % r r % # & & 2 2 2 2 g g ' ' W W U 7 7 U U 7 7 7 7 7 d d d d b c C 9 9 f o 8 a a A A a a > q r r r r % % w w q > % x > : % x > > x x > q > > q > q > q q > > > q q > & 1 > > & 1 > > H H > > & 1 > q 1 & q > & & q q H & & & B B & & B B q q > > % % w & & & B B H H w & % % w & & & p 2 w w 2 2 B 2 p B w w B B B B A A 2 B B B C C t t t t t t t t t t t t t t t t t t t t t t t t t t t t t t t t t t t t t t t t t t t t t t t t t t t t t t t t t t t t t t t t t t t t t t t t t t t t t t t t C C q q 2 2 B 2 p B w w 2 B w w 2 B B B B 2 w H w w w & x x & H H H q > q q x x > > > q & & w w 2 B & w H & > q & & q q & & q > & & q q & H > q & & q q & & q > q q > > q q > q q > q > q q > > q > x x > > x x > > > : > q % % r r 5 5 & & p 2 o o a A f f 9 o o 9 8 8 b 8 e e W W T T 7 U 7 7 U U 7 7 F , F F a a 2 2 2 2 % % % x % % > > % x q > % % : > > > 2 2 A A a A B B 2 2 & & 2 2 w w 2 2 w & & & & & & & > q & & q > & & q q & & & & ",
"> q > > > q > > q q > q q q > > & & q > w w & & 2 2 w w 2 2 & & 2 2 2 2 A A 2 2 > > % % > > % % % % # # # % % r # % & & 2 2 2 2 g g ' ' W W U 7 7 U 7 7 7 7 U 7 d d d d c c C 9 9 f a A A o A A A A > q r r r r % % w & & > x x > > x % > > x x > q > > > q q > q q > > q q > q & 1 > > & 1 > > & & q > 1 1 q > 1 & q > & & q q H & & & B B & & B B q q z z % % w & & H B B w & & & % % w & & H 2 2 w & 2 2 B 2 B B w w B B B B A A B B B B C C t t t t t t t t t t t t t t t t t t t t t t t t t t t t t t t t t t t t t t t t t t t t t t t t t t t t t t t t t t t t t t t t t t t t t t t t t t t t t t t t C C q q 2 2 2 B p p w w 2 B w w 2 B B B B B H H w w & H x x & H & & q > q q x x > > > q & & w w 2 2 w & w H > q & & q q & & q q & & q q & & > q & & q q & & q > q q > > q q > q q > q > q q > > q > x x > : % x > > > > q > % % r r 5 5 & & p 2 o o a A f f 9 o o 9 b 8 b 8 d e W W T T U U 7 7 U U 7 7 F , F F a a 2 2 2 2 % % % x % % > > % x > > % % > > > > 2 2 A A a A B B 2 2 & & 2 2 w w 2 2 & & 1 & & & & & > > & & > > & & q q & & & & ",
"> > q q > > > > > > & & q q & & & w w & & w & w w & 2 2 w w 2 B 2 2 A A 2 p 2 2 % x x % x # % % 5 5 # % @ @ 5 5 5 5 w w & & 2 2 F F F F 7 7 7 U 7 7 7 7 7 7 W W d d b b 8 8 9 9 o o a o A A a a p p & & r r % % r r p 2 % x > q x x > > x x > > > > q q > > q q q > q q > > & 1 q q & & > q & & 1 1 w w & 1 w w & w w w & 1 w i i w q > r r q > q q H H > q & & & H w w & & w w & H x x & w 2 2 2 p 2 p 2 2 2 2 w & 2 2 B 2 a A A A H H B B C C t t t t t t t t t t t t t t t t t t t t t t t t t t t t t t t t t t t t t t t t t t t t t t t t t t t t t t t t t t t t t t t t t t t t t t t t t t t t t t t t C C w w w w A A 2 B 2 p w w 2 B & & B B w w p 2 w w & H 5 5 & H H H H H > q q q > q q q > q > > & & & H q q 2 2 w & w w w w 2 2 & w & & q q w w & w & w q q q q q > > > q > > q q : > q > q > > x x q > x x x % x x q q x x x x 5 5 r r q q a a A A C C o o f f 8 a f 9 d d d d F F 7 7 7 7 7 7 7 7 7 7 F , F F 2 2 p 2 & & % % 5 5 # % % # % % % % > : % x q > 2 B A A A A a A 2 2 p 2 w & w w & & 2 2 & w 2 2 & & & w > > & & > > & & q > & & ",
"q > > q > > q > > > w & q q & & & & w w & & w & & & 2 2 w & 2 2 2 2 a a 2 p 2 2 % x x x % x # % 5 5 % # @ @ 5 5 5 5 w w w & 2 2 F F F F 7 7 7 U 7 7 7 U 7 7 W W d d b b b 8 9 9 o o a o A A a a p p w & 5 r % % r r p 2 x x > > x x > > x % > > > q q q > > q > : > q q > > & 1 q q w & q > H H 1 1 w w 1 1 w w & & w w 1 1 w i i w > q r r > q q > & & q > & & H H w w & & w w H H x x & w 2 2 2 2 p 2 p 2 p 2 & w 2 2 2 2 a a A A H H B B C C t t t t t t t t t t t t t t t t t t t t t t t t t t t t t t t t t t t t t t t t t t t t t t t t t t t t t t t t t t t t t t t t t t t t t t t t t t t t t t t t C C w w w w A A p 2 2 p w w 2 2 w & 2 B w w 2 2 w & w H @ 5 & H H H H H q q > q q q q > q > > > H H w & q > 2 2 w & w w & w 2 B & & & H q q w w & & & w q q q q > q > > > > q q > > q q > q q > x x > > x x x x x % q q x x x x 5 5 r r > q a a A A C C o o f f o 8 a 9 d d d d F F 7 7 7 7 7 7 7 7 7 7 F , F F 2 2 2 p & & % % 5 5 # % # % % % % % : : x % > : B B A A A A a A 2 2 p 2 & & w w & & B 2 w w 2 2 & & w > > & & > > > & & q > & & ",
"q q > > & & > > & & w & & w w & w w & & & w 1 & 2 2 2 2 2 2 2 B p p p p a A 2 w > > % % % x 5 5 % # 5 5 5 5 5 @ r r & & 2 2 2 2 F F 7 7 7 U 7 7 F F T T 7 7 U U d d d d c c C 9 f f A A a a a A A o > q % % r r % % w w q > % % v v * * > q > > q q : > q q > > > q > q > q > q & & q q & & 1 1 w & & & i i w > 2 2 w & q q r r q q > q q q > q & & & H w w E E q q & & w w & & w w w w B B H H B B B B A A 2 p a a B B A A p p A a & H A A u C t t t t t t t t t t t t t t t t t t t t t t t t t t t t t t t t t t t t t t t t t t t t t t t t t t t t t t t t t t t t t t t t t t t t t t t t t t t t t t t t D D H H B 2 2 p p p B B 2 p 2 p p p & w 2 B & w 2 B B B B B H H H w H H & w > q % % > q q > > q q > x x x % x x q q q > & w w & 2 2 w & w w q q > q q q & & q > q q > > q q q > > q q > q q > q > q q > E E n n > q > > > > % % r r 5 5 & H p p A a A A f u o o o 9 b b b b e d W W U U U 7 T T 7 7 7 7 F F F , p p 2 2 2 2 5 5 % # 5 5 % % % x % % % % > > % x 2 2 A A a A o A p p p 2 2 2 w w w & & & w > w & w w & & 2 B w & & & q > H H q > ",
"q > > > w & > > & & & & & w & & w w & & w w & & 2 2 2 2 2 2 p 2 p 2 p p a A 2 w > > % % % x 5 5 # % 5 5 5 5 @ @ r r & & 2 2 2 i F F 7 7 7 U 7 7 F F T T 7 7 U U d d d d c c C 9 f f o 8 a a a A a a > q % % r r % % w & & > % % v v * * > > q > > q q > q > > > > q > q > q > q & & q > & & 1 1 w & & & w i & & p 2 w w q q r r q q q > q q q > H H H H w w E E q q w & w w & & w w w w B B H H B B B B A A B 2 A A B B A A p p a a H H a a C C t t t t t t t t t t t t t t t t t t t t t t t t t t t t t t t t t t t t t t t t t t t t t t t t t t t t t t t t t t t t t t t t t t t t t t t t t t t t t t t t D D H H B 2 2 p p p B B p p 2 p p p & w B B w w B B B B 2 B H H H w H H & w > > x % : q q > > q q > x x x x % x x q q > w w & H 2 2 B w w w q q > q q q & & q > q q > > q q > q q > > > q q > > q q > q E E n n > q > > > > % % r r 5 5 & H p p a a A A f f 9 o o 9 8 8 b 8 e e W W 7 U 7 7 T T 7 7 7 7 F F F , p p p 2 2 2 5 5 % # 5 5 % % % % x % % % > > % x 2 2 a A A a a a p p p 2 2 2 w w w w w > w & & & & w w & 2 2 w & & & q > H H q > ",
"> > & & q > & w & 1 2 2 & & w > w & & w & & 2 2 & w 2 2 2 2 2 p 2 2 p p p 2 2 2 x x % x # % # % @ 5 # % @ @ 5 5 5 5 w w & & 2 2 7 7 F , 7 7 7 7 T T 7 7 U 7 W W e e d d b b 9 9 o o a o A A o o p p w & r r x % r r p 2 x x x x * * x % : > > q q > > q q > q q > q > q q > & & q > & & H H w w & w w w q q > > % % : > > q q q > > & & q > & & & & H H > q > > & w 2 2 w w w w & H B B w w B B p p A a 2 2 a a B B B 2 B B A A 2 B H H B B C C t t t t t t t t t t t t t t t t t t t t t t t t t t t t t t t t t t t t t t t t t t t t t t t t t t t t t t t t t t t t t t t t t t t t t t t t t t t t t t t t C C B B H H B B B B p p w w 2 B 2 2 p p p 2 2 p & & & H w & H w H H w w & & & H r r w & & & H H > > q > x x > q q > x x x % : > x x > q w w 2 B H & w w q q & H q q > q > > > q q > > q q > q q x x > q E E E E x x > q x x x x 5 5 r r q q a a A A o o o o f f 8 8 9 9 d d e d 7 7 7 7 T T U 7 7 7 7 k 7 7 F , 2 2 p 2 & & % % 5 5 % % % # # % % % : : x % > > 2 B A A B B A A p 2 2 p 2 2 2 2 2 2 2 p & & & & & & & H & H 2 2 w & B 2 q q & & ",
"q > & & q > w w & & 2 2 & & & & & w w & & w 2 2 w w 2 2 2 2 p p 2 p p p 2 2 p 2 % x x % x # % # 5 5 % # @ @ @ 5 5 5 & w w & 2 2 7 7 F , 7 7 7 7 T T 7 7 U U W W e e d d b b 9 9 9 o o a A A o o p p H & r r x % r r 2 2 % x x x * * x % > q q > > > q q > > q q > q q > q q & & q > & & H & & w w w w w q > q > x % : > > q q > > > & H > q H & & & H H > > z z & w 2 B w w w w H H B B w w B B p p a a 2 2 a a B B B 2 2 B A A B B H H B B C C t t t t t t t t t t t t t t t t t t t t t t t t t t t t t t t t t t t t t t t t t t t t t t t t t t t t t t t t t t t t t t t t t t t t t t t t t t t t t t t t C C B B & & B B B B p p w w 2 B 2 2 2 p p 2 2 p & & & & H w & w H H w w & & & H r r w & & & H H > > z > x x > q > q % % % % : > x x q q & w B 2 & w w w q q & & q > q q > > q q q > > q q > q q x x > q E E E E x x > q x x x x 5 5 r r q q a a A A o o a o f f 8 8 9 9 d d e d 7 7 7 7 T T U 7 7 7 7 k 7 7 F F 2 2 p 2 & & % % 5 5 % # % % % % % % : > % % : > B B A A B B A A p 2 p p 2 2 2 2 2 2 2 2 w & & & & & & & H & 2 2 & & 2 B q q & & ",
"2 2 & & w & & & w & & & & w & & w w w & 2 B w & 2 2 2 2 p p 2 p 2 2 > > & & & & > > % % % x 5 5 % % 5 5 5 5 5 @ r r & & 2 2 2 2 F F 7 7 7 U 7 7 7 7 T T 7 7 7 7 d d d d c c C 9 f f a A A o A a A a q > % % r r % % w w q > % % & & q > > q x x > q > > q q > > & H q q & & q q & w w w B 2 q q x x # # : > : : > q > q & & & 1 # # r r w & & & & H w & 2 B 2 2 B 2 H & B B 2 2 B 2 A A B 2 B B p 2 w w p p p 2 2 2 B B A A B B y y H H B B C C t t t t t t t t t t t t t t t t t t t t t t t t t t t t t t t t t t t t t t t t t t t t t t t t t t t t t t t t t t t t t t t t t t t t t t t t t t t t t t t t C C H & 2 B z > 2 2 B B 2 B B B 2 2 w & 2 B B B A A w w 2 p w w & w w H w B B B 2 p H & H H q > q q > > > q r r & & q > q q > > q > 5 5 % % % x > > q q w w & H & w q q q > > q q > > > q q > q > > > q & & q > > q > > > > % % r r 5 5 & & p 2 A A A A C C o o 9 9 a 8 b b d e F F T T 7 7 7 U 7 7 7 7 F F 7 7 p p 2 2 2 2 5 5 # % E 5 # % % % x % % % > > % % B B A A p 2 H H 2 2 2 2 a a 2 2 2 2 w & 2 2 & & 2 2 w & & & q > & & H & & w & & ",
"2 2 & & w & & & w & w & w w & & w w & & 2 B w w 2 2 2 i p p 2 2 p 2 > > & & & & > > % % % x 5 5 % # 5 5 5 5 5 @ r r & & 2 2 w i F F 7 7 U U 7 7 7 7 T T 7 7 7 7 d d d d c c C 9 f f a a A o a A a a > q % % r r % % w & & > % % & H q > q > x x > q : > q q > > & H q q & & q > w w w w B 2 q q x x # % > : : > q : > > H H 1 1 # # r r & & & H w & H H B B B 2 B p H & B B 2 2 2 B A A B 2 2 B 2 p w w 2 p p 2 2 B B B A A 2 B y y H H B B C C t t t t t t t t t t t t t t t t t t t t t t t t t t t t t t t t t t t t t t t t t t t t t t t t t t t t t t t t t t t t t t t t t t t t t t t t t t t t t t t t C C H & B B > q 2 2 B B 2 B B B 2 2 & w p 2 B B A A & w 2 p w w w w & H 2 B B B p p H H H H q q > q q > > > r r w & > q q > > > q > 5 5 % % x x > > > q w w & H & w q q q q > > q q > q q > q > > > > q & & z q > q > > > > % % r r 5 5 & & p p A a A A f C o o 9 9 8 8 b b d e F F T T 7 7 7 U 7 7 7 7 F F 7 7 p p 2 2 2 2 5 5 # % @ 5 # % % % x % % % > > % % 2 B A A B 2 H H 2 2 2 2 a a 2 2 2 2 & w 2 2 & & 2 2 & w & & q q & & & & w w w & ",
"& & & w H H & & & & B 2 w & 2 2 & w p 2 w w 2 2 w & 2 2 2 2 p 2 2 p % % : > B 2 % x x % x # % # 5 5 # % E 5 5 5 5 5 w w & & 2 2 7 7 7 U T T 7 7 T T U U T T W W e e b b 8 8 9 9 C C o o A A C C A A H H r r % % r r 2 p x x > > x x > > > : 1 1 q > q q > > H H w & i i w > > q r r % % x % > q > > q q : > q > > q & & z q & & % % H H H w H H & w w w & w w w w w 2 2 p 2 A A w w 2 B & w B B w w B B w w 2 B B B 2 2 B B B 2 B p H & B B D D t t t t t t t t t t t t t t t t t t t t t t t t t t t t t t t t t t t t t t t t t t t t t t t t t t t t t t t t t t t t t t t t t t t t t t t t t t t t t t t t C C B B & & 2 B B B 2 B H w 2 B B B B 2 & w B B w w 2 2 2 B p p B B B 2 w H & & & H w & H H & & q > w 1 # % % x > > q q > : q > x x q q > : q > % % x % % % > q > > & & & H i i q q & 1 > q 1 1 > q > > x x q > x x > : % x q x r r r r & & A A A A o o A A C C 9 9 c c d d d d U 7 T T T T 7 7 T T 7 7 T T 7 U 2 2 p 2 & & % % 5 5 # % r % % % % x % % % % > : & w A A > > % # i 2 2 p & & 2 2 2 2 2 2 w w B 2 w & 2 2 w & 2 2 w & & & & w & & ",
"& & w w w & & & & & 2 2 w & 2 B & w 2 2 w & 2 2 w w 2 2 p 2 2 2 2 2 % % : > 2 2 % x x x % x # % 5 5 # % E 5 5 5 5 5 w w w & 2 2 7 7 7 7 T T 7 7 T T U U T T W W e e b b 8 8 9 9 C C o o A A u C A A H H r r % % r r p p x x > > x x > > > : 1 1 > > q q > > H H w & i i & & q > r r % % % % : > > > q q > > > q q > & 1 q q & & % % H H H H w H H & w w & & w w & w 2 B p 2 A A & w B B w w B B w w 2 B & w B 2 2 B B 2 B B B 2 2 B H H B B D D t t t t t t t t t t t t t t t t t t t t t t t t t t t t t t t t t t t t t t t t t t t t t t t t t t t t t t t t t t t t t t t t t t t t t t t t t t t t t t t t C C B B & & 2 B B B B 2 w w 2 2 B B 2 B w w 2 B w w B 2 2 B p p B B B 2 & w & & & H w & H H & & q q & 1 % % x % > > q q > > > q x x > q : : q > % % x % % % > > q > & & & H i i q q & 1 q q & 1 q > q > x x > q x x > q x x x x r r r r & & a A A A o a A A C C 9 9 c c d d d d 7 7 T T T T 7 7 T T 7 7 T T U U 2 2 p 2 & & % % 5 5 % % % # # % % % % x % % > : & w a a > > # % 2 2 p 2 & w 2 2 2 2 2 2 w w B 2 & & 2 2 & & B 2 w & & & & w & & ",
"& & w > w & & & w & & & i 2 & & 2 2 & w p 2 w & 2 2 & w 2 i & & 2 2 r r q q & & q > % % % x r 5 # % 5 5 5 5 E E 5 5 & & 2 2 w w F F 7 U 7 7 T T 7 7 T T 7 7 7 7 d d e d c c c c f f o a C C A A A a H H x x r r r r w w q > : > q : > : q q > q & & & & w i 1 1 # % E E x % % x x x x x q q x x > q E E q q > > & & & & & & q q 2 2 w & w w q q & & H H p p p 2 A A 2 B B B H H B B w w 2 B w w B B w w B B B B B 2 B B 2 2 2 B A A & H A A C C t t t t t t t t t t t t t t t t t t t t t t t t t t t t t t t t t t t t t t t t t t t t t t t t t t t t t t t t t t t t t t t t t t t t t t t t t t t t t t t t C C H & p p p 2 2 2 2 B B B B B B 2 w w 2 B w w B B & w 2 2 w w 2 B w w A A p 2 p p w & w w & H H H 1 1 w w q q > q > > > q > q > > x x # # : > > q x x > > x % # # 5 5 x x x % w w & H & w q > 1 1 > > q q x x x x x x > : % r % % 5 5 & w 2 p A A A A C C C C 9 9 8 8 b b e d W W U U 7 7 U U 7 7 T T 7 7 7 7 2 2 w & w w 5 5 % # 5 5 % % % % % x % % > : % x 2 2 p 2 > q 5 5 B 2 w & 2 i w w 2 2 w & 2 i & w p 2 & & w & & & & w w & & w & & ",
"& & w > w & & & w & & & i 2 w & 2 2 w & 2 2 w w 2 2 w w 2 2 w & 2 i r r q q & & q > % % % x r 5 % % 5 5 5 5 E E 5 5 & & 2 2 & w F F 7 U 7 7 T T 7 7 T T 7 7 7 7 d d e d c c c c f f o a C C A A A a H H x x r r r r w w > > : > q : > : q q q > & w & & w i 1 1 # % E E x % x x x % x x q q x x > q E E q q > > & & & & & & q q 2 2 w & w w q q & & & H p p p 2 A A B B B B H H B B w w 2 B w w B B w w B B B B 2 B B 2 2 2 2 B A A H H a a C C t t t t t t t t t t t t t t t t t t t t t t t t t t t t t t t t t t t t t t t t t t t t t t t t t t t t t t t t t t t t t t t t t t t t t t t t t t t t t t t t C C H & p p p p 2 2 2 B B B 2 B B 2 w w 2 B w w 2 B w & 2 2 w w 2 B & w A A 2 p p p w & w w & H & & & 1 w i q q > q > > > q > > q > x x # # : > > > x x > > x % # # 5 5 x x x x w w & H & w q > 1 1 q > q q x x x % x x > > r r % % 5 5 & w p p A a A A C C C C C 9 o 8 b b e d W W U U 7 7 U U 7 7 T T 7 7 7 7 2 2 w & w w 5 5 # % E 5 # % % % % x % % > : % % 2 2 p 2 q q 5 5 B 2 & & 2 2 w w 2 2 & & 2 2 & w p 2 & & w & & & w w & w & & & & ",
"& & w w w > w w & & B 2 & & 2 2 w & 2 2 & & 2 2 & & 2 2 w & & w & & % % : > w w x x x x % x # % 5 5 # % @ @ 5 5 5 5 & w & & 2 2 7 U F F 7 7 7 7 U U 7 7 7 U W W e e b b 8 8 9 9 C C C C A A C C p p w & 5 r % % # # 2 2 % x > q > > & & & w w w # # r r @ @ r r % % > q > > > : % x q > x x > > > > 5 5 & H q q > q & & q q & & & & H H H H B 2 2 B p p B B B 2 w H & B H H B B w w 2 B & w B 2 w w 2 B w w 2 B B B 2 2 B 2 p B A A 2 B B B C C t t t t t t t t t t t t t t t t t t t t t t t t t t t t t t t t t t t t t t t t t t t t t t t t t t t t t t t t t t t t t t t t t t t t t t t t t t t t t t t t C C B B B B A A 2 B 2 p B B B 2 B B 2 B H w 2 B & & B B H H w w H H 2 B & w p 2 B B B 2 w w 2 B & & & H q q w w q > : q q > > q q > x x = = : : % x : > x x > > x % > : % # # r @ @ 1 1 x x > q & & w w q q > q > > > q x x x % @ r r r w & a a A A A o A A f f c c o 9 d d d d 7 U U 7 U U 7 7 7 7 7 7 7 7 F F p 2 2 p & & % % 5 5 # % # # % % % % % x x % > : & & a A > > 5 5 w w q > & w 2 2 2 2 2 2 & & w w & & w w & & 2 2 & & w & & & w w ",
"> w w w & w w w & & 2 2 w & 2 2 w w 2 2 w & p 2 & & B 2 w & & & w & % % : > w w x x % x x % # # 5 5 % # 5 @ 5 5 5 5 w w & & 2 2 U U F F U 7 7 7 U U 7 7 7 U W W e e b b 8 8 9 9 C C C C A A u C p p w & 5 r % % % # 2 2 % x > > q > & & & w w w # # r r 5 @ r r % % > > q > : > > x q > x x > > > > 5 5 & H q q > q & & q q & & H H & H H H 2 2 B 2 p B B B B 2 w H & B & & B B & w 2 B & w B 2 w w 2 B & w B 2 B B B 2 B B 2 p a a B B B B C C t t t t t t t t t t t t t t t t t t t t t t t t t t t t t t t t t t t t t t t t t t t t t t t t t t t t t t t t t t t t t t t t t t t t t t t t t t t t t t t t C C B B B B A A B B B 2 2 B B 2 B B B 2 w w 2 B H & B B H H w w w & B p w w 2 2 2 B B 2 w w 2 B H & w & q > w w > q > > q q : > q > > x = = : : x x > > x x > > x % > : % # # r @ @ 1 1 x x > q & & & w q q > q > > > q x x x # r r r r & & a A A A o a A A f f c c o 9 d d d d U 7 7 7 U U 7 7 7 7 7 7 7 7 F F 2 2 p 2 & & % % 5 5 % % % # % % % x % % % % > : & & a A > > 5 5 w w q > & w p 2 2 2 2 2 w & w w & & & w w & 2 2 & & & w & & w w ",
"& 1 & & 2 2 w & 2 2 & & & w & & 2 2 w & w w w & w & w & 2 2 & w & & r r & & & & q > % % % x r 5 # % E 5 5 5 E E 5 5 & & 2 2 & w W W U 7 7 7 7 U 7 7 T T 7 7 7 U d d d d 9 9 c c f f o a C C A A A A H H x x # # % x 2 2 w & & & w w % % r r r r : > # x > : % % : > > x > q x x > > x x > q > > q q B B & & q q > q q q 2 2 w w & w w w 2 2 & w w w H H B B H H w w & & B B H H B B w w B B w w B B w w B B B 2 2 p & B p p B B A A H H a a C C t t t t t t t t t t t t t t t t t t t t t t t t t t t t t t t t t t t t t t t t t t t t t t t t t t t t t t t t t t t t t t t t t t t t t t t t t t t t t t t t C C H & A A A A p p B B B 2 2 B B B w w B B & w p B w w 2 B w w B B & w p 2 w w 2 B w w 2 2 & w w w w w w & q q > q q q & & > q q > & & w w : : > : > x x > x x > > : : > q : : : > % % : : @ @ @ 5 # # q q > q & & q q q q r r % % 5 5 & w p p a a A A C C C C 9 9 8 8 b b e d W W U 7 7 U U U U 7 7 7 7 7 7 7 2 2 w & w w 5 5 # % @ 5 # % % % % x % % > : % % 2 B B 2 > > 5 @ 2 2 % % 2 2 w & 2 2 w w 2 2 & & p 2 w & 2 2 w & 2 2 & & w w & & ",
"w & & & 2 2 w & 2 i & & w w & & 2 2 & & w & & & w w w > B 2 w & & & r r & & & w > > % % x x 5 5 # % @ @ 5 5 5 E 5 5 & & 2 2 w w W W 7 7 7 U 7 7 7 7 T T 7 7 7 U d d d d 9 9 c c f f o a C C A A A a H H x x # # % x 2 2 & w & & w w % % r r r r : : % x : > % % : > > x > q x x > > x x > q : > q q 2 B & & > q q > q q 2 2 w & w w w w 2 B w w w w H H B B H H w w H H B B H H B B w w 2 B & w B 2 w w B B B 2 2 p & B p p B B A A H H A A u C t t t t t t t t t t t t t t t t t t t t t t t t t t t t t t t t t t t t t t t t t t t t t t t t t t t t t t t t t t t t t t t t t t t t t t t t t t t t t t t t C C H & A A A A p p B B 2 2 B B B 2 w w B B w w 2 B & w 2 B w w B 2 w w 2 2 w w 2 B w w 2 2 w w & w w w & w q > q q q > & H q > q > & & w w : : > q x x > > x x > > > : > : > : : : % % : : @ @ @ 5 # # q q > q & & q q q q r r % % 5 5 & w 2 p A a A A C C C C o 9 o 8 b b e d W W U 7 7 U U U 7 7 7 U 7 7 7 7 2 2 w & w w 5 5 # # 5 5 % # % % % x % % > : % % B B 2 2 > > 5 @ 2 2 % % 2 2 w & 2 i w w 2 2 & & p 2 & & 2 2 & & 2 2 & & w w w & ",
"& & w & & & 2 p & & w w w & & & w & & & q q & & w & & & & 1 & & q > r r q > 2 B x x % x # % # # 5 5 r r @ @ 5 5 @ @ & & 1 & 2 2 F F F F 7 U 7 7 U 7 7 U T T W W e e b b 8 8 9 9 C C C C A A C C A A & w 5 5 % % x x 2 2 @ @ E * 5 5 : : % % : : % x > : % x > > x x v v > q > > x x q > : > q q > q q q > > & & & w w w B 2 A A w w 2 2 w & w w w & & w w w 2 2 w & 2 B w & B B & & B B & w 2 B & w B 2 w w B 2 2 B p p B B p p A A H H B B C C t t t t t t t t t t t t t t t t t t t t t t t t t t t t t t t t t t t t t t t t t t t t t t t t t t t t t t t t t t t t t t t t t t t t t t t t t t t t t t t t C C B B B B A A B 2 2 2 B B 2 B B B 2 2 B w 2 B & w B 2 & w B B & w B B H H w w H H w w & H 2 2 B w 2 2 w & 2 2 w & w B H H H H > > q q q > : q > x x q x x > q : > % % 5 @ x x x % : > x % % x x # x x E E @ 5 r r % % % % : > r r r r & & a a A A A o A a f f c c o 9 d d d d F F 7 U 7 7 7 7 7 U 7 7 7 7 F W 2 2 2 p & & 5 5 5 @ % % % # % % % % x % % % > : & w a A : : 5 5 & & x x w w & w w & & w & & & w & & i 2 & & w w > w & & & w i 2 ",
"w & & w & & 2 2 & & w w & & 1 & w & & & > q & & w & & & w > w & > > r r > > 2 B x x % x # % # # 5 5 r r 5 @ @ 5 5 @ & & 1 & 2 2 F F F F 7 U 7 7 U 7 7 7 T T W W e e b b 8 8 9 9 C C C C A A C C A A w w 5 5 % % % x 2 2 @ @ E * 5 5 : : % % : : % x > q x x > > x x v v > > q > x x > q > q > > q q q q q > & H w w w & p B A A w w 2 B H & w & & & w w w w B 2 & w B B & & B B & w B B w w B B w w B B w w B 2 2 B p p B B p p A a & H B B C C t t t t t t t t t t t t t t t t t t t t t t t t t t t t t t t t t t t t t t t t t t t t t t t t t t t t t t t t t t t t t t t t t t t t t t t t t t t t t t t t C C B B B B A A B B 2 2 B B 2 B B B 2 2 B w B B w w B B w w 2 B & w B B H H w w & & w w H & 2 2 w & 2 B w w 2 i & & B B H H H H q > q q > > > q x x > > x x > q : > % % 5 @ x x x x : : % % x x # # % x E E @ 5 r r % % % % : > r r r r & & a a A A A o A A f f c c o 9 d d d d F F 7 7 7 U 7 7 7 7 7 U U 7 W W 2 i 2 2 w & 5 5 5 5 % % # % % % % % x % % % : > & & a A > : 5 5 & & x x w w & w w & & w & & & w & & p 2 & & w w w > w & & & p 2 ",
"2 2 w & & & & & & & & & & & > q & & > q & & & & & & & & B 2 w & & & 5 5 q q & & q > % % % % 5 5 r r 5 5 5 5 * * 5 5 & & 2 2 w w W W U 7 7 U 7 U 7 7 7 U 7 7 F F d d d d 9 9 c c f f o o C C A A o o & H x % r r x x & w x x # # % x x x > : % x > > > > q q x x > > > q p p q > > > q > > q q > H H q > w w w & p B & & B B & H 2 B w & & w & & & w w H 2 2 & w B B & & B B & & B B w w B B w w B B B B B 2 B B 2 p B B p p B 2 2 B H H A A C C t t t t t t t t t t t t t t t t t t t t t t t t t t t t t t t t t t t t t t t t t t t t t t t t t t t t t t t t t t t t t t t t t t t t t t t t t t t t t t t t C C H & B B B B p p B B B 2 B B 2 2 2 B B 2 2 B B B w w B B & & w w H & w w w & w w w & H & w w 2 B H & w & & & p 2 B B B 2 w w 2 B q q > q > > > q > > q q x x & & w w % # # % x x x x > : % % x x x # > > r r % % % % % x % % % x 5 5 & w p p o o A A C C C C 9 9 8 8 b b e d W W U 7 7 U 7 U 7 7 7 7 U 7 7 7 2 2 w & w w 5 5 # # 5 5 % # % % % % % % : > % % 2 B 2 2 z > @ @ 2 2 % % 2 2 & & w w & & w & & & w & & & w w & & w w & & w & & & ",
"2 2 & & 1 & & & & & & & & w > > & & > q & & H & & & & w 2 2 & w & & 5 5 q > & & q > % % % % 5 5 r r 5 5 5 5 * * 5 5 & & 2 2 w w W W 7 U 7 7 U 7 7 7 7 U 7 7 F F d d d d 9 9 c c f f o a C C A A o o & H x % r r % x w w x x # # % x x x > q x x > > > > q > x x > q > > 2 p > q > > q > > q q > H H > q w w w w B 2 & & B B & H B B & w & w & & w w & H 2 2 & & B B & w B B H H B B w w B B w w B B B B B 2 B B 2 p B B p p B 2 2 B H H A A u C t t t t t t t t t t t t t t t t t t t t t t t t t t t t t t t t t t t t t t t t t t t t t t t t t t t t t t t t t t t t t t t t t t t t t t t t t t t t t t t t C C H & B B B B p p B B B 2 2 B B 2 2 B B 2 B B B 2 w w 2 B & & w w & w w w & H & w & & w w w w B 2 & & w w H & 2 2 2 B B 2 w w 2 B q q > q > > > q > > q q x x & & w w % # # # % x x x > : % % x x # % : > r r % % % % x x x % % % 5 5 & w p p o o A A C C C C 9 9 8 8 c b e d W W U 7 7 U 7 U 7 7 7 7 7 U 7 7 2 2 w & w w 5 5 # # 5 5 # % % % % x % % > : % % B B B 2 > > 5 @ 2 2 % x 2 2 w & w w & & & w w & & & w & & & w & & w w & & w & & ",
"& & & & & & w & q q & & > q & & q q & & q q & & > q & & & & & & > : % r > > 2 B x x x % % % % # 5 5 5 5 * E 5 @ @ 5 & & 1 & 2 2 U 7 7 7 U 7 7 7 T T U U T T F F d e b b 8 b 9 9 C C C C A A u C p p H & # # % x % % p p : > : : % x 5 5 % % : > : : > q % % % x > : & & q > q q > > & & q q & w & & p 2 w w w w H H & w q q & & & H w & w H w w & H B B & & B B H & B B & & B B H H B B w w B B B B B 2 B B 2 2 B B 2 p p 2 A A y y B B B B C C t t t t t t t t t t t t t t t t t t t t t t t t t t t t t t t t t t t t t t t t t t t t t t t t t t t t t t t t t t t t t t t t t t t t t t t t t t t t t t t t C C B B B B H H B 2 p p B B p p B B p 2 2 B B 2 w w 2 2 w & B B w w 2 B w w B 2 & w B B & & 2 B w w w w & w w w & H & w & H w w & w 2 B B B B B H H H H > > H H q > H H w & q q x % x x x % : > x % > q r r r r % % % x x # % % r r r r w & a A A A C C o o f f f o o 9 d d d d 7 7 T T T T 7 7 T T 7 7 T T U U 2 2 2 p & & 5 5 5 5 % % # # % % % % % x % % : $ & & a A > : 5 5 & & x x w w w w & & w & & & w & & & & & & & & w & & w w & & w & ",
"& & & & & & w & q q & & > > & & q q & & q q & & > q & & & & & & > > r r > > 2 B x x x % % % # % @ @ 5 5 5 E @ @ 5 @ 1 & & 1 2 2 7 7 7 U 7 7 7 7 T T U U T T F F e e b b 8 8 9 9 C C C C A A C C p p w & # # % x % % p p : : > : : x 5 5 % % : : : > : > x % % x > : & & q > q q > > & & q > w w & & p 2 w w w w & & & w q q & & & & w w & & w w H & B B H & B B H & B B H H B B w & B B & w B B B 2 2 p & B p 2 B B 2 p p 2 A A y y B B B B C C t t t t t t t t t t t t t t t t t t t t t t t t t t t t t t t t t t t t t t t t t t t t t t t t t t t t t t t t t t t t t t t t t t t t t t t t t t t t t t t t C C B B B B H H 2 2 p p 2 B p p B 2 2 2 B B 2 B w w 2 B & w B 2 w w 2 B w w B B H & B B H H 2 B & w & w & & w w w & w w H H & w w w B 2 B B B B H H H H q > & H q > H H w w q q x % x x x x q > % % : > r r r r % % % x % % % x 5 r r r w & a A A A C C o o f f o 9 9 9 d d d d 7 7 T T T T 7 7 T T 7 7 T T U U 2 2 p 2 & & 5 5 5 @ % % # % % % % % x % % % : $ & & a A : : 5 5 & & % x w w w w & & w & & & w & & & & & & & w w & & w w & & w & ",
"& & q q & & q > & & q > & & q q & & q q & & q > & & w & & & q > & & 5 5 q > & & > : % % % % 5 5 5 5 5 5 5 5 * E 5 5 & & 2 2 w i F F U 7 7 7 T T 7 7 T T T T 7 7 e d d d 9 9 c c f f 9 o o C A A A a H H : > % % : : w w : : x x v v 5 5 q q x x > > > > q q x x > q x x & & q q & w & & B 2 & w & & & w & w & & w & w H & & w w w w & & B B & & w w H H B B w & B B & & B B & w B B w w 2 B w w 2 B B B 2 2 2 B p p B B A A 2 p a a B B A A C C t t t t t t t t t t t t t t t t t t t t t t t t t t t t t t t t t t t t t t t t t t t t t t t t t t t t t t t t t t t t t t t t t t t t t t t t t t t t t t t t C C H & A A B B A A 2 B B p B B 2 p B B B 2 B B 2 2 w w 2 B w w B B & & B B & w B B & & w w H & w w & & w w q q & w H H w w & & w w w & B B w w 2 2 2 B H w z z q q x x > > x x > q % % % x x x q q > q n n v v > > % % x % r r % % 5 5 & w p p o o A A C C C C 9 9 a 8 b b e d F F T T 7 7 U U 7 7 T T 7 7 7 7 2 2 w & & & 5 5 % # 5 5 % % % % % x % % > : % % 2 B 2 2 z > 5 @ 2 2 % % 2 2 & & & w w & & w & & w w & & & & q q & & & & w w & & ",
"& w > > & & > > & & q > & & q q & & > q & & q q & & & & & & q > & & 5 5 q > & & > > % % % x 5 5 5 5 5 5 @ 5 E * 5 5 & & 2 2 w i F F U 7 7 7 T T U 7 T T T T 7 7 d d d d 9 9 c c f f o 8 C C A A A a H H : > % % : : w w : > # x v v 5 5 q q x x > > > q q q x x > q x x & & q > w w & & B 2 & w & & & w w & & & w w & w & & w w w w & H B B & & w w H H 2 B H H B B H H B B w w B B w w B B w w B 2 2 B B 2 B B p p B B A A p 2 A A 2 B A A C C t t t t t t t t t t t t t t t t t t t t t t t t t t t t t t t t t t t t t t t t t t t t t t t t t t t t t t t t t t t t t t t t t t t t t t t t t t t t t t t t C C H & A A B B A A B B p p B B p 2 B B B 2 B B 2 2 w w 2 B & w B 2 w & B B & & B B & & w w H & w w & & & w q q & w H H w w & & w w H & B B w w 2 2 B B w w z z q q x x > > x x > : % % x x x x q q > q n n v v > > % % % x r r % % 5 5 w w 2 p o o A A C C C C 9 9 8 8 b 8 d d F F T T 7 7 7 U U 7 T T 7 7 7 7 2 2 w w & & 5 5 % # 5 5 % % % % % % % % : > % % B B 2 2 > > 5 @ 2 2 % x 2 2 w & w w & & w w & & w w w & & & q q & & & & & w & & ",
"> q & & q > & & q > & & q q & & > > & & q q & & q q w w & & w & > > 5 5 > > w w x % % % r r # % 5 5 r r 5 @ 5 5 5 5 w w & w p 2 7 7 7 U T T 7 7 T T U 7 T T W W e e c b b b 9 9 9 o C C A A o o p p w w % % x % % % 2 2 % x > > & & p 2 > q > > x x q > x x > q & & B B H H w w & 1 1 1 > q 1 & q q & & & & H & & & H w & H w H H H w w & & & w H H w w & & B B & & B B & w B B w w 2 B & w B 2 B B B 2 2 B B p B B A A 2 p a a A A 2 B B B C C t t t t t t t t t t t t t t t t t t t t t t t t t t t t t t t t t t t t t t t t t t t t t t t t t t t t t t t t t t t t t t t t t t t t t t t t t t t t t t t t C C B B B B A A 2 2 a a B B A A 2 B B p B B B 2 w w 2 2 & w 2 2 w w 2 B & w w w & w w w & H & w & H w w & H & H H H w w & & & & q q & & & & w w & & & w w H & w w & & w H H & & q > q q > > > q % % 2 2 w & q q x x > > x x > q % % % % & & A A A A u C A o C C o 9 9 f d d d d F F 7 7 U U 7 7 T T 7 7 T T 7 7 2 2 p 2 & & 5 5 5 5 % # 5 5 % # % r # % % % : : & & p p : : 5 5 & & % % & & w w & & w w w & 2 2 & & & & > q & & q q & & q q & & ",
"> q & & q > & & > > & & > q & & > > & & q q & & > q w w & 1 & & q > 5 5 q > & w x % % % r r # % 5 5 r r @ @ 5 5 @ 5 & w w & 2 2 7 7 7 7 T T 7 7 T T 7 7 T T W W e e c b b b 9 9 o o C C A A o o p p w & # % % x % % 2 2 % x > > & & p 2 > q > > x x q > x x > > H H B B H H w w & 1 1 1 q > 1 & q q & & & & H & H H H w H H & w w & w w & H & w w H w w & & B B & & B B & w B B w w B B w w B B B B B 2 2 B B p B B A A B 2 A A A A B B B B C C t t t t t t t t t t t t t t t t t t t t t t t t t t t t t t t t t t t t t t t t t t t t t t t t t t t t t t t t t t t t t t t t t t t t t t t t t t t t t t t t C C B B B B A A 2 2 A A B B A A B B 2 p B B 2 2 w w 2 2 w & 2 2 w w B B & w w & w w w & H & w & H w w w & H & H H H w w & & w & q > & & H H w w w & w w w & H & w & w w & H & H > q q > > > q > % % 2 2 w w q q x x > > x x > > x % % % w & a A A A C C o o C C 9 9 o 9 d d d d F F 7 U 7 7 7 7 T T 7 7 T T 7 7 2 2 2 p & & 5 5 5 5 % # 5 5 % % r r # % % % : : & & p p > : 5 5 & & % % & H w w & & w w w & 2 B & & & & q q & & q q & & > q & & ",
"& & q > 1 & > > & & q q & H H H & & q > & & q q & & & & & w > > & & 5 5 q > & & > > r r % % 5 5 r r 5 5 5 5 * * 5 5 & & 2 2 2 2 F F U 7 7 7 T T 7 7 T T T T U 7 e d e d 9 9 c c f f o o C C A A A a & & x x x # > > i i : : > : : > > q > > > > q q q > w w & H 2 2 & & & w q q & & q q & & q q & & > q w w & H & w & & w w H H w w & & & w H H w w & & B B & & B B & w B B w w B B & w 2 B & w B 2 B B p p B B p 2 B B p p B 2 A A 2 B A A u C t t t t t t t t t t t t t t t t t t t t t t t t t t t t t t t t t t t t t t t t t t t t t t t t t t t t t t t t t t t t t t t t t t t t t t t t t t t t t t t t D D H H B B A A A A B 2 A A B 2 A A B B p p B B p 2 w w 2 B w w 2 2 w w 2 B & & B B & & B B & w w w & w w w & H & w & H w & q > & & q q w w & H & w q > 1 & q > w w & & 2 2 2 B B B & H > q q > q > > > > > x x > > x % > > x x x x r r w w 2 p o a A A C C C C 9 9 8 8 b b e e W W 7 U 7 7 U 7 7 7 U U 7 7 7 7 2 2 w & & & 5 5 r r @ 5 # % 5 5 % % r r : : x % w w 2 B > > * * 2 2 % % 2 2 & & w w w & w w q q w w & & & w > q & & q > & & w & ",
"& & q > & & > > & & q q & & & w & & q > & & q q & & w > w & & q & & 5 5 > > w & > : % r % % 5 5 r r 5 5 5 5 * E 5 5 & & 2 2 2 w F F U 7 7 7 T T 7 7 T T T T 7 7 d d d d 9 9 c c f f 9 o o C A A A A w & x x x % : > i i : : : > : : > > z z q > q q > q w w & H 2 2 & & w w q q & H q q & & q q & & q q w w & H & w H H w w & & & w H H w w & H & w w H B B H H B B w w B B w w B B & w B B w w p 2 B B p p B 2 p p B B p 2 B 2 A A B B A A C C t t t t t t t t t t t t t t t t t t t t t t t t t t t t t t t t t t t t t t t t t t t t t t t t t t t t t t t t t t t t t t t t t t t t t t t t t t t t t t t t D D H H B B A A A A 2 p a a B 2 A A B B p p B B 2 2 w w 2 2 & w 2 2 w w 2 2 w & 2 B w & B B H H w w & 1 w w & H & w w H & & q q & & q q & w H H & & q q & & q > w w w & B 2 B 2 B B & H q q > q > > > z z q x x > > x x > > x % x x r r w w 2 p o a A A C C C C 9 9 8 8 b 8 e e W W 7 U U 7 7 U 7 7 U U 7 7 U 7 2 2 w & w w 5 5 r r 5 5 # % 5 5 % % r r : : x % w w p 2 > > * * 2 2 % % 2 2 & w w w & & w w q q w w & & w & > q & & q > & & w & ",
"q > q q q > & & q > & & > q & & & & 5 5 % x & & q q w w & & w & > > 5 @ > > & w % % % x r r # # 5 5 r r @ 5 5 5 5 5 w w & w 2 2 7 7 7 U T T 7 7 T T U 7 T T W W e e b b 8 b 9 9 o o o o o a o o a A w w # # % x % % p 2 % x q q x x > q q > B B w w B B & H 2 2 w & w w q q & & q > & & q q H & & & & & & H w & H H & & H H w w & & & w H H B B H H B B w w B B w w 2 B w w B B & w 2 B B B B 2 2 B B 2 B B p p B B 2 p B B A A A A 2 B B B D D t t t t t t t t t t t t t t t t t t t t t t t t t t t t t t t t t t t t t t t t t t t t t t t t t t t t t t t t t t t t t t t t t t t t t t t t t t t t t t t t C C B B B B A A 2 p a a B 2 A A 2 B 2 p B B p p w w 2 B & w 2 2 w & 2 2 w w B B & w B B H H B B w & w w & H & H H H w w & H & w q > 1 & & & w w q q H H q > & H H H B B w w 2 B w w B B & & & w > q > > x x q > x x > > x x > > x % % % w & a a A A o o a a C C o 9 9 9 d d d d F F 7 7 7 U 7 7 U U U 7 7 7 U U p 2 2 2 w & 5 5 5 5 % # 5 5 % % r r # % % % : : & & p p : : 5 5 & & % % & & & w w & & w & & > > & & & & & & & & q > & & & & & & ",
"q > q q > q & & > > & & > q & & & & 5 5 % x & & > q & w & & & & > > 5 @ > > & w % % % x r r # # 5 5 r r 5 @ @ 5 5 5 & w w w 2 B 7 7 7 U T T 7 7 T T U 7 T T W W e e b b b b 9 9 o o o o a a a o A A w w # # x x x % 2 2 x x q q x x q q q > B B w w B B & & 2 2 w w w w q q & & q q & & q q & & H H H & & H H & H H & H H H & w H H & w & & B B & & B B & w B B & w B B & w B B & w B B B B B 2 2 B B 2 2 B p p B B 2 p B B A A A A B B B 2 D D t t t t t t t t t t t t t t t t t t t t t t t t t t t t t t t t t t t t t t t t t t t t t t t t t t t t t t t t t t t t t t t t t t t t t t t t t t t t t t t t C C B B B 2 A A B 2 A A B 2 A A B 2 p p B B 2 p w w 2 2 w w B 2 w w 2 2 w w B B w w 2 B & w B B & w w w H H & H H H w w H H H & q q & & H & & w q q & & q q & & H & B B & w B B & w B B & w & & q > > > x x q q x x q > x x q > % % % % & & a a A A o o A a C C 9 9 9 9 d d d d F F 7 7 7 U U 7 7 U U 7 7 7 U U p 2 2 2 w & 5 5 5 5 % # 5 5 % # r r % % % % : > w & 2 p : : 5 5 & & % x & & w w w & w w & & > > & & & & w & & & q q & & & & & & ",
"q q > > > q > > & & q q & & & w w w E E > > > q & & w > w & & q & & 5 5 q > & & > > r r # % 5 5 r r 5 5 5 5 E * 5 5 & & 2 2 w i F F U 7 7 7 T T 7 7 T T T T 7 7 e d d d 9 9 9 9 f f a a C C a a o o H H % % % % : : w w q q q > & w B 2 2 2 w & & w & & w & > > w w H H w w q q & & q > & & q > & & & H w w & H & w H H & w & H w w H H B B & w B B & & B B w w 2 B w w 2 B w w B B w w B 2 2 B B 2 p B p p B B p p B 2 A A 2 2 A A B 2 A A C C t t t t t t t t t t t t t t t t t t t t t t t t t t t t t t t t t t t t t t t t t t t t t t t t t t t t t t t t t t t t t t t t t t t t t t t t t t t t t t t t D D H H A A A A A A 2 2 A A 2 2 2 p B B p p B B 2 2 w w 2 2 w w 2 2 w w 2 2 w w 2 2 w w 2 B w & 2 B & w w w H H w w H H w & q q & & q q w w H H w & q q & & H & B w w H H w & H w w & & B B w & & w & w H H w & q > x x > > x x x % r r w w 2 p a a A A C C C C 9 9 8 a b b e e W W U 7 7 U U 7 7 7 T T U 7 7 7 2 2 w & & & 5 5 r r 5 5 % % 5 5 # % r r : : x % w w 2 2 z > * * 2 2 % x 2 2 & & w & & 1 w w r r & & & & & w & & & & & & & & w & ",
"q q > > > q > > & & q q & & & w w w E E > > > q & & & w w w > > & & 5 5 > > w & > > r r % % 5 5 r r 5 5 5 5 * * 5 5 & & 2 2 i i F F U 7 7 7 T T 7 7 T T T T 7 7 d d d d 9 9 9 9 f f a a C C a a a o H H % % % % : : w w q q > > w w 2 2 2 2 w & w w H H w & > > w w H H w & q q & & q q & & q q & & H & w w H H & w H H w w & H w w & H B B & w B B & & 2 B w w 2 B w w B B & w B B & w B 2 2 B 2 2 B B p p B B 2 p B 2 A A 2 2 A A B B A A C C t t t t t t t t t t t t t t t t t t t t t t t t t t t t t t t t t t t t t t t t t t t t t t t t t t t t t t t t t t t t t t t t t t t t t t t t t t t t t t t t D D H H A A A A A A B 2 A A 2 2 p p B B p p B B p 2 w w 2 2 w w 2 2 w w 2 B w w 2 2 w w 2 B & w B B & & w & w H w w & H & & q > & & q q & w H H w & q q & & H H & w & H w w H H w & H & 2 B w & & w & w H & & H > > x x > > x x x x r r w w 2 p a a A A C C C C 9 9 8 a b b e e W W 7 U 7 7 U 7 7 7 T T U 7 7 7 2 2 w & & & 5 5 r r 5 5 x % 5 5 % % r r : : % x w w 2 B > > * * 2 2 % % 2 2 & w & & 1 w & & r r & & & & & & & & & & & & & & & & ",
"> > q q > > & & & & H & & & & & w & 5 5 x % & & > q & & & & & & > > 5 5 > > & w % % % % r r # % 5 5 r r 5 @ 5 5 5 5 w w & w 2 2 7 7 7 U 7 7 7 7 7 7 7 7 T T W W d d b b b b 9 9 o o o o a a C C a a & & % % : : > > p p w w 2 2 w w w w H H w & q q & & & & & & q q & w & & w & > q & & q q & & H H H & w & H w H H & w & H w B & w w w H H B B & w B B & w B B & w B B & w B B & w B B B B 2 p B 2 p p B B 2 p B B A A B 2 A A 2 p B B B B C C t t t t t t t t t t t t t t t t t t t t t t t t t t t t t t t t t t t t t t t t t t t t t t t t t t t t t t t t t t t t t t t t t t t t t t t t t t t t t t t t C C B B B 2 A A 2 2 A A B 2 A A 2 B p p B B p p B B 2 2 w w 2 2 w w B 2 w w 2 B w w B B & w B B & & 2 B w & w w H H w & H & & & q > & & H H & w & H w H H H w w & H w w & H & & & H & & H & w w q q H H q q & w 2 2 w & x x q > % % % x w w a a A A C C a a C C C 9 9 9 d d d d F F 7 7 U U 7 7 T T U 7 7 U F F 2 i 2 2 w & 5 r 5 5 # % # % % r r r % % % % : > & & 2 p : : 5 5 & & % % & H w w > q & & & & 5 5 % x w w & & w w w & & & q q & & ",
"q > q q > > & & & & H & & & & & & & 5 5 x % & & q q & & & & w & > > 5 5 > > & w % % % % r r # % 5 5 r r 5 @ @ 5 5 5 w w & w 2 2 7 7 7 U 7 7 7 7 7 7 7 U T T W W d d b b b b 9 9 o o o o a a C C a a & & % % : : : > p p w w w 2 w w w w H H & w q q & & & & & & q q & w H H w & q q & & q q w & & H & w H H & w & H w w H H B B & w w w H H B B & w B B & w B B w w 2 B w w B B w w 2 B B B 2 p B 2 p p B B p p B B A A 2 2 A A 2 p B B B B C C t t t t t t t t t t t t t t t t t t t t t t t t t t t t t t t t t t t t t t t t t t t t t t t t t t t t t t t t t t t t t t t t t t t t t t t t t t t t t t t t C C B B B B A A B 2 A A 2 2 A A 2 B p p B B 2 p B B p 2 w w 2 B w w 2 2 w w 2 2 w w B B w & 2 B w & B B & w w w w H H w & H & & q q & & H & B w H H & H H H w w & H w w H H w & H & & & & H & w q q & & q q w w 2 B w & x x q > % % x x w w a a a A C C a a C C 9 9 9 9 d d d d F F 7 7 7 U U 7 T T U 7 7 U F F 2 2 2 2 w & 5 r 5 5 # # % # % % r r % % % % : > & & 2 p : : 5 5 & & % x & & w w > > & & & & 5 5 x x w w w > w w w & & & > q & & ",
"& & q q & w & w & & w & & & q q & & * * x x q > & & w & & & q > & & 5 5 q > & & > > r r # % 5 5 r r 5 5 5 5 E * 5 5 & & 2 2 i i W W 7 U 7 7 T T 7 U U U 7 7 F F b b d d 9 9 9 9 f f a a C C a a o o H H x x % x > q i i i w H H q q > q & & x x H H q q & & H H w w H H w & q q & & q q & & H & w H H H & w & H w w H H B B & w B B & & w w H H B B & w B B & w B B w w B B & w B B B B 2 p B 2 2 2 B B p p B B 2 p B B A A 2 2 z z w w a a C C t t t t t t t t t t t t t t t t t t t t t t t t t t t t t t t t t t t t t t t t t t t t t t t t t t t t t t t t t t t t t t t t t t t t t t t t t t t t t t t t D D B B B 2 H H A A 2 2 A A 2 2 A A B B p p B B 2 p B B 2 p w w B 2 w w B 2 w w 2 2 w w 2 2 w w B B & w w w & & w & w H & w H H w & H H & w & H w w H H H & q q & & H H w w H H w & H H H & H H H H q q & & q q w w & w q q x x % x x % 2 2 p p C C A A C C C C 9 9 8 a b b e e W W T T U 7 7 7 U 7 7 U F F 7 7 p p p 2 w w 5 5 r r 5 5 % % % # # % % r > : % x w w p 2 > > * * 2 2 x % & w & & 1 & & & & & E E > > & & & & w & 2 2 w & & w > q ",
"& & q q & & w & & & & w & & q q & & * * x x q q & & & & & & q > & & 5 5 q > & & > > r r % % 5 5 r r 5 5 5 5 E * 5 5 & & 2 2 2 i W W U 7 7 7 T T 7 U U U 7 7 F F b b d d 9 9 f 9 f f a a C C a a o o H H x x % x > q i i i w & & q > q q & & x x H H q q & & H H w w H H & w q q & & q q & & & H & w H H & & H & w H H & B B & w B B & & w w H H B B & & B B w & B B & w B B & w B B B B 2 p B 2 2 2 2 B B p B B 2 p B 2 A A B 2 z z w w a a C C t t t t t t t t t t t t t t t t t t t t t t t t t t t t t t t t t t t t t t t t t t t t t t t t t t t t t t t t t t t t t t t t t t t t t t t t t t t t t t t t D D B B B 2 H H A A 2 2 A A 2 2 A A 2 B p p B B 2 p B B B 2 w w 2 B w w 2 2 w w 2 B w w 2 2 w w B B w & w w H H w & H & w w H H w & H & w w H H w & H H & & q > & & H H w w & H & & H H & H H H H H q q & & q > w w w & q q x x % x % % 2 2 p p C C A A C C C C 9 9 8 8 b b e e W W T T U 7 7 7 7 U 7 7 F F 7 7 p p 2 p w w 5 5 r r @ 5 % % % # # % % r : : x % w w 2 2 z > * * 2 2 x % & w & & & w & & & & E E > > & & w > w & 2 2 & & & & > q ",
"q q & & & w & & q q & & q q & & q q E E x % & & q q & & & & w & > > 5 5 > > w w x % % % r r % # 5 5 r r 5 @ 5 5 5 5 w w w w 2 B 7 7 7 U 7 7 7 7 7 7 7 U T T W W d d c c c c 9 9 a o o o a a o o A A w w x x : : x x 2 2 q q & & q > > q q > & & q > & & H H & & H & w H H & & & q > & & H H & w H H w & H H w w H H w & H & B B & w B B & w B B w w B 2 w w 2 2 w w 2 B w w B B w w B 2 2 B 2 2 2 B B p B B p p B B 2 p B 2 A A 2 p B B A A D D t t t t t t t t t t t t t t t t t t t t t t t t t t t t t t t t t t t t t t t t t t t t t t t t t t t t t t t t t t t t t t t t t t t t t t t t t t t t t t t t C C B B B B A A 2 2 A A 2 B A A B 2 p p B B p p B B B 2 p B 2 2 w w 2 B w w 2 2 w w 2 2 w w 2 B & & B B w & w w H H w & H & w w H H & w & H w w H H & & q > & & q q & w & & w & w H & w H H & w q q & & q > & & q q q q > q > > x % % x w w a a A A C C C 9 C C 9 9 9 9 d d d d W W U 7 7 7 7 7 7 7 U 7 7 7 W W 2 2 2 2 & & r r 5 5 # # # # # % r r % % % % : : & & p p : : 5 5 & & % % & & w w q q & & w & 5 5 % % & & q q & & q q & & & & 2 2 ",
"q q & & H & & & q q & & q q & & q q E E % % & & q q & & & & & & > > 5 5 > > & w % % % % r r # # 5 5 r r @ @ @ 5 5 5 w w w w 2 2 7 7 7 U U 7 7 7 7 7 7 7 T T W W d d c c c c C 9 o o o a a a o o A A w w x x : : x x 2 2 q q & & q > q q > q & & q > & & H H & w H H & w & H w H q q & & H & B w H H w w & H & w H H w & H H B B & w B B & w B B w w 2 2 w w 2 B w w 2 B w w B B w w 2 2 B B p 2 2 B B p B B p p B B 2 p B 2 A A 2 p B B A A D D t t t t t t t t t t t t t t t t t t t t t t t t t t t t t t t t t t t t t t t t t t t t t t t t t t t t t t t t t t t t t t t t t t t t t t t t t t t t t t t t C C B B B B A A 2 2 A A 2 2 A A B 2 p p B B 2 p B 2 2 2 B B 2 p w w 2 2 w w 2 2 w w B 2 w w 2 B & w B B & & w w w H H w & H & w w H & & H & w H H & & & q q w & q q & w & & & w & w H w H H w & q q & & q q & & q > q q q > > > x % x x w w a a A A C C C C 9 C 9 9 9 9 d d d d W W U 7 7 7 7 7 7 7 U 7 7 7 W W 2 2 2 2 & & r r @ 5 # # # # % % r r % % % % : : & & p p : : 5 5 & & % % & & w w q q & & & & 5 5 % % & & q q & & q q & w & & 2 2 ",
"w & q q & & q q & & q q & w q q & w * * % % z z & & w & & & > > & & 5 5 > > & & > > r r % % 5 5 r r 5 5 5 5 * * 5 5 & & 2 2 2 i W W 7 7 7 7 T T 7 7 U U 7 7 F F b b b b 9 9 9 9 f f a a C C a a A A w & q > x x q q 2 2 1 1 q q & & q > H H q > H H & H B B H H w & & H & w q q & w q q & & H & 2 B H H w w H H & w & H w B w w 2 B w & B B & w B B w w 2 2 w w B B B 2 2 2 B B B B B 2 2 2 2 B B 2 2 B B p B B p p B B A A p p A A w w B B C C t t t t t t t t t t t t t t t t t t t t t t t t t t t t t t t t t t t t t t t t t t t t t t t t t t t t t t t t t t t t t t t t t t t t t t t t t t t t t t t t D D B B A A A A A A B B 2 p B 2 p p B B 2 p B 2 2 2 B B B 2 w w B 2 w w 2 2 w w 2 2 B B 2 p w w 2 2 w w 2 2 w w w w H H w & H & w w H & & & H & w H H & B w H H w & H H w w H H w & H H w w H H & H q q > q > > > q q q > q x x % x % % 2 2 2 p C C a a C C C C 9 9 b b b b d d W W T T U 7 7 7 7 7 7 7 W W U U p p p 2 w w 5 5 r r 5 5 % % # # # % r r : : % % & w 2 2 q > * * 2 2 x % w w & & & & & w & & E E > > q q & & q q & & q q & & & & ",
"& & q q & & q q & w q q & & q q & & * * % % z > & & & & 1 & q > & & 5 5 > > & & q > r r % % 5 5 r r @ 5 5 5 * * 5 5 w & 2 2 2 i W W 7 U 7 7 T T 7 7 U U 7 7 F F b b b b 9 9 9 9 f f a a C C a a A A w & > > x x > q 2 2 1 1 q q & & q > H H q > H H & & B 2 & H w & H H & w q q & w q q & & H H B B H H w w H H & w & H w B w w B B w & B B & w B B w w 2 B w w B B B 2 2 2 B B B 2 B B 2 p B 2 2 2 B B p p B B 2 p B B A A p p A A w w B B C C t t t t t t t t t t t t t t t t t t t t t t t t t t t t t t t t t t t t t t t t t t t t t t t t t t t t t t t t t t t t t t t t t t t t t t t t t t t t t t t t D D B B A A A A A A 2 B p p B 2 2 p p B p p B B 2 p B 2 2 2 w w 2 2 w w B 2 w w 2 B B B B 2 w w 2 2 w w 2 2 w w w w H H w & H & w w H & & & & H & w H H & w H H w & H H w w H H & w & H & w H H & H q q q > q > > q q > q q x x x % x % 2 2 p p C C A A C C C C 9 9 b b b b d d W W T T U 7 7 7 7 7 7 7 W W U U p p p 2 w w 5 5 r r 5 5 # % % # # % r r : : % % & w 2 2 q > * * 2 2 x % w w & & & & & w & & E E > > q q & & q > & & q q & & & & ",
"> > & 1 > > & & q > & & q q & & q q * * % # & & q > & & & w 1 1 > q 5 5 > : i i % % % % r r % # 5 5 r r 5 @ @ 5 5 5 & w w w 2 2 F F F F T T , , T T 7 7 T T g g d d c c c c 9 9 9 C C 9 A A o o p p B B % % z z x x 2 p 1 1 1 1 J J E E q q > q & H H & q q & & & w w w H H & H H H H H H H & w & H w B w & & w & w B B w w B 2 w w 2 B w w 2 B w w 2 B w w B B w w 2 2 2 B B B w w 2 B B B 2 2 B B p 2 2 2 A A B 2 A A 2 B A A A A 2 B A A D D t t t t t t t t t t t t t t t t t t t t t t t t t t t t t t t t t t t t t t t t t t t t t t t t t t t t t t t t t t t t t t t t t t t t t t t t t t t t t t t t C C B B B B a a A A A A p p a A 2 2 A A 2 B p p B B 2 p B 2 2 2 w w 2 2 w w 2 2 w w 2 2 w w B 2 w w B 2 w w 2 B & w B B & w B B & H w w w H H w & H & w w H & & & H w w & H & & q q & & q q H H q q & H * * * E q q & w q q q > x x % x w w a o A a o o A a f f 9 9 9 9 d d b b W W 7 7 U 7 7 7 7 U W F 7 7 F F 2 2 2 2 & & % # 5 @ # # # % r % % # % % % % > : & & 2 2 : : 5 5 w & % % & & & & q > & & > > @ @ % % & & q q & & q q & & q q & & ",
"> q 1 1 > > & & q > & & q q 1 & > q * * % # & & q q & & & & 1 1 > > 5 5 > : i i % % % # % r # # 5 @ r r @ 5 5 5 5 5 w w w w 2 2 F F F F T T , , T T 7 7 T T g g d d c c c c 9 9 9 C C C a a o o p p B B % % z z x x p p 1 1 1 1 J J E E q q > q & H H H q q & & w & & w H H & H H H H H H H w w & H B B & w w w H & 2 B w w 2 B w w 2 B w w 2 B w w B B w w B B & w B 2 2 B B B w w B 2 2 B 2 2 B B 2 p B 2 A A 2 2 A A 2 2 A A A A 2 B A A D D t t t t t t t t t t t t t t t t t t t t t t t t t t t t t t t t t t t t t t t t t t t t t t t t t t t t t t t t t t t t t t t t t t t t t t t t t t t t t t t t C C B B B B a a a A A A p p A A 2 2 A A B B p p B B 2 p B B 2 2 w w 2 2 w w B 2 w w 2 2 w w 2 2 w w B 2 w w 2 B & w B B w w 2 B w & H w w H H w & H & w w H & & & H w w H H w & q q & & q > H & q q & H * * * E q q & w q q > q x x x % w w a o A A o o a a f f 9 9 9 9 d d b b W W 7 7 U 7 7 7 7 U W F 7 7 F F 2 2 2 i & & % # 5 @ # # # % r % # # # % % % : : & & 2 2 : : 5 5 & & % # & & & & > q 1 & > > 5 @ # % & & q q & & q q & & q q & & ",
"1 1 > > & & q > & & > q 1 & > q & & | | % % q q & w & 1 w w q > > > 5 @ > > & 1 > > # # # % 5 5 r r 5 5 5 5 * * 5 5 & & 2 2 2 2 W W 7 U F F T T 7 7 T T , , W W b b d d 9 9 9 9 9 f a a C C a a A a & w z > x x > > p 2 w & q q > > q q H H q > H H q > H & q q w & & w w w & H w w H H & w & H B B & w B B & w B B w w B B w w B B w w B 2 & w B B & w B B w w 2 B w w 2 B w w 2 2 B B 2 p B 2 p p B B p p B 2 A A B 2 A A A A o o B B A A C C t t t t t t t t t t t t t t t t t t t t t t t t t t t t t t t t t t t t t t t t t t t t t t t t t t t t t t t t t t t t t t t t t t t t t t t t t t t t t t t t D D B B p p p p A A A A A A B 2 A a 2 B p p B B p 2 B B B 2 2 B B 2 w w 2 B w w 2 2 w w 2 2 w w 2 2 w w 2 2 w w 2 2 w w 2 B w w B B & H w w H & & w & H w w & H & w H H & w & H w H H H & w q q & w w w x x r r w & & H & w x x q > % % 2 2 A A a a A A C C C C C 9 c b b c d d N N 7 7 U U 7 7 F F 7 7 F F F F 2 2 & w 2 2 5 5 5 5 5 5 % % # % r % r r % % % % & & p 2 q > @ @ i i # # w w & 1 1 & q q w & * * : : 1 1 & & q q & & q q & & q q ",
"& 1 > > & & q > & & > > 1 & q q 1 & | | % % q q & & & 1 w w q > > > 5 @ > > & 1 > : % # # % 5 5 r r 5 5 5 5 * * 5 5 & & p 2 i i W W 7 U F F T T 7 7 T T , , W W b b d d 9 9 9 f f f a a C C A A A A w w z > x x > > p 2 & & q > q > > q H H q > H & q q & & q q w & & w w & & H w w H & w w H H B B & & 2 B w & B B & w B B & w B B w w B B w & B B & w B B B w 2 B w w 2 B w w 2 2 B B B 2 p B 2 p B B 2 p B 2 A A 2 2 A A a A o o B B A A C C t t t t t t t t t t t t t t t t t t t t t t t t t t t t t t t t t t t t t t t t t t t t t t t t t t t t t t t t t t t t t t t t t t t t t t t t t t t t t t t t D D B B p p p p a a A A A A 2 2 A A p 2 p p B B p p B B B 2 B B 2 p w w 2 2 w w 2 B w w 2 2 w w 2 2 w w 2 B w w 2 2 w w 2 B w w 2 B w & H w & & w & w H & w H H w w & H & w H H H & H H H H q q & w & & x x r r w & & H & w x x > > x % 2 2 a a A A A A C C 9 C o 9 b b c c d d N N 7 7 U U 7 7 F F 7 7 F F F F 2 2 & w i i 5 5 5 5 5 5 % % # # # % r r # % % % & & p 2 > > 5 @ i i # # w w & 1 1 & q q & w * * : : 1 1 & & q q w & q q & & q q ",
"> > 1 1 > q & & q > & & q q 1 & q q * * % # & w q q & H & & 1 1 > > 5 5 > : i i % % # % r % # # 5 5 r r 5 @ @ 5 5 5 w & w w p 2 F F F F 7 7 F F 7 7 F F T T g g d d c c c c 9 9 9 C C 9 A A o o A a B B x x > > x x p p 1 1 1 1 1 & & H & w q q > > w & & H & w q q w w H H w & H & w w H & & w w & B B w & 2 B w & B B & w 2 2 & w B 2 & w B 2 w w 2 B w w B B w w 2 2 w w 2 B B B 2 2 2 B B 2 B B 2 p B 2 A A p p A A 2 p a A A A B 2 A A C C t t t t t t t t t t t t t t t t t t t t t t t t t t t t t t t t t t t t t t t t t t t t t t t t t t t t t t t t t t t t t t t t t t t t t t t t t t t t t t t t C C a a B B A A A A A A p p A A 2 p A A B 2 p p 2 2 p p 2 B i i w w 2 B w w 2 2 w w 2 2 w w B 2 w w 2 2 w w 2 B w w B B w w 2 B & w B B & & w w & & w & w H & w H H w w H H w & H & & & q q & & z z w w w w w w q q w w q q > > x x x x w w a o A a o o A a f f 9 9 9 9 b b c b W W U 7 7 7 F F 7 7 F F F F W W 2 2 2 i & & % # 5 5 % # # # % % # # # % % % : : & & 2 2 : : 5 5 & & % # & & & & > q & & q q 5 5 % % & & q q 1 & q q & & q q w & ",
"> > 1 1 > > w & > q & & > q 1 & q q * * % # w & q > & & & & 1 1 > > 5 5 > : i i % % # % r % # # 5 @ r r 5 @ 5 5 5 5 w w w w 2 2 F F F F 7 7 F F 7 7 F F T T g g d d c c c c 9 9 C C 9 C A A o o a A 2 B x x q > x x p p 1 1 1 1 & & & H & w q q > > H H & H H & q q w w H H w & H & w w H & & w w w 2 B & w B B & w B B w & B 2 w & B 2 & w B 2 w w B B w w B B w w 2 B w w B B B B 2 p B 2 2 2 B B p p B B A A p p a A p p A A A A 2 B A A C C t t t t t t t t t t t t t t t t t t t t t t t t t t t t t t t t t t t t t t t t t t t t t t t t t t t t t t t t t t t t t t t t t t t t t t t t t t t t t t t t C C a a B B A A A A A A 2 p a A p 2 A A 2 B p p 2 2 p p B B i i w w B 2 w w 2 2 w w B 2 w w 2 2 w w 2 2 w w 2 B & w B B w w B B w & 2 B w & w w w H H w & H & w w H & w H H w & H H & & q q H H z z w w w w w w q q & w q q q > x x x % w w a o A A o o a A f f 9 9 9 9 b b 8 b g W U U 7 7 F F 7 7 F F F F W W 2 2 2 2 & & % # 5 5 # # # # # % r % # % % % : : & & 2 2 : : 5 5 w & % % & & & & q > 1 & q q 5 @ % % & & q q & & q q & w q q & w ",
"1 1 > q w & > q & & > > 1 & > q & & | | % % q q & w & 1 w w q > > > 5 @ > > & 1 > > # # # % 5 5 r r 5 5 5 5 * * 5 5 & & 2 2 i i , , , , F F 7 7 F F 7 7 F F , , b b d d 9 9 9 f f f o a C C a a o o w w q > x x > > p 2 & & q q > q q > 1 & & q & & H H H & q q & w w & w w H H w w H H w & H & B B & w B 2 w & 2 B w & B B w w 2 B w w 2 B & w B B w w 2 B w w 2 2 w w 2 B B B 2 p B 2 2 2 B B p p B B 2 p B 2 A A p p a A p p a A B B A A C C t t t t t t t t t t t t t t t t t t t t t t t t t t t t t t t t t t t t t t t t t t t t t t t t t t t t t t t t t t t t t t t t t t t t t t t t t t t t t t t t D D B B p 2 2 B A A A A A A p p A A 2 p A A 2 B p p B B 2 p B B 2 2 w w 2 2 w w 2 2 w w 2 B w w 2 2 w w 2 2 w w 2 2 w w 2 B & w B B & w w w & & & w & w H w H H & w & H w w H H & & q q H H q > H H q > H & q q & & H H w & x x q > % % 2 2 A A o o A a C C 9 C C 9 c c c c d e g g 7 7 W W 7 7 F F 7 7 W W F F 2 2 2 2 2 i 5 5 % # 5 5 % % # # % % r r # % % % & w 2 2 q > @ @ i i % # w w & 1 1 1 q q & & E E : : 1 1 1 & q q & & q q & & q q ",
"1 & > > w & > > & H > > & 1 > q & & | | % % q q & 1 1 1 w w q > > > @ @ > > & 1 > > # # % % 5 5 r r 5 5 5 5 * * 5 5 & & 2 2 2 i , , , , F F 7 7 F F 7 7 F F , , b b d d 9 9 9 f f f A A C C A A o o w w q > x x q > 2 2 w & q q > q q q 1 & & q & w H H H H q q w w w & w w H H w w H H w & H H B B w w B B & w B B & w B B w w B B w w B B w w B B w w B B w & 2 2 w w 2 B B B 2 p B 2 2 2 B B p p B B p p B 2 A A 2 p A A p p A A B 2 A A C C t t t t t t t t t t t t t t t t t t t t t t t t t t t t t t t t t t t t t t t t t t t t t t t t t t t t t t t t t t t t t t t t t t t t t t t t t t t t t t t t D D B B p 2 2 2 A A a A a a p p A A 2 p A A B B 2 p B 2 2 2 B B p 2 w w 2 2 w w 2 2 w w B 2 w w 2 2 w w 2 2 w w 2 2 w w 2 B w w 2 B w & w w H H w & H & w w H & & w & & w & w H & w q q & & q > H H q > H & q q w & & & H & x x q > % % 2 2 a a o o A A C C C C 9 9 b c c c d d g g 7 7 W W 7 7 F F 7 7 W W F F 2 2 2 2 2 2 5 5 % # 5 5 # % # # # % r % # % % % & w 2 2 > > 5 @ i i % # w w 1 1 1 1 q q & & E E : : 1 1 & & q q & w q q & & q q ",
"> > & 1 > > w & > q & & q q 1 & q q * * # # w & q q & H & & & 1 > > 5 @ > > i i % % % % r r # # 5 5 r r @ 5 5 5 5 5 & w w w p 2 F F F F 7 7 F F 7 7 F F T T g g d d c c c c 9 9 9 C C C a a o o A A B 2 x x > > x x p p 1 1 1 1 > > w & q q & 1 H H & H q q & & w & w H & w H w H H w & H H w w H & 2 B w & B B w w B B w w 2 2 & w B B w w B B w w B B w & B B & w B 2 w w 2 2 B B B 2 p B 2 p B B p p B 2 A A p p A A 2 p A A z z B B B 2 D D t t t t t t t t t t t t t t t t t t t t t t t t t t t t t t t t t t t t t t t t t t t t t t t t t t t t t t t t t t t t t t t t t t t t t t t t t t t t t t t t C C a a B B 2 2 A A a o A a A A A A B 2 2 2 p p B 2 2 p p B 2 2 2 B B 2 w w B 2 w w 2 2 w w 2 2 w w 2 B w w 2 2 w w 2 2 w w 2 B & w B B & w B B & w w w H & w w H H w & H & w w H & & & q q & H q > H H > > q q q q & w q q > > x x x x w w a o A A o o a a f f 9 9 9 9 b b 8 8 W W , F 7 7 F F 7 7 F F F F W W 2 2 2 2 & & % # 5 5 % # # # # % r % # % % % : : & & 2 2 : : 5 5 & & % % & & & & > > & 1 q q 5 5 % % & & q q & & q q & & q q & & ",
"> > 1 1 > > w & > > & H > q & & q q * * % # w & q q & H & & 1 1 > > 5 5 : : i i % % % % r r % # 5 @ r r @ @ 5 5 5 5 w & w w 2 2 F F F F 7 7 F F 7 7 F F T T g g d d c c c c 9 9 C C C 9 A A o o A a B B x x > z x x 2 p 1 1 1 1 > > w & q q & 1 H H w & q q & & H & w w H H w & H & w w H & & w & & 2 B w & B B w w B B w w 2 2 w w 2 B w w B B w w 2 B w w 2 B w w 2 2 w w 2 B B B B 2 p B 2 p B B p p B 2 A A 2 p A A p p A A z z B B B B D D t t t t t t t t t t t t t t t t t t t t t t t t t t t t t t t t t t t t t t t t t t t t t t t t t t t t t t t t t t t t t t t t t t t t t t t t t t t t t t t t C C a a B B 2 2 A A o o A a A A A A 2 B 2 2 p p B 2 2 p B B p 2 B B 2 p w w 2 2 w w B 2 w w 2 2 w w 2 2 w w B 2 w w 2 2 w w 2 B & w B B & w B B & & w & w H & w H H w w H H w & H H & & q q H H q > H & q > > q q q w w q q > > x x x x w w o o A a o o A a f f 9 9 9 9 b b 8 b W W F F 7 7 F F U 7 F F F F W W 2 2 2 2 H & % # 5 5 # # # % r % # % % % % % : : & & p 2 > : 5 5 & & % # & & & & q > & & q q 5 5 % % & & q q & 1 q q & & q q & & ",
"1 1 > q & & q > & & > > & 1 q q & & | | % % > q & 1 1 1 w w q > > > @ @ > > & 1 > : # # # % 5 5 r r 5 5 5 5 * * 5 5 w & 2 2 2 i W W 7 7 F F 7 7 F F 7 7 F F W W b b d d 9 9 9 9 9 f a a C C a a A o w w q > x x > > 2 2 w & q q q > q > > q q q H H q q & & q > w w H H w & H H B B & w w w H H B B w w 2 B w & B B & w B B & w B B & w B B w w B B w & B B & w B 2 w w 2 B B B 2 2 B B 2 p B 2 p p B 2 A A 2 B A A A A A A A A A A B 2 A A C C t t t t t t t t t t t t t t t t t t t t t t t t t t t t t t t t t t t t t t t t t t t t t t t t t t t t t t t t t t t t t t t t t t t t t t t t t t t t t t t t D D B B A A 2 2 A A B 2 A A A A A A B 2 A A B 2 B p B 2 p p B B 2 p B B 2 2 w w 2 B w w 2 2 w w 2 2 w w 2 B w w 2 B w w 2 2 w w 2 B & & B B w & w w w H H w & H & w w H & w H H & w q q & w q > H H > > > q q > H H & H & & % x > > % % 2 2 A A o a a A C C C 9 9 9 b b c c d e N g 7 7 F F 7 7 F F 7 7 F F F F p p 2 2 2 i 5 5 # # 5 5 % % # # % % r r % # % % & w 2 2 > > 5 @ i i % # w w & 1 & & q q 1 & * * : : 1 1 & & q q & & q q & & q q ",
"1 1 > > & w > > & H > > & & > q & & | | % % q > & & & 1 w w > > > > @ @ > > & 1 > : # # # % 5 5 r r @ 5 5 5 * * 5 5 & & 2 2 2 2 W W 7 U F F 7 7 F F 7 7 F F W W b b d d 9 9 9 9 9 f A A C C A A o o w w q > x x > > p 2 & & q q > q > > q q q > H & q q & & q q w w & & w & w H B B H & & w H H B B & w B B & w B B w w B B & w B B & w B B & w B B & w B B & w B 2 w w 2 2 B B 2 2 B B p 2 B B 2 p B 2 A A 2 2 A A A A A A A A A A 2 B A A C C t t t t t t t t t t t t t t t t t t t t t t t t t t t t t t t t t t t t t t t t t t t t t t t t t t t t t t t t t t t t t t t t t t t t t t t t t t t t t t t t D D B B A A 2 2 A A 2 2 A A A A A A B 2 A A B 2 B p 2 2 p p B 2 2 p B B 2 p w w 2 2 w w 2 2 w w 2 2 w w B 2 w w 2 2 w w 2 2 w w 2 B w & 2 B w & w w & & w & w H & w H H w w H H & w q q & & > > H H > > q q > q & H H & & H x x q > % % 2 2 a a a A A a C C C C 9 9 8 b c c d d , g 7 7 F F 7 7 F F 7 7 F F F F p p p 2 i i 5 5 # # 5 5 # % # # # % r r % % % % & & 2 2 : > 5 @ i i % # w w q 1 & & q q 1 & * * : : 1 1 & & q q & & q q & & q q ",
"q > & 1 > : w & > > & H > q 1 & q q * * % # & & q q & & & & 1 1 > q 5 5 : : i i % # % % r r # # 5 @ r r @ @ @ 5 5 5 w w w w 2 2 F F F F 7 7 F F 7 7 F F T T g g d d c c c c 9 9 9 C C C a a C C a a B B x x > > x x p p 1 1 1 1 > > 1 1 > q & & q q & & H H & w & H w w H H & w H H B B & w w w H w B B w & B B & w B B w w 2 2 w w B B & w B B & w B B w w B B w w 2 B w w 2 2 B B 2 2 B B p 2 2 2 A A 2 B w w 2 B A A A A o o A a B B A A D D t t t t t t t t t t t t t t t t t t t t t t t t t t t t t t t t t t t t t t t t t t t t t t t t t t t t t t t t t t t t t t t t t t t t t t t t t t t t t t t t C C a a B B a a A A A A A A A A w w a o p p A A 2 B p p B 2 p p B B 2 p w w 2 B w w 2 2 w w 2 2 w w 2 B w w B 2 w w 2 2 w w 2 B w w 2 B w & B B & & w & w H & w H H w w H & & w w H H H q q & H q > H & q q & w q q & w q q > > x x x x w w a o A A C C o o u u C 9 9 9 b b b b W W U 7 7 7 U 7 7 7 F F 7 7 W W 2 2 2 2 & & % # 5 5 # % # # % % # % r % # % : : & & p 2 > : 5 5 & & % % & & & & > q 1 & > > @ @ % % & & q q & 1 q q & & q q & H ",
"> > & 1 > > & w > > & & q q & & q q * * % # & & q q & H & & & 1 > > 5 5 : : i i % % % % r r % # 5 5 r r 5 @ 5 5 5 5 w w w w 2 2 F F F F 7 7 F F 7 7 F F T T g g d d c c c c 9 9 C C 9 C A a C C A A B 2 x x > > x x 2 p 1 1 1 1 > > 1 1 > q & & q > & & H H & w H & & w & H w w H H B B & & w w w w B B & w B B & w B B w w 2 2 w & B B & w B B & w B B w w B B w w B 2 w w 2 2 B B 2 p B 2 p p B 2 A A B 2 w w 2 B A A A A o o A a B B A A D D t t t t t t t t t t t t t t t t t t t t t t t t t t t t t t t t t t t t t t t t t t t t t t t t t t t t t t t t t t t t t t t t t t t t t t t t t t t t t t t t C C a a B B a a a A A A A A A A w w a a p p a A B B p p B 2 p p B B p 2 w w B 2 w w 2 2 w w 2 2 w w 2 2 w w 2 2 w w B 2 w w 2 B w w 2 B w & B B & & & w & w H w H & & w & w H w w H H H q q & H q q & & q q & w > q & w q q > > x x x x w w o o A a C C a o u u C 9 9 9 b b b b W W U U 7 7 7 U 7 U W F 7 7 W W 2 2 2 i & & # # 5 5 # # # % r % # % % % % % : : & & 2 2 : > 5 5 & & % % & & & & q > & & > > @ @ # % & & q q 1 & q q & & q q & & ",
"1 1 > q w & > > & H > > & & q q & & * * % % z z & & & 1 & 1 > > > > @ @ > > & & : : % # # % 5 5 r r 5 @ 5 5 * * 5 5 & & p 2 i i W W 7 U F F 7 7 F F 7 7 F F W W c b d d 9 9 9 9 9 f A A C C a a A o w w q > x x > > 2 2 w & q q w w q q w w 1 1 1 & q q w & & H w w & H & w H H B B & w B B & w B B w w B B w w B B w w 2 B & w B B & w B B & w B B w w B B w w B 2 w w 2 2 B B 2 2 2 B B p B B A A B 2 w w q > 2 2 2 p C a a A A A H H A A C C t t t t t t t t t t t t t t t t t t t t t t t t t t t t t t t t t t t t t t t t t t t t t t t t t t t t t t t t t t t t t t t t t t t t t t t t t t t t t t t t D D B B p p A A C C A A A A B 2 z z B 2 A A p p p p B 2 p p B B 2 p B B 2 2 w w B 2 w w 2 2 w w 2 2 w w 2 2 w w 2 2 w w 2 2 w w B 2 w w B B & w w w & & w w H H w & H & w w H & & w & & & & q > & & q q & & q > & & H H & w x x q > % % 2 2 a a a a A A C C C C 9 9 b b c c d d g g 7 7 F F 7 7 F F 7 7 W W F F p p p 2 i i 5 5 # # 5 5 # % % # % r % r # % % % & & 2 2 q > @ @ w w # # w i & w & & & 1 1 & * * : : 1 1 & & q q & & q q & & q q ",
"1 1 > > w & > > & H > > 1 1 q q & & * * % % > > & & & 1 & 1 > > > > 5 @ > > & & : : % # % % 5 5 r r 5 5 5 5 * * 5 5 & & 2 2 i i W W 7 7 F F 7 7 F F 7 7 F F W W c b d d 9 9 9 9 f f a o C C a a A o w w q > x x q > 2 2 w & q q w w q q & w 1 1 1 & q q & & H & B w H H w w H H B B & & B B & w B B & w B B w w B B w w B 2 w w B B & w B B & w B B & w B B & w B 2 w w B 2 2 B 2 2 B B p p B 2 A A B B & w > > p 2 p p A A A A A A H H A A C C t t t t t t t t t t t t t t t t t t t t t t t t t t t t t t t t t t t t t t t t t t t t t t t t t t t t t t t t t t t t t t t t t t t t t t t t t t t t t t t t D D B B p p A A C C A A A A B 2 z z 2 2 A A p 2 p p 2 2 p p B 2 2 p B B B 2 w w 2 2 w w 2 2 w w 2 2 w w 2 2 w w 2 2 w w 2 2 w w B 2 w w B B & w w w H & w w w H H w & H & w w H & w H H H & q q w & q q w & q q & & H H w & x x q > % % 2 2 a a a a a A C C C 9 9 9 b b c c d d g g 7 7 F F 7 7 F F 7 7 W W F F p p 2 2 2 i 5 5 # # 5 5 # % # # # % r % # % % % & & p 2 > : 5 @ w w # # w i & & w & & 1 1 & * * : : 1 1 & & q q w & q q & & q q ",
"& 1 1 & & q & & 1 1 & & q > 1 1 > > E E % % & & 1 1 & & & 1 1 1 > > 5 5 : : & w % % % # % r % # 5 5 % # 5 5 5 5 5 5 w i i i i i F F F F T T F F 7 7 7 7 T T g g d d c b b b 9 9 o o o o a A 9 o p p B B z z > > z z a a q q & & q q w & & & w & w H & w H w B B & w B B & w B B & & B B w & B B w w 2 2 w & B B & w B 2 w w 2 2 w w B B w w B 2 w w B 2 w w 2 2 w w 2 2 B B 2 p B 2 A A 2 2 A A p p A A p p o o p p A A 2 B & & B B A A A A D D t t t t t t t t t t t t t t t t t t t t t t t t t t t t t t t t t t t t t t t t t t t t t t t t t t t t t t t t t t t t t t t t t t t t t t t t t t t t t t t t D D A A A A B 2 B B A A A A A A A A A A 2 2 A A B 2 p p B 2 p p B B p 2 B B B 2 w w 2 2 w w B 2 & w B 2 w w B 2 w w 2 2 & w B 2 w w 2 B w w 2 B w & B B & & w w H H w & H & w w H & & w & & & & q q w & q q & & q > w w q q > > x x q > w w A A A A C C a o u u C 9 o 9 b b b b W W 7 U 7 7 U U U 7 F F 7 7 W W 2 2 2 p & & % # 5 5 % % % % % % # % r % # % : : & & 2 2 : : 5 5 & & % # & w w w 1 1 & & q q 5 5 % % & & q q 1 & q q & w q q & & ",
"1 1 & & q > & w & 1 1 & & q 1 & > > E E % % & & & 1 & & & 1 1 1 > > 5 @ > > & w % % % % r r # # 5 5 % # 5 5 5 5 5 5 w i i i 2 2 F F F F T T F F 7 7 7 7 T T g g d d c b b b 9 9 9 o o o A a o o p p B B z z z > z z a a q q & & q q w & & & & w & H w w H H B B & & B B w & B B & & B B w & B B w w 2 2 & w B B w w 2 2 w w 2 2 w w B B & w B B & w B 2 w w 2 2 w w 2 2 B B 2 2 B B A A 2 2 A A p p A A p p a o p p a a B B & w B B A A A A D D t t t t t t t t t t t t t t t t t t t t t t t t t t t t t t t t t t t t t t t t t t t t t t t t t t t t t t t t t t t t t t t t t t t t t t t t t t t t t t t t D D A A A A B 2 B B A A A A A A A A A A p 2 A A 2 B p p 2 2 p p B 2 2 p B B 2 2 w w 2 2 w w B 2 & w 2 B w w B B w w 2 2 & w B 2 w w 2 B w & B B & & B B & w w w & & w w w H H w & H & w w H & & q q & & q q w & q q w w q q q > x x > > w w A A A A C C a o u u 9 9 o 9 b b b b W W 7 U 7 7 U U 7 7 F F 7 7 W W 2 2 2 p & & % # 5 5 % % % % % % # # # % % % : : & & 2 2 : : 5 5 & & % % & & w w 1 1 & & q q 5 5 # % & & q q & & q q & w q q w & ",
"& & > > w & 1 1 & w > > & & 1 1 1 1 * * % % q q & & H & & 1 > > > > * * > > & 1 > > # # % % 5 5 % # 5 5 5 5 @ @ % # 1 & 2 2 2 i W W 7 7 F F T T F F T T F F W W b b d d 9 9 9 9 9 f 8 a C C A A A A w & q > x x > > 2 p 1 & q q r r 5 5 & & q > w w & & w & w w B B w & B B & & B B w & B B & & 2 B w & 2 2 w w 2 2 w w B 2 w w 2 B w w B 2 w w 2 2 w w 2 2 w w 2 2 B B 2 p B 2 p p x x 2 2 2 2 C C a a p p p p A A H H A A A A A A A A D D t t t t t t t t t t t t t t t t t t t t t t t t t t t t t t t t t t t t t t t t t t t t t t t t t t t t t t t t t t t t t t t t t t t t t t t t t t t t t t t t t t D D C C 9 C A a B B & H B B B B A A A A A A A A 2 p B B & & B 2 2 p p B 2 2 B B 2 p w w 2 2 w w 2 2 w w 2 B w w 2 2 w w 2 2 w w B B & w B B & w B B & & 2 B w & w w & & & w & w H w H & & & q > & & q q q > 5 5 w w H H w & x x q > % x p 2 2 p o o A a C C C C o 9 c b c c d d W W T T 7 7 7 7 F F 7 7 F F F F p p 2 2 2 2 r r % # # # : : % # % % # % x x % % & & w w > > 5 @ w w % # w i & & 1 & & 1 1 & E E : : 1 1 & & q q & w > > & & > > ",
"w & > > & w 1 1 & w > > & & 1 1 1 1 * * % % q q & & H & & 1 > > > > * * > > & 1 > : # # % % 5 5 # # 5 5 5 5 5 @ # % & & 2 2 2 i W W 7 7 F F T T F F T T F F W W b b d d 9 9 9 9 f f A A C C A A A A w & > > x x > q p p 1 & q q r r 5 5 w & q q w & & H w w w w B B & w B B & w B B & w B B & & B 2 w w 2 B w w 2 2 w w 2 2 w w 2 B w w B B & w B 2 w w 2 B w w 2 2 B B 2 2 2 B B p x x 2 2 2 2 C C a a p p p p A A H H A A A A A A A A D D t t t t t t t t t t t t t t t t t t t t t t t t t t t t t t t t t t t t t t t t t t t t t t t t t t t t t t t t t t t t t t t t t t t t t t t t t t t t t t t t t t D D C C 9 C A a B B & H B B B B A A A A A A A A p p B B & & 2 B p p B B 2 p B B 2 2 w w 2 2 w w 2 2 w w B 2 w w B 2 w w 2 2 w w B B & w B B & w B B & w B B & & & w & w H w H & & w H H w & q q & & q q q > 5 5 w & & & H & x x > > % x p 2 p p o o A a C C C 9 o 9 c b c c d d W W T T 7 7 7 U W F 7 7 F F F F 2 p p 2 i 2 r r % # # # : : % # % % % # % x % % & & & w > > 5 @ w w % # w i & & & & 1 1 & & E E : : 1 1 & & q q & w > : & & > > ",
"q q & & q q & & q q & & q q 1 & q > E E % % & & 1 1 1 & 1 1 1 1 > q 5 5 : : & w % % # % r % # # 5 5 % # 5 5 5 5 @ 5 w i i i 2 2 F F F F 7 7 F F 7 7 F F 7 7 g g d d b b b b 9 9 o o C C a a C C p p B B z z > z z z a a q q & & n n > > q q w w H H w & H & B B & w B B & w B B & w B B & w B 2 w w 2 2 w w 2 2 w w 2 2 w w 2 B w w B B w w 2 B w w B 2 w w 2 2 w w 2 2 B B 2 p B 2 > > B B A A A A C C a a B B H H A A A A A A A A t t t t t t t t t t t t t t t t t t t t t t t t t t t t t t t t t t t t t t t t t t t t t t t t t t t t t t t t t t t t t t t t t t t t t t t t t t t t t t t t t t t t t t t t t t D D C C a a A a B B B 2 B B A A A A A A 2 2 & & % x A A B 2 p p B B B 2 p B 2 2 w w B 2 w w 2 2 w w 2 B w & 2 2 w w B 2 w w B B w w B B w & B B & & B B w & B B & & w w H H w & H & & & q q & & r r E E & & & w > q q q x x > > w w a a a A C C o A f f 9 9 9 9 b b b b W W 7 U 7 7 U 7 7 U W F 7 7 F W 2 2 2 p & & % # 5 5 % % % % # % r % # % % % : : & & 2 2 : > 5 5 w & % % & & w w 1 1 & & q q 5 5 % % & & q q & & > : 1 1 > > & 1 ",
"q q & & q q & w q q & & q q 1 & > > E E % % & & 1 1 & & & 1 & 1 > > 5 5 > : i w % % % % r r % # 5 5 % # 5 5 5 5 @ 5 i i i 2 2 2 F F F F 7 7 F F 7 7 F F 7 7 g g d d b b b b 9 9 o o C C a a C C p p B B z z z > z z a a q q & & n n > > q q w w H H w & H H B B & w B B & w B B & w B B & w B B & w B 2 w w B 2 w w 2 2 w w 2 2 w w 2 B & w B 2 w w 2 2 w w 2 B w w 2 2 B B 2 2 B B > > B B A A A A C C a a B B H H A A A A A A A A t t t t t t t t t t t t t t t t t t t t t t t t t t t t t t t t t t t t t t t t t t t t t t t t t t t t t t t t t t t t t t t t t t t t t t t t t t t t t t t t t t t t t t t t t t D D C C a a A A 2 B B B B 2 A A A A A A B 2 & & % x A A 2 B p p B B p 2 B B 2 2 w w 2 2 w w B 2 w w 2 B & w 2 B w w B 2 w w B B & w B B & w B B & & B B & w B B & & w w w H H w & H & & q q & & r r E E & & & w q q q > x x > > w w a a a a C C o a f f C 9 9 9 8 b b b W W 7 U 7 7 7 7 7 7 F F 7 7 W W 2 2 2 p & & % # 5 5 % % % % % % % # # % % % : : & & 2 2 : : 5 5 & & % % & & w w 1 1 & & q q 5 5 # % & & q q & & > > 1 1 > > 1 1 ",
"& & > > & & q q & & > > w & q q & & * * % % 1 1 & & 1 & & & q > > > * * > > & 1 > > # # % % 5 5 % # 5 5 5 5 @ 5 # # & 1 2 2 2 i g g , , F F 7 7 F F 7 7 F F F , b b e d 9 9 9 9 f f o a C C A a A A w w q q x x q > 2 p 1 & q q 8 8 i i w & w w w w H & & w w w 2 B w & B B & & B B & w B B & & 2 2 w w 2 2 w w B 2 w w 2 2 w w 2 B w w B B w w 2 B w w 2 2 w w 2 B B B B 2 p B 2 p A A A A B 2 A A H H H & A A A A A A o o t t t t t t t t t t t t t t t t t t t t t t t t t t t t t t t t t t t t t t t t t t t t t t t t t t t t t t t t t t t t t t t t t t t t t t t t t t t t t t t t t t t t t t t t t t t t t t t t t t D D A A A A 2 B B B B 2 A A A A A A o a a o 2 2 p p B 2 2 p B B 2 2 2 B B 2 w w 2 2 w w 2 B & w B 2 w w 2 2 w w 2 2 w w 2 B & w B B & w B B & w B B & w B B & w w w H & w w H H & w & H w w H w w w & w & & > > > > x x 2 2 p p a a A A C C C C C 9 b b c c d e g g 7 7 7 U 7 7 F F 7 7 W W F F p p 2 i 2 2 r r # # # # : : % # % % % # % x % % & & 2 2 > > 5 @ w w # # w i & & & & & 1 & & E E x x > q & & q q 1 & > > & 1 > > ",
"w & > > & w q q & & > > w & q q & & * * % % 1 1 & & 1 & 1 & q > > > * * > > & 1 > : # # % % 5 5 # # 5 5 5 5 5 @ # # & 1 2 2 2 2 g g , , F F 7 7 F F 7 7 F F F , b b d d 9 9 9 9 f f A A C C a A a a w w q > x x > > p p 1 & q q 8 8 i i i w & w w w H H w & w w 2 B w & B B & & B B & & B B w & B 2 w w 2 2 w w 2 2 w w 2 B w w 2 B w w B B w w 2 B w w 2 2 w w 2 2 B B 2 2 B B p p A A A A B 2 A A H H & H A A A A A A o o t t t t t t t t t t t t t t t t t t t t t t t t t t t t t t t t t t t t t t t t t t t t t t t t t t t t t t t t t t t t t t t t t t t t t t t t t t t t t t t t t t t t t t t t t t t t t t t t t t D D A A A A 2 B B B B B A A A A A o a a a o 2 2 2 p p 2 2 p p B 2 2 B B B 2 w w 2 2 w w B B w & B 2 w w 2 2 w w 2 2 w w 2 B w w B B w & B B & & 2 B w & B B w & & w & w H w H & & w H H & w w w w w & w & & > > > > x x p 2 p p a A A A C C C C 9 9 b b c c d d g g 7 7 7 U 7 7 F F 7 7 W W F F p p p 2 i 2 r r % # # # : : % # % % # # % x x % & & p 2 > : 5 @ w w % # w i & & 1 & 1 1 1 & E E % x q q & w q q 1 & > > & 1 > > ",
"q q 1 1 > > & & q q 1 1 z > & & q q * * % % & & 1 1 i i 1 & & 1 > > 5 @ > > i i % # % % % # # # 5 5 # % 5 5 5 5 5 5 2 2 2 i p p F F F F 7 7 F F 7 7 F F U 7 g g d d b b b b 9 9 o o C C a a C C a a 2 2 z > > z > > a a & & w & > q & & 1 1 1 & & H & w H H B B & w B B & w B B & & B B & w B 2 w w 2 2 w w B 2 w w 2 2 w w 2 p & w B 2 w w B 2 2 2 2 B & & z z B B 2 2 B B p 2 B B A A 2 p B B q q A A A A A A A A t t t t t t t t t t t t t t t t t t t t t t t t t t t t t t t t t t t t t t t t t t t t t t t t t t t t t t t t t t t t t t t t t t t t t t t t t t t t t t t t t t t t t t t t t t t t t t t t t t t t t t t t t t C C 9 C B B A A H H & H 2 2 A A p p A A 2 B p p B 2 p p > > p 2 2 2 p p w w 2 B w w B B w w 2 B w w 2 2 w w 2 2 w w 2 2 w w 2 B & w B B & & B B w & B B & & w w H H w & H H & & & w w & & & w w q q > q > > q > w w a o A A C C a a f f C 9 9 9 8 8 b b W W 7 7 7 U 7 7 7 7 F F F F W W 2 2 2 p & & % % 5 5 # % % % % % # # # % % % z > & & 2 2 : : 5 5 w & % % & & w w 1 1 & & q q 5 5 % % & & q > w & > > 1 & > > & 1 ",
"q q 1 1 > z & & q q j 1 z > & H q q * * % % & & 1 1 i i & 1 & 1 > > 5 5 > : i i % % % % % # # # 5 5 # % 5 5 5 5 5 5 2 2 2 i p p F F F F 7 7 F F 7 7 F F 7 7 g g d d b b b b 9 9 o o C C a a C C A A B 2 z > > z > > a a & & & H > q & w & 1 1 & H H & w & H w B w & B B & w B B & w B B w w B B w w B 2 w w 2 B w w 2 2 w w B 2 & w B 2 w w 2 2 B 2 2 B & & z z B B 2 2 2 B B p B B A A 2 p B B > q A A A A A A A A t t t t t t t t t t t t t t t t t t t t t t t t t t t t t t t t t t t t t t t t t t t t t t t t t t t t t t t t t t t t t t t t t t t t t t t t t t t t t t t t t t t t t t t t t t t t t t t t t t t t t t t t t t C C 9 C B B A A H H & H 2 2 A A 2 p A A 2 B p p 2 2 p p > > p 2 2 2 2 p w w 2 B w w B B w w 2 B w w 2 2 w w 2 2 w w 2 B & w B B H H B B & w B B & w B B & & w w H H w & H & & & & w w & & & w w q q q > q > > q w w a o A A C C a a f f C 9 9 9 b b b b W W 7 7 7 U 7 7 7 7 F F F F W W 2 2 2 p & & % # 5 5 % % % % % % # % r % # % > > & H 2 2 : : 5 5 & & % # & & w w 1 1 & & q q 5 5 # % & & > > & w > : 1 1 > > & 1 ",
"w & q > & w q q & & q > & & q q & 1 * * % % 1 1 & & & & w w > > > q E E > > & & > > # # # % 5 5 # # 5 5 r r 5 @ # # & 1 2 2 2 2 F F T T , , T T 7 7 T T F , , F b b d d 9 9 9 9 f f o o u C a a A o w w q q > > H H p p w w H H & w q q & w 1 1 & w w H H w & w B B & w B B & w B B w w B B w & 2 B w & 2 2 w w 2 2 w w 2 2 w w 2 B w w 2 2 w w 2 2 2 2 w & x y A A B 2 p p 2 2 A A B B H H B B A A A A A A C C t t t t t t t t t t t t t t t t t t t t t t t t t t t t t t t t t t t t t t t t t t t t t t t t t t t t t t t t t t t t t t t t t t t t t t t t t t t t t t t t t t t t t t t t t t t t t t t t t t t t t t t t t t t t t t D D D D B B A A B B & w w w p p p p a A p 2 p p B 2 % % w w 2 p 2 B i i w w 2 2 w w 2 2 w w B 2 w w 2 2 w w B 2 w w B B & w B B H H B B & w B B & w B B & w w w H H w & H & & & & & w w & & H H > > q q x x 2 2 a a o o A A C C C C 9 9 c c c c d d W W T T 7 7 7 7 F F 7 7 F F F F p p 2 2 2 2 r r % # # # : : % # % % # # : : % % & w 2 2 > > @ @ w w # # w i & & & & & 1 & & E E x x q > & 1 > > 1 1 z > 1 1 q > ",
"& w > > H H q q & & q > & & q q & & * | % % 1 1 & & & & & w > > q q E E > > & & q > # # # % 5 5 # # 5 @ r r @ @ # # & 1 2 2 2 2 , F T T , , T T 7 7 T T , , F F b b d d 9 9 9 9 f f o o u C A A o o w w q q > z H H p p w w H H w & q q & & & 1 1 w w H H w & w B B & w B B & w B B & w B B & & 2 2 w w 2 2 w w B 2 w w 2 2 w w 2 2 w w 2 2 w w B 2 2 2 w & x y A A B 2 p p 2 2 A A 2 B H H B B A A A A A A C C t t t t t t t t t t t t t t t t t t t t t t t t t t t t t t t t t t t t t t t t t t t t t t t t t t t t t t t t t t t t t t t t t t t t t t t t t t t t t t t t t t t t t t t t t t t t t t t t t t t t t t t t t t t t t t D D D D B B A A B B & w w w p p p p A A B 2 p p 2 2 % % w w p p B 2 B 2 w w 2 2 w w 2 2 w w 2 B w w 2 2 w w 2 2 w w B B & w B B H H B B & w B B & w B B & & w w H H w & H H & & & & w w w & H H > > > q x x 2 2 a a a o o A C C C C 0 9 c c b c d d W W T T 7 7 7 7 F F 7 7 F F F F p p 2 i 2 2 r r % # # # : : # # # % % # : : % # & & p 2 > : 5 @ & w % # w i & & & & 1 1 & & E E x x > q & 1 > > 1 1 > z 1 1 > > ",
"z z 1 1 > z & & > > & 1 z > & & q q * * % % & & 1 1 i i & 1 & 1 > > 5 5 : : i i % # % % # # # % 5 5 # % 5 5 5 5 5 5 2 2 2 i p p F F F F T T 7 7 T T 7 7 T T , , d d b b b b 9 9 9 o f f A A C C A A 2 2 > > q q > > a a & w & & q > w w & 1 w w H H w & H & 2 2 w & B B & w B B & w B B w w B B w w B 2 w w B 2 w w 2 2 w w 2 2 w w 2 2 w w B 2 2 2 p p B B a a B 2 2 p w w B 2 w & & w 2 2 p p a A C C t t t t t t t t t t t t t t t t t t t t t t t t t t t t t t t t t t t t t t t t t t t t t t t t t t t t t t t t t t t t t t t t t t t t t t t t t t t t t t t t t t t t t t t t t t t t t t t t t t t t t t t t t t t t t t t t t t t t t t D D C C a a 2 2 2 B & & w w 2 B B p p p a A A A 2 2 2 B B 2 w w 2 2 w w 2 B w w B 2 w w 2 2 w w 2 2 w w 2 2 w w 2 B w w 2 B & w B B & & B B w & B B & & w w w & w & & w H H & & w w q q q q > q > > w w a o A A C C a o u u C 9 o 9 b b b c F F 7 7 T T 7 7 T T 7 7 7 7 F F 2 2 2 p & & % # 5 5 % % # % x % % % % % % % > > & H 2 2 : : 5 5 w & % % & & w w 1 1 & & q q 5 5 y y & & q > & 1 > : & 1 q > 1 1 ",
"q > 1 1 q > & & > > 1 1 z > & & q q * * % % & & 1 1 i i & 1 & 1 > > 5 5 : : i i % % # % r % # # 5 5 # % 5 5 5 5 5 5 2 2 2 i p p F F F F T T 7 7 T T 7 7 T T , , d d b b b b 9 9 o o f f A A C C A A 2 2 > > > q q > a a & & & & q > w w & 1 w w H H w & H & 2 2 w & B B & w B B & w B B w w B B w w B 2 w w 2 2 w w 2 2 w w B 2 w w 2 2 w w 2 2 2 p p B 2 B A A 2 2 2 p w w 2 2 w & w w B 2 2 p a A C C t t t t t t t t t t t t t t t t t t t t t t t t t t t t t t t t t t t t t t t t t t t t t t t t t t t t t t t t t t t t t t t t t t t t t t t t t t t t t t t t t t t t t t t t t t t t t t t t t t t t t t t t t t t t t t t t t t t t t t D D C C A A B 2 2 2 w & w w B B 2 p p p A A A A 2 2 B 2 B B & w B 2 w w B B & w B 2 w w 2 2 w w 2 2 w w 2 2 w w 2 B w w B 2 w w B B & & B B w & B B & & w w w & w w w & H H & & w w q q q q q > > > w w o o A a C C o o u C C 9 o 9 b b b c F F 7 7 T T 7 7 T T 7 7 7 7 F F 2 2 2 p & & % % 5 5 # % % % # % x % % % % % z z & & 2 2 : : 5 5 & & % # & w w w 1 1 1 & q q 5 5 % % H & > q 1 & > > 1 1 > z 1 1 ",
"w & > q 1 1 z > H & > > j 1 z > 1 & * * % % 1 1 & & & & i i > > q q E E > > & & q > # # # % 5 5 # # 5 5 r r 5 5 % % & w 2 2 2 2 W W 7 7 F F T T F F T T F F W W b b d d 9 9 C 9 9 f o o u C a a A o w B & H > > H H p p w w H H w & H & & & 1 1 & w w w 2 p & w B B & & 2 B w & B B w w B B & w B 2 w w 2 2 w w 2 2 w w 2 2 w w B 2 w w 2 2 w w 2 2 p p B 2 2 2 p p w w w w H H B 2 2 p p B 2 2 t t t t t t t t t t t t t t t t t t t t t t t t t t t t t t t t t t t t t t t t t t t t t t t t t t t t t t t t t t t t t t t t t t t t t t t t t t t t t t t t t t t t t t t t t t t t t t t t t t t t t t t t t t t t t t t t t t t t t t t t t t t t t t D D A A 2 2 B 2 w w 2 B w w 2 2 B 2 2 p w w 2 p B B p 2 w w 2 2 w w 2 2 w w B 2 w w 2 2 w w 2 2 w w 2 B w w 2 B w w B B w w B B H & 2 B w & B B w & w w w & w w & & w w & & w & q > q q x x p 2 a a o o A A C C C C 9 9 b c c c d d W W T T 7 7 T T 7 7 7 U W F 7 7 p p 2 i 2 2 r r # # # # : : % # % % # # : : x x & w 2 2 > > 5 @ w i # # 2 B w & w w & w & & * * : : & 1 1 & > > 1 1 z > 1 1 q > ",
"& & > > 1 1 > > H H > q & 1 z > 1 & * * % % 1 1 & w & 1 2 2 > > q q E E > > & & > > # # # % 5 5 # # 5 5 r r 5 5 % % & & 2 2 2 i W W 7 7 F F T T F F T T F F W W b b d d 9 9 9 9 f f o o u C A A o o B B & H > > H H p p w w H H w w & H & & 1 1 & w w w B 2 w & B B & w B B & w B B & w B B & w B 2 w w 2 2 w w 2 2 w w 2 B w w 2 2 w w 2 B w w 2 2 p p B 2 2 2 2 p w w w w H H B 2 2 p p B 2 2 t t t t t t t t t t t t t t t t t t t t t t t t t t t t t t t t t t t t t t t t t t t t t t t t t t t t t t t t t t t t t t t t t t t t t t t t t t t t t t t t t t t t t t t t t t t t t t t t t t t t t t t t t t t t t t t t t t t t t t t t t t t t t t D D A A 2 2 2 p w w 2 B & w B 2 2 2 B 2 w w p p B B 2 p w w B 2 w w 2 2 w w 2 2 w w 2 2 w w 2 2 w w B 2 & w B B & w B B w & B B & & B B w & B B & & w w & w & & w w & & & w w & > > q q x x p 2 a a a o o A C C 9 C 9 9 b c c c d d W W T T 7 7 T T 7 7 7 7 F F 7 7 p p 2 i 2 2 r r # # # % : : % # % % # # : : x x w w p 2 > > 5 @ w i # # 2 B w & w w & & 1 & * * : : & 1 & w > : & 1 > > 1 1 > > ",
"> q 1 1 q > w & q q & w 1 1 & & q q * * # # & w 1 1 i i & & & & q > 5 @ > > i i % % % x # # # % 5 5 # % 5 5 5 5 r r B 2 2 2 i p F F F F T T F F 7 7 , , T T , , d d c c 9 9 9 C C C C C a a C C A A 2 2 > > q q > > a a & & & & & H & w 1 1 i i w & w w & & B B w & B B w w 2 B w w B B w w 2 B w w B B & w B B & w B 2 B B B 2 E E & & B B B 2 B B A A B 2 p p H H & H B B A A A A A A t t t t t t t t t t t t t t t t t t t t t t t t t t t t t t t t t t t t t t t t t t t t t t t t t t t t t t t t t t t t t t t t t t t t t t t t t t t t t t t t t t t t t t t t t t t t t t t t t t t t t t t t t t t t t t t t t t t t t t t t t t t t t t t t t t t t D D D D A A A A B 2 B B & w B B B 2 2 B 2 2 2 p w w 2 B x x q q 2 B B 2 p B 2 2 B 2 B 2 w w B B w w 2 B w w 2 2 w w 2 2 w w 2 2 w w 2 B w & B B & & w w H H w & H H w w H & q q > q > > w w a o A A C C a o u u 9 9 C 9 b b 8 b W W F F 7 7 F F 7 7 F F F F W W 2 2 2 p i i % % % # # % % % % % # % x % % % > > & H 2 p : > 5 5 & & % % & & i i & & & & 1 1 5 @ % % & & q q & & > q w & q > & & ",
"> > 1 1 > z & w q q & & 1 1 1 & q q * * % # 1 1 q 1 i i w & & & > > 5 @ > > i i % % % x # # # % 5 5 # % 5 5 5 5 r r 2 2 2 i p 2 F F F F T T F F 7 7 , , T T , , d d c c 9 9 9 C C C C C a a C C A A B 2 z > q q > > a a & w & & & H & w 1 1 w i & & w & w H w B & w B B & w B B & w B B & w B B w w 2 B w w B B w w 2 2 B B B 2 E E H H B B B B B 2 A A 2 2 p p H H & H B B A A A A A A t t t t t t t t t t t t t t t t t t t t t t t t t t t t t t t t t t t t t t t t t t t t t t t t t t t t t t t t t t t t t t t t t t t t t t t t t t t t t t t t t t t t t t t t t t t t t t t t t t t t t t t t t t t t t t t t t t t t t t t t t t t t t t t t t t t t D D D D A A A A B 2 B B w w 2 B B 2 2 B 2 2 2 2 w w 2 B x x q q 2 B 2 2 B B 2 2 2 B B 2 w w B B w w B 2 w w 2 B w w 2 B w w 2 2 w w 2 B w & B B & & w w H H & w & H w w H H q q > q > > w w o o A a C C o o u u C 9 9 9 b b b b W W F F 7 7 F F U 7 F F F , W W 2 2 2 p i i % % % # % % # % x % % % % % % % : > & & p p q > 5 5 & & % % & & i i & & & & 1 1 5 @ % % & & q q & & > > & & q > & & ",
"1 1 > > & w > > & & q q & w 1 1 & 1 * * % % > q & & & & w i > q & 1 @ @ > q 1 & > > % % # % r % # % 5 5 r r 5 5 % % & w 2 p 2 2 , , F , , F , , F F 7 7 F F F F b b b b 9 9 9 9 f f A A C C a a o o w B & H > > H H p p w w H H w & H H w w H & w w H H B B & & B B & w B B & w B B & w B B & w B 2 w w B 2 w w B B w B B 2 p B & & a A 2 p B 2 2 p p B & & q > 2 2 B 2 A A B 2 D D t t t t t t t t t t t t t t t t t t t t t t t t t t t t t t t t t t t t t t t t t t t t t t t t t t t t t t t t t t t t t t t t t t t t t t t t t t t t t t t t t t t t t t t t t t t t t t t t t t t t t t t t t t t t t t t t t t t t t t t t t t t t t t t t t t t t t t t t t t t t C C a a B B B B & H w w H H p p B 2 2 2 B B A A H H B 2 2 B B 2 B B B 2 p B 2 2 w w 2 2 w w 2 2 w w B 2 w w 2 2 w w 2 B & w B B & w B B & w B B & w w w H H w & > > > q q > 2 2 A A C C a a C C C C 9 9 C 9 c c 8 8 g g 7 7 F F 7 7 F F , , F F F F p p 2 2 2 2 # # # % % # : : % # % x x % > : % x w w 2 2 1 1 @ @ w & r r w i 1 & w w w & & & * * : : 1 1 & & q q & & q > H H > > ",
"1 1 q > & w > > & & q q & 1 & 1 1 & * * % % q > & & & & i i q q & 1 @ @ > q 1 & > > % % % # % r % # 5 5 r r 5 5 % % & w p p 2 i g , F , F F g , F F 7 7 F F F F b b b b 9 9 9 9 f f A A C C a a A o w B H H q > H & p p w w H H w w H H w & H & w w H & B B & w B B & w B B w w B B w w B 2 w w 2 B w w B 2 w w B B w B 2 2 B 2 w & A A p p 2 2 p p B 2 & & q > 2 2 2 B A A 2 B D D t t t t t t t t t t t t t t t t t t t t t t t t t t t t t t t t t t t t t t t t t t t t t t t t t t t t t t t t t t t t t t t t t t t t t t t t t t t t t t t t t t t t t t t t t t t t t t t t t t t t t t t t t t t t t t t t t t t t t t t t t t t t t t t t t t t t t t t t t t t t C C a a B B B B & H w w H H p p B 2 2 2 B 2 A A H H B 2 B B 2 p B 2 2 2 B B p 2 w w 2 B w w 2 2 w w 2 2 w w 2 B w w B B & w B B & w B B & w B B & w w w H H w & > > q q > > 2 2 A A C C a a C C C C 9 9 C 9 c c 8 8 g g 7 7 F F 7 7 F F , , F F F F p p p 2 i 2 # # # % % # : : # # % x % % : : x x & w 2 2 & 1 @ @ w & r r i i 1 & w w & & & & * * : : 1 1 & & q q & & q > H H > > ",
"> > & H > > & & q q w & 1 1 & H 1 1 @ @ % % & & & 1 w i & & & & > q 5 5 > : i i % % % % # % x % 5 5 % # 5 5 r r @ 5 2 2 2 i 8 8 F F F F F F F F , , F F T T g g 8 8 c c 9 9 9 9 C C C C A A C C A A 2 2 z > q q > > a a & & w & > q q q > q i i w & w w & & 2 B w & B B w w B B w w 2 B w w B B w w 2 B w w B B & w B 2 2 B p p w w 2 2 2 2 2 p w w q q & w 2 B B B A A C C t t t t t t t t t t t t t t t t t t t t t t t t t t t t t t t t t t t t t t t t t t t t t t t t t t t t t t t t t t t t t t t t t t t t t t t t t t t t t t t t t t t t t t t t t t t t t t t t t t t t t t t t t t t t t t t t t t t t t t t t t t t t t t t t t t t t t t t t t t t t t t t t t t D D C C A A A A H H & H H H B B B 2 A A 2 B A A 2 B p p B 2 p p B B 2 p B 2 B B w w 2 B w w 2 2 w w 2 2 w w 2 2 w w B 2 w w B B q q B B > q w w H H w & H & q q > q q q B B o o A a C C C C 9 f f 9 9 9 b b c b W W , F 7 7 F F 7 7 F F F F W W 2 2 2 p i i % % % # % % % % : : % % % % % # > > & H 2 p > > 5 @ w & % % & & w w & & & & 1 1 E E % % & & 1 1 1 & q > & & > > 1 1 ",
"> z & & q > & & q > & & 1 1 & H 1 1 @ @ % % & & & 1 w i & & & & > > 5 @ > > i i % % % % % # # % 5 5 % % 5 5 r r @ 5 2 2 2 2 8 8 F F F F F F F F , , F F T T g g 8 8 c c 9 9 9 C C C C C A A C C A A 2 2 q > > q q > a a & w & & q q > q q q i i w & w w & & B B & w B B & w B B w w B B w w B 2 w w B B & w B B & w B 2 B B p p w w B 2 2 2 p p w w q q w w B B B B A A C C t t t t t t t t t t t t t t t t t t t t t t t t t t t t t t t t t t t t t t t t t t t t t t t t t t t t t t t t t t t t t t t t t t t t t t t t t t t t t t t t t t t t t t t t t t t t t t t t t t t t t t t t t t t t t t t t t t t t t t t t t t t t t t t t t t t t t t t t t t t t t t t t t t D D C C A A A A H H H H & H B B 2 2 A A B 2 A A 2 B p p B B 2 p 2 B B p B 2 B B w w B 2 w w 2 2 w w 2 2 w w 2 2 w w B B w w 2 B q q B B q q & w & & w w H H q q > q q q B B o o A a C C C C f f 9 9 9 9 b b b c W W , F 7 7 F F 7 7 F F F F W W 2 2 2 p i i % % % # % % % % : : x % % % % % > > & & p p : > 5 5 w & % % & & w w w & & 1 1 1 E E % % & & 1 1 1 & > > & & > > 1 1 ",
"1 1 > > & w q q & & 1 1 & 1 1 1 1 & * * : : & & & & & & w i q q & 1 @ @ > > & 1 > > # % % # % r % # r r % # 5 5 # % & & p 2 i i , , F , F F , , F F 7 7 F F F F b b b 8 9 9 9 9 f f A A C C A A o o B B & H > > H H p p w w H H m m 5 5 w & & & & w & w B B & w B B & w B B & w B B B B B 2 B B B B & w B B & w B 2 B B p p B B 2 p B 2 B B x x w w 2 2 A A p p a A t t t t t t t t t t t t t t t t t t t t t t t t t t t t t t t t t t t t t t t t t t t t t t t t t t t t t t t t t t t t t t t t t t t t t t t t t t t t t t t t t t t t t t t t t t t t t t t t t t t t t t t t t t t t t t t t t t t t t t t t t t t t t t t t t t t t t t t t t t t t t t t t t t t t t t t t t t C C a a A a B B B 2 q q > q i w a A 2 B p p B B B 2 w w 2 2 w & & H & w 2 2 w w 2 2 w w B 2 w w 2 2 w w 2 B w w 2 B w w B B w w r r 5 5 w & & & w w q > H H z z 2 2 A A C C a a C C C C C 9 9 9 b c o 8 g g 7 7 F F 7 7 F F , F W W F F a a 2 2 p 2 # # # % % # : : # % % x x % > : x x & w 2 2 1 1 @ @ & w 5 5 w i 1 & w w 1 1 & & * * : : & 1 1 & & 1 1 & > > 1 1 z > ",
"& 1 > > & w q q & & 1 1 1 & & 1 1 & * * : : & & 1 & & & i i q q & 1 @ @ > > & & q > # % % # % r % # r r # # 5 5 % % & & 2 p p 2 , , F , F F g , F F 7 7 F F F F b b 8 8 9 9 9 9 f f A A C C A A a o B 2 H H q > H & p p w w H H m m 5 5 w & & & w w H H B B & & 2 B w & B B w w B B B B B 2 B B B B & w B B & w B B B B 2 p B 2 p p B 2 B B x x w w 2 2 A A p p A A t t t t t t t t t t t t t t t t t t t t t t t t t t t t t t t t t t t t t t t t t t t t t t t t t t t t t t t t t t t t t t t t t t t t t t t t t t t t t t t t t t t t t t t t t t t t t t t t t t t t t t t t t t t t t t t t t t t t t t t t t t t t t t t t t t t t t t t t t t t t t t t t t t t t t t t t t t C C a a A a B B 2 2 q q q > w w a a B B 2 p B 2 2 2 w w 2 B w & H H & H 2 2 w w 2 B w w 2 2 w w 2 2 w w 2 B w w B B w w 2 B w w r r 5 5 & w H H w & q q & & z z B 2 A A C C A A C C C C C 9 C 9 b c a 8 e g 7 7 F F 7 7 F F F F W W F F a a 2 2 p 2 # # # % % # : : # % x x % % > : % x w w p 2 1 1 @ @ w w 5 5 i i 1 & & w w 1 1 & * * : : & 1 1 & 1 1 & w > > 1 1 > z ",
"> > & w q q & & 1 1 & 1 & 1 1 & 1 & 5 5 % % & w & 1 w i w & & & > > 5 @ > > i i % x x % % % % % 5 5 % # 5 5 r # r r B 2 2 2 a 8 F F F F F F F F F F F F T T g g b 8 9 9 9 9 9 9 9 C C C A A C C A A 2 p q q & & q q a a & & & w q q 2 2 w & w w & & w & w H w B & & B B w & B B w w B 2 2 B 2 2 & & 5 5 B B 2 p B 2 2 2 B p p p & & z z H & 2 B 2 2 A A a A t t t t t t t t t t t t t t t t t t t t t t t t t t t t t t t t t t t t t t t t t t t t t t t t t t t t t t t t t t t t t t t t t t t t t t t t t t t t t t t t t t t t t t t t t t t t t t t t t t t t t t t t t t t t t t t t t t t t t t t t t t t t t t t t t t t t t t t t t t t t t t t t t t t t t t t t t t t t t t t t t t C C a a B B a A w w B B & H B B B 2 A A B B B 2 B B H H * * B B & w B 2 w w 2 2 w w 2 2 w w 2 2 w w B B & w B B & w B B & w > > w & B B & H w H q > q q B B o o A a C C C C f f 9 9 9 9 8 b c c g e F F F , F F F F , , F F e g 2 2 2 p i i % # % % # % % % : : % % % % % % > > & & p 2 > : 5 5 w & % % & & w w & & & & 1 1 E E % % & & 1 1 1 & H q & & q > 1 1 ",
"> q & w q q & & 1 1 & 1 1 1 & & & & 5 5 % % & w 1 1 2 2 w & & & > > 5 5 > : i i % x x % % % % % 5 5 # % 5 5 % # # r 2 2 2 i 8 8 F F F F F F F F F F F F T T g g 8 8 9 9 9 9 9 9 9 C C C a a C C A a p p q q & & q q a a & w & & q q 2 2 w w & & w & w H & w B B & w B B & w B B w w B 2 2 B B 2 w & 5 5 B B p p B B 2 p B p p p & & z z H & 2 2 B 2 A A A A t t t t t t t t t t t t t t t t t t t t t t t t t t t t t t t t t t t t t t t t t t t t t t t t t t t t t t t t t t t t t t t t t t t t t t t t t t t t t t t t t t t t t t t t t t t t t t t t t t t t t t t t t t t t t t t t t t t t t t t t t t t t t t t t t t t t t t t t t t t t t t t t t t t t t t t t t t t t t t t t t t C C a a B B a A w w 2 B H H B B B B A A 2 B B B B 2 H H * * B B & w B 2 w w 2 2 w w 2 2 w w 2 2 w w B 2 w w B B w & 2 B w & > > w & B B & H w H q > q q 2 B o o A a C C 9 C f f 9 9 9 9 c b c c g g F F F F F F F F , , F F g g 2 2 2 p i i % % # % r % # % : : % # % % % % z z & & 2 p : > 5 5 & & % # & & w w & & & 1 1 1 E E % % & & 1 1 & H q q & & q > 1 1 ",
"& & > : 1 & q q & w 1 1 & & 1 1 w w @ @ > > & & & 1 & 1 i i q q & & 5 5 > > & & q > # % x x % # # % % # # % 5 5 # % w w p 2 2 2 g g F F , , F , W W F , F F , , c b b b 9 9 9 9 f f a a C C A A o o B B H H q > H & p p w w H H w & H & w w H & & w & & B B & w B B & w B B w w B B B B B 2 B B B B p p B 2 2 B A A 2 p 2 2 z > H H & H 2 p p p a A t t t t t t t t t t t t t t t t t t t t t t t t t t t t t t t t t t t t t t t t t t t t t t t t t t t t t t t t t t t t t t t t t t t t t t t t t t t t t t t t t t t t t t t t t t t t t t t t t t t t t t t t t t t t t t t t t t t t t t t t t t t t t t t t t t t t t t t t t t t t t t t t t t t t t t t t t t t t t t t t t t t t t t t t t t t t A A A A B 2 & H B B B B B B 2 B B B B 2 2 B B B 2 2 B 2 w w 2 2 w w 2 2 w w B 2 w w 2 B w w B B & w w & & w 2 p w w w w H H w & q q & & > > p 2 a a C C a a C C C C 9 9 o 9 C 9 c b g g g , F F F F , , F F F e , , a a 2 2 p 2 # # # % % # : : % # % x x % > : x x w w 2 2 & 1 @ @ w i r r 2 2 & & w i & & 1 & * * : : 1 1 & & & 1 1 & q > 1 1 q > ",
"& & > > & & q q & 1 & 1 & 1 & 1 w w @ @ > > & & & & & & i i q q & & 5 5 : > & & > > # % % x # # # % r % # # 5 @ % % & w p p p 2 W g F F , , F F W W F , F F , , b b b b 9 9 9 9 f f a a C C A A o o B B & H > > H H p p w w H H w w & H & w H H w w H H B B & & B B w w 2 B w w B B B B B 2 p B 2 B p p B 2 p B A A 2 p 2 2 z z H H & H 2 p p p A A t t t t t t t t t t t t t t t t t t t t t t t t t t t t t t t t t t t t t t t t t t t t t t t t t t t t t t t t t t t t t t t t t t t t t t t t t t t t t t t t t t t t t t t t t t t t t t t t t t t t t t t t t t t t t t t t t t t t t t t t t t t t t t t t t t t t t t t t t t t t t t t t t t t t t t t t t t t t t t t t t t t t t t t t t t t t A A A A B 2 & H B B B 2 B B B B B B B 2 B B B B 2 2 2 p w w 2 B w w 2 B w w 2 2 w w 2 B & w B B w & w & & w 2 p w w w w H & w w q q H H q > p p A A C C a a C C C C 9 9 9 9 C 9 b b g g g , F F F F , , F F F e , , a a 2 2 p 2 # # # % % # : : % # % x % % : : x % w w p 2 1 1 @ @ i i r r 2 2 H & w i & & 1 & * * : : 1 1 & & & 1 1 & q > 1 1 q > ",
"> > 1 & q q & w 1 1 & 1 & 1 & & 1 1 @ 5 # % & & & 1 i i & & & & > q 5 r q > 2 2 : : % % # % x % 5 r # % 5 5 % # # # 2 2 2 i 8 8 g , F , F F , , F F W W F F g g 8 8 9 9 9 9 9 9 9 C C 9 A A C C a a p p q q & & q q a a & & & w w w w w 1 1 i 2 w & w w H H B B & w B 2 w w 2 2 B B B 2 p B 2 2 w w A A p p A A H H & H > > B B B B 2 p B 2 f f u u t t t t t t t t t t t t t t t t t t t t t t t t t t t t t t t t t t t t t t t t t t t t t t t t t t t t t t t t t t t t t t t t t t t t t t t t t t t t t t t t t t t t t t t t t t t t t t t t t t t t t t t t t t t t t t t t t t t t t t t t t t t t t t t t t t t t t t t t t t t t t t t t t t t t t t t t t t t t t t t t t t t t t t t t t t t t D D C C A A B B B 2 H H H H & H B p p p a A 2 2 p p B 2 2 p B B 2 2 w w 2 B w w 2 2 w w 2 B & w B B & w B B & & w w & & B B w & H H q q q q B B o o A a C C C 9 C f o 9 9 9 8 b c c g g F F F F F F F F F g F , e e 2 2 a a i i % % % # % % % % : : % % % % % # > > & & p p > > 5 @ w & % % & w i i 1 & w w & 1 @ @ % % w & 1 1 & H q q & & q > & 1 ",
"> > & & q q & & 1 1 & & j 1 & & 1 1 @ 5 % % & & & 1 i i w & & & > > 5 r q > 2 2 : : % % % % % % r r % % 5 5 # # # % 2 2 2 i 8 8 , , F , , F , , F , W W F F g g 8 8 9 9 9 9 9 C C C C C A A C C A A p p q q H H q q a a & & & w w w w w 1 1 i 2 & & w & w H w B & w B 2 w w 2 2 B B 2 2 B 2 2 2 w w a a B p a A H H & H > > 2 B B 2 p B 2 2 f f u u t t t t t t t t t t t t t t t t t t t t t t t t t t t t t t t t t t t t t t t t t t t t t t t t t t t t t t t t t t t t t t t t t t t t t t t t t t t t t t t t t t t t t t t t t t t t t t t t t t t t t t t t t t t t t t t t t t t t t t t t t t t t t t t t t t t t t t t t t t t t t t t t t t t t t t t t t t t t t t t t t t t t t t t t t t t t D D C C A A B B B B H H & H H H p p p p A A 2 B p p B B 2 2 B 2 2 2 w w B 2 w w 2 2 w w 2 B w w B B w & B B & & w w H H B B & & w H q > q q B B o o A a C C C C 9 f 9 9 9 9 8 b c c g g F F F F F F F F g F F , e e 2 2 o a i i % % % # % % % % : : % # % % % % z z & & 2 p > > 5 @ w & % % w w w 2 & & w w & 1 5 @ % % w & 1 1 & H q q & & q > & 1 ",
"& w q q & & 1 1 & 1 1 1 & & w & & 1 # # & w 1 1 & & & & i i q q & H 5 5 > > & & > > x % : : % # # % % # # # 5 5 # % i i 8 8 p 2 g g F F , , F , W W F F F F F , c c c b 9 9 o 9 f f a a C C A A o o 2 2 w & q q & & a A B B & w w w & & w w & & w & w H w B & w w w H H B B & w 2 2 B B p 2 w w 2 B B B 2 2 > > z > & & a A B p a A A A t t t t t t u u t t D u t t t t t t t t t t t t t t t t t t t t t t t t t t t t t t t t t t t t t t t t t t t t t t t t t t t t t t t t t t t t t t t t t t t t t t t t t t t t t t t t t t t t t t t t t t t t t t t t t t t t t t t t t t t t t t t t t t t t t t t t t t t t t t t t t t t t t t t t t t t t t t t t t t t t t t t t t t t t t t t t t t t t t t t t t t D D D D B B B 2 B B H H z z H H B B A A B 2 B 2 2 B B 2 B B 2 2 w w 2 2 w w B 2 w w B B & w w w & & w w & & 2 B w & w w q q & & q > p p A A C C a o f C C C C 9 9 c C 9 b b e e , F F F F F F e F F , g , F a a 2 2 p 2 # # % % # # : : % # % x % % : : x % w w 2 2 1 1 @ @ i i # # 2 2 & & 2 i & & & 1 * * x x 1 1 & w & 1 & & q q 1 1 > > ",
"& w q q & & 1 1 1 & & 1 & & & w & 1 # # & w 1 1 & & & w i i q q & & 5 5 : > & & q > # % : : % # % % # # # # 5 5 # % i i 8 8 p 2 g g F F , , F F W W F F F F F , c c b b 9 9 o 9 f f a a C C A A o o B 2 w & q q & & A A B 2 w & & w & w H w H & & w H & 2 B w & w w & & B B & w B 2 B B 2 p w w 2 B B B 2 2 > > z > & & A A 2 p A A A A t t t t t t u u t t u u t t t t t t t t t t t t t t t t t t t t t t t t t t t t t t t t t t t t t t t t t t t t t t t t t t t t t t t t t t t t t t t t t t t t t t t t t t t t t t t t t t t t t t t t t t t t t t t t t t t t t t t t t t t t t t t t t t t t t t t t t t t t t t t t t t t t t t t t t t t t t t t t t t t t t t t t t t t t t t t t t t t t t t t t t t D D D D B B B B 2 B H H z z H H B B A A B B 2 p B 2 2 2 B B p 2 w w B 2 w w 2 B w w 2 B w & w w w H H w & w B B w w w w q > & & q > p p a A C C a o f C C C C 9 9 c C 9 8 b e e F F , F F F F e F F g g F , a a 2 2 p 2 # # % % % # : : % # % x % % : : % x w w 2 2 1 1 @ @ i i # # 2 2 & & 2 i & & & & * * x x 1 1 & w & 1 & & q q 1 1 > > ",
"1 1 & & q q & H > q H & 1 1 1 & > q H H 1 1 i i & & i i w w & & > > # # : > 2 i > : : : % # % % # # % % r r # % % # 2 2 2 i 8 8 , , F , , F W W F F F F F F e g 8 b b c 9 9 9 9 9 f f u C C 9 C A a p p q q H H q q o o w w 2 B w & w w & & w 2 & & B 2 w w B B w & * * q q B 2 w w a a & w B B w & w w y y p p B B a A A A C C t t t t t t t t t t t t t t t t t t t t t t t t t t t t t t t t t t t t t t t t t t t t t t t t t t t t t t t t t t t t t t t t t t t t t t t t t t t t t t t t t t t t t t t t t t t t t t t t t t t t t t t t t t t t t t t t t t t t t t t t t t t t t t t t t t t t t t t t t t t t t t t t t t t t t t t t t t t t t t t t t t t t t t t t t t t t t t t t t t t t t t t t t t t t t t D D A A A A B 2 B B q q & & B B A A 2 B B 2 p B 2 p w w x x 5 5 B 2 w w 2 2 w w 2 B w & B B & w B B w w 2 2 w w H H w & H & 2 2 C C A A C C C C D D o 9 9 9 b b c c g g F F F F W W F F , g , , e e 2 2 o a i i % # % % : : % # : : % # : : % x > > & H 2 p > > # # & 1 % % w w i i & & w w j 1 & & > > & w 1 1 H H > > & 1 > > & 1 ",
"& 1 1 & > q & & q > H & 1 1 1 & > > 1 1 & 1 i i w & i i i w & & > > # # : > 2 i : : : : % # % % # # % % r r % # % # 2 2 2 2 8 8 F , , F F F W W F , F F F F e g b b c c 9 9 9 9 9 f f u C C C 9 A A o p q q & & q q a o w w B B w & w w & & w 2 & & 2 B w & B B w & * * q q 2 2 w w a a w w 2 B w & w w y y p p B B a A A A C C t t t t t t t t t t t t t t t t t t t t t t t t t t t t t t t t t t t t t t t t t t t t t t t t t t t t t t t t t t t t t t t t t t t t t t t t t t t t t t t t t t t t t t t t t t t t t t t t t t t t t t t t t t t t t t t t t t t t t t t t t t t t t t t t t t t t t t t t t t t t t t t t t t t t t t t t t t t t t t t t t t t t t t t t t t t t t t t t t t t t t t t t t t t t t t u D A A A A 2 B B B q q H H B B A A B B B 2 p B 2 p w w x x 5 5 B 2 w w 2 B w w 2 2 w & 2 B w & B B w w 2 2 w & H w & H H & 2 2 C C A A C C C C D D o 9 9 9 b b c c g g F F F F W W F F , g F , e e 2 2 a a 2 2 % % # # : : % x > : % x > : % % z z & & 2 p > > # # 1 & % % w w i i & & w w & 1 & & > > w & & 1 & & q > 1 & > > 1 1 ",
"& & q q & H 1 1 1 & & 1 > q > q 1 & 1 1 & & 1 1 i i & & 2 2 & 1 & & 5 5 1 1 2 2 q > % % : : x % % % # % x % 5 r % % i i 8 8 p 2 g g , , , , F , , , F F F F e e c c b b 9 9 9 9 C u o o u C A o o o p 2 w & q q & & a A B 2 w & w w H H i i w & 2 2 w w 2 B & w B 2 w w p p B 2 p p 2 2 B 2 w & % % & & B B B 2 B B A A t t t t t t t t t t t t t t t t t t t t t t t t t t t t t t t t t t t t t t t t t t t t t t t t t t t t t t t t t t t t t t t t t t t t t t t t t t t t t t t t t t t t t t t t t t t t t t t t t t t t t t t t t t t t t t t t t t t t t t t t t t t t t t t t t t t t t t t t t t t t t t t t t t t t t t t t t t t t t t t t t t t t t t t t t t t t t t t t t t t t t t t t t t t t t t t t t t t t t t C C a a B B B p B B q q q > w w B 2 2 B 2 B B 2 w w & & w w 2 2 w w 2 2 w w B 2 w & 2 B w & B B w w B B H & & & q > p p a a C C C C 9 C f f 9 9 o 9 9 f b b d e F F W W F F g , F , e e F j a a 2 2 p 2 # # % % % % : : x % : : % # > > x x 2 2 2 i & 1 @ 5 2 2 % % 2 2 w i i i w & & & 1 & & & > > 1 1 & 1 1 & 1 1 & & > q ",
"H H q q & H 1 1 1 & & 1 > q > > & & & 1 & 1 1 1 i i & & p 2 1 1 & & 5 5 & 1 2 2 q > % % : : % # % % % % % % r r # % i i 8 8 2 2 g g , , , , F F , , F F F F e e b c c b 9 9 9 9 f u o o u C A o o o 2 2 w & q q & & A A 2 2 w & w w & & 2 i i w 2 2 w w 2 B & w B 2 w w p p B 2 p p 2 2 B 2 w & % % & H B B B B B B A A t t t t t t t t t t t t t t t t t t t t t t t t t t t t t t t t t t t t t t t t t t t t t t t t t t t t t t t t t t t t t t t t t t t t t t t t t t t t t t t t t t t t t t t t t t t t t t t t t t t t t t t t t t t t t t t t t t t t t t t t t t t t t t t t t t t t t t t t t t t t t t t t t t t t t t t t t t t t t t t t t t t t t t t t t t t t t t t t t t t t t t t t t t t t t t t t t t t t t t C C a a B B B p B B > q > > w & B B 2 2 B 2 2 2 w w & & w w 2 2 w w 2 2 w w 2 B w & B B & w B B & w B B H & w & q > p p a a C C C C C 9 C f 9 9 9 o 9 9 b b g e F j W W F F g , , , e e j j a a 2 2 p 2 # # % % % % : : % x : : % # > > x x 2 2 2 i & 1 5 5 p 2 % % 2 2 w i i i H & & & 1 & & & > > & 1 & 1 & & 1 1 & & > > ",
"q > & & & & & 1 > > > > > q w & 1 1 & & 1 1 w w w & 2 2 2 2 & & w i > : q q 2 2 : : : : % % # % r % # % % r # % % # 2 2 2 2 a 8 , , F , F F , , F F W W F F e g b b c c 9 9 9 9 C C C C C C C C a a p p q q & & q > o o w w B B w & B 2 w w 2 2 w w B 2 w w 2 B B B B 2 B B A A B B B 2 y y & & w w 2 2 B B A A D D t t t t t t t t t t t t t t t t t t t t t t t t t t t t t t t t t t t t t t t t t t t t t t t t t t t t t t t t t t t t t t t t t t t t t t t t t t t t t t t t t t t t t t t t t t t t t t t t t t t t t t t t t t t t t t t t t t t t t t t t t t t t t t t t t t t t t t t t t t t t t t t t t t t t t t t t t t t t t t t t t t t t t t t t t t t t t t t t t t t t t t t t t t t t t t t t t t t t t t t t t t f f u D A A A A B B & H > > H H B B A A B B A A B 2 B B w w 2 B w w 2 2 w & B B & w B 2 w w 2 2 w w H H w & H & 2 2 C C A A C C C C u D C 9 9 9 b b b c g g F F F F W W F F g g F , e e 2 2 a a i i % # % % : : % x > : % % z > x x > q & w A A > > x % & & > > i i 2 2 & & i i H H & & 1 1 & 1 > > & & > > & & > > 1 1 ",
"> > 1 & & & & & q > > > > > w & 1 1 & & 1 1 w w w & 2 2 2 2 & & 2 2 : : q q 2 2 : : : : % % % % % # # % r r % # # # 2 2 2 i 8 8 , , , F F F , , F F W W F F g g b b c c 9 9 9 9 C C C C C C 9 C A a p p q q & & q q o o w w B B & H 2 2 w w 2 2 w w 2 2 w w 2 B B B 2 2 B 2 A A B B B 2 y y & & w w 2 2 B B A A D D t t t t t t t t t t t t t t t t t t t t t t t t t t t t t t t t t t t t t t t t t t t t t t t t t t t t t t t t t t t t t t t t t t t t t t t t t t t t t t t t t t t t t t t t t t t t t t t t t t t t t t t t t t t t t t t t t t t t t t t t t t t t t t t t t t t t t t t t t t t t t t t t t t t t t t t t t t t t t t t t t t t t t t t t t t t t t t t t t t t t t t t t t t t t t t t t t t t t t t t t t t f f u D A A A A B 2 & H z z H H B B A A 2 B A A B 2 B B w w B 2 w w 2 2 w & 2 B w & B B w w B 2 w & w w H H & H 2 2 C C A A C C 9 C D D 9 9 9 9 b b b c g g F F F F W W F F g g , , g d 2 2 a a i i % % # # : : % % : : x % : > x x > q w w a a > > x % & & > > i i i 2 & & i i H H & & 1 1 1 & > q & & > q & & > > 1 1 ",
"& & q q & & q > q q > q 1 1 > q & 1 1 1 & & & w i i i i w 2 i i w & > > i i & & q > # % : : % # % x % % % % r r # % i i 8 8 2 2 2 2 1 1 , F F F W W F F F F e e c c b b 9 9 9 9 C u o o C C 9 C 9 o p 2 & & q > & & a a B 2 w w 2 B w w 2 2 w w 2 2 w w 2 B w w B 2 2 B B B w w z z > z B B & w B 2 B B D D D D t t t t t t t t t t t t t t t t t t t t t t t t t t t t t t t t t t t t t t t t t t t t t t t t t t t t t t t t t t t t t t t t t t t t t t t t t t t t t t t t t t t t t t t t t t t t t t t t t t t t t t t t t t t t t t t t t t t t t t t t t t t t t t t t t t t t t t t t t t t t t t t t t t t t t t t t t t t t t t t t t t t t t t t t t t t t t t t t t t t t t t t t t t t t t t t t t t t t t t t t t t t t t t t t D D D D A A B 2 A A H H q > z z B B & & B 2 2 2 B 2 w w 2 2 w w 2 B w & 2 B w & B B w w B B H H & w q q p p A A C C C C C C 9 f 9 9 9 o 9 9 c b d e , F W W W F F e F , e e i i 8 a 2 2 p 2 # # # % % % : : % x > : % % > > > : & w 2 2 1 & % # w w 2 w p p B 2 2 B 1 & w w H H & & 1 1 1 & > q > > > : 1 1 > z ",
"H & q q & H > > q q > q 1 1 > q & & 1 1 H H H & 2 2 i i w 2 i i & & q > 2 2 & & > q % % : : x % % % % % % % r r % % i i 8 8 p 2 i i 1 1 F , F F W W F F F F e e c c b b o 9 9 9 f u o o u C A C a o 2 2 w & q q & & a a B 2 w w B 2 w w 2 2 w w 2 2 w w 2 B w w 2 B B B 2 B & w z z > z B B & w B 2 2 B D D D D t t t t t t t t t t t t t t t t t t t t t t t t t t t t t t t t t t t t t t t t t t t t t t t t t t t t t t t t t t t t t t t t t t t t t t t t t t t t t t t t t t t t t t t t t t t t t t t t t t t t t t t t t t t t t t t t t t t t t t t t t t t t t t t t t t t t t t t t t t t t t t t t t t t t t t t t t t t t t t t t t t t t t t t t t t t t t t t t t t t t t t t t t t t t t t t t t t t t t t t t t t t t t t t t D D D D A A 2 B A A H H q > z z 2 B & H 2 2 B 2 2 2 w w 2 2 w w 2 B & w B B & w B B & w B B & H H & q q p p o A f C C C C C 9 f 9 9 9 o 9 9 b b e e F , W W F , F F , , e e i i 8 a 2 2 p 2 # # # % % % : : % # > > % % z z : : & w 2 2 & & x % w w 2 w p p 2 B 2 2 1 & w w H H & & 1 1 1 & > q > > > : 1 1 > > ",
"q q & 1 x x q > > q & H 1 1 1 & 1 1 H H 1 & 2 2 H & & & & 1 & & > > 2 2 2 p i i % x > : % % : : # # # % r % # % % # 2 2 2 2 2 2 & & i i , F F F F F W W F , F g c b b c 9 9 b 9 C C C C C C C 9 A A o p q q & & H & o o w w B B * * x x w w 2 p B 2 2 2 2 B B B B B & w % % z > H H p p B B A A 2 B t t t t t t t t t t t t t t t t t t t t t t t t t t t t t t t t t t t t t t t t t t t t t t t t t t t t t t t t t t t t t t t t t t t t t t t t t t t t t t t t t t t t t t t t t t t t t t t t t t t t t t t t t t t t t t t t t t t t t t t t t t t t t t t t t t t t t t t t t t t t t t t t t t t t t t t t t t t t t t t t t t t t t t t t t t t t t t t t t t t t t t t t t t t t t t t t t t t t t t t t t t t t t t t t t t t t t t t t t t C C a a B B B 2 H H H H H & H H B B p p B 2 2 2 w w 2 p B 2 2 2 r r x x w w 2 p w w H H w & H & 2 2 C C o o u C A C D D 9 9 9 9 b b c c g g g , F F W W F F F g & & 2 2 i & 2 p 2 2 x x % % > : % % z z : % z > : : : > & & p 2 i i 2 2 1 & & w w 2 8 8 & & 2 i H & w w & & H & q q & 1 q > q > q > & 1 ",
"q q & 1 x x q > > q & H 1 1 1 & 1 1 & & 1 & 2 2 & & & & & & & & > > i i 2 2 2 i x x > : % x > : # # # % r % # % % # 2 2 2 i p 2 & & w i F F F F F F W W F , F g c b c c 9 9 b 9 C C C C C C C C a a p p q q & & H & o o w w B B * * x x w w 2 p B 2 2 2 B B B 2 B B H w y % z > H H p p B B A A 2 B t t t t t t t t t t t t t t t t t t t t t t t t t t t t t t t t t t t t t t t t t t t t t t t t t t t t t t t t t t t t t t t t t t t t t t t t t t t t t t t t t t t t t t t t t t t t t t t t t t t t t t t t t t t t t t t t t t t t t t t t t t t t t t t t t t t t t t t t t t t t t t t t t t t t t t t t t t t t t t t t t t t t t t t t t t t t t t t t t t t t t t t t t t t t t t t t t t t t t t t t t t t t t t t t t t t t t t t t t t C C a a B B B B H H & H H H H H B B p p B 2 2 2 w w 2 p B 2 2 2 r r x x w w 2 p w w H H w & H H B 2 C C a o u C C 9 D D C 9 9 9 b b c c g g , , F F W W , F g , & & 2 2 i & p p 2 i x x % % > : % % z > x % z > : : q > & & p 2 i i 2 2 & & w w 2 2 8 8 & & 2 i & & & w & & H & q q & 1 q > q > q > & 1 ",
"q q > : & 1 > > 1 & q q & H 1 1 & & 1 1 i w & & B 2 1 & & w > > i i 2 2 2 p w w z > % % z z : % % % # % x % % % % % i i i 2 > > & & i i , F F F W W F F F F e e c c b b 9 9 9 9 f u o o C C C 9 C C B 2 w & q q & w a A 2 2 w & x y q q p p w w w w 2 2 2 2 & & q > > > B B & & B B B B 2 p u u t t t t t t t t t t t t t t t t t t t t t t t t t t t t t t t t t t t t t t t t t t t t t t t t t t t t t t t t t t t t t t t t t t t t t t t t t t t t t t t t t t t t t t t t t t t t t t t t t t t t t t t t t t t t t t t t t t t t t t t t t t t t t t t t t t t t t t t t t t t t t t t t t t t t t t t t t t t t t t t t t t t t t t t t t t t t t t t t t t t t t t t t t t t t t t t t t t t t t t t t t t t t t t t t t t t t t t t t t t t t t t t t D D B B B B B 2 B B z z > z z z 2 B & & B 2 2 B B 2 p B x x r r B B & w B B & & w & q q p p A A C C 9 o C C C C 9 9 C 9 9 f 8 8 e d F F W W j F , , g g 2 2 1 1 & & & H 2 2 : : > > > : q > > : > > x x > z : : i 2 2 2 8 8 i i 2 2 1 1 i 2 & w B 2 w w 2 2 1 1 & & & 1 & 1 q q 1 1 q > > > q > ",
"q q > : 1 1 > q 1 & q q & & 1 1 1 & 1 1 i w & w B 2 & & & & q > 2 2 2 2 2 p w w z > % % z z : % % % # % x % % % % % i i i 2 > > & & i i , F F F W W F F F F e e c c b b 9 9 9 9 f u o o u C A C C C B 2 w & q q & w a a B 2 w w % % q q p p w w w w B 2 2 2 & & q > > > 2 B & & B B B B p p u u t t t t t t t t t t t t t t t t t t t t t t t t t t t t t t t t t t t t t t t t t t t t t t t t t t t t t t t t t t t t t t t t t t t t t t t t t t t t t t t t t t t t t t t t t t t t t t t t t t t t t t t t t t t t t t t t t t t t t t t t t t t t t t t t t t t t t t t t t t t t t t t t t t t t t t t t t t t t t t t t t t t t t t t t t t t t t t t t t t t t t t t t t t t t t t t t t t t t t t t t t t t t t t t t t t t t t t t t t t t t t t t t D D B B B B B B 2 B z z > z z z B B & H 2 2 2 B B 2 B B x x r r B B & w B B & & w & q q p p A A C C o o C C C C 9 9 9 9 f 8 8 b e d F F W W j F , , N g 2 2 1 1 & & & H 2 2 : : > > > : q > > : > > x x > z : : i 2 2 2 8 8 i i 2 2 1 1 i i w & 2 2 w w 2 2 1 1 & & & 1 & 1 q q 1 1 q > > > q > ",
"x x & 1 > > 1 & > q H & & 1 & & 1 1 2 2 & & p 2 > : 1 1 & & 2 2 2 i i i 2 2 a 8 , i i i 2 & 2 2 & & & w w & & w 1 1 & & q > > > & & a a , , e e F F W W F F e e b b b c 9 9 9 9 C C C C 9 C C 9 C o A a H H & H H H o o B B B 2 2 2 B 2 w & 2 2 B 2 w w > > x % H H B B B B 2 2 B B t t t t t t t t t t t t t t t t t t t t t t t t t t t t t t t t t t t t t t t t t t t t t t t t t t t t t t t t t t t t t t t t t t t t t t t t t t t t t t t t t t t t t t t t t t t t t t t t t t t t t t t t t t t t t t t t t t t t t t t t t t t t t t t t t t t t t t t t t t t t t t t t t t t t t t t t t t t t t t t t t t t t t t t t t t t t t t t t t t t t t t t t t t t t t t t t t t t t t t t t t t t t t t t t t t t t t t t t t t t t t t t t t t t t t t t t t t D D A A 2 B B B H & q > x x H H & H 2 2 w w p p B B p 2 w w 2 2 w & w w H H H & 2 2 C C a a C C C C D D 9 9 9 9 b b c c g g F , , F W W F F g g 2 2 2 2 > > q q & 1 w w & 1 1 & & & i i 1 & 2 2 2 i i i 2 2 a a i i i i i i w 2 q q H H & & p 2 1 & w i 1 & 1 & q q & 1 > > 1 1 > > > > ",
"x x & 1 > > 1 & > q H & & 1 & & 1 1 2 2 & & p 2 > : 1 1 & & 2 2 2 i i i 2 2 a 8 , i i i 2 & 2 2 & & & w w & & w 1 1 & & q > > > & & a a , , e e F F W W F F e e b b b c 9 9 o 9 C C C C C C 9 C 9 o A A H H H & & H o o B B 2 2 B 2 2 2 w & 2 B 2 2 w & q q % % & & B B B B 2 2 2 B t t t t t t t t t t t t t t t t t t t t t t t t t t t t t t t t t t t t t t t t t t t t t t t t t t t t t t t t t t t t t t t t t t t t t t t t t t t t t t t t t t t t t t t t t t t t t t t t t t t t t t t t t t t t t t t t t t t t t t t t t t t t t t t t t t t t t t t t t t t t t t t t t t t t t t t t t t t t t t t t t t t t t t t t t t t t t t t t t t t t t t t t t t t t t t t t t t t t t t t t t t t t t t t t t t t t t t t t t t t t t t t t t t t t t t t t t t D D A A 2 B B B & w > q x % & H & & B 2 w w p p B B 2 p w w 2 2 w & w w & & H H B 2 C C a a C C C C D D 9 9 9 9 b b c c g g F , F F W W F F g g 2 2 B 2 > > q q & 1 w w & 1 1 & & & i i 1 & 2 2 2 i i i 2 2 a a i i i i i i w 2 q q H H & & p 2 1 & i i 1 & 1 & q q & 1 > > 1 1 > > > > ",
"1 1 q > 1 1 > > w & q q & w & 1 w i & & 2 B > > 1 1 & & 2 2 w w i 2 2 2 8 8 i i % % 5 5 % # 5 5 5 5 @ 5 5 5 5 @ 5 5 r r > > & H A A 2 2 g g F F W W F F , , e e b b b b 9 9 9 9 C u o o C C C C 9 C B 2 w & H H & w a a B 2 w w 2 2 w w 2 B & w & & r r B B & H 2 2 w w a a C C t t t t t t t t t t t t t t t t t t t t t t t t t t t t t t t t t t t t t t t t t t t t t t t t t t t t t t t t t t t t t t t t t t t t t t t t t t t t t t t t t t t t t t t t t t t t t t t t t t t t t t t t t t t t t t t t t t t t t t t t t t t t t t t t t t t t t t t t t t t t t t t t t t t t t t t t t t t t t t t t t t t t t t t t t t t t t t t t t t t t t t t t t t t t t t t t t t t t t t t t t t t t t t t t t t t t t t t t t t t t t t t t t t t t t t t t t t t t t t D D D D B B B 2 H H B B x x x x q q 2 p w w 2 2 B B B B w w 2 B H H H & q q p p a a C C 9 C 9 C C C 9 9 9 o 9 9 b b e d F j W W , F F , , F A A p p & & % x E E E E 5 5 5 @ 5 5 5 5 r r 5 5 % % 5 5 w w p 2 2 2 2 2 i i i i i w & 1 & H H H 2 2 2 i & 1 & & & & q q & w > > 1 1 > > ",
"1 1 > > & 1 > : w & q q & w & 1 i i & & 2 B > > 1 1 & & 2 2 w w i 2 2 2 8 8 i i % % 5 5 % # 5 5 5 5 @ 5 5 5 5 @ 5 5 r r > > & H A A 2 2 g g F F W W F F , , e e b b b b 9 9 9 9 C u o o u C A C C C B 2 & & H & w H a a B 2 w w 2 2 w w 2 B w & & & r r B B & H 2 2 w w a A C C t t t t t t t t t t t t t t t t t t t t t t t t t t t t t t t t t t t t t t t t t t t t t t t t t t t t t t t t t t t t t t t t t t t t t t t t t t t t t t t t t t t t t t t t t t t t t t t t t t t t t t t t t t t t t t t t t t t t t t t t t t t t t t t t t t t t t t t t t t t t t t t t t t t t t t t t t t t t t t t t t t t t t t t t t t t t t t t t t t t t t t t t t t t t t t t t t t t t t t t t t t t t t t t t t t t t t t t t t t t t t t t t t t t t t t t t t t t t t t D D D D B B 2 2 w & B B x x % x q q p p w w 2 B B B 2 B w w 2 B H H & & q > p p a a C C C C C C C C 9 9 9 9 f 8 b b e d F j W W F F , , , F A A p p & & % x E E E E 5 5 5 @ 5 5 5 5 r r 5 5 % % 5 5 w w p 2 2 2 2 2 i i i i i w & 1 & H H H 2 2 2 2 & 1 & & & & q q & w > > 1 1 > > "};
