/* XPM */
static char *_bac5f1d91624044a33a999f40bae36agy7YyBmXgil5dIR6[] = {
/* columns rows colors chars-per-pixel */
"500 281 253 2 ",
"   c #117ADF",
".  c #0873E0",
"X  c #037BEA",
"o  c #0873EF",
"O  c #0073E4",
"+  c #007BE7",
"@  c #0073EF",
"#  c #007BEF",
"$  c #087BE4",
"%  c #0984E7",
"&  c #087BEF",
"*  c #088CE7",
"=  c #1394EF",
"-  c #33A8EE",
";  c #36B5EF",
":  c #53B5ED",
">  c #55C7F7",
",  c #78D6F8",
"<  c #98D9FC",
"1  c #AEDEF7",
"2  c #B7E7FE",
"3  c #BDDEF6",
"4  c #D2EFF7",
"5  c #DEEFF7",
"6  c #E7F7FF",
"7  c #EFF7FF",
"8  c gray97",
"9  c #E7EFFF",
"0  c #F7EFEF",
"q  c #DEE7FF",
"w  c #DEDFDE",
"e  c #D6E7FF",
"r  c #D7DCE8",
"t  c #D6DEFF",
"y  c #CEDEF6",
"u  c #CEDEFF",
"i  c #D0D6F7",
"p  c #C6D6F7",
"a  c #C6D6FF",
"s  c #C6CEFD",
"d  c #BDD6F7",
"f  c #BDCEFF",
"g  c #BDCEF5",
"h  c #B5CEF6",
"j  c #BDC6FF",
"k  c #B5C3F5",
"l  c #B5C6FF",
"z  c #ADC6F7",
"x  c #ADC6FF",
"c  c #A5C6F7",
"v  c #A8BDFF",
"b  c #677194",
"n  c #433644",
"m  c #8A583F",
"M  c #845723",
"N  c #6C471D",
"B  c #4D3526",
"V  c #827F8C",
"C  c #A5C6FF",
"Z  c #88BBFF",
"A  c #65ADF9",
"S  c #45AAED",
"D  c #409BF0",
"F  c #239BF4",
"G  c #27A7F7",
"H  c #55ADF7",
"J  c #78C8FB",
"K  c #9CC6F7",
"L  c #ADCEF7",
"P  c #BDD6FF",
"I  c #8C98C5",
"U  c #7A8165",
"Y  c #9A9AA1",
"T  c #C6DEFF",
"R  c #C8CDED",
"E  c #6E6A6F",
"W  c #5C3E1E",
"Q  c #6E4A2F",
"!  c #4D4C4C",
"~  c #B7C7E9",
"^  c #CED6FF",
"/  c #A2A2C1",
"(  c #7C5E36",
")  c #936632",
"_  c #9BB7ED",
"`  c #99BDFF",
"'  c #94ADF7",
"]  c #824C37",
"[  c #594431",
"{  c #64382A",
"}  c #6E5542",
"|  c #7987AD",
" . c #84ADFB",
".. c #7AADFE",
"X. c #76B5E9",
"o. c #7495CA",
"O. c #74674E",
"+. c #AC8641",
"@. c #0084E7",
"#. c #2D9FE0",
"$. c #42BDF6",
"%. c #68CAF8",
"&. c #89D7F9",
"*. c #9CD6F7",
"=. c #DDF7FF",
"-. c #F7F7FF",
";. c #EDEDE9",
":. c #B5CEFF",
">. c #ADCEFF",
",. c #ABC1EA",
"<. c #927A63",
"1. c #98A8CF",
"2. c #94C6F7",
"3. c #77BBFD",
"4. c #35AAF7",
"5. c #44ACF7",
"6. c #66BBF9",
"7. c #A9D8FE",
"8. c #AF8B69",
"9. c #CAE8FF",
"0. c #C6DEF6",
"q. c #ABB2D1",
"w. c #4A2B1B",
"e. c #BEC6F1",
"r. c #A47535",
"t. c #565F54",
"y. c #98ACE5",
"u. c #88B8E9",
"i. c #BE9942",
"p. c #0884EF",
"a. c #179AF4",
"s. c #A4E7FC",
"d. c #506870",
"f. c #9CC6EF",
"g. c #67B9EF",
"h. c #24A7EF",
"j. c #56B9F8",
"k. c #A5CEF7",
"l. c #37403E",
"z. c #CDD6EC",
"x. c #625869",
"c. c #312C2D",
"v. c #8E6B4D",
"b. c #4A7DBD",
"n. c #68A7ED",
"m. c #275684",
"M. c #076FD2",
"N. c #118CEF",
"B. c #6AD6F9",
"V. c #DEEFFF",
"C. c #47B6F7",
"Z. c #8ECEF7",
"A. c #A5CEFF",
"S. c #B5D6FF",
"D. c #C2C2BE",
"F. c #88A8E2",
"G. c #58A5F0",
"H. c #5290D0",
"J. c #BBB5AD",
"K. c #18A5F3",
"L. c #D3EFFF",
"P. c #EFF7EF",
"I. c #4C536B",
"U. c #1582DC",
"Y. c #B5D6EF",
"T. c #A37552",
"R. c #088CEF",
"E. c #37B6F7",
"W. c #2E648A",
"Q. c #88C7FE",
"!. c #BDDEFF",
"~. c #BEBCDE",
"^. c #73C6EA",
"/. c #1F5CA6",
"(. c #91CEFF",
"). c #B6C0DE",
"_. c #342016",
"`. c #77ABE9",
"'. c #234867",
"]. c #2477CA",
"[. c #0084EF",
"{. c #0894EF",
"}. c #3B7FBB",
"|. c #308CDD",
" X c #9CCEF7",
".X c #B24C4B",
"XX c #58A0DB",
"oX c #046ADE",
"OX c #0B64BB",
"+X c #29B5EF",
"@X c #75A9D8",
"#X c #B1DEFF",
"$X c #9CC6FF",
"%X c #9CCEFF",
"&X c #316EAE",
"*X c #64331A",
"=X c #27101F",
"-X c #310205",
";X c #07080B",
":X c #4E0103",
">X c #491519",
",X c #6A0407",
"<X c #781C1F",
"1X c #D4D2CC",
"2X c #161816",
"3X c #83080A",
"4X c #081118",
"5X c #020202",
"6X c #0C2C57",
"7X c #CEF7FF",
"8X c #AC2B36",
"9X c #182121",
"0X c #94C6FF",
"qX c #118CF7",
"wX c #CB3C4A",
"eX c #D84D5B",
"rX c #B82934",
"tX c #983E38",
"yX c #E49381",
"uX c #F5B998",
"iX c #E7BD8C",
"pX c #D9B18B",
"aX c #E7BD94",
"sX c #C79B75",
"dX c #E4A78A",
"fX c #29B5F7",
"gX c #AE7A61",
"hX c #F7AD94",
"jX c #ECC698",
"kX c #E6AB96",
"lX c #C7A084",
"zX c #0D4E90",
"xX c #BC615C",
"cX c #EDBEA0",
"vX c #135C98",
"bX c #063B7F",
"nX c #055EC6",
"mX c #0856AC",
"MX c #1269DC",
"NX c #E4DDD3",
"BX c white",
"VX c #F7F7EF",
"CX c #F7FFFF",
"ZX c #FFF7F7",
"AX c #629CE2",
"SX c #EAE7DC",
"DX c #F7FFF7",
"FX c #FFFFF7",
"GX c #088AF7",
"HX c #008CEF",
"JX c #007BF7",
"KX c #EFFFFF",
"LX c #E7FFFF",
/* pixels */
"  . X o X O X + X + X + X . X X X + X + X @ + X X O X X X + X X X # X + X O + @ X @ + @ X + X X X + $ X $ O X @ $ X X . X o X X X + X + X # X X X @ + . X @ X @ X O X + $ + X + X + X + X + X o X @ X o X @ + @ X @ X + X + + + X @ X + X + X X X X X + X + X + X X + + X + X + $ + X + X + X X X X X + X + X + X + X + X + X + X + X + X + X + X + X + X + X X $ + X X $ + X + X + X + X + + + X + X + X @ X o X o X X $ X % & % % * = - ; : > , , < 1 2 3 4 5 6 6 7 7 8 7 8 7 7 9 7 9 0 9 9 9 9 q q q 5 w q e q w q e q q q q 5 q 9 q 9 q 9 q 9 q q q q r t t t r t t t r t y e y t t e r e y e r t y t y t y u i u i u i u y u p u p u p u p a p a p a p a s p s s s p s d s p p p p u i u y t i u a i p a p d f f g f h f j f k h l h k h j h k l l h z z z x c z z x c z z x v b n m M N B V z C Z Z A S D - F G F S H J K L h d d p P I n N M U Y u p p p T p y y u R E W Q B ! ~ t p y p u p a p ^ s p d P s d f f f / n ( ) ) E k x x v z v v v v _ v _ ` ' ` _ ` ' ` ' ` ' Z ' I ! ) ] [ { } | _  . ... ...X... .X. .o.U O.+.+.",
". $ X $ + X + X X X X X X X X @.+ X X X X X X X X X X X X X X X X X X X X X X X X X X X X X X X X X X $ X X X X X X X X X & X $ X X X X X X X X X X X X + X + X X X X X X & X X X X + $ X X X X X X + X X X X X X X X X X X X X X X X X + X X X X X X X X X X X X X X $ X X X X X X + X X X + X X X X X X X X X X X X X X X X X X X X X X X X $ X X X X X X X X X X X X X X X X X X X X X $ + X X X + X + X + $ X X X $ X & X % % * * #.- $.$.%.%.&.*.2 2 4 4 =.6 7 7 8 8 -.7 -.7 7 0 8 9 7 9 9 9 9 q 9 q q q 5 e q e q q q q 9 q 9 5 9 9 9 ;.9 q ;.q q q q t q t e t e t e t e t e t e t e t e t e t e t e y t u t y t u u y u u u u u u u p u a a p u a a p a p a p a p a d a p u p u u t y e t t y u i u p a d P f d f f g f h f j :.j :.j :.j :.l :.l :.z :.x :.h :.>.>.x :.x h ,.Y E <.W Q } 1.c 2.3.: - 4.G #.F - 5.6.2.7.h d d a p a g b B Q +.8.R 9.0.u y t y e t q.} W W w.V q u u i u u u p u a a P a a a s d f d e.b ( r.M } Y h z x z z v c v v v v ` v _ v ` ` ` v _ ` ' ` b t.( ( B ! E y.' '  .Z  . ... . .u. .u.| } r.i.",
"$ . X @ X . X + X X X + X X X + + X X X X X X . X X X @ X X X + X X X + X X X X X X X X X X X + X X X X X X X X X X X + X + X + X X X + X + X + X + X + X X X o X X X @ X X X @ X @ X @ X X X + X X X + X X X X X X X X X X X X X X X + X o X + X X X + X X X + X X X + X X X X X X X + X + X X X X X @ X X X + X X X + X + X o X X X o X o X + X @ + @ X X X @ X X X @ X X X @ X X X @ X + X @ X X X X X X X X X X X o X X X X @.p.= a.; $.> > , &.s.1 2 2 4 5 6 9 7 7 8 7 7 0 7 9 7 9 9 9 9 q 9 q 5 q q e q e q e q e q q 5 q 5 q 9 q 9 5 9 q 5 q q q q t e y t t t y t y e y e t e y e t e y e t e y t y t y u y u i u i u p u p u p u p u p a p a p a p a s p s a s d s p s a p u i u y e y t y t i i a a s a s d g f g f h f j f j h j f j h l :.l h z h l :.x :.l h z :.x :.z :.:.q.E [ [ } d.f.g.: D - G #.= h.D j.J k.L P d p p T p t q.l.[ r.r.Y y u y t y t y z.x.( w.c.! z.y u i u p u p u p a p a s p s d g f f P / E r.M Q v.y.l v x v z v v ` v _ v ' ` ' ` ' ` ' ` ' ` b.O.( ( [ B x.1.' Z  .u. . ....... .X.3...n.m.+.i.",
"M.$ X X X $ X X X $ X X X @.X X + @.X X X $ X X X $ X X X $ X X X $ X X X $ X X X X X X X X X X X X X X X X X X X $ X X X $ X X . X X X X $ X X X $ X X X $ X X X $ X X X $ X X X $ X X X $ X X X $ X X X X X X X X X X X @.X X X $ X X X $ X X X $ X X X X X X X X X X X $ X X X @.X X X $ X X X $ X X X $ X X X $ X X X $ X X X @.X X X $ X X X $ + X X $ X X X $ X X X $ X X X $ X X X $ X X X $ X X X X X X X X X X X $ X % @.N.= G ; > > B., < 1 2 2 4 4 V.9 7 7 7 7 8 7 7 9 8 9 9 9 9 ;.9 q 9 q q q q q q e q q q q q q 5 q 9 q 9 5 9 q 9 q 5 q q t q t e t e t e t e t e t e t e t e t e t e t t y t u u y u u u i u u u p u a u p u a ^ p u a a p a a a P a P p P a a u p u u t u e t e u 9.u u i u a a s a f f f f f f h f h :.j f h :.j f h :.h :.l :.h :.:.:.h :.h :.L :.h :.:.Y [ ( Q l.| g.- D a.F N.N.= - C.Z.A.S.d T a T 0.u u t b } m r.v.D.t t y e u e I [ M W c./ e u y u p u a u a T p a p a d P f d f P :.s | <.N m ) V k z v x v c ` ,.v v ` v _ v ` v ` ` ' v F.x.<.( ] Q n | _ _ ' Z ' Z  .3...X.X.Z ....G.H.d.J.",
". O X X X + X + X + X + X + X + X + X + X + X + X + X + X + X + X # X + X + X X X X X X X X X X X X X X X X X X X + X + X + X @ X X X X X + X + X + X + X + X + X + X + X X X X X X X X X @ X + X + X + X X X X X X X X X # X + X + X + X X X + X + X + X X X X X X X + X + X + X + X X X + X + X + X + X + X + X + X + X X X X X # X + X + X X X X X X X X X # X X X X X X X X X X X X X + X X X X X X X X X X X X X X X @ X X p.* K.h.$.$.%.J &.*.1 1 2 0.4 L.9 9 P.9 7 9 9 9 9 ;.9 q ;.q 5 q q e q e q r e t q r q t q r q q 5 q q q 5 q q q q r q t e r t y t y t y t y t y t y t y e y t y t y u y t i u p u p u p i p a p T p ^ p a p a p a p a p a d p d a s a d a s a p u p u y t y t t t y u i u p a s d s f g f j f h f j h j h l :.l h l :.x :.z h x :.z :.h :.h :.h :.h :.f d v d.( W B I.H.- U.p.% % X % = C.3.A.Y.p P y 0.u T u t R } M N r.U z.t t y t i E B Q w.V r u y u p y p u p a P a d P s d g f g f h :.l ,.E [ M ) x.I k ,.` v ` v _ ` _ ` ' ` _ ` ' ` ' ` ' I.} T.W Q n b y.'  .Z  .u. . ...X... .A ..G.5.D b.U ",
". $ X X X X X X X X X X X X X X X X X X X X X X X X X X X X X $ X X X X X X X X X X X X X X X X X X X X X X X X X X X X X X X X X X X X X X X X X X X X X X X X X X X X X X X X X X X & X X X X X X X $ X X X X X X X X X X X X X X X X X X X X X X X X X X X X X X X $ X X X X X X X X X X X X X X X X X X X X X X X X X X X X X X X X X X X X X X X X X X X X X X X X X X X X X X X X X X X X X X X X X X X X X X X X X X X * R.a.h.E.$.%.%.&.*.s.1 2 9.4 4 V.9 6 9 7 9 P.9 9 9 9 q 9 q 5 q ;.q q q q e q t q e q e q q q q 5 q 5 q 5 q q e q q q t e t e t e t e t e t e t e t e t e t e y t u t y u u u y u p u i u a u p u a u p u a u p u a a p ^ a a d a P a p a p a p u u u u t t t y e t t y u i u p a s d f d f f f f :.:.l f h :.l f h :.l :.h :.h :.h :.h f h :.h f :.d f P h :.1.V [ Q [ W.U.% X X X $ % h.$.Q.L !.3 0.0.t u t t e e / [ W ) r.Y q t 9.e / } W B [ D.t y u T u p u a a p a p a s P s d f d h :.l h :./ n v.) M E ~.v c v ,.` v ` v ` v ` v ` ` _ ` ` | n +.( B { x.F.Z  .Z ' Z  .Z  .3...3.....A H D G.G.| ",
"$ . X X X + X + X X X + X X X + X X X X X X X + X X X + X X X + X X X + X X X X X X X X X X X X X X X X X X X X X X X + X X X X X X X X X + X X X X X + X X X + X X X + X X X X X X X # X X X + X X X + X X X + X X X X X X X + X X X X X X X X X X X + X X X X X + X X X X X X X X X . X @ X @ X X X @ X @ X X X X X @ X X X X X X X + X X X + X X X X X X X X X X X X X X X X X X X X X X X X X # X # X X X X X X X @ X X % p.= F ; $.> ^.Z.Z.*.1 2 3 9.e 5 5 9 5 9 5 9 9 9 5 9 q 9 q q q q q q q q w q e q t q e q q q q 5 q q q q e q e q t e t e y t y e y t y e y e t e y e t e y e y t y u y u i u p u p ^ p u p ^ p i p ^ p a p a p a p a p a s a p a s p p a d a p i p u i u y t y t y u i u p ^ p a s s f f g f g f h h l :.l h l h l h l h x :.h :.h :.h :.h :.h :.h f :.d h h L A.H.l.Q ( n /.. X @ o X = 5.%.(.S.d 0.0.u y t y e y t y V c.M r.<.q.q e ).} ( w._.b t i u p T p T p a p a s p s d f f f f g f l h z l l V v.) N v.V ,.v v _ ` _ ` _ v ` v _ ` ` ` ' I n } ) Q w.! | Z  .Z  .u. .Z  . ... ... .g.A G.A A Z `.",
"M.$ + X + $ + X X $ X @.X $ X X X $ X X X $ X X X $ X X X $ + X X $ X X X @.X X X $ X X X $ X X X $ X X X $ X X X $ X X X $ X X X @.X X X $ X X X $ X X X $ X X X $ X X X $ X X X $ X X X $ X X X $ X X X $ X X X @.X X X X X X X X X X X X X X X $ X X X X X X X $ X X X @.X X X @.X X + $ + X X $ X X + $ X X X @.X X X $ X X X @.X X X $ X X X $ X X X $ X X X X X X X X X X X X X X X $ X X X & X X X X X X X $ X X @.* N.= #.; $.%.%.&.&.< 1 2 2 4 e V.5 9 5 9 9 9 9 9 5 9 q 9 q 5 q ;.q q q q q q q 5 q q q q q q q 5 q 9 q 5 q q q q e q t e t e t e t e t e t e t e e e t e t e t e t t u u u u p u a u p u a u p u a u p u a ^ p u a ^ p a p a p a p a p a a a p u a u y u u u u t u t i u i u p i p p f P f f f f f f j :.h :.h f h :.l :.h :.:.f :.:.:.S.:.S.h d :.P d P d S.L L (.`.m.) N [ '.].@.% p.#.E.%.Q.7.P T T 9.y 9.y e t e u e ).x.M r.+.<.q.J.! [ Q B l.Y.u u y u a u a a p a a a P P f d f P h :.h :.l h z >._ V ( M ) } I ,.` v ` K ` v ` v ` v ` v ` ' I.O.} m Q [ b _ ' Z  .Z ' Z  .3... ...Z 3.Z X.3.3.` Z ` ",
"$ O X X X @ + + X + X X X + X + X + X + X + X + X + X + X + X + X + X + X X X X X X X + X + X + X + X + X + X + X + X + X + X + X + X X X X X X X + X + X + X + X + X + X + X + X + X + X + X + X + X + X + X X X + X X X X X + X X X X X X X X X + X + X X X X X X X + X + X + X # X + X + X + X + X + X O X X X X X X X + X + X + X + X + X + X + X + X + X X X X X X X X X X X X X X X + X X X # X X X X X X X O X [.N.{.a.h.; $.> ^., , < *.2 3 9.9.L.e 5 5 9 q 9 q 9 q q q q q q q q q q q q r q e q w q q q r q q q q q q 5 e q e q r e t t y t y t y t y t r t y e r e t e r t t t y u y u p u p u p ^ p a p a p a p a p a p a p a p a p a s P p a s a p a d a p a p ^ p u p u i u i u i u p ^ p a s d s d g f g f h f j h l h j h j h l :.l :.h :.h :.h :.h :.L :.h :.h d h S.L A.K Q.A }.t.[ [ ! m.|.F C.6.J J  XY.0.0.u 0.T 0.u y t y t y e I } .Xr.N B c.w.{ N _.Y t u p T p 0.p a P p s p d d g f g f h h l h z x z x c l I ! N ) [ E y.v ` v _ ` _ v _ ` _ v ' ` b t.O.Q Q { I.y.' Z X.u. .Z .. ... ...3. .Z  .Z Z ` Z _ _ ",
"M.$ X X + X X X X X X @.X X X X X X X X X X X X X X X X X X + X X X X X X X X X X X X X X X X X X X X X X X X X X X X X X X X X X X X X X X X @.X X X X X X X X X X X X X X X X X X X X X X X X X X X X X X X $ X X X X X X X X X X X X X X X X X X X X X X X X X X X X X X X X X X X X X X X X X X X X X X X X X & X X X X X X X X X X X X X X X X X X X X X X X X X X X X X X X X X X X X X @.X & X X X X X X X % % = a.h.- $.$.> %., Z.< 1 2 2 4 9.4 L.V.5 9 5 9 5 9 q 5 q 5 q q q q q q q q q q q q q q q q q q q 5 q 5 q 5 q q e q e e t e t t u t u t y e t e t e t e t q t e t e t t y u u u p u a u p u a a p u a a p u a a p u a a p u p a d a P a p a a a p u a u p u a u p u u u i u a u a a p a s P f f f f f f h :.j :.h :.h f h :.:.f h f :.f h P :.d h :.L d :.d S.S.L L  X(.6.4.U.W.l.N Q ! XX, (.*. X*.S.T 0.T T T P T 0.t y e y u u z.x.( N W N N N ] w.! R u T u p u a a p a P p s d f d f d :.f l :.l h z x z x z x b O.) Q O.V v ,.` f.` ,.` v ` v ` v o.I.m ( { [ { I ' Z ' Z  .Z  .Z  .Z  .Z Z ` Z _ Z ` ` ` _ K ",
"$ O X X X X X + X X X + X X X + X X X + X X X + X X X + X + X + X X X + X X X X X X X + X X X + X X X + X X X + X X X + X X X + X X X + X X X X X X X + X X X + X X X + X X X + X X X + X X X + X X X + X X X + X X & X X X X X X X X + X X X + X X X + X X X X X X X X X X X + X X X + X X X X X X X + X X X X X X & X X X X + X X X + X X X + X X X + X X X @ X X X X X X X X X X X X X X X X X X X o + o X X % * = a.G ; $.: %.%.&.&.< 1 2 3 9.9.4 4 V.5 9 q 9 q 9 q q q q e q q q e q q q e q q q e q q q q q q 5 q q q 5 q q e q r e t t y t y t y u y t y e t e y e t q t e t e y t y u p u p ^ p a p ^ p a p a p a p a p a p a p a p a p a p a s p p a p a p a p a p ^ p a p u p u a u p a p a s p s d f f f f h f h f j h l :.j :.h f h :.h f h :.h d :.:.h L >.h :.P :.S.>.A.K 2.6.S U.X oX'.[ Q c.| Y.7.L S.d T 0.T d 3 S.d d T y 9.y u y t u q.! W B ] N N { c.I t p T p ^ p a p a s P s P g f f f h :.l :.z x z x c z c C C q.E ) N r.E / v v ` ` ` ` ` ` ` ` y.d.[ m { B n | ' Z  .Z  .u. .Z ' Z  .Z ' ` ' ` Z _ Z ` _ ` _ ",
"M.$ X X X $ X X X $ X X X $ X X X $ X X X $ X X X @.X X X $ X X X $ X X X @.X X X $ X X X $ X X X $ X X X $ X X X $ X X X $ X X X $ X X X X X X X $ X X X $ X X X $ X X X $ X X X $ X X X $ X X X $ X X X $ X X X $ X X X X X X X X X X X $ X X X $ X X X X X & X @.X X X $ X X X $ X X X $ X X X $ X X X X X X X % X X X $ X X X $ X X X $ X X X $ X X X $ X X X X X X X X X X X X X & X X X @.X $ X $ + % % N.N.#.h.; ; > > %.J &.< s.1 4 9.4 4 V.5 V.5 9 V.9 q 9 q 5 q 5 e q e q q q q q q q q 5 q q q 5 q 5 q 9 q 5 q 9 q q q q t e t e t t u t u t u t t e t e e e e q q q e q e e t e u u p u a u p u a u p u a ^ p ^ p a p u a ^ p u a ^ p ^ p ^ p u a 0.p T a T p u a u p u a u p u a ^ a ^ p a d P f d f f f f h f h f h f h f :.P :.f :.P f P f P P P h S.C L L P S.S.>.A.K Z.J j.|.& & % OXd.N { } D.d 3 3 T T T d d S.S.S.3 0.9.u t u 9.u t t b _.[ Q M N { E i u u p u a a p a d P s P f d h P :.:.x :.x h z :.z x C x C c x I t.Q ) r.E ,.v c v v ` K ` v v b O.( ] Q B b u.` ' Z  .Z ' Z Z ` Z ` _ ` ` ` ` ` ` ` ` 2.` ,.",
"  O X X X + X + X + X + X X X + X + X + X + X + X + X + X + X + X + X + X X X X X X X X X # X + X + X + X + X X X + X + X + X + X + X + X O X X X + X + X + X + X + X + X + X + X + X + X + X + X + X + X + X X X + X X X X X X X X X X X + X + X + X X X X X X X X X X X + X + X X X + X + X X X + X + X X X X X X X X X + X + X + X X X + X + X + X + X + X X X X X X X X X X X X X X X O X + X X X X % % = = h.h.; $.> > B., &.*.1 3 2 0.4 e 5 5 V.5 9 q V.q 5 q q q q t e e q t q e q w q q q q q q q q q q 5 q q q 5 q q e q r t y t y t y t i u y t y t y t y e t q r q e e r e t t y u i u p a p a p a p a p a p a p a p a p a p a p ^ p a p a p a p a p a p a p a p a p a p a p ^ p a p a s P s d f f g f h f h f l f j :.j :.h f h f h f g f s P d d f P h L k.h >.h k. XQ.2.Q.^.- N.N.a.N.U.W.t.W Q U 0.d T 0.3 Y.S.h Y.L 7.Y.P a u y t y u y e / c.B Q W [ { J.u u p a d a d p s d f d h f h :.l :.z h z l z x z z C z v z v c v b ( r.M } | v ` v ` v _ ` ` o.! +.N } { ! I `  . .X.Z ' Z u.Z Z ` _ ` _ ` _ ` ' ` _ ` _ ` ` ",
"M.$ X & X X X X X X X X X X X X X X X X X X X X X X X X X X X X X X X X X X X X X X X @.X & X X X X X X X X X X X X X X X X X X X X X X X X X X X X X X X X X X X X X X X & X X X X X X X X X X X X X X X X X X X X X X X X X X X X X & X X X X X X X X X X X X X X X @.X X X X X X X X X X X X X X X X X X X X X X X @.X X X X X X X X X X + X X X X X X X X @.X X X X X X + $ X X X X X X + $ X % p.{.= a.K.+X; j.> B., &.&.s.< 2 2 4 9.4 4 V.5 9 5 9 V.9 q 9 q q q q q q e q e q q q q q q 5 q 5 q 5 q 5 q 9 q 9 q 9 q 5 q q e e t e u t y t u t i t u t t e t e t q e q e q e e t e t t y u i u p u a ^ p ^ p u p u p u p u a u p u a a p u i u p u a u p u a u p u a u p u a u p u a a p a p a s P s d f d f f h f h g j f :.:.h f :.f f d s P d a p a d p P P L 7.L 7.k.k.2.2.Q.Q.: - F C.C.S S @Xd.( M } q.9.!.!.S.S.Y.#XY.S.L 7.Y.T y t u t y t t q.n [ [ w.B V y T a T P p d P d P d P :.d h f :.:.x :.x :.z x z x C x z x v c v x y.V +.M ( v.1.$X` v ` v _ u.I.v.) [ [ ! | v Z Z  .Z u.Z Z ` Z ` _ v ` ` ` ` ` v ` v ` v ` c ",
"$ . X o X X X + X X X + X X X + X X X + X X X + X X X + X X X + X X X + X X X X X X X + X X X + X X X X X X X X X X X X X X X + X X X + X + X + X X X + X X X + X X X + X X X + X X X + X X X + X X X + X X X X X X X X X X X X X X X X X X X X X X X X X X X X X X X X X X X X X X X X X X X + X X X + X X X X X X X + X X X + X X X X X X X + X X X + X X X + X X & # X X X @ X X X + X X % X % * = a.h.G E.$.%.%., , < *.1 1 2 2 4 9.5 5 9 5 9 5 9 5 9 q 5 q q q q e q t q w q e q e q q q q q q 5 q q q 5 q 5 q 9 q q q q t e t e y u i u i u i u i u y t y e t e t q e q w q e e y t y t i u ^ ^ p a p a p a p ^ p a p a p a p u p u p u p u p u p u p u p ^ p u p a p a p a p a p a p a s p s P f f f f g f h f h :.l h l h h f h f f d f d s a s a P a d P h 7.h h k.k.2.Q.^.Q.g.H S 6.J Z.J Z.%XY O.) N E p !.S.S.S.3 S.Y.h Y.h S.p u y u y u y u e.I.[ W w.[ V t p T d p d P f d s d h :.h :.h :.z h z L z x C z C x v z v c v c v x | U Q ) m V _ v _ ` ' ` &X! r.Q c.n b v ' _ Z _ ' Z u.` _ ` ` ` _ v ` ` _ ` ` v _ v ` v v ",
"M.$ X X X X X X X $ X X X X X X X $ X X X @.X X X $ X X X $ X X X $ X X X $ X X X $ X X X X X X X $ X X X X X X X $ X X X X X X X $ X X X @.X X X $ X X X $ X X X $ X X X $ X X X $ X X X $ X X X $ X X X X X X X $ X X X X X X X X X X X X X X X p.X X X $ X X X X X X X X X X X X X X X X X @.X @.X X X $ X X X $ X X X $ X X X $ X X X $ X X X $ X X X $ X X + @.X X X $ X $ X @.X % @.R.* = = #.K.+X; > > , , < < s.1 2 2 4 9.4 5 V.9 P.9 6 9 7 9 9 q 9 q q q q q q e q e q q q q q q 5 q 5 q 9 q 9 q 9 q 5 q 9 q 5 q q e q t e t t y u u u i t u u y t u 9.t e e q e q e q e q e e t e u u i u a i p ^ a u p u a u p u u u i u u u u u u u y u u u a u a u a u a u p ^ a u p ^ a ^ p ^ p a P a s f f f g f f f h :.h :.h f h f f f f P s d p ^ a a p a P P h S.h 7.k.A.2.2.Q.Z.Q.3.j.J Z.7.S.3 7.#Xg 8.v.Q B / 3 S.S.!.3 3 Y.#X#X3 P T T u u u u u u ).n [ B B Q v.J.u P a d a d P f P :.f :.S.h :.z L x L x h x x C x z x C x c c v C v ,.b } M r.v.Y v ` Z ` | ! t.v.Q B I.v _ ` ` ` _ ` Z ` ` ` ` ,.` v ` ,.` v ` c v c v C v z ",
"$ . X X X X X + X + X + X X X + X O X X X X X + X + X + X + X + X + X + X + + O X O X X X # X + X + X X X X X X X @ + @ X X X + X + X X X # X + X + X + X + X + X + X + X + X + X + X + X + X + X + X + X X X X X @ X X X @ X X X X X X X # X @ X X X X X X X X X @ X X X X X X X X X X X X X + X + X + X + X @ # @ X X X @ X X X X X + X O X + X + X X X X X X X @ X @ X @ + @ X O X @.R.* = a.h.h.; $.> ^., &.< *.2 3 9.0.4 4 5 5 =.9 6 9 6 9 9 ;.9 q ;.q q e q r e t e r e t q e q q q e q q 5 q q q 5 q q q q e q e q r e t t y t y u p u p u p u p u i u y t r t t q r e t q r e t t y u i u p u p a p a p u p u p u p u p u y u y u p u i u p u p u p ^ p u p a p a p a p a p a p a s a d p s f g f h f h f k h l h l :.h :.h f h f f d s a p a p P f d h S.L h k. X2.2.2. XZ.2.u.Z.%X7.S.!.d 3 0.t / U [ [ } ).d 3 d !.d P d 0.d !.p y y u y u p u | [ B [ B M ) O./ a d P s d g f f f h :.x h z z C x c x c z z z v C c z v ,.v c ` v v I n r.) r.m 1.` ` o.I.O.M ] [ n I _ ` _ ` ' ` _ ` _ ` _ ` _ v _ ` _ v ` v v c v c ` v v ",
". $ X & X X X X X X X X X X X X X X X X X X X X X X X X X X X $ X X X X X X X X X X + X X X X X X X X X X X X X X X @ X X X X X X X X X X X X X X X X X X X X X X X X X X X X X X X X X X X X X X X X X X X X X X X X X X X X X X X X X X X X X X X X X X X X X X X X X X X X X X X X X X X X X X X X X X X X X X X X X X X X X X X X X X X X X X X X X X & X & X X X X X X X X X X X R.= K.h.+X; > > B., &.< s.2 9.9.4 4 5 4 =.9 6 6 7 6 P.9 7 9 9 9 9 q 5 q q e q t q e q t q e q q 5 q q q 9 q 5 q 5 q 5 q q q q q q e q t e t t y u i u p u u u y u u t u e t e t q e q q q e q t e t t t t u u y u u u i u u u u t u t y t u t u t u t y t u u u u u u p u i u p u a u p u a u p u a a p a d P f d f f f f h h l :.h :.l f :.f h d f d s a a a a a P p d P S.S.h A. X X X7.k. X X*.7.P d T 0.y T u T i V } [ } V 0.T T P !.p T 0.u T u u t u u y u ).<.( W B W M ) ) E R a d P f d f P h :.h :.x L C z z L z x C x c c v c v c v c v c v K ` | <.+.r.v.x.| V x.O.v.Q ] B V v v ` v ` v ` ,.` v ` v ` v ` ,.v K v ,.v c v c v c ` c ",
"$ . X o X X X + X X X + X X X + X X X . X X X + X X X + X + X + X X X + X X X + X + X O X X X + X X X X X X X X X X X X X X X + X + X + X + X o X X X + X X X X X X X + X X X + X X X + X + X o X X X X X X X X X X X X X X X X X X X @ X X X X X X X X X X & # X X X X X X X X X X X X X X X + X X X + X X X X X X X X X X X X X X X + X X X + X X & X X X & # X X X + X X X X % % N.= K.4.$.$.> %., , &.*.s.1 9.9.L.4 5 5 6 5 P.6 7 P.7 9 7 9 9 9 9 q 5 q q e e t q t q t q t q e q e q q q q q q q q q q q e q e q t e t e y u i u p u a u p u p u p u y t y e t e t q e q e q e q r e t e y t y u y u y u i u y t y t y t y t y t y u y u y u y u p u i u p u p u p ^ p u p a p ^ p a p a s P f s f f f f h f j :.l h l :.j :.h f h f f P s a s p s P d d h d h h k.L L 7.L h k.L h P d T p T 0.y 0.T y ).! ( M [ Y u p 3 d 0.a u a u y u i u i u u | N ( w.! x.} .Xr.( Y p d f P h :.h :.z >.z >.c x z x c x z x c c v c ` c v K ` v c C ` K 1.E <.} w.c._.l.B r.Q W B x.1.v ` K ` v ` ,.` ` ` v ` v ` v ` v ` v ` v ` v ` v ` v v ",
"M.$ X X X $ X X X $ X X X X X X X X X X X $ X X + $ X X X $ X X X $ X X X $ X X X $ + X X X X X X $ X X X $ X X X $ X X X $ X X X $ X X X $ X X X $ X X X X X X X X X X X X X X X $ X X X $ X X X $ X X X $ X X X $ X X X $ X X X X X X X $ X X X X X X X @.X X X @.X X X $ X X X X X X X $ X X X $ X X X $ X X X $ X X X $ X X X $ X X X $ X X X X X X X @.X @.X @.X @.X p.@.p.* = = h.h.$.> B., &.&.&.< s.2 9.4 =.5 6 =.7 6 7 7 8 7 8 7 8 7 7 9 9 ;.9 q 5 e q e q e q e q e q e q q q q 5 q q q 5 q q q q q q e q e e y e u u y u i u i u u u a u a u y 9.t e t e e q e q q q q q e q t q t e t e t 9.t t u t u 9.t e t e t e t 9.u 9.u 9.u u u u u u y u u u p u u u p u a u p u a ^ p a p a d P f d f d f f j f h :.h f h :.h f f f f P d P d P d P S.P S.d S.S.L S.h S.S.S.Y.S.S.P d !.p T 0.u T u T T T 1.r.) B E R u p T a u u u y u u u i u u ~.O.t.[ l.q.R x.v.N ) O.~.P P :.S.h :.h :.x L x L C L C L C A.c c v c K c K c K 2.` >.v ` ` $X| ! B W B [ *X( v.Q w.x./ k v c v f.v c v v ` c v c v c v c v c v K ` c ` K v c v c ",
"  O X X X + X + X + X + X X X X X X X + X + X + X O X X X X X + X + X + X + X + X + X + X + X + X + X + X + X + X + X + X + X + X + X + X + X + X + X + X X X X X X X + X X X X X + X X X X X + X + X + X + X + X + X + X + X + X X X X X X X X X X X X X X X X X X X X X + X X X X X + X + X + X + X + X + X X X + X + X + X + X + X + X + X + X X X X X + X X X # % @.% % % * = {.a.F +X$.%.%., ^.&.&.< 1 2 2 4 5 =.9 7 P.7 7 8 7 7 7 7 9 7 9 9 q 5 q q e q e q r e t e r e e q t q e q w q e q w q e q r e t e r t y t y u u 9.u u u t a u p u p u p u y u y e y e t q e q e q e q e q r e t e r t y t y t y e r t t e r t y e y t y t y t y u y u i u p u p u p u p u p u p u p a p a p a d P f f f f h f h f j h l :.j :.l :.j f g f f P s d h f :.d h S.:.S.h S.:.S.h S.S.d S.P d a d T 0.y p T 0.T d a ~ V ( W [ Y y 0.p u i u i u y u i u p p V v.B c.b u P 1.} Q Q r.U Y.h f h :.h h z x c z C z c z z x c c v c ` K K c ` ` Z ` ` c _ ` ` | n ( B Q Q M M m { ! | v v $X` v ` v _ v ` v _ v v K ` v v f.` v ` f.` v v K ` c v ",
"$ $ X X X X X X X X X X X X X X X X X X X X X X X X X X X X X X X X X X X X X X X X X X X X X X X X X X X X X X X X X X X X X X X X X X X X X X X X X X X X X X X X X X X X X X X X + @.X X X X X X X X X X X X X X X X X X X X X X X X X X X X X X X X X X X & X X X X X X X X X X X X X X X X X X X X X X X X X X X X X X X X X X X X X X X X X & X X X X + X X @.& % p.N.* = = a.a.h.4.: > , J &.Z.< *.s.2 4 4 =.6 7 7 7 7 8 7 8 7 8 7 7 9 7 9 9 q ;.q q t q t e t e e e t q e q q q q q e q e q e q e q t e t e t e e e d ,.1./ I 1.q.g t t i u u u u u y e t e e q q q q 5 q q q q q q t q t e t e t e t e t e t e t e t e t e y e u t y t u u u u u u y u u u i u u u p u u u p a a a p a d P f d f f f f :.f l f h :.l :.:.f h f f d f d f d f P h h h S.h S.d P d d S.P d P d 3 a T T u T u 0.u 0.p S.P 1.E [ ( } ~.u u u u y u u u u u u u q.<.) B n ~ P d P | B M r.( Y a h P :.:.L >.C z C >.C x z >.z z c C c $X` c ` ` Z 2.Z ` K C ` v b x.( [ ] ( ] ] [ ! b ,.v c ` ,.` ,.v ,.` c v ,.` c v K v c v c ` c v c v C c c v z ",
"  o X + X X X + X X X + X X X X X X X + X X X + X X X + X X X X X X X + X X X + X X X X X X X + X X X + X X X + X X X + X X X + X X X + X + X + X X X + X X X X X X X + X @ X X X X X X X X X + X X X + X X X + X X X + X X X + X X X X X X X X X X X X X X X # X X X X X X X X X X X X X X X + X X X + X X X + X X X + X X X + X X X + X + X + X X X X X X X X X X % X p.* = * = = K.#.; $.> ^., , &.&.< 1 2 2 5 5 6 6 7 7 7 P.7 6 7 9 7 9 7 9 9 q 5 q q e q r e t e y e t q t q e q t q e q r e t e y e t 9.t e t e p Y I.c.=X=X-X=X-X=X=Xb q.t t u i u y t y e t q e q q 5 q q q q w q e q t e t e y e t e t e t e y e t e y e t t y u y u y u y u p u i u p u i u i u p u p u a a p a p a s P f f g f h f j :.h :.l h l :.l g j :.h f h f h f f P h h L h >.:.h p d p d P d p d P d !.p u p u p u p a d P h p V r.M B b t i u p u p u i u p a s V } M w.| p f f P ,.! Q ) N x.q.P h :.L h C C c C c z z x C z c c ` K ` K ` ` u.Z u.Z _ K K v ` | x.) Q v.m ( [ [ n / z z ` ` ` v ` v v K ` K v K ` v ` K ` v ` c ` c v c v c v c v ",
"M.$ X X X $ X X X $ + $ X X X X X X X X X $ X X X $ X X X X X X X @.X X X $ X X X $ X X X $ X X X $ X X X $ X X X $ X X X $ X X X $ X X X $ X @.X $ X X X $ X X X X X X X $ X X X @.X X X $ X X X @.X X X $ X X X $ X X X $ X X X X X X X X X X X X X X X X X X X X X X X $ X X X @.X X X @.X X X $ X X X $ X X X $ X X X $ X X X $ X X X $ X X X $ X X X $ X X X % [.p.% = = a.= #.K.+X; > > B., &.&.< < 2 2 4 4 6 6 7 7 8 7 7 6 7 6 7 9 8 9 9 9 9 q q q q e q t q e e t q e q e q e q e q e q e e e V.q q t t p Y.| n ;X=X:X>X,X<X,X<X,X>X-X=XI.q.i q t e t e e q q q q 9 q 5 q 5 q q q q q q e q e e t e t e t e t e t e t e t e u 9.u t u u u u u u u u u u y u u u y u u u a u a u p T P p d P f f f f :.f h f h :.h f h f h f :.f :.P :.d f P :.S.L L L 7.d 0.p !.p T a !.p T P T a u y u y u T 0.P 3 P 3 a 1XV r.W } q.e y u u u y u u u ^ J.E } W x.e.p f P d T | t.m Q ) V g f :.:.>.>.c A.c k.c k.x z c c c K ` K ` 2.u.Q.Z 2.` 2.` K c A.@XI.} ( ] ] [ ( [ l.V x v ,.v c v C v C K c v c v c v c v c v c v c v c K C v c c z ",
"  O X X X @ X X X + X + X X X X X X X + X + X + X + X + X X X + X + X + X O X + X + X + X X X X X + X + X + X + X + X + X + X + X # X X X + X X X + X X X + X X X + X + X @ X X X # X X X + X + X X X + X + X + X + X + X + X + X X X X X X X X X X X X X # X X X X X X X X X X X X X X X X X + X + X + X + X + X + X + X + X + X X X + X X X X X @ X X X + X X X # % * {.* = = K.a.h.4.$.$.%.^., Z.< *.s.1 9.9.5 5 6 6 P.9 6 9 6 5 6 9 P.9 9 ;.9 q q q q r e t e r e t e r e t e r e t V.q t ~ q.).q.V b I.I.n n =X;X;X2X-X=X,X,X,X3X,X3X3X3X,X:X-Xn I t q V.q V.e e e q q q q q w q e q t q t e r e t e r t t e y t t t y t y t y u y u i u y u y u y u i u i u p u p u p u p u p a p a s P s d f f f f h f h :.k h l :.l :.j f l :.h :.l :.h f h S.h :.>.h :.P d a P a p 0.p p d a p y p 0.p y p T p a d !.p u i 1.O.[ N E i u p u p u p u a p U ( B B | a h d h f f f b } W r.( Y s :.z >.c C c C c C c C v K ` 2.Z 2.u.Z  .Z 3.2.` 2.Z ` K x v v I.[ Q Q W B Q v.[ | v v ` K v c v K ` v ` K v K v c v v v K v c v c v c v c v c c ",
"M.$ X X + X X X X X X X X X X X X X X X X X X X X X X X X X X X X X X X X X X X X X X X X X X X X X X X X X X X X X X X X X + X X & X X X X X X X X X X X X X X X X X X X X X X X X X X X X X X X X X X X X X X X X X X X X X X X X X X X X X X X X X X X & X X X X X X X X X X X X X X X X X X X X X X X X X X X X X X X X X X X X X X X X X X X X X X X @.X % [.* * = = a.a.#.K.h.- C.$.%.%.&.&.< *.s.2 9.9.L.5 6 9 6 =.6 9 6 9 =.9 P.9 6 9 9 ;.9 q ;.q q e e e q t e t e t e t e e T u.b n c.4Xc.2X;X5X;X;X>X:X,X,X>X:X>X-X>X-X>X:X>X3X3X3X3X3X<X:X=Xn I b Y ).t 9 9 q q e 5 q q e q q q q q e q t q t e t e t e y t t t y t u t y u u u y u u u u u u u u u u u p u u u p u a u p a p a d P f d h d f f h f h :.l f h :.h f :.:.h f h :.h :.:.:.h S.L h h P P P d a a T p T p a p u T u 0.u p 0.p y p T 0.u u u R V W m Q J.t u p u i u p u / v.} c.I.R s P d d f d P ,.! N ) ( t.~ L L x A.C x c C c c v K 2.2.Z Q.3.Z 3.Z u.Q.Z 2.` 2.K L c A.x | c.] Q { B ( W E _ f.` c v c v c c c v c v c v c v c v x v c v x z z z x C C ` c ",
"  . X X X X X + X X X + X X X + X X X + X X X + X X X + X X X + X X X + X X X + X X X X X X X + X X X X X X X X X X X + X X X + X X X + X X X + X X X + X X X + X X X + X X X + X X X + X X X + X X X + X X X + X X X + X X X + X X X X X X X + X X X + X X X X X X X X X X X + X X X # X X X # X X X + X X X + X X X + X X X X X X & X X X X o X X X + & X % X * * = = a.a.#.F h.- ; $.> %., &.< *.s.1 2 2 4 4 V.5 =.5 9 5 9 5 9 5 =.5 9 9 9 5 9 q 5 e q e e y e t q r t t e y e Y.| 6X4X;X-X-X,X:X,X:X>X-X-X-X>X,X3X3X3X,X<X,X,X:X:X:X,X3X3X3X3X3X3X,X,X-X;X;X=Xn V J.q q 9 q V.e q e q q q t e e e y e y e y t y t y u y t y u y u y u y u i u y u y u i u p u i u p u p u p a p a s p d P f f h f h f h f h :.l h l h l :.j :.l :.l h h :.h :.h :.L h h d d P s P d a P T d p P T p T p u p a p T p T p u p u p t q.O.v.M x.Y.y u a i a u g E } M c.1.a d f d f f h :.:.| { ) N v.V h x >.c x c C ` K ` ` Z Z u.u.X.3.3.Z u.Z Z ` Z 2.` >.K f.v v '.B ( ( W [ [ N } 1.v K ` K ` K ` c v c v c v c v c v x v c v x c x z x c c ` 2._ ",
"M.$ X X X $ X X X $ X X X $ X X X $ X X X $ X X X $ X X X $ X X X $ X X X @.X X X X X X X $ X X X $ X & X X X X X $ X X X $ + X X $ X X X @.X X X $ X X X $ X X X $ X X X $ X X X $ X X X $ X X X $ X X X $ X X X $ X X X $ X X X $ X X X $ X X X $ X X X X X X X X X X X $ X X X X X & X @.X X X $ X X X $ X X X $ X X X $ X X X X X @.X @.X X X $ X X X % % N.{.K.a.#.K.h.h.- - : $.> %.&.&.s.1 2 2 9.9.7X4 5 4 =.5 =.5 =.5 =.5 6 9 6 9 P.9 9 q 9 q q e q e e t q t e t q t q ).'.;X-X-X>X3X<X3X3X3X3X3X<X,X>X-X>X:X<X3X8X3X3X3X<X3X<X3X<X3X<X3X<X3X3X3X<X,X>X-X>X-X=Xn b | J.R 9 9 q q q e q t e e e t e t t u 9.u t u u u t u u u u u u u u u u u u y u u u i u u u a u a 0.p a p a d a d d f P :.P :.P :.f h f h :.h f h :.h :.h :.l :.h :.:.S.:.:.h P d P d a P p P a P a P T a T a u a u p u a u T u y u p u u t Y +.N } V t p u a u i / Q ( B b p a d P s P f P h :.k V ( N r.U 1.:.x L C k.c $X2.2.Z Q.3.Z X.3.3.J u.J Z 2.` K ` C A.z v x b x.} O.v.[ B ( ) m E ~.c c ` c v c v c c z c x c x c x C x c x z x C z c $X` 2.` f.",
"$ O X X X X X + X + X + X + X + X O X + X + X + X + X + X + X + X + X + X + X X X X X X X + X + X + X X X + X + X + X X X + X + X + X + X + X + X X X + X X X + X + X + X + X + X + X + X + X + X + X + X + X + X + X + X + X + X X X + X + X X X + X + X X X X X X X X X + X + X + X X X # X + X O X X X + X X X + X X X X X X X X X + X + X X X # X X % @.* * a.{.K.h.h.h.+X4.C.$.> %.&.&.< 1 2 3 9.9.4 9.4 4 5 4 5 5 V.5 V.5 =.5 9 9 9 9 9 q 9 q q e e r e t e r t t e y e I 9X;X>X,X,X,X3X3X3X3X3X3X3X3X3X,X3X,X:X-X>X,X3X3X3X3X3X3X3X3X3X,X3X3X3X3X3X3X3X,X,X-X>X:X:X;X-X-Xc.n V ~.q q e t e r t t t y t y t y u y u p u y u i u i u p u y u i u i u p u p u p u p a d a P a d p s d f d h f h f h f h :.h :.j h l h l h l :.l h l :.x :.h :.h :.h d f P d P d P d P s d d p d p p a p a p a p T p u p u p u p u i R <.Q Q } q.u p a a ).<.( c.n q.a s P f d f f h :.>.:.1.O.W ) ) E ,.A.c z c c 0X2.Z Q.u.Z X.3.3.Z 3.u.3.Z u.2.v c c >.c x o.I.O.} } O.x.l.( r.) } V c ` ` ` c v c ` c v c v c v z v c v z C C v K ` ` Z 2.u.2.` ",
"M.$ X X X X X X X X X X X X X $ X X X X X X X X X X X X X X X X X X X X X X X X X X X X X X X X X X + X X & X X X X X X X X X X X X X X X X X X X X X X X @.X X X X X X X X X X X X X X X X X X X X X X X X X X X X X X X X X X X X X X X X X X X X X X X X X X X X X X X X X X X X X X X X X X X X X @.X X X X X X X @.X X X X X X X X X X X & X @.X % p.N.{.K.a.h.h.+X4.; ; > j.%.%.&.< s.s.9.9.4 4 L.4 L.L.5 L.5 L.=.5 =.9 P.9 7 9 7 9 9 9 9 q 5 q q e e t e t e t 9.u L.| =X-X>X,X3X3X3X3X3X3X3X3X3X3X3X3X3X3X3X,X>X:X>X,X3X3X3X3X3X3X3X3X3X3X3X3X3X3X3X3X3X3X>X:X>X,X>X-X>X,X,X:X>Xx./ t V.t e t e t t y t u t y u u u y u u u y u u u y u u u u t u u p u a u p u a a p a P p d a d d f f h f h f :.:.h :.h :.l :.l h l f :.:.h f :.f h :.:.f h P f P P a P P d P d P d a P a P !.p a p u a u p u u u p u u u p u t q.l.( ( <.R u a u | <.M c.b u d P f P f d h f h :.>.d | [ M M } Y x A.z c ` 2.Z J 3.3.3.3.3.Q.Z 2.Z 2.` $Xv c c x x x _ x.O.O.} O.E ~ | E +.M ( } 1.C ` c v C v K v x z x C x c x v x C z ` K ` 2.` 0X2.2.Z 2.",
"  . X X X X X + X X X + X X X + X + X + X X X + X X X + X X X + X X X + X X X + X X X X X X X + X X X X X X X + X X X + X X X + X X X + X X X + X X X + X X X + X X X + X X X + X X X + X X X + X X X + X X X + X X X + X X X + X X X + X X X + X X X + X X X X X X X X X X X + X X X X X X X + X X X + X X X X X X X X X X X @ X X X X X X X X X X % p.N.= K.a.h.G +X; C.$.> > %.J < *.s.2 4 2 4 4 5 4 L.4 L.4 L.4 V.5 9 9 P.9 P.9 7 9 9 9 9 q q e e w e t e y e t e y e | =X-X>X,X3X,X3X3X3X3X3X3X3X3X3X3X3X3X3X3X3X3X3X:X:X,X3X3X3X3X3X3X3X3X3X3X3X3X3X3X3X3X3X3X3X:X:X,X>X:X:X,X3X,X:X-X! Y q t t y t y t i u y u i u i u p u i u p u i u p u y u i u i u p ^ p a p a p a s d s P f f f f l h l :.l h h :.z l l h l l l :.l :.l h l :.:.:.h :.h f :.d s P f d f P f P s P s p d a d a p a p ^ p u p u p u p u p u p i p b ( ) [ Y i u ).x.( Q n ~ P d f d h f f P h h L L L ,.x.v.N v.v._ c $X` Q.3.u.X.3.3.3.3.Q.Z 2.` 2.` $Xv c c z z :.v b } r.( O.! q.:.,.b <.M v.( E _ K ` c v c v z C x z z v c v c v c v f.` 2.` 2.Z Z 3.6.g.",
"M.$ X X X $ X X X $ X X X $ X X X $ X X X X X X X $ X X X $ X X X $ X X X $ X X X X X X X $ X X X $ X X X $ X X X $ X X X $ X X X X X X X $ X X X X X X X $ X X X $ X X X $ X X X $ X X X $ X X X $ X X X $ X X X $ X X X @.X X X X X X X X X X X $ X X X X X X X X X X X @.X X X % X X X X X X X % X X X % X X X $ + X X $ X $ X $ X X X & X & & p.* = = #.h.+X- ; C.: : %.%., &.s.1 2 2 4 4 L.4 V.4 L.4 V.4 5 L.=.5 =.9 7 P.7 P.7 9 6 9 9 5 5 e 4 e e t e e e t e t e q.=X-X<X3X<X3X3X3X<X3X3X3X<X3X3X3X<X3X3X3X<X3X3X3X<X,X:X:X<X3X3X3X<X3X3X3X<X3X3X3X3X3X3X3X<X3X<X,X>X,X<X,X<X3X3X3X<X:X=Xx.i t u u t u u y u u u i u u u y u u u y u u u y u u u i u a u p T a a P a d P s P f P f P :.:.h :.h :.h :.x h z h l :.l :.l :.h :.l :.h f :.:.h :.:.P f P :.P f P d P d P d a P a p a a u a T p u a u p u a u p u u u a u ~.<.Q ( Q Y ~.Y ! Q c.Y ^ P f P f d f P :.:.x :.:.S.:.Y O.( M +.V c 2.2.3.u.3.J 3.Z 3.2.2.2.` c K C K C c z C x :.I n U N O.} Y :.x C _ E ( v.T.Q I z C v C C x z x C x c c ` K K K ` c K $X0X0XZ 3.A H D D ",
"$ . X X X + X + X + X X X X X X X X X X X X X + X + X + X + X + X + X + X + X + X + X + X + X + X + X + X + X + X + X + X + X X X X X + X + X + X + X O X + X + X + X + X + X + X + X + X + X + X + X + X + X + X + X X X X X X X X X X X X X X X + X + X X X + X + X + X + X + X X X X X # X # @.# X @ X + X + X O + @ X + X X X o X X X # @.& * * = = K.K.+X4.; ; > > %.^.&.&.1 1 2 2 4 9.L.4 5 e 4 9.4 e 4 e V.5 =.9 P.9 7 9 7 9 6 5 V.e e e e y 9.y e y e y e r t t I.;X,X3X3X3X3X3X3X,X3X3X3X3X3X3X3X,X3X3X3X3X3X3X3X3X3X,X:X:X,X,X3X,X3X3X3X3X3X3X3X3X3X3X3X3X3X3X3X,X,X,X3X,X3X3X3X3X3X,X-Xn p y u i u i u p u p u p u p u p u p u p u p u p u p u p a p a p a d P s d s d g f h f h :.x h z h x :.z x z x z x z x z >.z l z :.h f j :.h :.z :.h d h :.h d f f f d f d d P s p P a p a p a p a p u p ^ p a p i a i p t I n N M B n Q ( c.! ).p s d f f f d h :.h :.>.:.h >.,.b } Q r.v.I 2.3.3.3.3.3.u.3.Z u.2.` K K C $Xc c z C C v _ x.[ ) Q B x.v z v C x I ! v..X) } _ C C c z v z c C ` c ` 2.` K ` c c c 0X2.3.g.H 4.N.p.  ",
"M.$ + X X X X X X X X X X X X X X X X X X X X X X X X $ X X X X X X X X X & X X X X X X X X X X X X X X X X X X X X X X X X X X X X X X X X X X X X X X X X X X X X X X X X X X X X X X X X X X X X X X X X X X X X X X X X X X X X X X X X X X X X X X X X X X X X X X X X X X X & X X X X X @.X X X $ X X X X X X X p.& % @.% X X X % X % p.N.{.a.a.h.- ; ; $.$.> > , , *.*.s.2 9.9.4 4 L.4 V.4 4 9.4 e 4 4 V.5 6 =.7 6 7 6 P.9 6 5 V.e 4 9.e 9.9.y e 9.e t e t t q J.=X>X3X3X3X3X3X3X3X3X3X3X3X3X3X3X3X3X,X<X3X3X3X3X3X3X3X3X,X>X:X<X3X3X3X3X3X3X3X3X3X3X3X3X3X3X3X3X3X3X3X3X3X3X3X3X3X3X3X<X,X-X! t u u y u u u y u u u p u u u p u u u i u i u p u a u p u a a P a d P s d f d h f :.f h :.x h z :.h h z x z x z x z x z :.z :.h f h f h :.h :.h f :.:.h P f d f d f P s a d a d a a a p 0.a u p u a u p u a u a u a u a i I.B ] Q B Q Q B I u s P d d f d f P h f :.:.L h x :.1.E ) ) ( V 1.X.A 3.u.J u.Q.Z 2.` $X$XC c C c x C x x x b E O.v.} l./ :.c x x x :.| O.+.M Q b z v x C C v C K K ` K 2.K K x C C 2.2.3.g.5.- N.% X $ ",
". . X @ X X X + X X X X X X X X X X X X X X X + X X X X X X X + X X X o X X X + X X X + X X X + X X X + X X X + X X X + X X X X X X X + X X X + X X X + X X X + X X X + X X X + X X X + X X X + X X X + X + X + X X X X X X X X X X X X X X X + X X X + X X X + X X X X X X X + X X X # X X X X X X X @ X + X X % @.p.% p.% p.X @.X p.@.% p.= = K.K.- - ; C.> : > %., &.< < 2 3 2 2 4 9.4 9.4 9.4 9.4 0.4 e 5 5 9 9 6 9 6 9 6 5 V.5 5 9.e y 9.y 9.y e y e t e t t e ).c.=X,X3X3X3X3X3X3X3X3X3X3X3X3X3X3X3X3X,X:X,X,X3X3X3X3X3X3X3X,X:X:X3X3X3X3X3X3X3X3X3X3X3X3X3X3X3X3X3X3X3X3X3X3X3X3X3X3X3X3X3X,X-XI t p u i u i u p u p u p u p u p u p u p u p u p a p a p a p a s d f d g f h f h :.h :.z x z l z l z x c z C z c C c x z l h :.l h h :.z :.x :.x h L :.h f f d f f f d f d s p s a p a p a p a p ^ p ^ p ^ p u p a p a ^ 1.n ( [ B [ [ ! R d P f d f f g d h :.h h L L z >.z >.| v.( M v.| X.3.3.2.` 2.Z 2.2.c K C c z C z C A.c :.| ! v.Q v.x.| h z x z h h f y.V <.M M } | z v C K K ` K ` 2.` 2.` c c c ` Z A H D F U.$ X % U.",
"M.$ X X X $ X X X $ X X X % X X X X X X X X X X X $ X X X $ X X X @.X X X % X X X $ X X X $ X X X $ X X X $ X X X $ X X X % X X X X X X X $ X X X $ X X X $ X X X $ X X X $ X X X $ X X X $ X X X $ X X X $ X X X $ X X X $ X X X @.X X X $ X X X $ X X X @.X X X $ X @.X X X X X @.X X X $ X @.X % X X X % % p.p.N.R.N.p.R.% % % * p.N.* #.K.h.h.; ; $.$.> ^.B.B.&.&.s.1 2 2 4 2 4 9.4 2 4 2 4 2 4 2 4 9.V.5 =.9 P.6 6 9 =.5 V.e 4 e 4 9.4 9.9.y e e e e q t e q J.9X-X,X<X,X3X3X3X3X3X3X<X3X<X3X3X3X3X3X3X3X>X:X<X3X3X3X3X3X3X3X<X,X:X:X<X3X3X3X<X3X3X3X<X3X3X3X<X3X3X3X<X3X3X3X<X3X3X3X<X3X3X3X<X:Xn i u u u y u u u p u u u p u u u i u u u p u a T p T a a p a p P f P f d f P :.f :.f h :.z :.x :.z L z z c k.C x C k.x :.l :.:.:.h :.h :.x :.L :.L :.h :.:.P f d f P d P d P d P P a p ^ a u a u p u a u a u a u p u a u ,.x.[ } O.Q c.Y a a d P d P :.P :.P :.:.L :.L h x >.A.,.b v.N +.v.@XZ 0XK C K $Xc A.C A.C L z L z >.z >.q.I.} v.B [ b s f P f P :.:.z :.I O.Q r.m E _ C K C K K ` 2.2.2.Z 2.2.K Q.Z A H D F N.% % N.a.#.",
"$ . X X X + X + X + X + X # X X X # X X X X X + X + X + X + X X X X X + X # X + X + X + X + X + X + X + X + X X X + X X X # X X X X X + X + X + X + X + X + X + X + X + X + X + X + X + X + X + X + X + X X X X X + X + X + X + X + X + X + X + X + X + X + X + X + X X X + X X X # X X X + X X X X & & % [.p.% N.* {.* N.% * * {.* = = K.h.+X; $.$.> > %.^., , &.&.< 1 2 3 2 2 9.0.2 3 2 1 2 1 2 1 2 0.4 4 V.5 =.5 V.5 5 e 4 e 4 y 9.0.9.0.9.y e y e e e t e q q.=X-X:X>X:X,X3X3X,X,X:X:X-X:X-X:X:X3X3X3X3X3X,X,X:X,X3X3X3X3X,X,X,X3X,X:X:X3X3X3X3X3X3X3X3X3X3X3X,X3X3X3X3X3X3X3X3X3X3X3X3X3X3X3X,X,X-XY u u p u p u p u p u p u p u p u p ^ p u p a p a d p s d s d f f h f h f h f h f l h z l z x z x c c v K v C C x z >.l h z h x :.z x z h z h >.:.z h h :.h f f d f f f d f d s a d a p a p a p a p a p a p a p a p a a g I.B O.r.W ! ~ a s d s d h :.h :.h f h :.>.h >.>.c c c F.t.N ) +.E _ 2.$XK c c x C z C >.c z C x c x z b [ } ( [ ! ,.l :.z h z z v z z x &X} r.r.Q | C K ` 2.` 2.Z Q.u.Z u.Z u.3.H 5.F |.  N.N.a.a.F U.",
"M.$ + X X X X X X X X X X X X X X & X X X X X X X X X X X X X X X X X X X X X X X & X $ X X X X X X X X X X X X X X X X X X X X X X X X X & X X X X X X X X X X X X X X X X X X X X X X X X X X X X X X X X X X X X X X X X X X X X X X X X X X X X X X X X X X X X X X X X X @.X @.X & X X X % X % % * p.R.* = {.= * = N.= = #.a.#.h.+X; $.$.> > %.^.B.%., , &.&.< *.s.s.2 2 9.2 2 1 s.1 s.< s.1 2 3 4 4 5 5 V.5 V.4 4 9.4 9.4 9.9.9.4 9.e 9.4 e 4 e e e e q q.>X>X:X>X:X>X,X3X3X,X:X:X:X:X:X:X:X:X:X<X3X3X3X<X,X:X:X<X3X3X3X8X,X,X,X3X,X:X,X<X3X3X3X3X3X3X3X3X,X:X:X<X3X3X3X3X3X3X3X3X3X3X3X3X3X3X3X:Xn i p u i u i u ^ u p u a u p u a u p u a a p a p a d P s d f d f d f P f f h f :.:.z :.x h z L z z c c c C c z z >.x :.h :.z :.x h z h x :.x :.>.:.z :.h :.h P f d f d d d s a P a p a a a p u a a p a a a p u a u p a ^ b B +.Q w.I.R d P d P f P h d :.P h :.:.:.L L c k.c %Xc | } r.r.U | c K C c L x >.x :.x >.z k.z A.l I ! v.N O.[ / h :.x >.z x z x z >.x _ x.i.) ( } y.` K ` K ` 2.Z Q.Z Q.3.3.A 5.F |.% = qX= = N.%   ",
"  . X # X X X + X X X + X X X @ X X X X X X X X X X X X X X X X X X X + X X X + X X X + X X X + X X X + X X X + X X X + X X X X X X X + X X X X X X X + X X X + X X X X X X X X X X X + X X X + X X X + X X & # X X X X X X X X X X X X X X X X X X X X X X X + X X X + X X X X X X X X X X % X % % * % R.* {.{.= = a.= K.a.h.h.+X; : $.> > %.> %.%.%.^., J Z., &.&.< *.1 1 1 < < *.< &.< *.< *.1 #X9.2 9.e 4 9.9.2 4 0.9.2 9.0.9.0.9.0.9.y e y 5 V.q r y z./ =X>X,X:X-X,X,X3X,X,X-X:X-X:X:X,X:X,X:X:X-X,X3X3X3X3X,X-X-X,X3X3X8XwX:X,X:X,X,X:X,X3X3X3X3X3X3X3X3X3X,X:X-X3X3X3X3X3X3X3X3X3X3X3X3X3X3X3X,X=X/ t p u a u p ^ p u p ^ p u p ^ p T p a p a d p s d g s f f h f g f h :.h f h :.z h z x z x c C c c v C c c v z z h z h x h z x z L z x z h z L x :.z h L :.h :.f d g d s d s P P a d a p a p a p a p a p a p a p a p T q.! ) W B ! / a s P f f h :.h :.h :.>.h >.L x k.c C 0Xc 1.E v.M v.U 1.x c k.z >.z >.C z z A.c A.>.y.n O.( Q { V l l z x z L z x z x c z c b O.( M ) x.f.v K Z Z u.Z 3.Z 3.3.A 4.qXp.$ p.p.p.& % X X M.",
"M.$ X X X $ X X X $ X X X X X X X @.X X X X X X X % X X X X X X X $ X X X $ + X X $ X X X $ X X X $ X X X $ X X X $ X X X $ X X X % X X X X X X X X X X X $ X X X X X X X X X X X $ X X X % X X X $ X X X X X X X X X X X X X X X X X X X X X X X X X X X @.X X X $ X X X $ X X X @.X % X % % p.p.N.* N.R.= = K.a.#.K.h.h.; ; $.$.> > %.%.%.%.%.%.B.%., J , , , , &., &.&.&., , %.B.J , , &.*.s.1 2 2 9.2 4 2 2 3 2 3 2 0.9.2 9.9.4 9.4 9.4 e V.q.x.n { n n -X=X,X>X-X>X3X<X3X3X:X:X:X:X:X,X,X,X,X,X:X:X-X<X3X3X3X<X:X>X:X<X3X<XeX<X,X,X:X,X,X>X,X<X3X3X3XrX8X3X3X<X,X:X:X<X3X3X3X<X3X3X3X<X3X3X3X<X3X<X-Xx.t u i u a u p u a u p u a u p u a ^ p a p a d a s d f P f f h P :.f h f h :.x :.x h z x c c c C c z c C v c C >.l :.z :.x l z :.>.>.x L x L x :.x :.>.:.h :.:.P f d f P d P P a p a p ^ p ^ a ^ p a a ^ p a p a a a P u b [ B ( Q E g a d P :.P :.:.h f :.:.>.h >.L c A.c %X2.0Xo.E Q ) +.Y ~ >.x >.x L C k.C L x >.x z d.t.( ) Q x.).:.x L x :.x h x L z L C z _ b [ ) ) } | C Q.Q.Z Q.Z Q.3.3.5.D U.% + & X & X $ X % @.$ ",
"$ O X + X + X + X + X + X X X @ X + X X X X X X X # X X X X X X X + X + X + X + X + X + X + X + X + X + X + X + X + X + X + X X X # X + X X X X X X X + X + X + X X X X X X X X X X X + X # X + X + X + X X X X X X X X X X X X X X X X X X X X X X X X X X X + X + X X X + X X X X & # % @.% % R.% R.* = {.= a.h.h.4.4.E.; : : > > %.%.%.^.%.^.%.> %.^.%.^.%.%.%.g.> : > ; C.C.: $.> g.%.^., &.< *.1 1 #X1 1 < 1 *.1 3 2 3 2 0.9.y 9.9.e y e R c.-X,X:X,X,X,X,X,X:X,X,X3X,X3X:X:X-X:X:X:X:X,X:X,X:X:X,Xw.-X,X3X3X,X,X:X:X-X,X,XrX8X,X:X,X:X,X:X,X,X3X3X3X3XeX3X3X3X3X,X:X-X,X,X3X3X3X3X3X3X3X3X3X3X3X3X,X;XI t u p a p a p a p a p a p a p a p p s d s d f f g f h f h f h f h :.j :.l h z x z x c z c z c C c c _ v v x z l z x z x z x z x C z C x z >.z x z :.x :.h f h f h f h d s P s P s a s a p a p a p a s p d a d p P a p q.I.! v.) [ Y p f :.d h :.h :.>.h >.L x >.c C $Xc K 0XZ u.d.! N +.r.1.x x C x c z C x C >.z :.b } } Q ] ! / :.z >.x x z A.z x C z C z c x F.! r.r.m x.@X` u.Q.u.J 3.j.F = & X O + X X X X X X X & . ",
"M.$ + X X X X X X X X X X X X X X X + X X X X X X X X X X X X X X X X X X X X X X X X X X X X X X X X X X X X X X X X X X X X X X X X X X X X X X X X X X X X X X X X X X X X X X & X X X & X X X X X X X X X X X X X X X X X X X X X X X X X X X X X X X X X X X X X @.X X X @.X % X p.% * % N.* N.* = = a.a.h.- ; ; $.$.> : > > > > %.%.%.^., %.%.> %.> %.> j.; ; G h.a.#.K.+X+XE.; : $.> > %.J Z.Z.< *.< &.*.&.1 1 2 3 2 0.4 9.4 9.4 9.e V.V ;X>X3X3X3X3X,X<X:X>X,X<X:X<X,X:X:X:X-X:X:X,X,X,X:X>X<Xm ] <X:X<X3X3X3X>X,X>X:X<X3XwX3X,X,X,X:X,X:X<X3X3X3X3X3XwX3X<XrX<X,X>X:X<X3X3X3X3X3X3X3X3X3X3X3X3X3X:X;Xq.T a p u a a p a a a p a p a p a d P f P s d f d f f f f f f f f h f h :.l h x :.z x z x z x C c v c v x x :.z x z x z x z x C x c C c A.C z C h h :.h :.:.f h f :.d s P d a d a d a p a p a p a P a d a P p d a P a a p I <.r.N [ q.P P :.d h S.h :.L h >.L k.L C A.K  XK 2.` 1.! ( ) r.<.).x k.z x C A.k.L x :.1.! v.( [ ! V h z >.>.L x k.C k.C z C x c C c x b U +.) Q b _ 2.Z J j.5.= % + $ @ + @ X X X X X X X X $ ",
"$ . X + X + X + X X X + X X X @ X X X X X X X X X X X X X X X + X X X + X X X + X X X + X X X + X X X + X X X + X X X + X X X X X X X + X X X X X X X + X X X + X X X + X X X X X X X + X X X + X X X + X X X X X X X X X X X X X + X X X X X X X X X X X X X + X X X + X + X X @.X % [.p.% R.p.R.* = {.a.a.h.h.; ; $.$.: $.> : > g.> > %.%.%.^.%.> > $.$.; - F a.= = % % % = = a.F h.h.+X; C.C.j.> %.^., ^.%.^.Z.*.2 3 0.3 9.0.9.9.e y 9.9.Y.=X:X,X3X,X3X,X3X,X:X,X3X:X,X,X,X-X:X-X:X:X:XtXyX,XtX.XtXtX] { >X:X3X3X8X8X:X,X:X:X,X8XrX:X,X:X,X:X:X:X<X3X3X3X3X3XrX3X8X8X3X3X,X-X,X3X3X3X3X3X3X3X3X3XrX3X3X,X-X=X~ a a p a p a d a p a d p d p s d s s f s f f h f g f g f h f l h l h z l z l z x z x C z z z c z C x C x z x c z c z c z C C c c v c v c c A.x :.h :.x h h :.z :.f d f d s P s a P p s p P p s p s a s P s P s p p p s s V t.W Q E p h :.h S.h :.h :.>.L x L c x $X$XK c c k.x | O.v.Q r.V h c x C x c >.z >.,.b [ v.] [ x.k z >.z k.c x C x c C c C c C $XC c u.E 8.N ( Q | u.g.D F & $ . X @ X X X + X X X X & X X . ",
"M.$ X X X @.X X X $ X X X $ X X X $ X X X X X X X @.X X X X X X X $ X X X X X X X $ X X X $ X X X $ X X X $ X X X $ X X X $ X & X X X X X X X X X X X X X $ X X X $ X X X $ X X X X X X X $ X X X $ X X X $ X X X X X X X X X X X X X X X X X X X X X X X X X X X $ X X X % X % X p.% p.p.N.* N.* = = a.a.h.h.+X; $.$.: $.> $.> : > > > > %.> > > > ; +XF #.% % $ % X X X % p.R.% N.N.a.a.h.h.- - E.C.: $.> j.%., 1 3 2 0.9.2 9.9.4 9.e y L.d.-X,X<X,X>X:X>X:X>X:X<X,X>X,X<X:X:X-X:X:X,X.XuXiXpXaXaXsXT.] ] { >X,X<X3X.X<X>X,X>X,X8XwX3X:X,X,X,X:X>X,X3X3X<X3X3X3XeX3X8XwX<X3X>X:X<X3X3X3X<X3X3X3X<X3XwX3X<X-X;XI.i a ^ p a a a p a p a d a d d f P f f g f f f :.P f f h f h :.l :.l h z :.x :.z l x x z x z x z >.z x z x C z c x z x C C c C c c K K K C C h x :.x :.x :.>.:.h P f d s P d a P a d a s a d P s a d a d a d p d a d P P ,.! r.) } / P :.P :.d h S.:.S.L :.>.L z L k.L >.7.L :.,.V ( Q T.+./ :.x h >.:.z L :.| t.( m m [ q.:.:.z L C L C L z z c z c k.c C c C z 1.O.( ) v.t.H.= qXX X . $ + X X X X X X X X X X @.X $ ",
"  . X + X + X X X X X X X + X + X + X + X + X + X + X + X + X + X + X X X X X + X + X + X + X + X + X X X @ X X X + X + X + X X X X X X X X X X X + X + X + X X X + X X X X X X X X X + X + X + X + X + X + X X X X X X X X X X X X X + X + X X X X X X X + X + X + X X X # X X % X % % p.% * * N.* = = K.a.G - ; ; $.; $.; $.$.$.$.$.$.$.; ; 4.+XK.a.* % X X o X @ X + X # X X X X & % R.* = = = = K.h.- - : %.< 7.3 #X2 3 2 0.9.0.9.3 9.1.=X:X:X-X,X,X,X:X,X:X:X,X,X:X,X,X:X-X-X:X:X.XuXaXiXiXaXaXaXpXdXv.] <X>X,X3X3X.X:X,X,X:X,XwX3X,X:X,X:X,X:X,X,X3X3X3X3X3X3XeX3X8XwX3X,X,X-X,X3X3X3X3X3X3X3X3X3XwX3X:X;X;Xb u p a p a P a s P s d f f f d h f h f h f h f h g j f j h j j k l l l z l z x C x z x v x C z c z C z v c v z v z C C v K $Xc ` ` ` K ` C z >.C x z h z h h f h f f d f d s P s d s d s d s d f P s P s d s d f d f d f | U ) B E ~ d h f h :.L :.>.h >.>.x k.c L >.:.>.L z :.1.x.[ ) T.<.,.>.z L z >.>.1.! v.W } [ I h >.z x z z z z C c c c c x z x c c ` 2.Z b [ T..XQ '.M.O + + X + X + X + X + X O X + X # X M.",
"M.$ X X X X X X X X X X X X X X X X X X X X X X X X X X X X X X X X X X X X X X X X X X X X X X X X X X X X X X X X X X X X X X X X X X X X X X X X X X X X X X X & X X X X X X X X X X X X X X X X X X X X X X X X X X X X X X X X X X X X X X X X X X X X X X X X X @.X @.X % [.p.% R.p.R.* = N.= = a.= #.h.+XfX; ; $.C.$.; $.; ; 4.+Xh.h.a.a.= N.% % X X + X X X + X X $ X @.X X X @.& % & % % * R.= K.E.> &.< 1 1 2 3 2 3 9.3 3 3 3 !.I.;X>X:X<X,X<X3X3X3X>X:X<X:X<X,X,X:X:X] yXgXuXiXaXiXaXiXaXiXaXaXaX8.m >X>X,X3XwX.X:X<X:X,X3XwX,X,X:X,X:X,X:X>X3X3X3X3X3X3X8XeX3XwX8X3X,X:X:X<X3X3X3X3X3X3X3X3X8XwX,X>X-X=X1.u p a p a P a d P d d f d f f h P f f h d :.f h f h :.l f l h l h l l z :.x x z l k l z x z x C z v z v x z x c x c c v C K K Z 2.` $XC C c z z L x :.h f :.d f d s d s P d P s P d P s P d P d p d P s p d P s P s P ,.V N N [ Y a d h d h S.h :.h :.>.L z L L S.:.:.>.L z L | [ m ) <.Y h :.>.:.>.z I.O.v.{ [ b j h z L >.L z L x k.c C C >.x :.x k.2.^.A H |.t.+.) N t.m.$ X @.X X X X X X X X X X X X + X + $ ",
"  . X X X X X X X X X X X X X + X X X + X X X + X X X + X X X + X X & # X X X o X X X + X X X + X X X X X X X X X X X + X X X X X X X X X X X X X X X + X X X X X X X # X X X X X X X + X X X + X X X + X X X X X X X X X X X @ X X X + X X X X X X X X X X X + X X X X X X @.# @.@.p.% * % R.* N.* = * a.a.h.h.+X4.E.5.; 4.+Xh.h.a.a.N.N.% % X X X X + X + X X X X X + X + X . X X X + X + X + & X % = +X$.%.^.Z.&.1 7.7.7.1 *.7.*.*.< o.;X-X,X3X3X3X3X3X3X3X,X:X,X:X,X<X,X:XtXhXuXjXkXaXiXaXiXiXiXaXiXiXiXjXlXm -X>X3X3XeX<X,X,X:X,X3X3X:X,X:X,X:X,X:X3X3X3X3X3X3X3X3XeX3XwX8X,X,X:X:X3X3X3X3X3X3X3X3X3X8X8X-X>X-Xn ~ p s a s p s P f f f d h f h f h f g f h f h f j h l h l j l l z l z l z x z l z x z x z z C x v c v z C x C C v c v c ` K Z u.A 3.Z 2.` K K z z L h :.h f f f f f f d f d s P f d s d f d s d s d s P f d f d f d f a I } r.( ! ).s P h S.h :.x h >.>.x L >.L >.h >.>.z C C ,.E v.N +.U / h L z :.b [ ( ) [ I.y.h z L z L x L z x c k.z >.x :.z k.J 6.D |.U.$ zXU ) M ) ! OX$ # X X X + X X X + X X X O X X X . ",
"M.$ + X X $ X X X $ X X X $ X X + X X X X X X X X X X X X $ X X X $ X X X @.X X + X X X X $ X X X $ X X X X X X X $ X X X $ X X X X X X X X X X X X X X X $ X X X % X & X $ X X X $ X X X $ X X X $ X X X $ X X X X X X X X X X X X X X X $ X X X $ X X X @.X @.X $ X @.X % X @.X p.% p.p.N.* N.N.= = a.a.h.h.+X- +X- +XK.#.= = * N.% % X $ X X X $ X X X $ X X + $ X X X $ + $ + @.X X + $ X X X % p.#.4.: j.%.%.&.&.&.Z.&.Z.Z.J , J Q.n -X,X<X3X8X3X3X3X3X3X3X,X>X:X<XxXtXm cXiXjXiXaXiXaXiXaXiXjXiXiXiXaXaXjXdXtX:X<X3X.X8X>X,X>X:X<X3X,X,X,X,X,X,X:X:X<X3X3X,X<X3X3X8XrX3XwX<X3X,X:X,X<X3X3X3X<X3X3X3X<XrX>X>X{ ;Xb a P P p s a f d f P f P :.P :.f :.P :.f :.f h :.l :.l h l :.x l z :.x l z :.x l z l x x z x C z c x x x z x c z c C K K ` Z H H : 3.u.2.` x x L x :.:.f g d f d f P f d f P f d f P f d P P d d d P d P d P f d f P f h V i.) [ b p f P :.S.L :.L :.L :.>.h >.L L L z k.c L :.q.O.Q ) i.U ).:.P I x.} ( m ! I f x h >.L >.L x L x L >.:.:.:.A.0X6.5.|.qXX $ . . vXt.M r.} m.M.X + $ X $ X $ X X X $ X X + @.X $ ",
"$ . X X X O X + X + X + X X X + # X X X X X X X X # X X X + X + X + X + X # X + X + X + X + X + X + X X X X X X X + X + X + X X X X X X X + X X X X X + X + X + X X X X X + X @ X + X + X + X @ X + X + X + X X X X X X X X X @ X X X X X + X + X + X + X + X + X X X X $ X X X % & p.% * % R.* = * = = a.a.K.K.h.a.K.= N.% % X X # X + X @ X X X O X + X + X X X + X + X O + + X + + + X @ X X X # N.F ; ; : j.%.g.> 6.> : j.C.C.4.S m.=X,X3X3X3X3X3X3X3X3X3X3X3X:X:X.XuXsXaXaXiXiXiXiXaXiXaXiXaXiXiXiXaXiXiXiXjXsXw.:X3X3X8X:X3X,X:X,X3X,X,X:X,X:X,X:X:X,X3X3X,X:X3X3X3X,X3X3XeX3X3X,X:X:X3X3X3X3X3X,X3X3X3X,X:X<X>X=Xq.P P s d f f f f h f h f h :.h :.h :.h :.j h l h l l l h z l z l z l z l z x z x v x z x v z v z v z v z v c v c v c ` Z H D F 5.H X.u.c c x z :.l f g f g f f f f f f f f f f d f d f P s d f d h d h :.h :.h P :.s s 1.U ( W ! / a :.d h h >.:.>.h >.h >.L >.h >.>.c k.x >.z | [ ) r.+.E q.I t.v.Q Q [ x.h z L z >.>.L c z z L x h h :.K 6.D |.& $ + X @ X X M.bX( r.) [ vX$ X + X + X O + + X + X . X # X . ",
"M.$ X X X X X X X X X X X X X X X X X X X X + X X X X X X X X X X X X X X & X X X X X X X X X X X X X X X X X X X X X X X X X X X X X X X X X X X X X X X X X X X X X X X X X $ X X X X X X + X X X X X X X X X X X X X X X X X X X X X X X X X X X X $ X X X X X X X % [.% @.p.% * p.N.* N.R.= = a.a.#.F K.a.a.= N.% % X $ X $ + X X X + X X X + X X $ X X X % X X X X X X + X + X X $ % R.p.p.X N.F E.C.$.$.> : $.5.C.5.; G - K.h.OX=X,X3X3X3X3X3X3X<X3X3X3X3X3X,XN iXiXaXiXaXiXiXiXaXaXaXiXaXiXaXiXaXaXaXiXaXiXjXv.>X3X3X,X>X,X3X,X>X3X3X,X,X,X,X,X,X:X,X,X3X3X,X:X3X3X3X3X3X3XeX3X<X,X:X,X<X3X3X,X,X,X3X3X<X:X<X<X-Xn a d P f d f d f f h f :.f h f :.f h f h :.l :.l h l h l l z h l l z h l l z l x x z x z x z x z x z x z z v x v c ` 2.6.G.F F G j.3.$Xz :.x :.l :.h d f f h d f d f d f d f d f d f d d P f P :.:.>.L k.k.>.S.:.P s P a | [ r.( x.~ P :.:.h :.h :.h :.h :.h :.L h >.:.>.L h :._ V r.) r.) n n Q v.W [ ! _ >.>.z L >.:.A.L z L >.h >.L 2.A = U.X $ + X X X + X + nXd.i.) m '.].X X X $ X X + X X X X X X X + $ ",
"$ . X X X @ X X X X X + X X X + X X X X X X X + X X X + X X X + X X X + X X X o X X X + X X X + X X X + X X X X X X X X X X X X X X X X X X X + X o X . X + X + X X X + X X X X X X X + X + X + X + X + X X X X X X X X X X X X X X X X X X X + X X X + X + X @ X X % @.p.% R.% * * N.* N.N.= = a.= a.= = N.N.% % X @.+ X X X X X X X . + o X + X + X o X X X X X X X X X X X X % % p.% = a.a.N.= F E.C.: $.j.C.; 4.4.- - h.- F F qXbX-X>X3X3X3X3X3X3X,X3X3X3X,X3XtXdXiXiXiXiXiXiXiXaXiXaXiXaXiXaXiXiXiXaXiXaXiXaXaXlX:X,X,X,X:X,X3X,X:X,X,X,X:X,X:X,X:X:X:X,X,X3X,X:X-X,X3X3X3X3X8XwX3X,X-X:X,X3X3X3X,X,X,X3X,X,X-XtX<X>XI a f d f f h :.h :.h :.h f h :.h :.l h h :.l h l l z l z l z x z l z l z x z x z x v x z x v z v x v x v C v K ` ` 3.6.5.F = D A 2.c x x :.z h l f h :.h f h f h f g f g f f d f d f d :.d >.L x  X2.0X0Xk.>.:.h d g a q.E +.) B Y s :.h :.L h h S.h :.h :.h h h :.>.L >.:.>.:.Y <.N ] Q w._.} m [ c.I l k.z >.z L z >.z L x >.x %Xu.H N.$ O X X X @ X X X O X oXW.U r.N [ '.. X X o X X X X X X X @ X + X . ",
"M.$ X X X $ X X X @.X X X $ X X X X X X X $ X X X $ X X X $ X X X $ X X X $ X X X $ X X X $ X X X $ X X X $ X X X X X X X $ X X X @.X X X $ X X + X X X + X X X X $ X X X $ X X X $ X X X $ X X X @.X X X X X X X X X X X X X X X X X X X X X X X $ X X + $ X $ X % % N.N.= = = = = = = = K.a.a.= a.= N.% p.X @.+ $ X X X X X X X % X X X $ X X X $ X X X $ X @.X X X X X p.= h.F h.a.h.h.fXh.G - $.: > j.> g.j.C.: C.C.C.C.C.C.4.|.4X>X3X8X3X<X,X>X:X:X:X,X:X.XyXuXiXaXiXaXiXiXiXaXiXaXiXaXaXaXiXaXiXaXiXaXaXaXiXaXaXtX:X<X,X>X,X<X3X>X,X<X,X,X,X,X,X,X:X>X:X,X,X<X,X:X:X,X,X3X3X3XrXwX,X>X-X,X3X<X3X3X:X>X3X<X,X:X<X.XtXn g P S.P :.:.L :.h :.h f h :.h f h :.l f h h l :.l h l l l l x :.x l k l x x z x z x z x k x c x k x c x c c ` K ` Z ..H D - H 2.K x z :.x :.l f :.f h f :.f h P f d f d f d f P d d f P L A.K 0XQ.Q.Z 2.0XA.>.d f P f d Y 8.Q N ! ,.d P :.:.h P d P h S.:.S.:.S.:.:.L :.h h L g V } Q B B Q ] m { b k L >.h >.L >.>.C L z A.c $XQ.j.F N.% % X p.X X X @.X $ X $ OXd.U N ( ! /.$ X X X X X X X @.X X + $ X $ ",
"  . X X X @ X X X # X + X + X + X X X X X + X + X + X + X + X + X + X + X X X + X O X X X + X + X + X + X + X X X X X X X + X X X # X X X + X + X + X + X + X + X + X + X X X X X # X + X + X + X X X + X X X X X X X X X X X X X X X X X X X X X # X @ X + X X % % N.= K.a.K.F K.a.a.= a.{.= = = % % X $ . X + X + X X X X X X X # X + X O X + X + X @ X + X X X X + X p.= E.$.$.; ; 5.C.5.5.C.> g.%.6.%.6.%.^.%.6.%.6.%.g.^.g.6.m.=X,X3X3X3X,X:X-X-X-X:X-XxXaXaXiXiXiXaXkXaXiXiXiXiXiXaXiXaXiXaXpXaXiXaXpXaXiXaXpXjXgX:X,X3X:X,X,X3X:X,X,X,X:X,X:X,X:X:X-X:X:X,X,X3X,X:X-X,X:X,X,X3X3X3X,X:X-X,X,X3X3X,X-X,X,X3X:X<X8XxX=X| P S.>.h z x z :.h h k h l :.j h l h l h l l z l l l z l z l z l z x v x z x v x v x v z v z v z v C v v ` f.` ` Z 3.H G.A Q.` x z l z h z h h f h :.j f h f h f f f g f f d f d f d >.k.0X2.3.3.3.3.3.2.K h h d :.d h g E t.O.Q E p h :.h :.h d h :.L :.h :.>.:.h :.>.h h :.:.q.! B c.} Q M { ! q.:.z L >.L c z c x c c c c ` u.S D F = % % # X X X + X @ X O + mXd.[ ) Q '.OX+ X X X X X X # X + X O X . ",
"M.$ X X X X X X X X X X X X X X X X X $ X X X X X X X X X X X $ X X X $ X X X X X X X X X X X X X X X X X X X X X X X X X X X X X X X X X X X X X X X X X X + X X X X X X X X X X & X X X X X X X X X X X X X X X X X & X X X X X X X X X X X X X @.X X X % X R.* = a.h.h.4.G +Xh.K.= a.= = * R.% % X X + X X X X & X X X X + X X & X X X X X X X X @ X X X X X X $ [.= F C.$.> j.j.$.j.j.> %., , &.J &.Z.&.Z.&.Z.Z.J Z.Q.Z.Q.Z.g.'.:X<X3X3X,X>X-X:X-X:X-XxXuXjXiXaXiXaXiXaXiXaXiXaXiXaXiXaXiXaXaXaXiXaXiXaXiXjXiXiXiXiX<X,X,X>X:X<X3X<X:X>X,X,X,X,X,X,X:X:X:X,X:X:X,X<X,X:X:X,X,X,X,X3X3X3X,X:X:X,X3X3X3X,X:X<X3X3X3XeX8X<Xn g :.:.>.:.x :.h f l :.h f h :.l :.l :.l h l h l h l l z l l l z l k l z x z x z x z x v x v c v x v C v c ` 2.Z Z  .X...Q.$Xx z L x :.x :.h f h f :.f h d f d h d f f f d f d f P L k.0XQ.3.3.g.3.g.J Q.A.>.S.:.P f d P 1.E i.) } / P h S.:.P :.P h :.h P :.d h :.:.:.:.P :.:.P | 9X[ Q M Q ! I d >.L L h >.L c >.C C c A.C %XQ.6.5.4.= N.@.$ X X X & X & X X X MXzXt.) ) [ vX. [.X X X X X X X X X @.+ $ ",
"M.. X @ X X X X X X X + X X X X X X X + X X X + X X X + X X X + X X X + X X X + X X X + X X X + X X X + X X X X X X X + X X X X X X X X X X X + X X X + X + X + X X X + X X X X X X X + X X X + X X X + X X X X X X X X X X X X X X X X X X X + X X X X % @.* * = a.h.h.- - - F F = N.% % & % X X + X @ X X X + X X & X X X X + X X X + X X X X X X X O X @ X + % * h.4.j.> > $.: $.> g.J Z.< *.*. X*.Z.*. X*.Z.*.Z. XZ. X(.*.(.@X=X>X,X3X3X>X-X-X-X-X;X] aXaXkXiXiXiXiXaXiXaXiXaXiXaXiXaXiXaXiXaXiXaXiXiXiXiXsXpXiXiXaXv.:X3X,X:X,X3X,X:X,X3X:X,X:X,X:X,X:X:X:X:X:X:X,X,X:X:X:X,X:X,X,X3X3X3X:X:X:X3X3X3X,X:X:X3X3X3X8XrX,X=XI P >.:.h :.h :.l h l f j h l :.l h l h z l l l z x z l z l z l z x z x v x z x v z v z v c v c v c v K ` K ` Z 3.u.u.` ` c z x z x z h z h l :.j :.h f h f h f h f f s f d f P x C 2.Q.3.6.j.g.A 3.u.0Xc L h d h f h S.h Y 8.) N x.,.:.h d :.S.h :.:.d :.f h f h :.h P h f :.P b c.[ M Q B b f z L >.L >.>.x >.C x z >.z A.K J : 5.|.N.X X + X + X X X X X X X @ OXl.+.M Q l.OXo X o X + X X X + X + X M.",
"M.$ X X X $ X X X $ X X X X X X X $ X X X $ X X X $ X X X $ X X X $ X @.X $ X X X $ X X X @.X X X @.X X X $ X X X @.X X X X X X X X X X X $ X X X $ X X + X X X X @.X X X X X X X $ X X X $ X X X $ X X X X X X X X X X X X X X X X X X X @.X @.X % X % p.N.N.= a.#.K.h.F #.= = * N.% % X $ X % X $ X X + $ X X X @.X @.X $ X X X $ X X X X X @.X $ X X X % % F h.E.$.> > > : j.j.%., < < #X#X1 7.7.*.*.*.7.*.7.*.7.*.7.*.7.k.#Xo.=X,X3X,X<X:X-X-X>X-X>XlXjXaXaXiXjXiXaXaXaXiXaXiXaXaXaXiXjXaXaXiXaXjXjXiXaXiXv.w.pXjXaXlX<X,X<X:X>X3X<X,X>X,X,X:X,X,X,X,X>X:X,X:X:X:X,X,X<X:X:X:X,X:X,X,X<X3X<X:X>X,X3X3X<X:X:X,X<X3X3X3X<X:Xb d h :.:.h :.h :.h f :.:.h f h :.h :.l :.x :.x l x :.x l z l x x k x k x z l x x c x C C v x v c v c v K ` 0XZ Z Z K K z C L x :.z :.x :.l f h :.:.P :.f f P f d f P f d f P h >.2.Q.3.6.j.6.g.3.3.2.K L h P d P :.P :.P ,.V [ ) Q Y P P :.P :.d d P f P h P :.d :.P f P f P k I._.Q } Q _.| :.L L L >.L z L >.L x :.L L c Q.j.5.F N.X X X $ X @.X $ X X X X X X . vXU ) N ( '.MXX $ + X X X X X X $ + M.",
"$ . X + X O X + X O X + X + X + X + X X X X X + X + X + X + X X X + X X X X X X X + X + X X X + X + X + X X X X X + X + X + X + X + X X X + X + X + X + X X X X X + X X X X X X X X X X X + X + X + X + X X X X X # X X X X X X X @ X # X X X X X # X X % % R.* = * = * p.& % X $ O + X X + X + X O X + X X X X X X X X X X X X X + X X X + X + X @ X % = G $.6.%.6.%.g.: C.j.g., Z.1 1 2 3 !.1 Y.k.*.k.*.*.7.L 7.7.S.7.Y.L S.P b -X3X3X3X:X-X-X:X-X-XQ jXpXaXiXiXiXiXaXaXiXiXiXiXiXaXiXaXiXiXiXaXpXT.sXaXpXiXaX8._.<.pXjXQ :X,X,X:X3X3X,X:X,X,X,X:X,X:X,X:X:X:X,X:X:X:X,X,X,X-X:X:X:X:X,X:X,X,X:X:X,X,X3X3X,X-X:X,X3X3X3X3X,X>X~.L :.h :.h :.j f j :.h :.j h l h l l z l z x z l z x z x z x z x v x v x v x v z v c v c v c v K v v ` ` Z ` Z 2.` C C x c z z l z l z h l h h f h :.h f f d f f h f h :.>.A.0XQ.g.g.: j.A 6.3.2.K k.>.S.h d h d :.d :.P | O.r.) } ).d f h S.h P h d f f h f f d h f f d f b ! B B ] B [ ! q.h :.>.L z L >.>.A.L >.h K Q.H 4.= p.X X X X + X X X + X + X + + X X OXd.O.M m ! zX$ @ + @ X X X X X X M.zX",
". $ + X X X X X X X X X X & X X X X X & X X X X X X X X X X X X X X X X X X X X X X X X X X X X X X X X X X X X X X X X X X X X X X X X X X X X + X X X X X X X X X X X X X X X X X X X X X + X X X X X X X X X X X X X X X X X X X X @.X X X X X X X & X % & % $ % X % X $ + X X X X X X X + X X & X X X & X X X X X & X X + $ X X X @.X X + % N.#.- > %.&.&.< (.&.%.%.g.%.J &.*.1 3 9.9.9.3 3 1 Y.*.7.7.Y.7.S.S.#Xd 3 d #Xd p n :X3X3X,X:X-X:X-X:X-X8.jXiXiXaXiXiXiXaXaXaXiXaXiXiXiXaXiXiXiXaXiXjX} w.pXjXiXiXjX<.;XQ Y yX:X<X,X,X,X<X3X,X,X>X,X,X,X,X:X:X-X,X,X,X-X:X:X,X,X>X:X:X:X:X:X,X,X3X:X:X:X,X,X3X3X>X-X,X,X3X3X3X,X>XI d h :.h :.h f h :.l :.h :.l h l h x h x l x :.x l z l k x z l z x z x z x v x c x v z v c v C v c v c ` f.` c c C C x z x C x x :.x :.l :.l f :.f h f :.d f d f d :.P :.L K 2.3.3.j.j.A 6.3.2.$XA.L S.:.P :.P f d h P :.~ V i.) } E R f P :.P d P s d f P s P f d f P a 1.n <.[ B B w.Q ) E g :.:.L :.L L k.L >.A.2.3.5.F N.% X X X X X X X @.X X X X X X + $ + $ OXt.( ) M ! OXX + X X X X @.X $ zXt.",
"$ . X X X X X + X X X + X X X X X X X # X X X + X X X X X X X + X X X + X X X X X X X + X X X + X X X + X X X X X X X + X X X + X X X X X X X + X X X X X X X X X X X + X X X X X X X + X X X + X + X + X X X X X X X X X X X X X X & X X X X . X X X o X X X O X + X # X X X + X X X X X @ X @ X X X + X X X # X X X # X X X O + + @.X & % h.4.> %.&.< 1 7.1 *.*.Z.Z.J &.*.7.7.#X!.9.y 9.0.2 3 !.#X#X7.Y.Y.S.S.3 P 0.d 3 p T ~.c.,X3X,X,X-X:X-X-X-X>XlXiXiXaXiXiXiXiXiXaXiXaXiXiXiXiXiXiXiXiXiXiXiXaXB B J.jXhXiXaXv._.{ m { :X,X:X3X3X3X,X,X,X,X:X,X:X:X:X:X:X,X:X:X-X:X:X,X,X:X:X:X-X:X:X,X:X,X-X:X:X,X,X3X,X:X-X,X3X3X3X3X-Xx.s :.l h h f h :.l h l l z h z l z :.z x z x z l z x v x z x z x z x v z v z v z v c v c v K ` K v K ` v ` $Xv c c z v z C z z x z h z h h f h :.h :.h :.h d h f h :.>.L c 0X3.3.g.g.A 6.3.Q.K L >.:.h S.:.P :.f h :.L :.:.).U } Q } | a f P h d f d f d s P f f f f s ,.x.} m Q c.[ ( v.) ( | f l :.h h >.>.C %X3.5.|.N.$ & # X X X + X X X X X X X + X X X X X # . bXO.r.) [ '.M.X + X + X # . mXt.[ ",
"M.$ X X X $ X X X $ X X X @.X X X $ X @.X X X X X $ X X X @.X X X $ X X X @.X X X X X X X $ X X X @.X X X X X X X X X X X X X X X $ X X X $ X X X $ X X X % X X X X X X X % X X X X X X X X X X X @.X X X $ X X X X X X X X X X X & X X X % X X X % X X X $ X $ + $ X X X $ X X X @.X X X @.X X X @.X X X X X X X X X @.X $ X X X @.@.* F $.%.&.< s.1 1 1 1 *.< *.< *.1 1 2 3 2 0.4 9.e y 9.9.9.0.2 3 !.S.3 P !.a T 0.T !.T u q.=X<X3X<X:X:X:X:X-X-X{ aXiXiXiXaXiXjXiXaXiXaXaXaXiXaXiXiXiXiXiXaXiXaXaXpXw.B lXjXaXaXaXgX{ { >X>X,X>X,X<X3X<X:X>X:X,X,X:X:X>X:X,X:X,X:X:X:X,X:X,X,X>X:X:X-X:X-X>X_.-X:X,X,X3X3X<X,X:X:X3X3X<X3X,X<Xj :.f h f :.:.h :.x x C x C x z :.x l z :.x l z l x x z l x x z x z x v z C x v x c c v c v c v c v c ` c K C c x c z c x z x z :.l :.z :.:.f h f :.f :.P :.f h S.L L c K Q.^.g.6.j.6.3.2.$X7.>.S.:.P :.P f P f P h S.h P p Y [ r.( x.,.P :.d :.P d P s a d P f P f f E O.Q m [ l.b Y } T.) O.q.P :.:.>.L C 2.A D U.% % N.p.p.X % X X X & X X X @.X X X @.X & X $ o OXW.i.r.) [ /.$ X X $ X + mX'.( N ",
"$ O X + X O X + X + X + X X X X X @ X + X # X X X + X + X # X + X O + + X O X @ X X X X X + X + X O X + X @ X @ X @ X X X X X + X + X X X # X + X + X X X X X + X + X + X X X X X + X X X # X @ X + X + X @ X X X X X X X X X X X X X X X # X + X # X + X X X + X X X X X @ X X X X X X & # + + X X X X X # X X X @ X X X O + . X % = h.: %.Z.*.1 < 7.*.7.*.*.*.*.k.7.1 3 #X0.3 9.y e 9.e y e y 9.3 T !.0.d 0.0.T 0.T p T p t | =X,X3X,X-X-X:X-X:X;X.XaXiXpXiXiXaXiXiXiXaXiXaXiXaXiXiXiXiXiXiXiXiXiXiXiXiX( _.v.aXkXaXcX8.{ ] -X>X:X,X,X3X,X:X:X,X:X,X:X:X-X:X,X,X:X,X:X:X-X:X:X,X:X:X-X-X] sXlXlX} -X:X,X:X3X,X3X-X:X,X3X3X3X,X>X/ P h :.z h x z $XK ` f.` K v C v z v x z x x l z l z z v x v z v z v z v v v c v v v f.` v v c v c v v ` K v C v c v C v z z x z x z h z :.h :.j :.h :.h :.>.L C  X2.2.3.3.g.g.A 6.3.Q.2.k.L :.h S.h P h f h d h S.h S.h d ,.V +.r.N V s d f d d P :.d f f h :.L S.| ! v.W Q n V f v d.( ) [ b g L k.>.0X3.5.F % N.= = R.p.X $ + X @ X X X X X + X + X + X + X + X . /.U r.M ( l.OX+ # @ X nX'.[ ] B ",
"M.+ + & X X X X X X + X X X X X X X + X X X X X X X X X X X X X X X + X X X X X X X X X X X X X X X X X X X X X X X + X X X X X X X X X X & X X X X X X X X X X X X + X X X X X X X X X X X X X X X X X X X X X X X X X X X X X X X X X X X X X X X X X X X + X X X + X X X X X + X X @.X X + X X X # X X X X & + X + X + + X % N.h.; > %., , < *.*.*.< *.*.*.*.*.1 1 3 0.9.y e e e e 5 e e e e y 9.y 9.y u y u u u y u y u t V :X<X3X>X-X:X:X:X-X-XgXjXiXiXiXaXiXiXiXaXaXaXiXaXiXaXiXiXiXaXiXiXiXiXiXaXiXjX} >X} cXiXaXjXv.] { ,X>X:X<X3X3X,X>X,X,X:X,X-X:X-X>X,X,X:X,X-X:X:X,X,X,X-X-Xm jXiXjXiXcX{ -X:X,X,X3X3X>X-X,X,X3X3X<X:XV s >.x >.c c 2.2.Z Q.u.Z Z 2.v c v x z x z l l l z l z x z x k x v x v c v C v v ` c v c ` C c x v c ` c v z v c v x c x C x x x z :.x :.x :.h f h :.:.:.>.L C $XQ.J 3.3.j.6.j.6.3.Q.2.k.A.S.:.S.:.S.h d h P f d :.d h :.:.P 1.8.r.N l.q.a a P P d P f d h P :.P y.x.} m { n E h >.S.1.x.( Q } / >. XQ.6.D F = K.h.F N.p.X $ + X X X X X X & X X + X X X X X X X + $ M.W.t.) .X} '.  X & M.m.! N Q W ",
"$ . X X X X X + X X X + X X X X X X X + X X X X X X X X X X X X X X X . X X X + X X X X X X X X X X X + X X X X X X X X X X X + X X X X X X X + X X X X X X X X X X X + X X X X X X X X X X X o X X X X X X X X X X X X X X X X X X X X X X X + X X X + X X X X X X X X X X X X X X X X X X X + X X X X X X X X X X X @ X X p.N.G E.> g.%.%., ^.Z.Z.*.*.*.*.Y.7.1 #X2 3 9.y e y e e 5 e e e e y e y 9.y t u e y t y u y u i t I.=X,X3X:X-X:X:X-X-X-XsXaXiXiXiXiXaXiXiXiXaXaXaXiXiXiXiXiXiXiXiXiXiXiXaXiXiXiX8.{ { 8.jXiXjXm E { :X,X:X,X3X3X3X,X,X:X,X:X:X-X:X:X3X,X,X:X:X-X:X:X,X:X-X{ cXiXaXpXpXcXsX-X:X,X,X,X3X,X:X:X,X3X3X,X:X! g c $X0X2.u.u.X.3.A 6...u.u.` ` c v z z x v x z x v k v x v z v z v c v c v c v C v c v K v c v C v $Xv C v c v z v z C x C x z >.z x z h z h l :.z :.>.A.0X2.3.3.A j.A j.H g.6.J Q.%Xk.>.>.L L 7.h :.h P h d :.S.h :.h f h g | } N } E R s P d P :.d :.P h f ~ b O.} ] [ n ,.>.L C A.| [ Q r.O.u.g.S F F = K.K.F N.% X X + X X X @ X X X X X X X + X X X + X X X X $ OX'.v.) M ! '.OXzX'.t.N B Q c.",
"M.$ X X X $ X X X $ X X X X X X X X X X X X X X X X X & X $ X X X $ X X X @.X X X $ X X X X X X X X X X X X X X X X X X X X X X X X X X X $ X X X $ X X X $ X X X $ X X X $ X X X X X X X $ X X X X X X X X X & X X X X X X X X X $ X X X $ X X X $ X X X X X X X $ X X X X X X X X X X X $ X X X $ X X X $ X @.X @.X @.[.N.a.4.E.> j.> g.%.%., Z.< *.7.7.#X#X3 3 9.9.9.9.4 e q e 5 e q e q e e t e t e u e t e u e u u y u i ! :X<X,X:X-X,X:X:X-X>XlXjXiXiXiXiXiXaXiXiXiXaXaXaXiXaXiXaXiXjXsX( pXjXaXaXiXjXsX] v.} aXjXlXw.v.v.:X<X:X>X,X<X3X3X,X,X,X,X:X>X:X>X,X<X,X,X:X:X-X:X:X:X_.lXaXjXlX{ B lXcX] -X,X,X,X3X<X:X:X:X3X3X<X,Xn q.2.Z J 3.3.A j.H A H 6...u.Z 2.K C C x k x k x k x k x z x v x C x v c v c v c v c v c v K v c v c v c K C c c K z C x z x z :.x x z L x :.x :.h :.x L K Q.3.6.: C.H : C.j.j.J Z 0XK A.k.L >.:.L S.h P d P :.P :.S.h S.:.d P ).t.+.) } | a f P d P f P d P P Y } U W } B Y >.k.C k.x h d.} r.v.d.|.U.N.= = qXN.% % X % X % X @.X $ X @.X X X X X X X X X X X $ X X X $ zXU +.) M l.c.l.[ ( W *XB '.",
"$ . X + X + X + X + X + X X X X X X X X X X X X X X X X X + X X X + X + X + X + X + X + X X X X X X X X X X X X X X X X X X X X X X X X X + X + X + X + X + X + X + X + X + X + X X X + X + X X X X X X X X X # X X X X X X X X X + X + X + X + X + X X X X X X X + X X X + X X X X X + X + X + X + X X X + X X X X X % = a.G 4.E.; $.$.> g.J J < *.7.7.1 1 3 3 0.0.9.9.e r e e q e q e e r e t e y t y t y t y t y u y u ^ R c.,X,X,X-X:X:X:X-X-X_.pXiXiXiXiXiXiXpXiXiXiXiXaXiXiXiXiXiXaXiXaXv.B 8.jXiXiXpXiXQ v.] v.8.} c.Q xX>X,X,X-X>X,X3X3X3X:X,X:X:X-X:X-X,X,X,X:X,X-X:X-X:X-X] aXaXlXB B { B iX8.-X-X,X:X3X,X:X-X:X:X3X3X<X-XV Z 6.A : H H 5.5.5.H H A X.Z u.v v C c x z x v z v z v z v z v v v c v v v ,.v v v c v K v K v v v f.` c v C ` c v z C z c x z x C x c >.z L z h x A.0XQ.3.j.S 5.- S S H : 6.6.Q.2.c K k.c L >.:.h S.h S.h :.L :.h :.h f f d s Y <.+.M ! q.P f d h d s P P 1.t.( ( B c.b >.C K k.c L :.| l.T.) ! vX$ & U.& & X X X X # X X X X X + X X X X X X X X X # X + X X X + X # OXW.+..XN w.c.w.N Q Q c.6X/.",
"M.$ + X X X X X X X X X X X X X X X X X X X X X X X X & X X X X X X X X X X X X X X X X X X X X X X X X X X X X X X X X X X X X X X X X X X X X X X X X X X X X X X X X X X X X X X X X X X X X X & X X X X X @.X X X X X X X X X X X X X X X X X X X X X X X & X X X X X X X X X X X $ X X X $ X X X X X X X X X & p.= a.h.G ; ; C.C.> 6.J , < 7.1 7.1 7.1 S.2 0.9.9.4 e q e 5 q q e q e e t e e e t e t e y t u u y u u u ).c.,X3X,X:X:X,X:X:X-Xw.pXaXiXiXiXaXiXiXiXaXiXiXiXaXiXiXpXaXiXaXiXjXv._.v.aXaXiXiXlXw.xXw.w.lXaXv.} >X>X,X>X,X3X3X3X3X,X:X,X:X:X-X:X:X3X,X,X:X:X-X:X-X-X8.jXaX( w.} ] *X8.cXw.-X:X,X,X3X:X:X:X,X,X3X3X:Xn X.H C.5.5.5.5.5.G.H A A 3.Z 2.` C C x z l z x z x z z v x v z v z v c v c v c v c v c v c c c v c v c v C c c v z C x z x z x C >.z x x :.>.L z >.K Q.3.6.5.5.- S - 5.H g.6.Q.Q.K K  XC L L :.h d h S.h S.h S.h d :.P f P P a e.Y U Q N V p d d a a a a ,.x.v.] m B I.f.L k.L >.7.k.Q.XXm.O.) [ t.M.% X $ X X X & X & X @.X X X & X & X X X X X X X & X X X X X X + X OX'.[ M w.w.c.[ [ ] B '.OX  ",
"$ . X + X X X + X X X + X X X X X X X X X X X X X X & # X + X + X X X + X X X + X X X + X X X X X X X X X X X @ X X X @ X X X X X X X X X + X + X X X + X X X + X X X + X X X + X X X X X X X X X X X X X X X X X X X + X X X + X X X + X X X + X X X + X X X o + X X @ X X X + X X X X X + X o X X @.X X + X X $ % = = F G ; 4.C.C.> g.%.Q.< *.1 7.1 *.7.*.#X3 9.y e e e e q e q e q t e t e r e t e y t y u a u a u p T u q.=X,X,X,X-X:X:X:X-X-Xw.kXpXiXiXiXiXiXiXiXiXiXiXiXiXjXT.8.aXiXiXiXpXcX[ { Q pXaXiXcXgX;Xc.{ aXpXgXw.>X:X<X-X-X,X3X3X3X,X,X:X:X-X:X:X:X,X3X,X,X:X:X-X-Xw.aXaX8.w.] Q ] w.T.jXv.-X:X:X,X,X,X-X:X:X,X3X3X,X=Xb.S D 4.D 5.D G.5.A A 3.3.` ` $Xc x z x v x z x v z v z v c v C v v ` v v v v c v c v c v c v K ` c v c v c v c c z v z c z C z c z c C c C $Xc ` Q.X.g.S 5.D 4.D 5.S : A 3.Q.0X` K K A.>.:.L :.>.:.:.P h :.h d :.d f P s P s a q.} ( ) [ q.a P s P f g b O.v.N [ n @XL c A.>.A.Q.6.D F OXm.} N t.m.$ % + X X @.X X X X X X X X X X X X X X X X + X X X X X X X @ X . /.6XB B W w.B [ [ B c.'.$ . ",
"M.$ X X X X X X X $ X X X X X X X X X X X X X X X @.X X X X X X X $ X X X $ X X X $ X X X $ X X X X X X X X X X X X X X X X X X X X X X X $ X X X $ X X X $ X X X $ X X X $ X X X @.X X X X X X X X X X X X X X X X X X X $ X X X $ X X X $ X X X $ X X X $ X X X X X X + $ X @.X % X X X % X % @.p.% % @.p.% p.* = F - 4.C.; $.$.> %.J Z.7.Y.3 1 1 7.7.*.1 #X2 y 4 e q e 5 e q e q e e t e t e t e t t u u u u p u y u p T / >X,X<X:X-X:X,X:X:X-X{ kXaXiXaXiXiXiXjXiXiXiXjXiXaXpX( lXaXiXaXiXaXuX8.] m ] cXaXpXQ _.w.{ O.( m pX8.>X,X>X>X>X3X3X3X3X,X,X:X:X-X:X:X>X,X3X,X,X-X:X-XxXcXaX{ _.] ] ] ] v.jXsX>X:X,X,X3X,X:X-X:X,X3X3X<X:X'.D 4.D 5.5.H H 6...3.Z 2.` c c x z x z x z x z x v x v z v z c c v c v c v c v c v c v C v c v c $XC c C K C c C c C c c c z c C K K ` 2.` 0X` Q.X.6.H 5.4.5.4.5.5.: j.^.Q.(.K  XC L L 7.L 7.L 7.:.P d P :.P d P d P P P d P d a V 8.r.( x.R P P :.P / <.v.v.B l.V S.c A.C Z.3.C.F N.% N.OX'.Q T.t.&X$ $ X % @.% X % X @.X @.X X X @.X X X X X X X X X X X X X X o $ nX'.} W Q M [ W B c.c.zXM.$ ",
"  . X X X + X + X + X + X X X X X X X X X X X X X # X X X + X + X + X + X + X + X # X X X X X X X X X X X X X X X X X X X X X X X X X X X + X + X + X + X + X + X + X + X + X X X # X # X X X X X X X X X X X X X X X + X + X + X + X + X + X + X X X X X X X X X X X X X X X X X # X X p.% = = = R.= N.= = = a.h.h.; ; $.; $.$.> g.J Z.7.7.3 #X#X7.7.k.7.7.#X3 9.r e e e t e t e r e t e y t y e y t y u p T p T p 0.d P P I =X8X3X:X-X:X:X:X-X-Xw.kXiXaXiXiXiXiXpXaXiXiXiXaXaX8.w.aXaXiXiXaXiXaXpXm ] { <.lXw.[ B 2X;X[ lXjXlX} ;X,X:XtX>X,X,X3X,X,X:X,X-X>X-X:X-X,X,X,X:X:X-X>X8.jXsXw._.w.] ] m pXaXiX>X:X:X,X:X,X:X:X-X:X,X3X,X>X4Xb.D 5.S A A .. .Z u.` v c v z v x v x v k v z v c v v v c v c v c v v v c ` v v c v v v K _ v v c ` c v c ` c v c v C c c ` K ` Q.u.3.X.3.3.3.g.j.D - G - F S 5.j.g.u.Q.%XK k.k.L >.:.L :.h :.h d :.d f d f d s P s P s d h d P ).<.+.N [ V a h P u.V <.( ] w.I.,.K Z.J 3.S F N.N.U.= N.= bX} r.r.'.M.X % X % X & # X X X # X X X # X X X X X X X X X X X X X @ X o . zX! W r.r.W c.B B c.bX$ $ ",
"M.$ + X X X X X X X X X X X X X X X X X X X X X X X X X X X X X X X X X X X X X X X X $ X X X X X X X X X X X X X X X X X X X X X X X X X X X X X X X X X X X X X X X X X X + X X & X X X X X X X X X X X X X @.X X X X X X X X X X X X X X X X X X X X X & X X X X X X X X X % & * * = a.#.F G h.- h.- G 4.- ; ; C.C.> : j.j.> %.Z.Z.1 #X2 0.2 3 #X7.Y.Y.3 0.9.9.e e e e e t e e e t e t e t e y t y u T u p T p !.d a S.!.| >X8X<X:X:X:X:X:X:X-X{ kXaXiXaXiXiXiXaXiXaXiXiXiXjXv.*XpXaXiXaXiXaXiXaXiXv.{ w._.n w.w.n } ! Y Q =X-X>X,X>X<Xv.:X<X3X3X,X,X:X:Xm <X-X:X:X<X,X,X:X-XB aXcX8.w.] _.Q ] sXaXiXaXQ -X,X,X,X:X,X-X:X:X,X,X3X,X>X'.G.5.A g.3.u.2.` c $Xx C x z x k x z x z x v x v z v c v c v c v K v c v v ` c v c v c v c v c c c v C c c c C c c c z v K ` Q.X.6.A j.A 6.A C.D F F G F 4.5.6.6.Q.2.A.k.A.A.L L S.h S.h d f P f P s P d P P a P p d p d d d P T 1.[ ( ( } 1.>._ U 8.+.Q } n o.j.j.H 5.F = N.|.a.h.F F N.].'.U ( [ vXU.p.* % p.& @.X @.X X X X X & X X X X X X X X X X X X X X X X X OX6X( +.r.w.{ W l.l.OX+ $ ",
"  . X + X X X + X X X + X X X + X X X X X X X + X X X # X X X + X X X + X X X + X X X + X X X + X X X + X X X + X X X + X X X X X X X X X X X + X X X + X X X + X X X + X + X + X X & # X X X X X X X X X X X # X X X + X + X + X X X + X X X + X X X + X X & # X + X X @.X p.% = = K.F G - 4.- ; 4.; 5.; ; C.S C.C.j.$.> g.> ^.Z. X1 #XT 0.9.0.0.3 3 S.3 !.9.y e e e w e t e t e t e y e y e y u y u p 0.p a d S.S.S.h h S.| =XwX,X:X-X:X:X:X-X-X{ cXpXaXiXiXiXiXiXaXiXiXiXiXiXpXQ pXiXiXiXiXiXaXiXaXpX[ -X2X_.[ ] [ w._.;X5X5X2X[ >X,X:XgX{ :X3X3X3X:X,X-XxXv.-X:X:X,X,X:X:X;XxXcXjXv.{ ] Q _.] lXaXpXjXm -X:X,X:X,X:X-X-X,X:X:X:X>X,X=XH.A A u.Z 2.K C v x z x z x v x v x v x v k v c v c v c v K ` c ` v ` v ` v ` v v C v c v c ` K v c ` c v C v c v c ` 2.Z 3.A H S 5.S H 5.4.= N.N.|.F - 5.6.3.Q.2.A.x L >.L x :.:.P :.P s P f P s P s P s p d P s P s P s P s p g b r.r.M t.H.W.t.i.m W c.W.N.= = = N.N.= D G - F F * N.U./.I.N N d.OXN.p.p.X X X X X X X X + X X X X X X X + X X X + X X X + X X $ zXc.( T.W w.N M [ m.M.X . ",
"M.$ X X X X X X X $ X X X $ X X X $ X X X X X X X @.X X X $ X X X $ X X X $ X X X $ X X X $ X X X $ X X X $ X X X $ X X X X X X X X X @.X @.X X X $ X X X $ X X X $ X X X X + X X $ X X X @.X X X X X X X X X X X X X X X $ X X X $ X X X $ X X X X X $ X X X X X % @.* R.= a.#.h.- G +X4.; S ; ; C.C.C.C.: C.C.C.j.j.> g.%.J &.*.#X0.9.y e 9.9.0.9.!.T 0.9.u e e e e q e q e e t e e e t 9.u u T T !.T P P S.S.L 7.h 7.k.S.b >X8X<X:X:X:X,X:X:X-XtXaXaXiXaXiXaXiXjXsXsXaXaXiXiXaX( lXjXiXaXiXaXiXaXjXpXw.2X=X{ { w.n Y NXl.5X5Xc.J._.>X:Xm lX>X,X<X3X,X,X:X] cX{ :X:X,X,X,X:X:X8.jXjXO.B ] Q [ ] pXaXaXaX8.-X,X,X,X,X,X-X>X:X,X-X-X-X>X-XI.`.3.Z 0X$Xz z x z x k l z x k l z x k l v z v c v c v c v v v c v v v K v ,.v C v c c z v c v C c C c x K c ` K ` 2.Z Z A H - 4.D 4.F #.N.p.& N.a.4.H J u.2.0XA.A.:.h :.L 7.:.P d a P a d a p a d P d P d p d P d p d d f P h A.o.O.O.) ( [ B v.r.} c.'.M.% X % N.#.- ; 5.4.F #.= = = #.= m.l.) v.d.].% & $ X X X @.X $ X X X @.X X X X X X X $ X X X $ X X @ $ OX'.c.( ) W B ) ) } l.].X $ ",
"  . X + X + X + X + X + X + X + X + X + X + X X X + X + X + X + X + X + X + X + X + X + X + X + X + X + X + X + X + X + X X X X X X X X X + X + X + X + X + X + X X X X X + X X X + X X X X X X X X X X X X X X X X X + X + X + X + X + X + X X X + X X X + X X % % = = F F h.h.- - 4.- ; 4.5.5.C.S C.S C.S C.C.: C.j.j.%.^.Z.k.1 3 T y 9.y e y 9.0.y 0.9.y e t e r e t e y t y e y t y u i y p P S.S.Y.Y.>.L >.L k.k.k.A.>.x.,XwX,X:X-X:X:X:X-X-X{ aXiXaXiXiXiXaXiXsXgXiXpXiXiXaX} lXaXaXiXiXiXiXaXY _.w._.n ;Xl.Y 0 BXBX1XU E r VXn :X,X>XkXv.:X,X3X,X,X:X{ kXdX>X-X:X,X:X:X:XyXD.jX( _._.>X>X{ lXaXiXjX8.-X:X,X:X,X:X:X-X:X:X-X5X;X;X>X;Xb 3.2.` C C x v x z x v x v x v z v z v v v ,.v v v v _ v ` v _ v ` v ` v ` v _ v ` K ` v v c v C c c ` K ` ` Z ` Z 3.A H D F F F N.N.% % X p.N.F 5.6.3.0XK C c L L :.h S.h P s P d P s a P a s P d P s d s P f d :.d h S.k.3.D |.vXt.( M W Q M m [ c.zX. X R.= G 4.; G F = = = F F G F - ].l.( r.t.vXM.X X X # X X X + X + X # X X X X X X X X X + X @ + X X OX'.[ B W Q } v.r.r.M [ zXX . ",
"M.$ + X X X X X X X X X X X X X X X X X X X X X X X X X X X X X X X X X X X X X X X X X X X X X X X X X X X X X X X X X X X X X X X X X X X X X X X X X X X X X X X X X X X X X X X X X X X X X X X X & X X X X X X X X X X X X X X X X X X X X X X X X X % % N.N.a.a.h.F h.h.- - +X- ; 5.; 5.C.C.$.C.: C.: C.j.$.j.j.%.J Z.*.#X0.9.y e e e e e e e y e e e e e e e t e t e t e u t u u 0.T P d h L  XA. X X X7.k. XK A.%X>.I.<X8X,X:X>X:X:X:X:X-XQ aXaXiXaXiXaXaXaXiXjXiXiXiXaXaXv.sXjXjXaXiXjXpXv.;Xw.} B 2XY 0 BXCXBX8 BXBXBXBXBX} :X,X:XgXcX{ >X,X3X,X:X>XkXcXdX>X:X:X,X:X>X8.jXaXT.w.} Q ] w.8.aXaXaXpX_.:X,X,X,X,X:X:X:X,X:X;X5X4X-X=X=XF.Z K C x x l z l k x k x z x v x v z v x v c v c v K v c v v ` c v ,.v K v ,.` c v c v c c z C C v K ` f.` ` Z 3.A H G F N.p.  % p.N.N.= = F - 6.Q.%Xk.L L :.:.P S.P :.P d P d a d P d a p a p a P p d P d d f d S.P $X3.#.U.+ M.'.O.W B N M Q l.'.  % N.a.G G - F F F - 4.C.5.C.5.5.- D vXO.r.) l.].X X X X X X X X X X X X X X X X X X X X X @.X X X $ M.zX[ ( W [ [ U U 8.+.r.N l.OX  ",
". O X X X o X + X X X + X X X X X X X + X X X X X X X + X X X + X X X X X X X + X X X + X X X + X X X + X X X + X X X + X X X X X X X X X X X + X X X + X X X + X X X X X X X + X X X X X X X X X X X X X X X X X X X + X X X + X X X + X X X X X + X X p.p.= = a.a.F = F a.K.a.h.G 4.- ; S C.C.C.$.: C.: C.: C.: : 6.6.Z.*.3 3 u y e y e e e y e t e y e t e t e t e y t y e y u y u a a S.7.c Q.3.^.u.Q.Q.Z.Q.Q.Z Q.Q.(.C I.,X8X,X:X-X:X:X:X-X-X{ cXiXaXiXiXiXaXiXiXiXiXiXaXiXjXv.8.sX8.pXcX<.c.5X2X[ [ c.D.BXBX8 CX8 ZX8 BXBXBXJ.v.<X,X:Xm cXlX:X>X,X,X:X:X8.cXcXgX-X:X,X:X-XgXcXaXdXQ w.] ] *Xv.cXpXaXlX>X-X,X:X,X:X:X-X:X:X:X;X5X5X'.'.4X6XX.0XC z x z x v z v x v k v k v v v ,.v v v v _ v ` v _ v ` v ` v ` K ` v ` K ` K v c ` C c K ` ` ` 2.Z Z 3.3.H 4.F N.$ + . $ & = F 4.F 4.S 6.^.A.L :.h :.h d h d f P d P s P f d s p s a s a d p d P f d h P h S.>.2.S F % @.oXm.O.N ( ( Q Q 6XM.% N.N.= = = = D S j.j.6.6.6.A C.- - = U.'.v.N ! m.  o X X X X X X X X X X X X X X X X X X X X X X X M.zXl.( { [ n zXOXOXm.U v.N [ '.OX",
"M.$ X X X X X X X $ X X X X X X X X X X X $ X X X $ X X X X X X X $ X X X X X X X X X X X X X X X $ X X X X X X X X X X X $ X X X $ X X X X X X X X X X X @.X X X X X X X $ X X X X X X X X X X X @.X X X @.X X X @.X X X % X X X $ X X X $ X X X % @.p.* = N.= = = = = N.F = #.F - 4.; C.: : j.j.> j.j.$.j.C.j.j.%.J Z.*.3 T 9.t e e e e q e q e e e e e e e e t e t e u e u u T u p P h 7.K Q.6.6.6.^.6.J ^.J 3.J u.Q.2.A.I.<X8X<X:X:X:X>X:X:X-X] cXaXiXjXiXaXiXiXiXgXpXaXaXaXaXlX] } w.Q { 2X2Xw.w.[ _.1XBXCX8 BXBXBXBXBX;.D.E v.cXlX-X<X<XkXcXv.:X<X,X,X-Xv.cXiXhX{ -X>X:X:X.X1XiXiXpX<.{ { { } aXaXiXaX>X:X:X,X,X,X:X>X:X,X:X-X5X5X'.G.|.m.b.0XK x z :.x x k l k x v x v x v x v v ` c ` v ` K ` v ` ,.` v ` K v c v c v c v C c C K C f.K ` K ` ` u.3.A 4.N.p.X X X % * F - j.6.X.3.Q.0XL :.P f d f P d d f P P P d P d P s P d a P a P P d P d P :.d d P h A.3.5.|.N.X M.m.! v.+.M ( [ m.M.p.p.N.N.F G C.6.Q.2.Z.J J 6.: - - a.= N.OX'.[ ( t.vX& X X X X X @.X X X $ X X X $ X $ X $ X X X @.$ vXl.} Q B [ ! OX$ . vXd.+.N m [ m.",
"  . X + X + X + X + X + X X X X X X X + X + X + X + X + X X X X X + X X X X X + X X X X X X X + X + X X X X X X X X X X X + X + X + X + X X X X X X X X X X X X X + X + X + X X X X X X X X X + X + + @ X + X X X X X @ X # X X X + X X X X X X p.[.p.% N.% N.* N.% N.U.N.U.= = h.G 5.S j.: g.j.6.j.j.: : H : j.6.3.Z.k.P 3 u y e y e y e r e t e y t y e y t y 9.y t y t y y 0.T d P h k.2.Q.g.6.: : H C.: 6.6.3.X.Z u.(.>.I.,X8X,X:X:X:X-X:X:X-X{ cXiXiXiXaXiXiXiXaXQ lXaXaXiXiXiXiXT.{ { { { } { Q _.8.BX-.8 BXBX;.J.V E n { w.8.jXcX} -X:XgXjXpX*X:X3X,X:Xw.aXpXjXT.-X:X,X:X] cXaXiXjXjX8.{ [ >XkXJ.J.8._.-X:X-X:X-X-X;X-X-X-X5X5X5X6X/.H.AX .` x x :.x l k l v v v z v v v c v v ` v _ ` _ ` _ ` _ ` _ ` ` ` _ ` ` f.` v v c ` K v c ` v ` 2.Z ` u.3.H D U.& @ X X $ p.D H 6.3.2.0Xk.k.L x :.h f f d f d s d f d h d h d f d f P d a d d h d :.d :.d h S.>.0XA - N.p.# & M.bXl.+.M ] { B bXMXX % = G 5.3.Q. X2.(.Q.^.g.C.- #.= N.% p.$ zXc.( ) '.OXX # X + X + X + X + X + X + X + X + + @ X O mX6X! W Q B '.zX. @ X M.W.O.N M ( l.",
"M.$ + X X X X X X X X X X X X X X X X X X X X X X X X X X X X X X X X X X X X X X X X X X X X X X X X X X X X X X X X X X X X X X X X X X X X X X X X X X X X X X X X X X X X X X X X X X X X X X X + X X X X X X X X X X X X X X & X X X % X p.p.* p.N.p.N.% N.p.N.* N.N.= = #.G ; C.j.j.> g.> j.j.C.: C.j.j.%.^.Z. X1 !.T T e t e y e t e t e t e t e t e y e u t y t u u T T 3 !.S.7. X2.6.6.C.S D 4.S : j.^.3.Q.2.A.A.S.I.<X8X3X:X:X:X:X:X,X-X] aXaXiXaXiXjXiXiXiXQ lXaXiXaXiXlXlXjXlXgX] ] ] ] m gXcXSXCXBX1X8.x.8.sXpX<.Q m } aXjXlXw.:X] aXjX8.>X,X3X,X>X8.jXaXpXw.:X,X:X{ kXlX8.v.O.c._.2X2X_._.2X2X;X-X;X;X;X;X;X;X;X;X;X;X5X;X5X4X4X6X6XI.I.b | I / ~.v l x l x x v c v ,.v c ` v ` v ` ` _ ` ` ` ` 2.` ` ` K ` K ` c v c v c v K ` 2.` 2.3.3.: - N.& X X + % = 4.j.J 2.K c L >.:.:.f :.d f P d P s a d P f P f P h P P P d p d P f d f d :.P d S.k.Q.H F U.% & p.@.% zXl.<.) [ B B '.].= G j.6.Z.%XA. X$XQ.J 6.j.- - F = * p.& & nX'.O.r.l.vX. X X X X X X X X X X X X X X X + X + $ o OX6X! [ [ ] ! zX. X @.X $ OXW.t.r.) [ ",
"  . X + X X X + X X X + X X X X X X X + X X X + X X X + X X X X X X X X X X X + X X X X X X X + X X X + X X X + X X X X X X X + X X X + X X X X X X X + X X X + X X X + X X X + X X X X X X X + X X X X X X X + X X X + X X X X X X X X @.X p.% p.% * % p.% p.% N.p.N.N.= = F F 4.S j.j.6.g.6.: j.C.C.5.: j.6.6.Q. X7.d T 0.y 0.u y u y u y 9.y 9.y e y 9.y e y t y u y u a T d a d S.k.2.6.: D D F #.F 4.5.6.3.Q.2.k.k.>.:.b ,X8X,X,X:X:X:X:X:X-X] cXiXiXiXiXiXiXiX8._.lXaXiXiXaXgXm T.jXaXsXm ] m pXaXaXaXSXU _.{ } aXjXiXjXQ Q m jXiXjXgX>X-X8.cXjXm :X,X<X-X{ kXkXlX{ ;X2X;X2X_.2X5X5X5X5X5X5X5X5X5X5X5X5X5X5X5X5X5X5X5X5X5X5X5X5X5X5X5X5X5X5X5X5X5X;X;X4X=Xn I.b | y.v l v $X` v _ v ` ` _ ` Z ` ' ` _ ` Z _ _ ` _ v ` K _ ` ` K ` v ` ` Z Z 3.g.5.D N.& . X X % N.4.6.J Z 2.` C z L h :.h f f d f d s d f d s P f P f P h P s d h d f d h S.h d d S.K 6.F = U.N.U.= N.p.X M.bXO.( B [ v.! }.5.6.^. X XA.K $X2.J g.j.S - = N.% % X X X X mXt.( [ '.OXo X o X X X + X X X X X X X o X X X @ OX'.[ Q { { } '.M.X X X X X + mXt.+.) W ",
"M.$ X X X X X X X $ X X X % & @.X X X X X $ X X X $ X X X X X X X $ X X X % X X X X X X X X X X X $ X X X $ X X X @.X X X $ X X X $ X X X X X X X X X X X $ X X X @.X X X % X X X X X X X X X X X @.X X X $ X X X $ + X X % X @.X % X % @.p.p.* p.N.p.N.% N.p.N.* N.N.= = #.#.4.5.j.6.> g.> : : C.: C.: j.> ^.Z.(.7.S.!.!.T 0.u 0.u T u T 9.y 9.u e u 9.u 9.u 9.u u y u 0.T a 3 d S.A.Z.g.: D D F - G 4.5.6.3.Q.0XA.A.A.%XA.| >X,X<X,X:X:X>X:X:X-Xm cXaXaXaXiXjXaXv.;X_.J.jXiXiXiXjXiXiXiXjXv.8.8.pXaXaXiXjXiXpX<.[ { lXjXiXaXv.Q ] kXjXaXNX] -Xn kXJ.8._.>X>X=X;Xw._.2X;X;X5X5X5X5X5X5X5X5X5X5X5X5X5X5X5X5X5X5X5X5X5X5X5X5X5X5X5X5X5X5X5X5X5X5X5X5X5X5X5X5X5X5X5X5X5X4X=X'.I.o.y.v v v ` ,.` ` Z ` Z _ Z ` Z Z Z ` _ 2.` 2.` 2.` K ` 2.` 2.Z Z 3.6.5.- N.p.X X @.N.= 5.A Q.Z 0XK C C :.h d :.P f P d P d a d P d P d P d d f P f P :.d :.P g d :.P S.7.Q.: #.F F - F - F F p.% X MX'.! l.v.) m d.^.Q.(. XA.%X X2.Q.3.j.5.- F N.p.% + X X X X M.zXt.[ ) '.].X @.X @.X X X $ X X X $ X X X $ X M.zXx.{ } B ! '.].X X X X X @.X M.W.i.) Q ",
"  . X X X + X + X + X + X # X X X X X X X + X + X + X + X X X X X + X X X # X + X X X X X X X + X + X + X + X + X X X X X + X + X + X + X X X X X X X + X + X + X X X X X # X X X X X X X X X X X + X + X + X X X + + + @.# X X % # % % p.% p.% p.% R.% N.% N.N.= U.= = F F - S j.j.6.j.j.5.C.S C.5.: : 6.6.Q.Z.*.k.Y.S.!.d !.d 3 d !.P 0.p T T u 0.u y u y u T u p 0.p !.d P S.7.K J : S F - F - D S H g.g.J Q.0XQ.2.Q.Q.u.o.=X,X,X,X:X:X:X:X:X-Xm cXiXiXiXjXsX[ 5X2X_.iXiXiXiXiXiXaXiXaXpXQ sXaXD.aXiXaXiXiXaXcX] { x.jXiXiXsXQ >XQ <.E ! w.;X;X-X=X;X;X5X5X5X5X5X5X5X5X5X5X5X5X5X5X5X5X5X5X5X5X5X5X5X5X5X5X5X5X5X5X5X5X5X5X5X5X5X5X5X5X5X5X5X5X5X5X5X5X5X5X5X5X5X5X5X5X5X5X;X9Xn b.I v ` _ Z Z  .Z  .Z  . .X.3...Z u._ u.Z Z ` u.` u.Z u.u...j.D F U.& X X % a.F 5.A 3.3.Q.K A.c h h :.h f h f f s f P f f f P s P f d h S.:.S.h :.L :.>.h h S.%XJ H #.N.- C.: S 5.G F % & + & X M.zXI.<.r.Q ! |  X2. XK K 2.Q.6.j.4.#.N.N.& $ + X X X o X X OX'.} ) O.m.. X @.# X X X X X X X @ X + X + M.zXt.] W Q [ 6XOXX X + X X X X X o OXd.t.N ",
"M.$ X X X X X X X X X X X X X X X X X @.X X X X X X X X X X X X X X X X X X X $ X & X X X X X X X X X X X X X @.X X X X X X X X X X X X X X X X X X X X X X X X X X X X X X X X X & X X X X X @.X X + X X X X @.X X + X X @.@.p.% p.p.R.p.R.% N.* N.N.N.N.= N.= = F = h.#.4.; > j.g.: : C.C.C.: C.: j.6.6.Q.Z.< k.7.7.#XS.#XS.3 S.P S.3 P 3 p T T u T u T u T u 0.T p !.d S.L *.Q.6.5.S D - - S - C.C.6.6.J J Q.Z ^.g.6.j.g.H.6X,X3X,X:X:X:X:X:X-XT.cXaXpXlXv.w.>X[ >X_.v.pXaXaXaXaXiXaXaXpX} m sXpXsXjXiXiXiXaXaX] ] Q m } w._.2X;X5X5X5X5X5X5X5X5X5X5X5X5X5X5X5X5X5X5X5X5X5X5X5X5X5X5X5X5X5X5X5X5X5X5X5X5X5X5X5X5X5X5X5X5X5X5X5X5X5X5X5X5X5X5X5X5X5X5X5X5X5X5X5X5X5X5X5X5X5X5X5X5X5X6X'.| F.Z 3.6...3...A A 6.A X...Z 3.Z u.Z Z Z Z Z Z u.X.6.5.F & % % p.N.- 5.6.6.u.u.Q.2.k.>.L L :.:.f h d f d f P f d f d d P d d :.S.h S.h L >.L %X$X2.(.6.5.|.N.U.h.C.6.A C.G F U.% X @.X % p.F &XV v.W Q E q.k. X(.Q.J j.5.G F N.p.& $ X X X X + X + X . mXt.T.) ! OX$ + X X @.X X X X X X X X X . zXt.} } B } '.OX. & + X X % X X X X . OX'.( ",
"  . X o X + X + X X X + X X X + X X X # X X X X X X X X X X X + X X X X X X X + & X X + X X X X X X X X X X X # X X & X X X X X X X X + X X & X X X X + X X X + X X X + X X X X X X X + X X X + X X X o X X X + X X X X & X p.[.p.% p.% N.p.N.p.N.N.= N.= = |.= F a.#.F 4.S j.j.j.C.C.S ; 5.C.H : j.6.g.J Q.(.(.A.k.7.h 7.L 7.L 7.L 7.h S.S.3 d T 0.T a 0.a 0.d !.d d h k.2.Q.g.j.S S - S 4.5.S C.: 6.6.6.6.3.g.6.j.j.H C.5.D =X,X3X3X:X:X:X:X-X-X] <.Q ] B w.{ Q _.{ { B B sXaXiXiXiXiXaX8.v.8.pXpXiXiXiXiXaXiXaXsX] { m _.5X5X5X5X5X5X5X5X5X5X5X5X5X5X5X5X5X5X5X5X5X5X5X5X5X5X5X5X5X5X5X5X5X5X5X5X5X5X5X5X5X5X5X5X5X5X5X5X5X5X5X5X5X5X5X5X5X5X5X5X5X5X5X5X5X5X5X5X5X5X5X5X5X5X5X5X5X5X5X;X6Xm.H.G.H 5.5.D G.5.H A ..A X.X.3.X.3. .3. .3...j.D F   N.a.G F 5.A 3.3.Z u.2.` $Xc >.>.:.h :.h d h f f d f d s P f P h S.h S.h 7.>.>.k.k.2.3.A C.F N.$ $ % F C.%.g.5.F N.$ % X @.X % p.N.= D }.t.M ) ] V c 2.^.6.5.- = N.% % X & # X X X + X X X o X M.zXO.M [ m.M.+ o X + X X X X X X X + X mXI.[ ] Q [ '.OX$ X X X X X X X X @.X & . zXt.",
"M.$ X X X $ X X X $ X X X $ X X X $ X X X X X X X X X X X $ X X X $ X X X X X X X @.X X X X X X X @.X X X @.X X X X X X X X X X X X X X X % X X X X X X X $ X X X @.X X X $ X X X @.X X X @.X X X % X X X $ X X X % X % @.p.p.* p.N.p.N.N.= N.= N.F = F = #.F #.F - - ; ; j.C.: ; C.S ; 5.C.C.j.j.> 6.J J Z.0X X X*.A.7.k.*. X*. X*.k.7.h S.S.3 P T p !.P 0.d P 7.7. XZ.3.6.A : S ; 5.; 5.C.H : j.6.j.6.j.6.j.j.H C.5.5.- - D '.:X<X3X,X:X,X:X:X-X_.m lXlXpX8.m _.{ [ [ B 2X2XlXaXiXiXiXaXsX8.jXiXiXiXiXiXaXaXaXiXjXaXv.Q xX;X;X5X5X5X5X5X5X5X5X5X5X5X5X5X5X5X5X5X5X5X5X5X5X5X5X5X5X5X5X5X5X5X5X5X5X5X5X5X5X5X5X5X5X5X5X5X5X5X5X5X5X5X5X5X5X5X5X5X5X5X5X5X5X5X5X5X5X5X5X5X5X5X5X5X5X5X5X5X5X5X;X4X'.&XD D 5.5.G.5.A A g.A 3.X.3...3...6.A A 5.D |.D 5.j.6.3.3.Q.Z 2.` K K  XC L x :.:.f h P f d h P f d d P d d :.P :.S.:.S.>.C K A.Q.j.#.#.N.% X $ X = 4.> 6.C.= p.X X X % X % p.F F 5.6.X.I.+.) M [ @Xg.C.G F N.p.X @.X & X X # [.X & X % X @.X $ nXt.[ ( t.OX. $ + X X $ X X X @.+ @.OXI.O.Q ] m ! /.. $ X X X $ X X X @.X @.X $ OXW.",
"  . X + X O X X X X X + X + X + X + X X X X X X X X X X X + X + X + X X X X X + X + X + X X X X X # X X X # X X X X X X X X X X X X X + X # X X X X X + X X X X X X X + X + X X X + X X X # X X X # X X X # X X X # @.& p.% p.p.R.% N.* N.N.= = = = a.= F a.#.F - G 5.5.C.S C.S 5.5.5.S C.H j.j.6.6.^.3.Q.^.2.2. X2.(.K (.Q.Z.Q.Z.Q.Z. XA.L Y.Y.d S.S.S.S.h 7.k. X^.^.g.A S 5.5.5.S 5.S C.S C.C.j.H j.H j.H 5.S 5.D - F #.= F zX=X,X3X,X:X:X:X:X:X-Xv.jXaXiXiX( O.n lX/ 2X5X5X[ jXpXiXiXaXpXaXiXaXpXiXiXaXiXaXiXiXpXaXpX{ ] { c.5X5X5X5X5X5X5X5X5X5X5X5X5X5X5X5X5X5X5X5X5X5X5X5X5X5X5X5X5X5X5X5X5X5X5X5X5X5X5X5X5X5X5X5X5X5X5X5X5X5X5X5X5X5X5X5X5X5X5X5X5X5X5X5X5X5X5X5X5X5X5X5X5X5X5X5X5X5X5X5X5X5X4XbX|.5.5.D G.H A A ..A g.A A H H 5.5.D D G 5.H 6.3.Q.u.2.Z 2.` $X$XC C >.z :.h f h d f f h f h f h d h d h d h h L L c %X2.Q.3.C.= % + X X X o & N.G - #.N.& . X X @.X % % F 4.j.6.Z.K | U r.W } I.H.N.N.& $ . X X X X X X X # X X X # X X X @ . zXl.( v.'.M.+ X X X + X + X # X OXzX! ] B } ! m.M.X + X + X + X + X + X + X + + OX",
"M.$ X X X X X X X X X X X X X X X X X X X X X X X X X X X X X X X X X X X X X X X X X X X X X & X X X X X X X X X X X X X X X X X X X X X & X X X X X X X X X X X X X X X X X X X X X @.X & X @.X & X X X X X p.[.p.% R.p.N.* {.N.{.N.= = = = F a.F a.#.F G h.4.4.; 5.E.5.; 5.; 5.; 5.: : j.j.> 6.%.3.J J Q.Q.Z.Q.Z.Q.2.Q.J ^.J ^.J J (. X*.L S.7.S.h 7.A. X(.Z.J J j.j.H C.5.C.5.C.H : C.C.C.j.C.: H : 5.5.- S D - F #.F F = ].=X>X3X<X:X:X:X:X:X:X-XlXaXaXiXaX} 1XBXZXn 5X;X! aXiXiXaXiXaXaXaXiXaXiXaXaXaXiXaXaXaXiXjXsX{ _.V 2X5X5X5X5X5X5X5X5X5X5X5X5X5X5X5X5X5X5X5X5X5X5X5X5X5X5X5X5X5X5X5X5X5X5X5X5X5X5X5X5X5X5X5X5X5X5X5X5X5X5X5X5X5X5X5X5X5X5X5X5X5X5X5X5X5X5X5X5X5X5X5X5X5X5X5X5X5X5X5X5X5X5X5X4Xm.AXA H A A 6.A A H H 5.5.D D F - 5.C.A 3.3.2.2.K K C K C C L x :.L :.:.f :.P f d f d :.:.h P s d f d h h >.L c (.J J j.S N.% X X X $ + X X p.R.N.X $ + X X $ & p.N.#.4.j.6.Z.Z.Z.@X| O.Q ) t.vXU.X $ X X X $ X X X X X & X X X X X X X X X M.'.v.) ! zX$ + [.X X + X X & M.m.! Q ] [ ! m.M.$ X X X $ X X X X X X X X X @.+   ",
"  + X o X + X X X X X + X X X + X X X X X X & X X X X X X X X + X X X X X X X + X X X X X X & # X X X X X X X X X X X + X X X X X X X + X X X X X X X + X X X + X X X + X X X + X X X X X X & X X X X @ X X % X % p.p.% R.p.N.R.N.N.= = = = F = F a.F F h.G - - 4.4.S 4.5.S 5.S ; 5.C.H j.: j.j.6.6.J 6.^.^.J 3.J u.J 6.^.6.^.6.^.3.J J (.%XA.k.*.k.A.$XZ.J J 6.g.: C.S 5.S C.5.C.5.C.H : C.C.5.C.S 5.D - D - F h.F F = = N.=   6X>X3X,X,X:X:X:X:X:X:X<XaXiXjXv.lXBXBXZXw E Y 8.pXiXaXiXiXiXaXiXaXiXaXkXaXiXiXiXaXiXaXpXjXpXB O.8.;X5X5X5X5X5X5X5X5X5X5X5X5X5X5X5X5X5X5X5X5X5X5X5X5X5X5X5X5X5X5X5X5X5X5X5X5X5X5X5X5X5X5X5X5X5X5X5X5X5X5X5X5X5X5X5X5X5X5X5X5X5X5X5X5X5X5X5X5X5X5X5X5X5X5X5X5X5X5X5X5X5X5X5X5X6X&Xg.A A H H 5.5.F F F F N.F 5.6.g.Z 3.Z Z K $XC c C z x z :.h :.x :.h P h f f f h f h d :.f h :.>.>.c  X2.J j.S F |.% X @ X X X O + + X + X X X X X X X X p.R.a.F 5.j.6.3.J g.: }.! ( ) m ! OXX . X + X + X X X X X X X X X X X X X X X X OXI.v.[ ! vXX # X o X + & M.m.! } { m [ '.OXX + X X X + X X X + X X X X X X X M.",
"M.$ X X X X X X X @.X X X $ X X X X + X X @.X X X X X X X $ X X X $ X X X X X X X $ + X X % X X X X X X X X X X X $ X X X $ X X X $ + X X % X X X X X X X @.X X X % X X X @.X @.X $ + X X % X X X % X X & % % % % R.p.N.* = N.= N.F = F = F a.F F h.F G h.4.D 4.- 4.4.5.5.C.5.C.C.: C.j.j.> j.6.6.> 6.> 6.J 6.3.6.%.6.6.g.> g.6.6.J J Z.Q. X(. X(. X2.Z.^.J j.j.H : 5.C.5.: C.: H : C.C.5.C.5.; 4.5.4.4.G - F F F #.= = N.= N.p.6X>X,X3X,X>X:X,X:X:X:X-X<.jX8.[ VXBX8 BXBXBXBX8.lXjXiXaXiXjXaXaXaXaXaXaXiXaXaXaXiXaXiXaXiXjXsX[ D.} 5X5X5X5X5X5X5X5X5X5X5X5X5X5X5X5X5X5X5X5X5X5X5X5X5X5X5X5X5X5X5X5X5X5X5X5X5X5X5X5X5X5X5X5X5X5X5X5X5X5X5X5X5X5X5X5X5X5X5X5X5X5X5X5X5X5X5X5X5X5X5X5X5X5X5X5X5X5X5X5X5X5X5X5X5X4X'.`.A G.D - F |.N.|.qXF 5.3.Z 2.Z 2.` K c z z k.z :.l :.:.f h :.:.P :.P :.P :.f h P :.d :.S.>.L k. XJ 6.D |.% % X $ + X X $ X X X @.X X X $ X X X $ X p.% N.N.F F E.C.j.C.; F |.'.+.r.) N m.M.X X $ X X X $ X & X % X X X X X X X $ + & M.m.} N O.d.M.X X $ X X + OXl.( N Q } I./.$ + X X $ X X X $ X X X $ X X X @.X $ ",
"  . X X X X X X X X X + X + X + X + X + X + X + X + X + X X X X X + X + X + X + X @ X X X + X + X + X X X X X X X X X + X + X X X X X + X X X + X X X + X X X + X # X + X X X X X o + + X X X X X X X X % X % & p.% p.* N.* = N.= = a.= F = F a.F F F F G F - - - - S S C.S C.H j.H C.H j.H j.j.j.H j.C.j.H j.: j.: j.: j.A g.g.6.g.J ^.Q.^.Z.Q.Q.u.J 6.6.H C.S 5.S C.H C.5.C.5.C.S 5.4.4.- 4.- - F D F F = F = = N.= * N.% p.% zX4X,X3X3X:X:X:X:X-X:X-X>XlXv.c.8.BXDX8 BXBXD.B lXaXiXiXaXiXaXaXaXpXaXiXaXpXaXiXaXiXiXiXiXpXcXQ 8.J.c.5X5X5X5X5X5X5X5X5X5X5X5X5X5X5X5X5X5X5X5X5X5X5X5X5X5X5X5X5X5X5X5X5X5X5X5X5X5X5X5X5X5X5X5X5X5X5X5X5X5X5X5X5X5X5X5X5X5X5X5X5X5X5X5X5X5X5X5X5X5X5X5X5X5X5X5X5X5X5X5X5X5X5X5X5X5X=Xb.D F N.p.& p.N.F 5.3.Z 2.` K ` K $Xz z x x h z h h f j :.h :.h :.h :.h :.h :.>.h >.L A.%XQ.^.j.4.N.% O X X X + X + X + X + X + X @ X X X X X X X X p.& p.% F F 4.G h.= N.% OXd.i.N Q l.vX. X O X + X @ X X X X X X X X X X X X + + X nX'.[ v.} m.M.X O + . OX'.[ ( { n ! mX. O + + X X X X X + X + X O X + X + X . ",
"M.$ X X X X X X X X X X X X X X X X X X X X X X X X X X X X X X X X X X X X X X X X X X X X X X X X X X X X X X X X X X X X X X X X X @.X X X X X X X X X X X @.X X X X X X X @.X X X & X X X % & % X % & p.% p.p.R.p.N.N.= N.|.= a.= F a.F F #.F #.F - #.- #.- - ; 5.: C.j.j.g.j.j.C.: H C.5.C.5.C.5.C.5.C.H : C.: H j.j.g.j.> 6.J 3.J J Q.^.J 6.> j.j.H C.S C.C.C.C.: C.C.5.; 4.4.- 4.G - F - F #.F F = F N.= N.N.* N.p.p.% * M.6X>X<X3X,X:X,X:X:X:X,X-Xv.jXaX( 1XFXBX0 Y E [ lXjXiXaXiXaXiXaXaXaXaXaXiXaXiXaXiXiXiXiXiXiXaXsX] jX8.2X5X5X5X5X5X5X5X5X5X5X5X5X5X5X5X5X5X5X5X5X5X5X5X5X5X5X5X5X5X5X5X5X5X5X5X5X5X5X5X5X5X5X5X5X5X5X5X5X5X5X5X5X5X5X5X5X5X5X5X5X5X5X5X5X5X5X5X5X5X5X5X5X5X5X5X5X5X5X5X5X5X5X5X5X5X5X4XW.U.p.$ % N.- H 3.Z K ` C c C C x z h x :.l :.h f f f h P :.f h :.h :.L :.>.L A.L c Z.j.S F |.% $ X X X [.X X X @.X X X X X & X X X X X X X X X * N.N.p.N.= a.a.= N.p.X % $ W.U ( M v.'.].X X X $ X X X X X X X X X X X X X X X $ X $ zXt.v.( l.OX+ X X M.'.} Q v.[ l.zX. + X + $ X X X X X X X X X X X X X X + $ ",
"  . X X X + X X X X X X X X X + X X X + X X X + X X X + X X X X X X X + X X X + X X X X X X X + X X X X X X X X X X X + X X X X X X X X X X X X X X & X X X X X X X X X X X X # X X % # & X & X @.X % # % & p.% p.p.N.* = N.= = = = F = F a.F F F F G F - F - D 5.5.C.C.j.j.j.: C.S C.4.S 4.4.- 4.- S 4.5.S 5.S C.S C.H j.j.6.g.6.6.J 6.^.6.6.j.j.H : S 5.S C.C.j.C.C.5.C.5.S D - F h.F F = F = F = F N.= N.N.% N.% * % p.[.p.X   bX=X,X3X,X:X:X,X:X:X:X:X>XdXaXiXpXNXNXpX8.aXQ sXaXaXiXiXiXaXiXaXaXaXiXaXiXaXiXaXiXaXiXiXpXaXpXsXpXjXv.5X5X5X5X5X5X5X5X5X5X5X5X5X5X5X5X5X5X5X5X5X5X5X5X5X5X5X5X5X5X5X5X5X5X5X5X5X5X5X5X5X5X5X5X5X5X5X5X5X5X5X5X5X5X5X5X5X5X5X5X5X5X5X5X5X5X5X5X5X5X5X5X5X5X5X5X5X5X5X5X5X5X5X5X5X5X5X;XzXM.$ U.- H 3.u.` ` C C x z x z x x :.z h h :.h f h :.h :.>.L >.k.C C 0XK K A.$X2.j.#.% % X X X X + X X X + X + X X X @ X X X O X X X X X X N.= F N.= N.= N.N.% % X X + X M.m.[ ) ) O.'.$ + X @ X X X # X X X X X @ X X X X X @ X X M.'.O.[ ( '.M.o M.'.O.Q Q } ! zX. @ X X X @ X X X @ X X X X X X X X X X X . ",
"M.$ X X X $ X X X X X X X X X X X X X X X $ X X X $ X X X X X X X X X X X X X X X X X X X $ X X X $ X X X $ X $ X $ X X X X X X X $ X X X X X X X X X @.X X X X X % X X X p.X % X % & % & p.& % & p.& p.% p.p.p.% N.N.= qXF = F = #.a.F a.h.F h.F - #.- G 4.4.C.H j.j.j.j.g.: : 5.; 4.- F - G - G 4.- 4.- 5.4.; 5.C.C.j.j.> 6.> 6.%.6.6.j.j.C.C.5.: 5.: C.: C.: C.: C.C.4.4.#.G F #.= F N.|.N.= = F N.= N.N.* N.% * % p.[.p.& % % ].4X>X,X<X,X:X:X,X:X:X:X:Xm uXiXiXiXiXiXjXiX} Y jXaXaXiXaXaXaXiXaXaXaXiXaXiXaXiXjXiXaXiXiXiXaXiXaXiXjX[ 5X5X5X5X5X5X5X5X5X5X5X5X5X5X5X5X5X5X5X5X5X5X5X5X5X5X5X5X5X5X5X5X5X5X5X5X5X5X5X5X5X5X5X5X5X5X5X5X5X5X5X5X5X5X5X5X5X5X5X5X5X5X5X5X5X5X5X5X5X5X5X5X5X5X5X5X5X5X5X5X5X5X5X5X5X5X5X;XzXU.- H 3.Z K ` C x >.x :.x h x :.x :.x :.L L x :.>.L k.A.$X0Xu.^.3.J 2.A.%X2.j.- U.& X $ X $ X p.% % X $ X X X % X $ X @.X X X X + X X N.F - F F = F = N.% % X % X X X & mXt.+.) ( ! OX$ + $ X X X X X X X X X $ X X X $ X X + $ X OX'.Q ( t.zX&X'.} ) Q [ t.zX].+ X X $ X X X $ X X X $ + X X X X X + $ X $ ",
"  . X + X O X X X X X X X X X X X X X + X + X X X + X + X X X X X X X X X X X + X X X X X + X + X + X + X + X + X + X X X X X + X + X X X X X + X X X X X # X X & # X X @.# & # % # & X @.# & X % # % % % % p.% N.* = = |.= a.a.F a.F F #.F G F D G - - 5.4.C.C.j.j.j.j.j.H C.S 4.G G F F = F F #.F G G 4.D 4.4.C.5.: j.6.j.6.g.6.j.j.H C.S 5.5.C.S C.H C.H C.H C.4.4.- - F F = = N.= N.N.* N.* N.* N.p.R.% p.[.% X [.X % X % & p.& zX4X>X,X,X:X:X:X:X:X:X-X:XsXaXpXiXiXiXpXaXQ sXaXaXiXiXiXaXiXaXpXaXiXiXiXaXiXaXiXiXiXiXpXiXiXiXiXaXaXlX9X5X5X5X5X5X5X5X5X5X5X5X5X5X5X5X5X5X5X5X5X5X5X5X5X5X5X5X5X5X5X5X5X5X5X5X5X5X5X5X5X5X5X5X5X5X5X5X5X5X5X5X5X5X5X5X5X5X5X5X5X5X5X5X5X5X5X5X5X5X5X5X5X5X5X5X5X5X5X5X5X5X5X5X5X5X5X5X;XW.n.3.u.` ` c C x z x z h z h z >.z x C z c C c C c K u.3.H G.S j.3.K 2.Q.A - U.& X & + X + R.GX* X X + X @ X X X @ X X X + X # X X = F C.5.- F - F = & X + X + X + X # . vXY ) N } m.M.+ @ X X X X X X X + X + X + X O X X X O X . zX} ) l.l.9Xn ] m { l.'.M.@ X + X X X + X + X X X @ + X X X X + X O + . ",
"M.$ X X X X X X X X X X X X X X X X X X X X X X X X X X X X X X X X X X X X X X + X X X X X X X X X X X X X X $ X X X X X X X X X & X X X X X X X X X X X X X & X % X % & % & p.[.% X % & % & p.% p.% p.% N.* N.N.= = F F F F h.F #.F - - - - 5.4.5.5.: C.j.j.> j.j.j.j.C.C.4.4.G G F F = F = F F - G 4.- 5.4.C.C.: : 6.j.g.j.g.: : 5.C.S ; 5.C.5.C.C.: C.C.5.; 4.4.F h.F F N.= N.N.N.N.N.N.R.= N.N.p.* p.p.& % X % [.p.% p.% N.% R.  bX=X<X,X>X:X:X:X,X:X,X-X] aXaXiXiXiXiXaX( 8.cXiXaXiXaXiXaXaXaXiXaXiXaXiXaXiXiXiXaXiXaXiXiXiXaXaXaXaX8.;X5X5X5X5X5X5X5X5X5X5X5X5X5X5X5X5X5X5X5X5X5X5X5X5X5X5X5X5X5X5X5X5X5X5X5X5X5X5X5X5X5X5X5X5X5X5X5X5X5X5X5X5X5X5X5X5X5X5X5X5X5X5X5X5X5X5X5X5X5X5X5X5X5X5X5X5X5X5X5X5X5X5X5X5X5X5X5X4Xb.` ` ` c C x z >.x :.x :.x :.x h z C c C $Xc 0X2.3.C.D - D C.6.Q.2.2.3.: F N.& & X X X & p.R.X $ + X X X X X + $ X X + $ X % % F 5.> j.5.F - G #.U.$ X $ X X X X X X + M.d.O.N v.! /.. X X X X X X X X X X X X $ X X X X X X + X M.m.} [ B B { ) m Q 6XOX+ % X X X X X X X X X X X X X X X X X X X X + $ ",
"$ . X + X X X + X X X + X X X X X X X + X + X + X X X X X X X X X X X + X X X X X X X X X X X X X X X + X X X @ X X X X X X X X X X X + X X X o X o X o X o $ X X X % # @.X % # @.X % & % & p.& p.% p.% N.* = N.= = F F h.F - F - - S 4.5.S C.H j.: j.j.6.g.> j.j.H C.S 5.4.4.F F = F N.= = F a.F F - - 4.S C.5.C.H j.: j.C.: 5.C.5.5.4.5.5.C.5.; 5.; S 5.4.4.F G F F = = N.= * N.* N.p.N.% N.R.N.* p.% % & % # X X p.% p.% p.% p.p.R.OX6X:X<X,X:X:X:X:X,X:X:X-XlXaXaXiXaXiXjXQ 8.aXaXiXiXiXaXiXaXiXaXiXiXiXiXiXaXiXaXiXiXiXiXiXaXaXaXpXaXaXm 5X5X5X5X5X5X5X5X5X5X5X5X5X5X5X5X5X5X5X5X5X5X5X5X5X5X5X5X5X5X5X5X5X5X5X5X5X5X5X5X5X5X5X5X5X5X5X5X5X5X5X5X5X5X5X5X5X5X5X5X5X5X5X5X5X5X5X5X5X5X5X5X5X5X5X5X5X5X5X5X5X5X5X5X5X5X5X5X4X| 2.2.` C C C c x z x z l x A.c C K $X` 2.Z 3.H 4.|.F F 4.5.6.u.K 2.J H - N.p.X X X X X X @ X + X o X # X + X X X + X X p.= - $.j.5.G = #.G #.% $ @ X + X @ X + X X X . OXl.v.) ( '.M.o X X X X X X X X X X X + X X X + X X X @ X zXl.B B } ( Q } ! vXO + + X + X + X + X X X X X X X X X X X o + X X . ",
"M.$ X X X X X X X $ X X X X X X X $ X X X $ X X X X X X X X X X X $ X X X @.X X X @.X X X X X X X @.X X X $ + $ X $ X X X % X X X & X X X & X X X $ X X X % X % & % & % & p.& % [.p.% % & p.p.p.p.N.p.N.N.|.= F F h.h.- - 5.4.; 5.: C.j.: g.6.%.6.J 6.^.g.6.j.j.H : 5.5.- 4.D #.F F = F = F = F F - - S 5.C.C.j.C.j.H : H : H : 5.: 5.C.5.: 5.C.4.; - 4.G - F F = F = = N.N.N.N.* N.N.N.N.= N.= N.N.p.% [.% & % & p.p.N.p.N.p.* p.p.@.% nX6X>X<X,X:X:X:X:X,X,X:Xm jXiXaXiXaXaXQ 8.jXiXiXiXaXaXaXiXaXaXaXiXjXiXaXaXaXiXaXiXjXiXaXaXpXpXaXcXcXpX[ 5X5X5X5X5X5X5X5X5X5X5X5X5X5X5X5X5X5X5X5X5X5X5X5X5X5X5X5X5X5X5X5X5X5X5X5X5X5X5X5X5X5X5X5X5X5X5X5X5X5X5X5X5X5X5X5X5X5X5X5X5X5X5X5X5X5X5X5X5X5X5X5X5X5X5X5X5X5X5X5X5X5X5X5X5X5X5X5X9X1.v K K C c x z x x h x >.C $X2.2.J ^.6.: D F N.N.N.F - : 3.2.K %XQ.3.5.D N.p.% p.X X X $ X X X $ X X X X X X X % N.F 5.> %.: F N.p.F G +X= % + $ X X X @.X X X $ X & M.zXU r.( } m.  X X X X X X X X X $ X X X $ X X X X X X o vX6XB Q +.) { [ vXM.$ X $ X X + $ X X X X X X X X X X X @.X X + $ X $ ",
"  . X X X + X + X + X + X + X + X + X X X + X + X X X X X X X X X + X + X + X + X X X + X O + @ X @ X + X O + + X O X X X X X X $ X X o X X X X X X X X X # & X & X & X % # % & % & p.% p.% p.% N.* N.= F = F F - D S S C.H C.H j.j.6.g.6.6.^.6.J g.6.j.j.H C.5.C.4.S - - F F F F = = = F = F F D F 4.4.; S C.5.C.S 5.S C.S C.5.C.5.C.5.H 4.4.D - F F = F N.= N.= * N.* N.% N.* = R.= N.= N.= N.N.% % X % X @.& p.& p.p.* % p.& % # @.+ & zX4X,X3X:X-X:X,X:X,X:X>XsXiXiXiXpXiX{ 8.aXiXiXiXiXaXiXaXiXiXiXiXiXiXiXiXiXaXiXaXpXaXsXpXgX) dXsXcXaXlX_.5X5X5X5X5X5X5X5X5X5X5X5X5X5X5X5X5X5X5X5X5X5X5X5X5X5X5X5X5X5X5X5X5X5X5X5X5X5X5X5X5X5X5X5X5X5X5X5X5X5X5X5X5X5X5X5X5X5X5X5X5X5X5X5X5X5X5X5X5X5X5X5X5X5X5X5X5X5X5X5X5X5X5X5X5X5X5X5X'.,.v c ` C c C c x z C K Q.X.6.A H D F N.p.$ & X N.F 5.g.Q.2.$X2.2.3.g.- F = F R.% X X # X + X @ X @ X O X & = G C.6.Q.6.5.N.% @ p.a.G F N.X X @ X @ X # X + X + X @ X mXd.+.M Q ! vX$ # X X X X X + X + X + X @ X X X X X + . bXl.N r.v.N B '.OX+ @ X @ X X X X X + X X X X X X X + X X X + X X X . ",
"M.$ X X X X X X X X X X X X X X X X X $ X X X X X X + $ + X + X X X X X X X + $ + X + X X X + $ + X X X X X X & X & X p.X & X % X & X & X X X $ X & X % X % & % & % & p.& % & p.% p.% N.* N.N.= = F a.#.F - - ; 5.: C.j.j.6.g.> 6.J 6.J 3.J 6.J 6.6.j.j.C.: 5.C.S S - - G - F #.a.F = F F F F - G 4.- 5.4.5.4.C.5.C.S : C.: H : C.C.5.C.4.- F h.= = N.= N.N.N.N.N.N.* = N.N.N.= = = = F = = N.= R.p.& p.& p.% p.p.R.p.p.% % X % & @.X $ X & bX=X,X<X:X-X:X,X:X,X-Xv.aXaXiXiXkX[ 8.jXiXaXiXaXiXaXiXpXpXjXiXiXiXiXiXiXpXjXaXi.i.iXpXiX+.sX] aXpXjX8.-X5X5X5X5X5X5X5X5X5X5X5X5X5X5X5X5X5X5X5X5X5X5X5X5X5X5X5X5X5X5X5X5X5X5X5X5X5X5X5X5X5X5X5X5X5X5X5X5X5X5X5X5X5X5X5X5X5X5X5X5X5X5X5X5X5X5X5X5X5X5X5X5X5X5X5X5X5X5X5X5X5X5X5X5X5X5X5X4Xo.C v x C C $Xc $Xc Z 3.H 5.D D = qX$ $ X % % = F j.3.(.2.Z.2.0XQ.Q.3.g.C.5.F N.X X X & X X + X X X X p.= 5.6.Z.Q.Z.6.- * $ X p.N.G h.= % $ + X X X X X X $ + X X @.X $ vX+.N ( O.W.M.$ X X X X X X X X + X X X X X X X X X M.'.[ ( r.) w.l.'.$ X $ X X + X X X X X X X X X X X X X X X X X X X + $ ",
"  . X + X + X + X X X X X X X X X X X + X X X + X o X @ X o X o X X X + X + X @ X o X o X X X @ X X $ # & X % # @.X % X $ X % X X X $ X X X $ X @.X & X @.& % X % % % % p.% p.% N.% N.N.= = F = F F D F 4.4.C.H j.j.6.g.6.6.J g.^.6.^.6.6.6.6.j.j.H C.S 5.4.S - 4.D - F G F F F F a.F a.F F h.F G F G F D D 5.S 5.5.C.5.C.5.C.S 5.4.4.F F = = N.N.% p.% p.% N.% N.* N.R.N.N.= N.= = = N.= N.N.% R.& p.& % % R.% p.% p.# & X X + & X X @ X + . 6X=X,X>X-X-X:X,X:X:X>XkXiXaXiXaXw.<.jXjXiXiXiXaXiXiXv.+.aXiXiXiXiXaXsX] gXaXpXiXiXaXiXjXpXT.gXgXaXaXO.5X5X5X5X5X5X5X5X5X5X5X5X5X5X5X5X5X5X5X5X5X5X5X5X5X5X5X5X5X5X5X5X5X5X5X5X5X5X5X5X5X5X5X5X5X5X5X5X5X5X5X5X5X5X5X5X5X5X5X5X5X5X5X5X5X5X5X5X5X5X5X5X5X5X5X5X5X5X5X5X5X5X5X5X5X5X5X4XF.` c C z v $X2.2.3.A D F N.N.% % X X X @.% a.S %.Q.$XK 0Xu.Q.Q.2.Q.Q.3.> - qX$ X + X X X X X + X % F 4.> J (.Q.6.D = % @.+ R.= G F = % X @ X X X X X X X @ X o X X X X M.'.} ) ) [ vX$ & X X X X X X X X O X + X X X X X . zXl.} W r.Q B c.'.M.X o X @ X O + + X X X X X X X X X + X X X X X X X . ",
"M.$ X X X $ X X X @.X X X @.X X X $ X X X @.X X X $ + $ + $ + X X $ X X X @.X $ X $ + X X $ X & X p.@.p.[.p.% % & p.& % X % X % X % X % X % & % & p.& p.% p.% p.% N.p.N.* N.N.N.qXa.= F F h.F - - 4.4.C.5.j.j.6.6.J 6.%.6.J 6.%.6.> j.j.: j.C.C.5.; S S - 4.- - G - #.G F #.F F F h.F F F #.a.F = F F - - ; C.: C.: H C.5.; S 4.- - F F N.N.R.N.% p.@.% % p.p.N.R.N.N.N.N.= = a.= = N.N.N.N.p.N.p.N.p.N.p.* % % X p.X X X $ X X X $ X X X @.X M.6X>X>X>X-X>X:X,X:X:X8.jXiXaXaXsXQ v.8.iXjXaXiXaXaXaXiXaXiXjXpX+.aXjXpXpXaXaXaXjXaXjXjXjXaXpXsXjXv.pX! 5X5X5X5X5X5X5X5X5X5X5X5X5X5X5X5X5X5X5X5X5X5X5X5X5X5X5X5X5X5X5X5X5X5X5X5X5X5X5X5X5X5X5X5X5X5X5X5X5X5X5X5X5X5X5X5X5X5X5X5X5X5X5X5X5X5X5X5X5X5X5X5X5X5X5X5X5X5X5X5X5X5X5X5X5X5XI.v ` c x K K ` Q.6.H G F p.% X % X X X p.N.- C.Q.K  X2.2.J Q.J 2.2.2.Q.J 4.= X @.X X X @.X X X N.F C.%.&.(.Z.^.: F U.X @.% = F G F = & $ X X X $ X X X X X X o X X @.X % X mX! i.) ( '.].X X X @.X X X $ X X X $ X X X % $ mXl.} N { } Q [ } l.OXX X X $ X X X X X X X @.X X X X X X X @.X X X X X $ ",
"  . X X X X X + X + X + X + X + X X X + X # X X X O X + X O + @ X @ + @ X X + @ X @ + @ X . X X % X % & p.X % & % # % X % X & X & X X X % # @.X % X % % p.% * % N.% N.N.= N.= = F a.#.F - F 4.4.5.S C.H j.j.6.g.6.6.6.6.6.j.j.C.C.S 5.4.S - 4.- 4.F G F F F F F F a.F a.F a.F a.F = = = = * N.N.|.|.- - 5.5.C.5.C.S 5.- 4.F h.F F = = R.N.% p.% % # X X % % * % N.R.N.p.N.R.N.R.N.% * % p.% * % R.% p.p.p.X & X X # X + X + X + X + X X X X X + OX4X>X-Xc.;X:X:X,X-XtXuXiXiXiXiXiXgX} Q T.pXaXiXaXpXiXiXsXsXiXsXaXaXaXaXaXpXpXlXlX8.8.gXpXD.cXiXv.gXpX_.5X5X5X5X5X5X5X5X5X5X5X5X5X5X5X5X5X5X5X5X5X5X5X5X5X5X5X5X5X5X5X5X5X5X5X5X5X5X5X5X5X5X5X5X5X5X5X5X5X5X5X5X5X5X5X5X5X5X5X5X5X5X5X5X5X5X5X5X5X5X5X5X5X5X5X5X5X5X5X5X5X5X5X5X4X| K Z $X` Q.X.j.S D = N.$ X X X X X X % N.4.6.Q.2.2.Z Q.3.^.3.Q.Z 2.Q.6.D N.X X # X @ X @ X % F 5.J (.k.Q.^.j.- U.$ X p.* a.F K.N.p.X X @ X X X + X + X X X + X + X + X X X M.m.U ) Q } '.. X X + X + X + X + X @ X X X X OX'.O.Q N B v.B Q ) } 6XM.X X @ X X X + X + X X X + X X X + X + X X X X X . ",
"M.$ X X X X X X X X X X X X X X X X X X X X X $ + X + $ + X + $ + X + $ + X + $ + X X & X % & p.% p.% p.% p.[.p.& % X % X % X % X & X % X % % p.% p.% N.* N.N.= = = = F = F F G F - - S 4.5.5.: H : : j.j.j.j.6.g.j.j.j.C.; 4.4.- - F G F F a.F a.F = F = = N.= N.= N.= = = = = = N.U.N.* = = #.F 4.4.C.5.C.5.; 4.4.G G F F = = N.N.p.* % % X % X & X % % * p.N.* N.* N.p.N.% N.p.R.% N.p.R.p.R.p.p.[.p.& % X $ X X X X X X X X X X X X X X + $ o zX=X>X6Xn -X,X,X,X:XyXaXiXiXaXiXjXaXpXT.] sXjXiXaXpXT.8.pXiXaXaXjXpXsXm Q { N Q m .X<.pXaXaXaXpXsXdXlX2X5X5X5X5X5X5X5X5X5X5X5X5X5X5X5X5X5X5X5X5X5X5X5X5X5X5X5X5X5X5X5X5X5X5X5X5X5X5X5X5X5X5X5X5X5X5X5X5X5X5X5X5X5X5X5X5X5X5X5X5X5X5X5X5X5X5X5X5X5X5X5X5X5X5X5X5X5X5X5X5X5X5X5Xn 2.Z 2.Z u.A 5.F |.p.p.X X X X X X X p.= C.6.2.2.Q.3.J 3.J Q.2.2.2.Q.%.- N.+ & X X X $ X % = C.J  Xk. XJ g.S F U.& % {.a.K.a.= % & X $ X & X @.X X X X X X X X X X X X X X X $ OX}.( M ) ! /.$ X X X X X X + X + X X @.X M.m.U ] [ Q V V ! [ v.) [ zX$ X X + X X X X X X X X X X X X X X X X @.X X + $ ",
"  . X X X + X o X + X o X X X + X X X + X + X @ X o X o X o X @ X X X o X . X o X X % X p.% p.X % % p.& % [.p.# % & % X % X % X & & p.& % % p.% p.% N.% N.N.= = a.= F a.#.F - G 4.- 5.4.; 5.C.S C.C.j.H C.H C.H C.5.5.4.- F F = = N.= N.N.% N.% p.% N.& p.% p.% p.% p.% p.p.R.% % X % % = = h.h.4.4.5.4.5.- 4.F #.F F = N.% p.% % & % X & X @.X @.X % & p.% * % p.% p.% p.% p.% p.% R.% p.% p.% % & % X X X X X X X X X X X X + & X X + X o X o $ M.6X-X=Xm.6X-X,X:X:Xm jXiXiXpXaXiXiXiXjXsXsXiXjX8.<.{ Q aXaXiXpXT.N >X{ m sXlXaXaXjXjXiXiXiXpXaXsXsXdX8.;X5X5X5X5X5X5X5X5X5X5X5X5X5X5X5X5X5X5X5X5X5X5X5X5X5X5X5X5X5X5X5X5X5X5X5X5X5X5X5X5X5X5X5X5X5X5X5X5X5X5X5X5X5X5X5X5X5X5X5X5X5X5X5X5X5X5X5X5X5X5X5X5X5X5X5X5X5X5X5X5X5X;X| ` Z 3.3.H 4.= p.X X X X # X # X X N.F j.J 2.Q.J 3.3.3.Z Q.0X2.0XJ 6.D N.X X o X X X o N.F > (.>.%X2.g.H G F % % % = = a.= N.X @.X & X X X X X X X X . X X X X X X X + X X X # + vXt.( ) ( zXM.X X X @ X X X o X X X X M.'.} Q B w.O.d./.OXzX[ r.] '.OX+ X X + X X X + X X X X X X X + X X X X X + X . ",
"M.$ X X X $ X X X $ + $ X $ X X X $ X X X $ + $ + $ X & X & X X X % X $ o & X & X p.% p.p.R.p.p.[.p.% p.% p.% % & p.& % X % & % & p.% p.% N.p.N.N.= N.= = F = F a.h.F G #.4.- 5.S C.5.; 5.; 5.; 5.; 5.; 5.5.4.4.- - #.#.= F N.N.p.N.% p.$ % % % X % $ & X & X % X % X % X % X $ $ p.N.= a.G G 4.4.; - 4.G #.F F = = N.N.% % X & X % X X X & & % & p.@.p.p.p.% % & % % % [.p.% * p.N.p.R.% p.% % & % X $ + $ X X X $ X & X X X X X @.X X X $ X X X % mX=X=X/.zX=X:X,X:Xw.pXaXiXaXiXjXiXiXiXjXcXpXpXpXw.} sXjXaXyX{ *Xm lXaXjXiXaXiXiXiXaXiXiXiXiXiXjX8.xXjXv.5X5X5X5X5X5X5X5X5X5X5X5X5X5X5X5X5X5X5X5X5X5X5X5X5X5X5X5X5X5X5X5X5X5X5X5X5X5X5X5X5X5X5X5X5X5X5X5X5X5X5X5X5X5X5X5X5X5X5X5X5X5X5X5X5X5X5X5X5X5X5X5X5X5X5X5X5X5X5X5X5Xc.u.Q.u.u.g.G.F N.X X + X X X X % & F 4.%.Q.0XQ.J 3.J Z 2.2. X0X2.^.6.D N.X X X X X % p.F 5.J *.7.K Q.6.C.G F % % % = N.= p.p.X $ @.* p.% X X X X X $ + X X $ X X X @.X X X % X X X M.'.+.r.( ! /.. $ + X X $ X @.X $ X . zX! Q [ B } d.OXO p.OX'.O.) [ zX. $ X X X X X X X X X @.X X X X X @.X X X $ + $ ",
"  . X + X O X X X @ + @ X @ + + X @ + @ X o X + X # X X X X X X $ + X X & # & X p.% p.% p.& % X % X % & % X % & % X & X % X % X % % % % * % N.* = * = = = = a.= F F h.F - D 4.4.5.4.5.S 5.- 4.- - F - F - F F F F = = = = % % X X X X X X X X X X X X o X o X X X @ X X X X X & * * = = F F G #.- F #.a.|.N.N.R.R.% % X $ + X X X X X X X # & & % # @.& @.# X X X X X X % % p.% * % % X % # X X X + X @ X + X @ X X X X X X X @ X O X X @.+ X X @.o MX6X4X6XMX=X:X:X:X-XxXaXiXiXiXiXiXiXaXaXlXT.sXJ.lXaXcXsXv.>Xm lXjXiXaXiXaXaXiXiXiXiXiXpXiXiXiXiXsXgXsXJ.} 5X5X5X5X5X5X5X5X5X5X5X5X5X5X5X5X5X5X5X5X5X5X5X5X5X5X5X5X5X5X5X5X5X5X5X5X5X5X5X5X5X5X5X5X5X5X5X5X5X5X5X5X5X5X5X5X5X5X5X5X5X5X5X5X5X5X5X5X5X5X5X5X5X5X5X5X5X5X5X5XI.Z 3.u.g.H F N.X X @ + @ X @ X % F H J Q.2.3.Z 3.J u.2.2.2.^.3.g.j.F N.X + @ X X & GXh.E.J (.A.Z.J j.C.F = X X X R.p.% X X @ X & * p.& + X @ X + X + X X X + X X X X X X X # X X X O vXd.+.W } '.M.. X @ X + X X X O . zXI.B Q B } I./.. X X X zX! Q N l.OX. X X X @ + @ X X X X X X X + X + X + X @ X . ",
"M.$ X X X X X X X X + $ + X + X X X X $ X X + X X @.X % X % X % X % X % & p.% R.p.p.p.p.% p.% p.% p.% p.% % & % & % X % & % & p.% * * N.N.N.N.= = = = F = F a.#.F G F - - S 4.5.5.; 5.; - - F #.F F a.F = F = F N.= N.N.% & X $ X X X & X X X & X X X X X X X X X X + X X & [.N.N.= = F F F F G F #.= = N.N.% p.& % X & X X X X X @.X % X % X % & @.X p.X % X % X $ X % [.p.& p.% % X % X X + $ X $ X $ X X + $ + X X X X X X X X & X % & % X % X $ o mX4X6XMXzX-X:X:X:X>XkXaXaXiXiXiXiXaXT.{ sXpXaXaXdXv.*XB lXcXaXiXaXaXaXiXaXaXaXiXaXiXiXiXaXiXaXaXjXm lXpXc.5X5X5X5X5X5X5X5X5X5X5X5X5X5X5X5X5X5X5X5X5X5X5X5X5X5X5X5X5X5X5X5X5X5X5X5X5X5X5X5X5X5X5X5X5X5X5X5X5X5X5X5X5X5X5X5X5X5X5X5X5X5X5X5X5X5X5X5X5X5X5X5X5X5X5X5X5X5X4X`.6.3.6.: D a.& & X X X X X & % - j.Q.Q.2.Z Q.Z 2.Q.2.Q.J 6.j.5.5.F N.$ $ X + + % p.F 4.> Z.A.Z.J j.- = % X X X % @.% X X X X X p.% & o $ + X X @.X X X X X X X X X X X X + X + X X X M.W.t.Q m t.zX$ X $ + X + $ X X mX! } *X[ [ t.W.M.$ X X X   '.l.Q ( '.M.. X + X @ X + X X X X X X X X X X X X X @ $ ",
"  . X @ X X X @ X X X o X + X X X X X @ X o X X X X % X @.[.% & @.X p.X % % p.% p.% p.% % [.% X % @.% X % X % X & X % X % % p.% p.* N.* N.N.= N.= = = = a.= F F #.F - D 4.4.5.S 5.S S G #.F F N.= N.= N.= N.N.* N.% p.# X # X @ X X X X X X X @ X X X X X X X X X X X X @.X p.% N.N.= = a.a.F a.a.N.N.% % X $ X X X & X X X X X X X X # X X X X & X % # X X % # & X % X % X % X & X X X X + X @ X X X X X X X X X + X o X X X + X X X X X X X X X X $ nX6X4XOXM.6X-X,X-X;XO.jXpXaXiXiXpXjX{ Q aXaXaX8.w.B v.pXaXaXiXiXiXaXiXiXpXiXiXaXiXiXiXiXiXiXiXaXaXdXsXsXV ;X5X5X5X5X5X5X5X5X5X5X5X5X5X5X5X5X5X5X5X5X5X5X5X5X5X5X5X5X5X5X5X5X5X5X5X5X5X5X5X5X5X5X5X5X5X5X5X5X5X5X5X5X5X5X5X5X5X5X5X5X5X5X5X5X5X5X5X5X5X5X5X5X5X5X5X5X5XI.A 6.6.j.D F % & o X X % p.= F 5.6.J Z Q.u.Q.Z Q.u.Q.3.6.5.4.F #.N.N.X X + X o $ % = G 6.Q. XQ.6.S F % $ @ X X X X X X X + X X @.X X # X + X + X X X X X . X X X X X X X X X X X X X X X nX'.} ) M ! vXo @ X X X + X OX'.[ } B } ! /.M.X o X @ X + OX6Xv.) ! zX. O X + X @ X @ X X X X X + X X X X X X X . ",
"M.$ X X X $ X X X % X $ + $ + $ X $ X $ X % X % X p.% p.% p.% % [.p.% p.% R.p.p.% p.% p.% p.% p.% p.% % & p.% % & % % % % N.p.N.R.N.N.= N.= N.= = F = F = F F G F - - 4.4.; 5.5.S 5.4.- F F N.= N.= N.N.R.N.* * % % X X X $ X X X $ X X X $ X $ X $ X X X % X @.X $ X X X p.p.N.N.|.N.= = F = = N.N.% p.X % X X X @.X X X % & @.X & X X X & X X X % @.% X % [.% X % X % X % X X X % X X X $ X X X X X @.X & X X X $ + $ + $ X @.X @.X X X $ X X X & +   bX6X/.  bX=X:X:X6Xc.Y jXiXaXiXjX8.W 8.jXaXsXB gXpXjXaXaXiXaXaXjXpXjXlX) pXjXiXiXiXjXiXiXiXaXiXiXiXaXsXpX} 5X5X5X5X5X5X5X5X5X5X5X5X5X5X5X5X5X5X5X5X5X5X5X5X5X5X5X5X5X5X5X5X5X5X5X5X5X5X5X5X5X5X5X5X5X5X5X5X5X5X5X5X5X5X5X5X5X5X5X5X5X5X5X5X5X5X5X5X5X5X5X5X5X5X5X5X4Xb.A H H - F % $ + X & = F 4.5.6.J Q.Z Q.Q.2.Q.Q.u.3.j.: D F N.= N.p.X $ X [.X $ % F 5.J (.Z.g.C.G = $ $ X $ X X X X X $ X @.X @.X X X $ X X X $ X X X $ X X X X X X X X X X X X X X X $ X $ mXd.+.M [ I.M.$ X % + $ OXW.[ } ] [ t.W.M.$ X X X X + X . zX} r.N '.OXX X $ X X + $ X X X $ X X X $ X X X @.X $ ",
"  . X X X + X + X @ + @ X @ X + X O X X @.# & & % & p.& % X % & p.% p.% * % p.& % & p.% % X % & % X % X % # % X % & p.% p.% N.* N.* N.N.= * N.N.= = a.= F F F F - F - - 4.- S - 4.D D F F N.N.N.N.% N.p.* % % # X . X + X + X X X @ + + X X X X X @ X + X X X + X + X X % X p.R.= N.N.N.= N.= * N.% % X @.# X X X X X # X # X X X X X X X O X X X X X X @.X % # % # X X & # X X X + X + X + X + X X X X X X X X X @ + @ X @ X X X + + @ X + X X X X X $ /.4XmX$ OX4X-X-X'.bXc.J.iXiXiXcX( m aXiXiXB 8.jXaXiXaXiXaXaXlXv.m x.w.Q gXpXaXiXiXiXiXiXiXiXiXiXiXaXpXsXpX9X5X5X5X5X5X5X5X5X5X5X5X5X5X5X5X5X5X5X5X5X5X5X5X5X5X5X5X5X5X5X5X5X5X5X5X5X5X5X5X5X5X5X5X5X5X5X5X5X5X5X5X5X5X5X5X5X5X5X5X5X5X5X5X5X5X5X5X5X5X5X5X5X5X5X5X6XD D F N.N.& X @ & N.F - j.6.Z Z 2.Z Q.u.Q.u.^.g.j.S - N.U.$ % & @.+ X @ X X % N.- j.Q.J J S F U.% . X O X X X @ X + X + X X X # X X X + X + X + X + X + X + X X X X X X X X X X X X X @ X X . m.U N ( ! m.M.X + X M.'.} N Q } ! W.OXX @ + X X O + @ + nX'.} W [ '.M.+ o X X X + X + X + X + X + X + X O + . ",
"M.$ X X X X + $ X X X X X X X % X % & p.& % & p.p.p.% p.% p.% * % p.% * p.p.% p.% p.% p.% p.& p.% p.& % % % & p.p.* % N.* N.R.N.N.N.N.= N.= = F = F = #.F F F - F - G 4.4.4.4.4.- - F h.= = N.N.N.N.p.* p.% X & X X X $ X X X X + X X @.X X X X X X X X X X X X X X X % % p.p.N.N.= N.= N.= R.N.p.% X % & @.X @.X X X % X X X & X % X % X X X X X @.X % X @.X % X @.X & X X X X X X X X X X X X X X X X X X X & X X + $ + X X @.X X X X X & X X X @.X $ M.6XzX% M.6X-X=XzXU.6Xx.jXiXiXjXm lXaXjXv.v.cXaXiXiXiXjXsXv.W W w.*XQ ] ) kXaXaXiXaXiXaXiXiXiXaXiXjXaXjXpXc.5X5X5X5X5X5X5X5X5X5X5X5X5X5X5X5X5X5X5X5X5X5X5X5X5X5X5X5X5X5X5X5X5X5X5X5X5X5X5X5X5X5X5X5X5X5X5X5X5X5X5X5X5X5X5X5X5X5X5X5X5X5X5X5X5X5X5X5X5X5X5X5X5X5X4X&X|.|.U.% X $ X p.F 5.j.3.3.Q.Q.2.Q.Q.Z J 6.6.: 5.F F p.% X % X p.@.% X X + p.F C.%.Z.J j.F N.$ % X X X X X X X X X X X X X @.X & X X X X X X X X X X X X X X X X X X X X X X X X X X X X X X X OXm.t.M v.'.OXX [.M.zXl.m W Q ! W.OXX X X + X X X + X X $ vX'.[ ) l./.. X X X X X + X X X X X X X X X X X + $ ",
"  . X X X o X @ X o X o X X % X % @.p.& % [.p.% p.% % X % % p.% p.% p.% p.% p.% % @.% X % % % X % @.% X % & p.& p.% R.p.N.N.N.* N.N.= N.= N.= = F = F a.F F F F #.F - F - G - F - F F a.a.N.= * N.% p.& @.X X o X X X X X X X X X X @.X X X X X X X X + X X X + X + X X % p.N.p.R.p.N.% N.* N.% p.[.% # & X X X @.X X # & X X X X X X X X X X X @.X X # X X X # & X X X X X X X X X X + X X X + X X X + X X X + X X X + X X X X X X X X X X X X X X X + . bXmX$ % bX=X4XMXX M.4X<.aXiXiXm 8.jX8.Q pXiXiXiXiXsXm } { B B Q ] ] xXpXaXaXiXiXiXaXiXaXiXaXiXaXlXjXlXB _.c.5X5X5X5X5X5X5X5X5X5X5X5X5X5X5X5X5X5X5X5X5X5X5X5X5X5X5X5X5X5X5X5X5X5X5X5X5X5X5X5X5X5X5X5X5X5X5X5X5X5X5X5X5X5X5X5X5X5X5X5X5X5X5X5X5X5X5X5X5X5X5X5X5X6X  p.X X X p.% F 4.j.g.Z ` 0XQ.Q.3.Z 3.6.A C.D F N.p.X X X % % p.p.p.X X X * F j.6.J j.S N.% O X + X + X + X X X X X # X X X X X X X + X X X + X X X + X X X + X X X X X X X X X X X o X X X + X . mXl.v.M [ '.M.M.vX! Q ] [ [ I.OXX O X X X @ X X X + X + $ bXl.) ( 6XOX. X @ X X X X X X X + X X X X X X X . ",
"M.$ X X X $ + $ + $ + X & % [.p.[.p.% p.% p.p.p.% p.% p.% p.% p.% p.% p.% p.% p.% p.% p.% p.% p.& p.& % % p.p.N.p.N.* N.N.N.N.= N.= = F = F a.F F #.F F F F F F F #.F #.F G F h.F F F F = = N.N.p.N.% % X % X $ X @.X X X % X @.& p.@.p.& % X X X $ X X X $ X X X $ X % % N.p.N.p.N.p.N.p.N.% p.p.p.& % X % X X X % X @.X % @.% & p.& % X % & % & % & % & % X % X % X X X $ X X X $ X X X $ X X X $ X X X X X X X X X X X X X X X X X X X $ X @.X & X X $ mXzX  X OX4X6XM.& & vX4XlXjXaX8.pXjX+.8.jXiXaXjXpXm v.{ { Q } ] ] gXiXaXjXiXiXiXjXiXaXiXaXiXjXaXT.gX[ w.} [ 2X5X5X5X5X5X5X5X5X5X5X5X5X5X5X5X5X5X5X5X5X5X5X5X5X5X5X5X5X5X5X5X5X5X5X5X5X5X5X5X5X5X5X5X5X5X5X5X5X5X5X5X5X5X5X5X5X5X5X5X5X5X5X5X5X5X5X5X5X5X5X5X4XzXp.X $ X N.F 4.C.J J 2.2.$X2.Q.g.6.j.: 4.- = = p.p.X $ & N.N.N.p.p.& X X N.F C.j.C.4.F U.$ + @.X @.X X X $ + X X $ X & X X X X X $ X X X $ X X X $ X X X $ X X X X X X X X X X X X X X X X X X X @.M.m.U ( N } l.'.! m [ ( [ I./.$ X X X $ X X X $ X X X $ X OX'.U M l.'.  + X + $ X X X $ X X X $ X X X $ X $ ",
"  . X X X @ X X X X X X @.# % [.% @.% [.p.& % % p.& % & p.% % % p.X % & % X % X % X % & % X % & % X % & p.% p.% * % N.* N.* N.N.= qX= = F = F = F = F a.F = |.= F = F = F = F = F N.= = = * N.% R.% % & % # @.X & X X X & # & X p.& p.@.% # X X X X X + X + X + X X X X % X % % p.% % % p.% % % p.# & X & # & X @.# X X & # % & % # @.# @.X @.& % # & & % # X X & X X o X O X X X + X + X + X + X X X X X X X X X X X X X X X X X X X X X + X X X X + + X bXzX. X M.6X6X  o X $ bX=XpXcX+.8.aXpXaXiXiXlX8.v.Q w.{ ] ] Q m 8.aXiXaXpXiXiXiXiXiXiXaXpXT.pXjX8.-Xw.] Q ] _.5X5X5X5X5X5X5X5X5X5X5X5X5X5X5X5X5X5X5X5X5X5X5X5X5X5X5X5X5X5X5X5X5X5X5X5X5X5X5X5X5X5X5X5X5X5X5X5X5X5X5X5X5X5X5X5X5X5X5X5X5X5X5X5X5X5X5X5X5X5X5X4XOX@ & % a.F C.j.Z Z 0X2.0Xu.3.A j.H 5.F = & X X X X % * F a.= % % # X [.= a.G F F N.% X X O X X X X X + X + X X X + X X X X X X X + X + X + X + X + X + X + X + X X X X X X X X X X X + X + X + X + X mXt.[ Q Q [ _.Q N [ } I.vX. O X + X + X + X + X + X @ X . vXI.Q [ '.mX+ X X @ X X X + X + X + X X X + X . ",
"M.$ X & X X X % & % X % X % % * % * % p.% p.% p.% p.% p.% p.% p.% p.[.p.% p.& % % p.& p.% p.% p.% p.% p.p.R.p.N.p.N.R.N.N.= N.|.= a.= F F #.F h.F #.F F F F = F = F = F = F = F = F = = N.N.N.N.* N.p.N.p.* % p.& % & % & p.X p.% p.% p.& % X @.X X + X X X X X X X X % & % & p.p.p.[.p.% p.p.p.% % & % X % & p.[.% X % X % X % X % X % X % & p.% p.% p.[.p.X & X X + X + X X X X X X X X X X X X X X X X X X X X X X X X X X X X X X X X X X @.X X + X X mXmX$ X $ bXmXX X + % M.6Xn cX8.m aXaXiXaXiXsXT.8.gXxXm m m +.dXaXiXaXiXaXiXaXiXaXiXaXaXcXgX} 8.B B } ] ] ] { 5X5X5X5X5X5X5X5X5X5X5X5X5X5X5X5X5X5X5X5X5X5X5X5X5X5X5X5X5X5X5X5X5X5X5X5X5X5X5X5X5X5X5X5X5X5X5X5X5X5X5X5X5X5X5X5X5X5X5X5X5X5X5X5X5X5X5X5X5X5X5X'.M.p.qX- S j.6.Q.Q.2.2.0XQ.Z 3.3.j.E.F = $ $ + % % = F +XG F % % X R.N.F a.= N.p.X $ X $ X X X X X @.X X X X X X X X X X X X X X X X X X X X X X X X X X X X X X X X X X X X X X X X X X X X X X X $ X $ bXl.Q Q w.w.{ Q B t./.M.+ X + X X X X X X X X X X X X % M.zXl.( t.'.M.& X X + X X X X X X X X X X X X $ ",
"  $ @.# X X % X % @.% @.% @.% % p.[.% % p.% p.% p.% p.% % @.% X % & % @.% [.p.& @.& % X % @.% X % % p.% p.p.R.p.N.* N.* = N.= = = = F = F F - F D F G F F = |.N.= = = = = = = N.= = = N.= N.= R.N.* N.p.N.* N.% p.% p.% % & p.[.p.p.p.X @.X @.+ X X X + X X X X X X X X & X % # @.X % X @.@.p.X p.% p.& % @.p.@.% X % X @.X % # @.X % X % & % & p.p.* [.@.X X X X X X + X X X X X X X + X X X + X X X X X X & X X X X + X X X X X X X X X X X + X X X + X nXnX@ + o nXnXX X @.# @.nX4Xx.pX[ pXaXiXiXaXaXjXaXjXdXdXlXiXaXiXiXiXiXiXiXiXiXaXiXjXsXsXaXjX{ 2X{ ] ] ] ] ] { -X5X5X5X5X5X5X5X5X5X5X5X5X5X5X5X5X5X5X5X5X5X5X5X5X5X5X5X5X5X5X5X5X5X5X5X5X5X5X5X5X5X5X5X5X5X5X5X5X5X5X5X5X5X5X5X5X5X5X5X5X5X5X5X5X5X5X5X5X5X4X/.qXF C.H 6.3.Q.Z 2.Z 2.Z Q.u.Q.g.5.qX% + + X p.N.G 5.C.4.- = N.% = F K.= % X X @ X # X o X X X + X X X + X X X + X X X + X X X + X X X X X X X + X X X + X X X X X X X + X X X X X X X + X X X + X X X o mX! ( W Q [ Q { l.zXM.O + X @.+ X X X + X X X + X X X @ + mXl.} ) [ m.M.X X X X X X X + X X X X X X X . ",
"$ % @.% & % [.p.[.p.% p.p.p.% p.% p.% p.% p.% p.% p.% p.[.p.% p.% % % % % p.[.% & % % p.@.p.% p.% p.p.* p.N.p.N.* N.N.N.N.= = F = F F #.F - - 4.- 4.- - F F |.F = F = F = F = F = F = a.= = N.= N.= N.N.R.N.N.N.p.N.p.N.p.p.% * p.R.p.p.& % X X X $ X X X @.X X X $ X X X % X X X % X % % p.p.p.% p.% p.% p.p.p.[.p.% % X % & % X p.[.p.@.p.% p.p.N.p.p.& % X X X % X @.X @.X @.X % X X X $ X X X $ X X X @.X X X @.X X X $ X X X & X & X X X X X $ X X X @.X X + $ X $ X @.X X X p.mX4XE } <.jXkXaXiXaXiXaXiXaXiXaXaXiXiXaXiXiXiXjXiXaXaXjXaXpXQ lXv.w.{ } ] ] ] ] ] } =X5X5X5X5X5X5X5X5X5X5X5X5X5X5X5X5X5X5X5X5X5X5X5X5X5X5X5X5X5X5X5X5X5X5X5X5X5X5X5X5X5X5X5X5X5X5X5X5X5X5X5X5X5X5X5X5X5X5X5X5X5X5X5X5X5X5X5X5X;X'.D 5.6.3.J Z 2.2.K 2.0XQ.2.Z Q.3.: = % $ N.= G D C.j.g.C.: C.5.- 4.G F p.% X $ X X X $ X X X X X X X % X X X $ X X X $ X X X $ X X X $ X @.X $ X X X $ X X X X X X X $ X X X $ X X X X X X X $ X X X p.X $ mXE [ v.r.( Q ! '.].X X + X X X X $ X X X @.X X X $ + X X $ zXO.r.( l.OX+ % X X X $ X X X @.X X X X X $ ",
"U.+ % & p.X % & p.# % & p.& p.[.% # % & % X % & % # % & % X @.X % X % X % # & & [.X @.& % & % & p.% p.% p.% * % N.% N.N.= N.= = F N.F F - G 4.4.5.4.4.G G F F = F N.|.= F = F = |.N.= = = N.N.N.N.% N.* N.% R.p.N.% p.% * % p.% p.[.% X X X X X X O + + X X X + X + X + X + + @ X X X X % @.p.p.p.& % % p.% p.% % & % X % # & X % # & & [.& p.p.* % p.% [.# X X X X X X X X X X X # X X X + X + X + X + X + X X X X X X X X X @ X # X X X X X X X X X X X + X @ X O X X X X X + X @ o zX4Xn } pXaXiXiXiXiXiXiXiXiXkXiXiXiXiXiXiXaXpXaXpXsXpXiXjX8.-Xc.[ ] Q ] ] ] tX] ] w.5X5X5X5X5X5X5X5X5X5X5X5X5X5X5X5X5X5X5X5X5X5X5X5X5X5X5X5X5X5X5X5X5X5X5X5X5X5X5X5X5X5X5X5X5X5X5X5X5X5X5X5X5X5X5X5X5X5X5X5X5X5X5X5X5X5X5X5X4Xo.A 3.3.Q.2.K 2.0X2.0XZ Q.u.Q.3.6.S F N.F D C.j.6.6.6.j.6.6.^.j.C.- = $ o @ X + X X X + X + X X X X X X X X X + X + X + X + X + X + X + X X X + X + X + X + X X X X X + X + X + X X X X X X X + X + X # X X OX'.Q r.( c.w.c.vXM.X X X @ X + X + X + X + X X X + X + X O M.'.U N l.'.M.O X X X @ X + X + X X X X X . ",
"  % X p.[.% [.p.[.p.& p.% p.& p.& % & % & % & % X % & % & % & % & % & % X % X % & % & % % p.& p.% p.p.p.p.p.% N.* N.N.= N.= = F F #.F - - 5.5.: H C.5.5.- D F #.F F F h.F K.a.F = = N.= N.N.R.N.p.N.% N.p.N.* N.N.N.p.N.R.N.* R.% p.X $ X X X $ X X X X X X X X X X X X X X + X X X & % % p.p.* % p.% p.% p.p.* p.p.p.p.% % X % X % X % X p.p.R.p.* p.p.X X X & X X X @.X X X X X X X X X X X X X X X X X X X X X X X X X X X $ X X X X X X X X X X X X X X + X X X + X X X + $ X X X & bX9XQ O.aXiXiXaXiXiXiXaXiXiXiXaXiXaXiXaXaXiXsXjXv.8.jXsXB B ] ] ] ] ] ] ] ] ] } B ;X5X5X5X5X5X5X5X5X5X5X5X5X5X5X5X5X5X5X5X5X5X5X5X5X5X5X5X5X5X5X5X5X5X5X5X5X5X5X5X5X5X5X5X5X5X5X5X5X5X5X5X5X5X5X5X5X5X5X5X5X5X5X5X5X5X5X;Xb u.J Q.K 2.K K $X2.$X2.2.Z 2.Q.Q.3.6.j.6.j.%.6.^.3.J 3.J ^.J j.; F N.X X X X X X X X # X X X X X X X X X X X X X X X X X X X X X X X X X X X X X X X X X X X X X X & X X X X X X X X X X X X X X X X X X + X M.'.t.r.B B [ '.OX$ X X X X X X X X X X X X X X X X X X X X . vXd.( N ! m.$ X @.X X X X X X X X X X + $ ",
"U.$ % X % @.% X % X % # [.X % # @.X % # @.X % # @.X % # @.& % & @.X % & % X % # @.X % & @.& % & % @.p.& % % p.% N.N.= = = = F F #.F - D 5.5.: H C.H C.4.4.G - F #.F h.F F F F N.qXN.N.% p.% p.p.p.% p.% p.p.N.% N.p.N.p.* p.* X & X X X X X X X X X X X X X X + X X X X X X @.# X X p.X % % p.% p.% p.% p.p.* % p.p.p.% p.X % # X X @.# @.@.p.% p.p.p.X @.X X X X X X X X X X + X X X + X X X + X X X + X X X + X X X X X X X @ X X X X X X X X X X X X X X X + X X X X X X X o X X X @ . bX;X[ aXiXiXiXiXiXaXiXiXiXiXiXiXiXaXpXgXpX( 8.aX) } _.{ ] ] tX] ] ] ] ] ] ] ] { 5X5X5X5X5X5X5X5X5X5X5X5X5X5X5X5X5X5X5X5X5X5X5X5X5X5X5X5X5X5X5X5X5X5X5X5X5X5X5X5X5X5X5X5X5X5X5X5X5X5X5X5X5X5X5X5X5X5X5X5X5X5X5X5X5X5X5Xc.F.` ` K K K 2.0X2.0X2.2.Z 2.Z 0X2.Q.u.J 3.J 3.3.3.J 3.Q.J J H D N.% + X + X X X X X # X o X + X X X + X + X @ X X X + X X X + X X X + X X X + X X X + X X X + X X X X X X X + X X X X X X X X X X X + X X X @ . bXO.( B Q ( [ m.. X X X X X + X X X + X X X + X X X + X X X M.zXl.M N '.OXX @ X X X + X X X + X X X . ",
"  % & % X % [.% X p.& % X % X % & p.X % X % X % & % X % X p.& % X % [.% X % & % X % & % @.% @.% % p.% p.% N.% N.N.F = F a.#.F D D 4.- 5.H j.A j.H : 5.S - 4.G - F - F F F F = = R.N.% p.[.p.% p.% p.% p.% * p.N.p.N.p.N.% N.p.% X $ + X X $ X X X @.X X X X X @.+ $ X @.X % [.% X p.% p.@.p.% * % p.p.N.p.N.* N.p.N.p.p.[.% [.% X % X % X p.[.p.% p.& % & % X @.X $ X X X @.X X X X X X X X X X X $ X X X X X X X @.X X X X X X X $ X X X $ X X X X X & X % X X X $ X X X $ X X + $ X X X MX6X! aXaXiXiXiXaXiXiXpXpXiXiXiXpXT.jXm sXpXsX8.*Xw.] ] m ] ] ] ] ] ] ] ] ] ] { -X5X5X5X5X5X5X5X5X5X5X5X5X5X5X5X5X5X5X5X5X5X5X5X5X5X5X5X5X5X5X5X5X5X5X5X5X5X5X5X5X5X5X5X5X5X5X5X5X5X5X5X5X5X5X5X5X5X5X5X5X5X5X5X5X5X;Xb.$X2.c $X XK K 2.K 0XK 2.2.2.K K %XK K 2.2.J J Z Q.Q.Q.3.> 4.|.% p.X $ X $ + X X % X X X X X X X X X X X $ X X X $ X X X $ X X X $ X X X X X X X X X X X $ X X X $ X X X $ X X X $ X X X $ X X X $ X X X $ X X X nXl.} W T.) ( l.OXX X X X X X X $ X X X X X X X $ X X X X + $ nX'.( ) l.zX. X X $ X X X $ X X X % X $ ",
"U.+ & # @.X & X X X X X X # X X X X X X X X X X X # X X X # X X @.# % X X # & & [.# & X % X % & % & p.% N.% N.N.= N.|.= F F #.G 4.- 5.H : H : H C.S 5.D - F G F F F F = F N.= % p.X % X % X & X [.X @.X p.& p.p.p.% % & % # % X X @ X X X @ + X X + + O X # X X X + X X % # @.& [.# % & % & % [.p.% p.% p.% N.R.N.p.p.& [.# X X X # X X X X X X % # X X & X X X X + X + X X X X X X X X X X X + X + X X X X X X X + X + X X X + X + X + X + X X X @ X X X X X + X + X + X + X + X + X X X O mX4X<.D.iXiXjXpXiXiXpX) aXiXaXpX] sXlXm lXQ >X{ ] ] ] ] ] ] ] tX] ] ] tX] ] { 5X5X5X5X5X5X5X5X5X5X5X5X5X5X5X5X5X5X5X5X5X5X5X5X5X5X5X5X5X5X5X5X5X5X5X5X5X5X5X5X5X5X5X5X5X5X5X5X5X5X5X5X5X5X5X5X5X5X5X5X5X5X5X5X5X5X6X` ` K K c K $X0X0XZ 2.` 2.0X%X$Xc K $Xc C 2.2.Z Q.3.%.j.5.F N.& p.# X X X + X + X + X + X X X + X + X X X + X + X + X + X + X + X + X + X X X X X X X + X + X + X + X + X + + + X + X + X + X + X + X + X + X + X oXzX6X[ +.r.[ [ bXM.X X X X + X X X X X X X + X O X + X @ + @ . zXt.( W 6XvX. X @ X + X + X + X + X + ",
"  $ X % X X X % X $ X $ X X X & X X X & X X X & X X X $ X X X % & % X % X % X % & % & p.% p.% p.p.p.% N.N.= N.|.= F a.#.F - D 5.S C.H j.C.j.H : 5.5.- 4.G - F #.F F = F = = * N.% % X % X % X % X % X % % p.& % X & X & X $ X X X X X & X X X $ X X @ $ X X X X + $ X % X % & % & % & % X % [.p.% * p.N.R.N.R.N.* * & % X X X & X @.& X X X X % X & X & X X X X X X X X X X X X X X X X X X X X X X X & X X X X X X X X X X X X X X X X X X X X X X + X X X X X X X X X X X X X X & + X X $ $ mX=XlXiXlX8.pXaXsXpXm sXsXsXjX8.m lXB _.{ ] ] ] ] ] ] ] m ] ] ] ] ] ] ] m B ;X5X5X5X5X5X5X5X5X5X5X5X5X5X5X5X5X5X5X5X5X5X5X5X5X5X5X5X5X5X5X5X5X5X5X5X5X5X5X5X5X5X5X5X5X5X5X5X5X5X5X5X5X5X5X5X5X5X5X5X5X5X5X5X5X;X| c f.` c c c 2.2.2.2.2.%Xc A.z A. Xk.C A.%X%X2.Q.6.: - #.N.p.X @.X X X X X & X X X X X X X X X X X X X X X X X $ X X X X X X X X X X X X X X X X X X X X X X X X X X X X X X + X X X X X X X X X X X X X X X X X X X . M.vXd.r.W } ! zX$ X X X X X X X X X X X X + X X X X X + X X . '.O.W [ '.M.+ X X X X X X X X X X $ ",
"  + @.X X X X # X X X X X X X X X X X X X X X X & X X X X X @.X @.X % X @.X % X % & % % p.p.* % * % N.N.= = |.= F F F F - D 4.4.5.5.C.5.C.5.5.- 4.D - F #.F F a.F = = N.N.% * % % X % # @.X % X % X @.X & X X X X X X O X + X o X X X + X X X + X X X O X o X X @.[.p.& p.@.p.# @.X @.X X X % X p.p.R.p.R.p.R.% % [.& X X X X X & X & # & X X X X X X X X X X X X + X + X X X X X X X X X X X + X X X X X X X X X X X + X X X + X X X + X X X X X X X X X X X X X X X + X X X X X X X X X # [.$ 6Xn aX[ Q T.jXv.8.8.T.sXQ pXlX_.2X;X[ ] ] ] ] ] ] ] ] tX] ] ] tX] ] ] ] w.5X5X5X5X5X5X5X5X5X5X5X5X5X5X5X5X5X5X5X5X5X5X5X5X5X5X5X5X5X5X5X5X5X5X5X5X5X5X5X5X5X5X5X5X5X5X5X5X5X5X5X5X5X5X5X5X5X5X5X5X5X5X5X5X5XI.` f.K c K K 0X2.u.2.2.%XC k.>.A.K c 2.K 2.2.^.3.5.- = N.X $ X X + X X X X X X X X X X X + X X X + X X X + X X X + X X X + X X X + X X X + X X X X X X X + X X X + X X X + X X X + X X X + X X X @ X X X X X X X @ X X X # X vXt.W ( } '.OXX X X + X X X + X X X X X X X X X X X @ + X OX'.W N [ '.. + X + X X X + X X X M.",
"$ % & % X % X X X @.X X X @.X X X @.X $ X & X X X % X X X % X % & % @.% & p.% p.% R.p.N.p.N.* N.* = N.= = F F F F - D - - S S 5.5.C.5.5.4.5.- 4.G 4.F F = F = |.N.= N.N.% p.% % X % [.% X & X @.X % X @.X $ X X X $ X X X X X @.X $ X X X X X X X $ X X X % % R.R.N.p.R.p.p.% % X % X X X & X p.% R.p.R.% p.@.% X & + X X % X @.X @.X [.X % X @.X % X @.X @.X X X $ X X X X X X X X X X X X X X X $ X X X X X X X X X @.X X X X X $ X X X $ X X X @.X X X @.X X X $ X X X $ X X X % X % X p.[.p.M.6XO.8.w.] pXlX( aXsXjXv.[ _.2X;X2X2Xw.] } ] ] ] } ] ] ] m ] ] ] ] ] ] _.5X5X5X5X5X5X5X5X5X5X5X5X5X5X5X5X5X5X5X5X5X5X5X5X5X5X5X5X5X5X5X5X5X5X5X5X5X5X5X5X5X5X5X5X5X5X5X5X5X5X5X5X5X5X5X5X5X5X5X5X5X5X5X5X9X@XC 2. XK 0X2.2.2.K K A.%X Xc A.K K 2.2.J ^.6.g.5.F N.= p.% X @.X X X $ X $ X X X X X $ X X X $ X X X % X X X X X X X $ X X X $ X X X $ X X X X X X X @.X X X $ X X X $ X X X $ X X X $ X X X $ X X X % X X X X X X + $ X $ X $ zXO.) ) [ m.. @.X X X $ X X X X X X X $ X X X $ X X + $ $ zXl.( M l.vX$ X X X $ X X X $ X $ ",
"  + X X X X X X X X X X X # X X X # X o X X X X X X X X X X X X % # % & p.[.p.% * % p.% N.* N.N.= N.= N.F a.F F G F - G - D S - 4.- - D - F F F F = F N.= N.N.N.N.* R.% % X @.X % # & X X O X X X + X X X + X + X X X X X # X + X + X + X X X + X # % % N.N.N.N.N.% p.% p.X X X X X X X % X % p.* [.% & @.# X X & X X X & # X X X X X # X # X X X X X X X X X X X O X X X # X + X + X + X X X + X + X X X X X X X + X # X + X + X + X + X + X X X X X X X X X o + O X + X X X X X # & X X # [.X & mX4XV m B 8.cXv.8.8.l.2X;X;X4X2X;X;X;X_.{ ] ] ] ] ] ] ] tX] ] ] tX] gXw.5X5X5X5X5X5X5X5X5X5X5X5X5X5X5X5X5X5X5X5X5X5X5X5X5X5X5X5X5X5X5X5X5X5X5X5X5X5X5X5X5X5X5X5X5X5X5X5X5X5X5X5X5X5X5X5X5X5X5X5X5X5X5X5XI.c ` 0X2.2.Z 2.` K 0X$X2.2.Z 2.Z Q.u.Q.g.6.H C.D F % HXp.p.X X + X + X + X X X X X + X + X X X + X + X # X + X X X X X + X X X + X + X + X + X X X # X # X X X + X + X + X + X + X + X + X + X + X # X # X X X X X + X X X X X @ OXd.+.M Q n OXO X X X + X + X + X X X X X + X + X + X O X OXm.( M B '.M.X + X X X + X + X $ ",
"  @.X $ X X X @.X X X X X X X X X & X X X X X @.X X X $ X % X % X % X % % * % R.p.N.* N.N.= N.= = F = F F K.F - h.- - 4.- 4.- 4.D - F - F F = F = = N.= N.N.* N.* p.p.* % % & % X X X & X X X X X X X X X & X @.X X X X X X X @.X @.X $ + X X % p.N.= F = = N.N.p.p.% % X % X % X X X % @.% [.HX% % X % X X X @.# & X & & @.X @.X X X X X X X X X X X X X X X X X X X X X X X X X X X X X X X X X X X X X X X X X X X @.X X X X X X X X X X X X X X X X X X X X X X X $ X X X % & % X % X % X % & ].6X9XO.<.B <.[ _.;X;X4X2X4X2X4X2X;Xc._._.w.] ] ] ] ] ] ] ] ] ] ] gXpX2X5X5X5X5X5X5X5X5X5X5X5X5X5X5X5X5X5X5X5X5X5X5X5X5X5X5X5X5X5X5X5X5X5X5X5X5X5X5X5X5X5X5X5X5X5X5X5X5X5X5X5X5X5X5X5X5X5X5X5X5X5X5X5X6X_ Z Q.Z Q.u.J Q.0X2.0XQ.J 3.^.Z J Z J 6.j.5.4.= N.@.$ X % X $ X X + X X X X X X X X X X X X @.X X X X X X X X X X X X X X X X X X X X X X X @.X X X & X X X X X X X X X X X X X X + X X X X X X X X & X X X & X X X X X X X X X X . vXU M { } '.. X X X X X $ X X X & X X X X X X + X X X X $ mXt.M W l.vX. @.& @.X X X X + $ ",
"  + @.X X X X X X X X + X X X + X X X o X X X X & X X X X X @.X % X % & % % p.p.R.R.N.R.= = a.N.a.= F a.F F G F - F - F - F G F F F F = a.= = N.= N.N.* N.% p.% p.% % @.% & % # X X X X X X X + X X X X X X X X X X X X X X X X X X X # % % N.= a.= F = N.N.N.X % X @.X X X X X X X % & p.& p.X % X @.X X + X X X X X X X X X + X X & X X @ X + X X X X X X X + X X X + X X X X X X X X X X X X X X X X X X X X X X X X X X & # X X X + X X X + X X X + X X X # X X X + X X @.X @.X @.X & & p.o /.6X4X;X;X;X;X5X;X;X2X;X2X4X2X;X4X4X4Xc.] w.w.{ ] ] ] tX] ] ] ] ] gXjX8.;X5X5X5X5X5X5X5X5X5X5X5X5X5X5X5X5X5X5X5X5X5X5X5X5X5X5X5X5X5X5X5X5X5X5X5X5X5X5X5X5X5X5X5X5X5X5X5X5X5X5X5X5X5X5X5X5X5X5X5X5X5X5X4Xo.Z Z 3.3.6.3.3.J Z Q.3.3.g.6.A 6.6.6.j.S F F % $ + @.X X X X X @.X X X X X X X X X X + X X X X X X X X X X X X X X X X X X X X X X X X X X X # X X X X X X X + X X X + X X X + X X X X X X X X X X X X X X X # X X X X X X X X X + X OXW.[ M ] '.vXX @ X X X # & X X # X X X X X X X . X X & # . zXt.w.N l.OXX X X X + X # X . ",
". $ X X X & X X X $ X X X X X X X % X & X @.X @.X % X X X % X p.& p.% p.% N.p.N.R.N.N.= = F = F = #.a.K.F h.F G F G F #.F #.F F = F = = N.= N.N.* N.p.N.% N.% p.[.p.@.% X % X @.X @.X X X % X X X X X X X @.X X X @.X @.X % X X X p.p.= = F a.a.= = N.N.p.p.[.% X $ X & X $ X % @.p.p.p.p.p.% p.@.p.X X X X X X X @.X X X X X X X % X X X $ X X X $ X X X $ X X X $ X X X X X X X X X & X X X & X X X X X X X X X X X X X X X @.X $ X X X X X X X @.X @.X % X & X % X % X % @.% X p.X % & ].zX6X4X2X;X2X4X2X4X2X4X2X4X2X4X2X4X2X4X2X;XB ] } w.{ ] ] ] ] ] m ] ] gXcXcXv.5X5X5X5X5X5X5X5X5X5X5X5X5X5X5X5X5X5X5X5X5X5X5X5X5X5X5X5X5X5X5X5X5X5X5X5X5X5X5X5X5X5X5X5X5X5X5X5X5X5X5X5X5X5X5X5X5X5X5X5X5X5X5Xb X.3.6.3.g.J 6.^.3.Q.3.6.g.6.A : H j.5.- = N.% $ X @.X @.X @.X @.X % X X X X X X X @.X X X $ X @.X X X X X X X X X X X X X X X X X X X & X X X X X X X X X X X X X $ X X X $ X X X @.X X X X X X X X X X X X X & X @.X & X X X X X % @.$ mX'.) ) Q '.M.$ X $ X [.X X X X X X X X X X X X X $ X X X OX'.} Q ( '.  X X X @.X @.X $ ",
"  . X X X X X + X + X X X X X + X X X X X # X X & # X X @.# & X % & p.% p.% p.p.N.* = N.= = = = F = a.a.F = F a.F = F = |.N.= N.= N.N.* N.% p.% p.% % & % X & & % # X X X # X X X X X X X # X X X X X X X + X X X + X X X + & & N.qX= = = N.N.% N.% p.[.@.+ X + X + + @ X . X X p.% p.% * [.p.[.p.# X X X # X X X X X + X + X + X # X X X X X + X + X + X + X + X + X + X + X + X + X X X X X X X X X + X X X X X X X X X X X # X + X X X X X + X # X X X X X X X o X X X # @.X $ X $ OXbX4X4X;X2X;X4X4X2X;X4X;X2X;X4X4X2X;X4X4X4X;X;Xc.] ] ] _.] ] ] ] ] tX] gXaXpXcXn 5X5X5X5X5X5X5X5X5X5X5X5X5X5X5X5X5X5X5X5X5X5X5X5X5X5X5X5X5X5X5X5X5X5X5X5X5X5X5X5X5X5X5X5X5X5X5X5X5X5X5X5X5X5X5X5X5X5X5X5X5X5Xc.`.A H j.g.3.g.6.6.6.g.j.A j.A j.S 4.F = U.= p.X + X X X X X + X X X X X + X + X X X X X + X + X + X + X + X + X X X X X X X X X X X X X # X X X X X X X X X X X + X + X + X + X + X # X # X X X X X X X + X + X + X X X X X # X + X X X # M.bXU r.M n zXM.X O X # X + X + X X X X X # X X X X X X X O vXt.) N [ zX+ # X X & # X . ",
"$ $ X @.X X X X X X X @.X X X X X X X X X X X % X X X % & % & p.& p.p.* p.R.p.N.N.N.N.= N.= N.|.= = = F = |.= F = = N.= N.N.N.N.N.N.p.N.p.p.% % % p.& % & % X p.X X X X X X X @.X X X X X & X X X X X X X X X X X X X @.X % p.N.= = N.N.% p.& % X $ X X X X X X X X X & X % % N.* N.p.R.p.p.% % & & X X X X X X X X X X X X X X X X X X X X X X X X X X X X X X X X X X X X X X X X X X X X X @.X X X X X X X X X X X X X X X & X X X @.# X X X X X X @.X @.X @.X % X % X & X p.  OX6X6X4X2X4X2X4X2X4X2X4X2X4X2X4X2X4X2X4X2X4X2X4X2X;Xc.] ] ] ] ] ] ] m ] m 8.aXaXjXsX2X5X5X5X5X5X5X5X5X5X5X5X5X5X5X5X5X5X5X5X5X5X5X5X5X5X5X5X5X5X5X5X5X5X5X5X5X5X5X5X5X5X5X5X5X5X5X5X5X5X5X5X5X5X5X5X5X5X5X5X5X5X9XH.3.j.j.j.6.6.6.A 6.j.j.H : H 6.j.4.= p.p.a.a.p.X X X X X X X X X X X X X X X X X X X X X X X X X X X X X X X X X X X X X X X X X X X X X X X X X X X X X X X X X X X X X X X X X X X X X X X X X X X X X X X X X X X X X X X & X X X $ X @.X OXd.i.N Q l.OXX X X X X X X X X X X X X X X X X X X X X X OXW.O.) W '.OX$ + X X [.X   ",
"  . X + X X X o X X X # X X X + X X X X X X X X X X % # @.X p.& p.% p.% p.% N.p.N.p.N.% N.% N.N.N.N.N.N.N.N.= * N.N.N.% * % R.% p.% p.& % & % X & X & X & X % # X X X + X X X # X X X X X X X X X X X @ X X X X & X X X @.@.p.p.p.% % X X X & X X X X . X X X X @.@.p.% N.N.= R.N.p.R.& p.X $ X X X X + X X X X X X X + X X X + X X & # X X X + X X X X X X X X X X X + X X X + X X X + X X X # X X X + X X X @ X X X X X X X X X X X X X X X X X X X X X X @.# X & @.# & # $ mX6X4X2X2X9X9X2X;X2X4X2X4X2X4X2X;X4X4X2X;X2X4X2X;X2X;X2X9X] ] ] ] ] ] ] Q ) sXaXiXjXpX[ 5X5X5X5X5X5X5X5X5X5X5X5X5X5X5X5X5X5X5X5X5X5X5X5X5X5X5X5X5X5X5X5X5X5X5X5X5X5X5X5X5X5X5X;X5X5X5X5X5X5X5X5X5X5X5X;X5X5X5X;X5X5X6Xb W.b }.H.H.n.n.6.H C.H C.H j.j.5.= N.* a.= p.X X + X X X X X X X + X X X + X X X X X X X X X X X X X X X X X X X X X X X X X X X X X X X X X X X X X X X X X X X + X X X + X X X + X X X X X X X X X X X + X X X + X X X X X X X + X + X o X M.W.U N Q } '.M.X X X X o X + X X X X X X X X X X X + X + $ vXt.( N l.'.M.[.# @.X . zX",
"M.$ X X X $ X X X $ X X X % X X X @.X X X & X X X % & % & p.p.p.p.R.p.R.p.N.p.N.p.N.p.N.p.N.p.N.R.N.N.N.N.N.N.N.% N.p.N.% N.p.p.% p.& % & % & % X p.X % X % X % X @.X X X $ X X X X X & X % X X X X X X X $ X X X $ X X X % X % X % & % & p.X & X % $ & X p.% p.p.= = = N.= N.N.& % & % X $ + X X @.X X X $ X X X $ X X X $ X X X @.X X X $ X X X $ X X X $ X X X $ X X X $ X X X $ X X X $ X X X $ X X X $ X X X $ X X X $ X X X $ X X X $ X X X X X @.X % # % X % X & M.vX6X4X4X9X9X_.9X9X4X2X4X2X4X2X4X2X4X2X4X2X4X2X4X2X4X2X4X2X;XB ] ] ] ] ] ] ] gXpXjXjXjXlX[ 5X5X5X5X5X5X5X5X5X5X5X5X5X5X5X5X5X5X5X5X5X5X5X5X5X5X5X5X5X5X5X5X5X5X5X5X5X;X;X;X5X;X5X;X;X;X5X;X5X;X5X;X5X;X5X;X5X;X5X;X5X;X5X;X5X5X;X4X4X4X4Xl.m.b.XX3.j.6.5.- N.N.N.= N.p.X % X X X @.X X X $ X X X $ X X X $ X X X @.X X X X X X X X X X X X X X X $ X X X % X X X X X X X X X X X X X X X X X X X $ X X X $ X X X $ X X X X X X X $ X X X $ X X X X X X X @.X X X $ X X + $ OXd.N ) ( ! mX$ X X X $ X X X $ X X X $ X X X X X X X $ X $ m.O.W [ l.m.OX$ X M.zXt.",
"$ . X X X X X + X + X + X + X + X + X X X X X X X # X X % & % & p.[.p.p.p.% p.% p.& p.% p.% p.% * % p.% p.% p.% p.% % % p.X % X % X & X % # & X % # @.# & # X X X X X + X + X + X X X X X # X + X X X X X @ X . X @ + + X X X X & # % % * % * p.* % * % N.* = N.= N.N.* N.% % X X O X X X X X X X X X + X + X + X O X + X + X + X O X X X + X + X + X + X + X + X + X + X + X + X + X + X + X + X + X + X + X + X @ X X X X X X X @ X X X X X X X + X + X # X + X . M.zX6X4X2X=X9X9X9X9X9X2X4X;X2X;X4X;X2X;X4X;X2X;X4X4X2X;X4X;X2X;X;XB ] ] m ] M ) sXaXpX8.<.[ 2X5X5X5X5X5X5X5X5X5X5X5X5X5X5X5X5X5X5X5X5X5X5X5X5X5X5X5X5X5X5X5X5X5X5X5X5X5X;X5X5X5X5X5X;X5X5X5X5X5X5X5X5X5X5X5X5X5X5X5X5X5X5X5X5X5X5X5X5X5X5X5X5X5X5X;X6Xm.n.H |.$ & R.= R.% . X O X X X X X + X + X + X + X + X + X X X X X X X X X X X X X X X X X X X + X + X X X X X X X X X X X X X X X X X X X + X O + + X + X + X + X X X X X + X + X + X + X + X @ X X X X X + X + X + X # . bXt.r.M Q '.OXX X X O X + X + X + X + X X X X X + X . $ + M.'.W W Q B l.m.OXbX! N ",
". $ X X X X X X X X X X X X X X X X X $ X X X $ X X X % & p.@.p.% p.% p.% p.& p.% p.& p.p.p.% p.% p.% p.% % % p.% % & % & % X % X % X % & % X % & X X % X X X X X X X X X X X X X X X X X X X X X X X X X X X $ + X + X X X X p.p.N.N.= = |.= F = = = = = = N.N.p.p.& % X $ X $ X X + X X X X @.X X X X X X X X X X + X X X X X X X X X X X X X X X X X X X X $ X & X X X X X @.X X X $ X X X X X X + X X X X X + X X X X X X X + X X X X X + X X X X X X X X & M.zX4X9X=X9X9X_.9X9X9Xc.9X9X4X2X4X2X4X2X4X2X4X2X4X2X4X2X4X2X4X2X4X2X;XO.gXm Q Q x.<.} [ 9X-X5X5X5X5X5X5X5X5X5X5X5X5X5X5X5X5X5X5X5X5X5X5X5X5X5X5X5X5X5X5X5X5X5X5X5X5X5X;X5X5X5X5X5X5X5X;X5X5X5X5X5X5X5X5X5X5X5X5X5X5X5X5X5X5X5X5X5X5X5X5X5X5X5X5X5X5X5X5X5X5X4Xm.  p.p.N.R.* & X X X X X X X X X X X X X X X + X X X X X X X X X X X X X X X X X X X X X X X X X X X X X X X X X X X X X X X X X X X X X X X X X X X X X X X X X X X X X X X X X X X X X X X X X X X X X X X X X X X X M.I.i.r.m [ zX. X X X X X X X X X X X X X X X X X X X X $ . vXl.( W W W [ c.[ Q N ",
"$ . X X X o X + X X X + X X X X X X X X X X X # X X @.# @.@.p.X @.& p.X % & p.& p.% p.X % & % X @.& p.& % X % X @.X % # @.X % # @.X % # @.X % # & X @.# X X X X X X X + X X X + X X X + X X X X X X X X X @ X X X @ X # % % N.= F F h.F h.F F a.a.= = = N.p.p.X $ X X @ X @ X o X X X + X X X # X X X + X X X + X X X o X X X + X X X # X X X X X X X + X X X X X X X + X X X X X X X + X X X + X X X o X + X + X + X o X X X @ X X X @ X X X X X X X + X $ MXbX6X4X9X9X9X9X9X9X9X9X9X9X9X9X2X;X2X4X2X;X2X4X2X;X2X4X2X4X4X4X2X;X2X;X;Xn x._.2X;X;X5X5X5X5X5X5X5X5X5X5X5X5X5X5X5X5X5X5X5X5X5X5X5X5X5X5X5X5X5X5X5X5X5X5X5X5X5X5X5X5X5X;X5X5X5X5X5X5X5X5X5X5X5X5X5X5X5X5X5X5X5X5X5X5X5X5X5X5X5X5X5X5X5X5X5X5X5X5X5X5X5X5X5X5X5X5X5X6XzX  U.p.X X X X + X + X X X + X X X + X X X X X X X X X X X X X X X X X X X X X X X + X X X X X X & X X X X X X X X X X X X X X X X X X X X + X X X + X X X X X X X . X X X + X X X + X X X X X X X + X X X + X + X . vXU +.*XQ l.OX. X X X + X X X X X X X X X X X + X X X . X M.zXl.B W c._.W Q ] W ",
"M.$ X X X $ X X X $ X X X @.X X X $ X X X & X X X % X % & p.% p.& p.& % & % % p.@.p.& % & p.@.% X % & % X % & % X % & % X % & % X % & % X % & % X % X X X % X X X % X X X $ X X X $ X X X @.X X X @.X X + $ X % & p.p.N.= #.#.4.4.5.4.4.G - F F = = N.N.% % X X X $ X X o X + X X $ X X X $ X X X $ X X X $ X X X $ X X + $ X X X $ X X X $ X X X $ X X X @.X @.X % X X X % X @.X @.X X X $ X X X $ X X X $ X X X $ X $ + @.X $ X $ X $ X X X X X $ X % M.zX6X9X2Xc.9Xc.9Xc.9X9X9Xc.9X9X9X9X4X2X4X2X4X2X4X2X4X2X4X2X4X2X4X2X4X2X;X;X;X5X5X5X5X5X5X5X5X5X5X5X5X5X5X5X5X5X5X5X5X5X5X5X5X5X5X5X5X5X5X5X5X5X5X5X5X5X5X5X5X5X5X5X5X5X5X;X5X5X5X5X5X;X5X5X5X5X5X5X5X5X5X5X5X5X5X5X5X5X5X5X5X5X5X5X5X5X5X5X5X5X5X5X5X5X5X5X5X5X5X5X5X5X5X;X4XmXM.% X X X $ X X X $ X X X $ X X X $ X X X X X X X X X X X X X X X X X X X @.X X X X X X X X X X X $ X X X X X X X X X X X X X X X X X X X $ X X X $ X X X X X X X $ X X X $ X X X $ X X X $ X X X $ X X X @.X @.M.W.O.N M t.'.MXX $ X X X X X X X X X X X $ X X X @.X X X X M.6X[ ( w.W W { { l.",
"$ . X + X @ X + X + X + X # X + X + X X X X X X X # X X & # & X % # & X @.# & X % # & & % # X X % # X X % # & X % # & X % # & X % # & X @.# X X X X X X X X X X X X X X X + X + X + X + X + X + X X X X X + % % = qXF F 4.4.C.C.C.- - F F N.N.N.N.% & X X X X + X X X X X O + @ X O X X X + X X X + X + X + X + X O X + X O + @ X X X + X + X + X + X X X # X X X # X X X # X + X + X X X + X + X + X + X + X + X @ X X X + X X X o X X X O X @ X . M.bX6X4X2X9X9X9X9X9X9X9X9X9X9X9X9X9X9X2X4X;X2X;X4X;X2X;X4X4X2X;X4X;X2X;X;X5X5X5X5X5X5X5X5X5X5X5X5X5X5X5X5X5X5X5X5X5X5X5X5X5X5X5X5X5X5X5X5X5X5X5X5X5X5X5X5X5X5X5X5X5X5X5X5X5X;X5X5X5X5X5X;X5X5X5X5X5X5X5X5X5X5X5X5X5X5X5X5X5X5X5X5X5X5X5X5X5X5X5X5X5X5X5X5X5X5X5X5X5X5X5X5X5X5X5X5X;X6XmX$ # X O X + X + X + X + X + X O X X X X X X X X X X X X X X X X X X X X X + X X X X X X X + X + X X X X X X X X X X X X X + X + X + X + X + X + X X X X X + X O X + X + X + X + X + X + X + X + X + X + X X $ mXl.( ) Q l.zXX O X + # @ + X X X X + X + X + X # X + X O . zXt.B W ] N B c.6X",
"M.$ X X X X X X X X X X X & X & X & X & X X X & X X X % X X X % X % X % & % X % X % X % & % X % X & X % X % X % X % & % & % & % & % X p.& % X & X X X X X X X X X X X X X X X X X X X X X X X X X X X X & N.N.#.G S 5.j.j.j.C.C.- - = = N.N.% % X X X $ X X X X X X X & X X + X X X X X X X X X X X X X X X X X X X + X X X + X X X X X X X X X X $ X @.X X X @.X & X @.X & X X X X X X X X X X X X X X X X X X X X X & X X X $ + X X $ + X X & oXzX9X9X9X_.9X_.9X9X9Xc.9X9X9Xc.9X9X9Xc.9X9X4X2X4X2X4X2X4X2X4X2X4X2X;X2X;X;X5X5X5X5X5X5X5X5X5X5X5X5X5X5X5X5X5X5X5X5X5X5X5X5X5X5X5X5X5X5X5X5X5X5X5X5X5X5X5X5X5X5X5X5X5X5X5X5X5X;X5X5X5X5X5X;X5X5X5X5X5X5X5X5X5X5X5X5X5X5X5X5X5X5X5X5X5X5X5X5X5X5X5X5X5X5X5X5X5X5X5X5X5X5X5X5X5X5X5X5X5X5X5X4XbX  X X + $ X X X X X X + X X X X X X X X X X X X X X X X X X X X X X X X X X X X X X X X X X X X X X X X X X X X X X X X X X X X X X X X X X X X X X X X X X X X X X X X X X X X X X X X X X X X X X X X X X . bXU +.M [ '.OXX X X X X X X X X X X X X X X X X X X X X @ OX'.[ r.+.[ l.'.OX",
"  . X @ X @ X X X X X X X X X # X X X X X X X X X X X # X X X # X X % X X X X # X X @.# & X % X X X % X & X % & @.& % & @.& % & @.X % # X X X o X X & X X X X + X X X X X X X X X X X X X X X # X X % & = a.4.S : j.6.g.g.H 5.F a.N.N.X % X X @ X X X X X X X X X X X X X X X X X X X X X X X X X X X + X X X X X X X X X X X X X X X + X X X @ X X @.X X X X X X X X X X X X X X X X + X X X X X # X # X X X X X X X # X X X O X + $ . X X M.bX6X4X9X9X9X9X9X9X9X9X9X9X9X9X9X9X9X9X9X9X9X9X2X;X2X4X2X;X2X4X2X;X4X;X;X5X5X5X5X5X5X5X5X5X5X5X5X5X5X5X5X5X5X5X5X5X5X5X5X5X5X5X5X5X5X5X5X5X5X5X5X5X5X5X5X5X5X5X5X5X5X5X5X5X;X5X5X5X5X5X5X5X;X5X5X5X5X5X5X5X5X5X5X5X5X5X5X5X5X5X5X5X5X5X5X5X5X5X5X5X5X5X5X5X5X5X5X5X5X5X5X5X5X5X5X5X5X5X5X5X5X5X;X4XmXMXX X X + X + X X X @ X X X X X X X @ X X X + X X X + X X X X X X X @ X X X + X X X + X X X + X X X X X X X + X X X + X X X + X + X X X X X X X X X X X X X X X X X @ X X X + X X X + X X X # X X X # X o OXd.+.N Q [ zXMXX + X + X + X X X + X X X + X X X X X X M.bXl.N +.W _.6XM.. ",
"M.$ X X X $ X X X @.X X X [.X & X % X % X & X X X % X % X % X % X % X % X % X % X % X % X p.@.% X % & % X % @.% & % & % & % @.% X p.X % X & X & X $ X X X X X X X X X X X X X X X $ X X X $ X $ X N.N.F - j.6.J Z Q.3.g.5.- F = U.% X & X $ X $ X X X X X X X X X X X X X X X X X X X X X X X X X X X X X X X X X X X X X $ X @.X $ X X X X X X X % & % X % X X X % X @.X % X X X % X X X X X X X X X X X % X @.X @.X @.X @.X X . $ $ % . mX6X2X2Xc.9Xc.9Xc.9X9X9Xc.9X9X9Xc.9X9X9Xc.9X9X9Xc.2X2X4X2X4X2X4X2X4X4X5X5X5X5X5X5X5X5X5X5X5X5X5X5X5X5X5X5X5X5X5X5X5X5X5X5X5X5X5X5X5X5X5X5X5X5X5X5X5X5X5X5X5X5X5X5X5X5X5X5X5X;X5X5X5X5X5X;X5X;X5X5X5X5X5X5X5X5X5X5X5X5X5X5X5X5X5X5X5X5X5X5X5X5X5X5X5X5X5X5X5X5X5X5X5X5X5X5X5X5X5X5X5X5X5X5X5X5X5X5X5X5X4X'.M.$ X @.X X X % X X X $ X & X X X X X $ X X X $ X X X % X X X X X X X $ X X X X X X X $ X X X X X X X $ X X X $ X X X $ X X X $ X @.X $ X X X X X X X X X X X X X X X X X X X $ X X X $ X X X @.X & X X . W.t.( M ( l.OX$ X + X X X X X X X X $ X X X $ X X X . zX! w.W r.B c.l.OX$ ",
"  O X + X @ X X X X X X X # X # X X X X X # X X X X X + X X X X X # X X X # X X X # & & % # & X @.# & & [.X @.& [.# % X p.X @.X % # X X X X X X X X X X X X X + X + X + X X X # X + X X & & U.N.= = 4.H 6.u.Q.Q.J g.C.G F U.% & & X X + X X X + X X X X X X X X X X X X X X X X X + X X X X X X X X X X X X X # X @ X X X + X X X X X X $ X & & % # % # & # X X X X X X & # X X X # X + X X X X X X X X X # X # & # X X @.X X X X X . mX6X4X9X9X9X9X9X9X9X9X9X9X9X9X9X9X9X9X9X9X9X9X9X9X9X=X2X;X2X;X4X;X2X;X4X5X5X5X5X5X5X5X5X5X5X5X5X5X5X5X5X5X5X5X5X5X5X5X5X5X5X5X5X5X5X5X5X5X5X5X5X5X5X5X5X5X5X5X5X5X5X5X5X5X5X5X;X5X5X5X5X5X5X5X5X5X5X5X5X5X5X5X5X5X5X5X5X5X5X5X5X5X5X5X5X5X5X5X5X5X5X5X5X5X5X5X5X5X5X5X5X5X5X5X5X5X5X5X5X5X5X5X5X5X5X5X5X5X5X5X6XzX$ . X X X X X X X + X X X X X X X X X + X O X + X X X @ X X X X X X X X X X X + X + X + X X X X X + X + X + X + X + X + X O X + X + X X X X X X X X X X X X X X X X X + X O X + X X X X X + X X X X X M.'.} r.N [ 6XOXO X + X + X @ X X X X X X X @ X X . zXt.[ *X_.Q _.W B '.OX",
"M.X + X + X X X X X X X X X X @.X & X @.X X X $ X X X $ X X X % X X X % X % X % X X X p.@.p.& % & % & % & % & p.% p.[.p.% p.& % X & X X X X X X + X X X X X X X X X + $ X @.X % & p.* = = F F - 4.C.j.J J Q.3.6.H - = N.% & X $ X X X X X X X X X X X X X X X X X X X $ X X X X X X X X X X X X X X X X X X X X X X X X X X X X X $ X % & p.p.p.p.p.[.p.X @.X X X & X @.X X X $ X X X $ X X X X X X o $ + X X & X @.X @.X X X % & MX6X9X2X9X9Xc.9X9X9Xc.9X9X9Xc.9X9X9Xc.9X9X9Xc.9X9X9Xc.9X9X4X2X4X2X4X2X4X2X;X5X5X5X5X5X5X5X5X5X5X5X5X5X5X5X5X5X5X5X5X5X5X5X5X5X5X5X5X5X5X5X5X5X5X5X5X5X5X5X5X5X5X5X5X5X5X5X5X5X5X;X5X5X5X5X5X5X5X5X5X5X5X5X5X5X5X5X5X5X5X5X5X5X5X5X5X5X5X5X5X5X5X5X5X5X5X5X5X5X5X5X5X5X5X5X5X5X5X5X5X5X5X5X5X5X5X5X5X5X5X5X5X5X5X5X5X4XbXMXX % X X + X X X X X X X X X X X X X X X X X X X X X X X X X X X X X X X X X X X + X X X X X X X X X X X X X X X X X X X X X X X X X X X X X X X X X X X X X X X X X X X X X X X X X X X X X X X X $ mXt.+.N { [ zX$ + X X X X X + X X X X X X X . . zXt.Q W W c.9Xc.W M c.m.",
"  o X X X X X X X X X # & X & # X X @.X X X X X X X X X X X X # X X % # @.X % # & X % X % & % & @.& p.X % [.p.& p.% p.% p.% % X % X X + X X X X X + X + X X X # X . @.X * R.N.N.a.F G G - G 4.S j.6.6.j.j.5.- = N.% % X X X X @ X X X X X X X X X X X + X X X + X X X X X X X X X X & X X X X X X X X X X X X + X X X X X X X # & X % & p.p.R.p.p.[.% # X X & X X X @.# & X X X & X X X X X X X X X X @ X X X # & X X X X X $ . mX4X2X9X9X9X9X9X9X9X9X9X9X9X9X9X9X9X9X9X9X9X9X9X9X9X9X9X9X9X2X;X2X4X2X;X2X;X;X5X5X5X5X5X5X5X5X5X5X5X5X5X5X5X5X5X5X5X5X5X5X5X5X5X5X5X5X5X5X5X5X5X5X5X5X5X5X5X5X5X5X5X5X5X5X5X5X5X;X5X5X5X5X5X5X5X5X5X5X5X5X5X5X5X5X5X5X5X5X5X5X5X5X5X5X5X5X5X5X5X5X5X5X5X5X5X5X5X5X5X5X5X5X5X5X5X5X5X5X5X5X5X5X5X5X5X5X5X5X5X5X5X5X5X5X5X;X6XMXX X X X @ X X X X X X X X X X X + X X X + X X X + X X X X X X X @ X X X + X X X + X + X X X X X + X X X + X X X + X X X + X X X X X X X X X X X X X X X X X X X X X X X X X X X X X X X + X X X # . vXU W Q N l.OX$ X X X X X X @ X X X o X X . zXt.( W c.B 6XzX6Xc.Q N 9X",
"M.$ X X X % X @.X & X @.& % X @.X % X @.X % X % X % X % X % X % X % & % & p.@.@.X p.@.p.& p.[.p.@.p.% p.% p.p.p.p.p.p.p.p.p.@.% X % X X X % X @.X $ X X X $ X % p.F F h.G - G - G +X4.4.- 4.4.C.5.C.4.#.qXqX  $ X $ X @.X X X X X X X X X @.X @.X $ X X X $ X @.X % X X X @.X & X @.X X X @.X X X X X X X % X X X @.X X X & X p.@.p.p.N.p.N.p.N.p.p.@.% X & X X X % X @.X X X @.X % X X X $ X X X X X X X @.X X X % X @.+ $ M.bX4X9X9X_.9Xc.9X9X9Xc.9X9X9Xc.9X9X9Xc.9X9X9Xc.9X9X9Xc.9X9X9X9X4X2X4X2X4X2X4X2X;X;X5X5X5X5X5X5X5X5X5X5X5X5X5X5X5X5X5X5X5X5X5X5X5X5X5X5X5X5X5X5X5X5X5X5X5X5X5X5X5X5X5X5X5X5X5X5X5X;X5X5X5X5X5X5X5X5X5X5X5X5X5X5X5X5X5X5X5X5X5X5X5X5X5X5X5X5X5X5X5X5X5X5X5X5X5X5X5X5X5X5X5X5X5X5X5X5X5X5X5X5X5X5X5X5X5X5X5X5X5X5X5X5X5X5X5X5X5X;X6XOX. $ X X X % X X X $ X X X X X X X $ X X X X X X X X X X X @.X X X X X X X $ X X + X X X X X X X X $ X X X $ X X X X X X X @.X X X X X X X X X X X X X & X $ X X X & X X X @.X X X $ X X X $ X X X M.m.[ M ] B '.M.$ X X X @.X X + $ + $ X . m.t.[ M B c.bX].o M.6X[ N w.",
"  . X X X # X X X # X X X # X X X X X X X # X X X # X X X # X X X # & X % # @.# @.X % & p.X p.& p.% % % p.& p.% p.% p.% p.# & X X X X + X + X X X @ X o % % = F 4.4.5.4.4.F F F - F h.F a.N.= = a.* * X X @ X @ X # X X X + X + X X X X X X X # X + X X X X X X X # X X X X X X X X X X X X X X X X X X X # X X X X X X X # % & p.% p.% * % * p.p.# X X X o X X @.X X X X # X X X # X X X # X + X + X @ X @ X X X + X + % OX6X4X9X9X9X9X9X9X9X9X9X9X9X9X9X9X9X9X9X9X9X9X9X9X9X9X9X9X9X9X9X2X4X;X2X;X4X;X2X;X;X5X5X5X5X5X5X5X5X5X5X5X5X5X5X5X5X5X5X5X5X5X5X5X5X5X5X5X5X5X5X5X5X5X5X5X5X5X5X5X5X5X5X5X5X5X5X5X;X5X5X5X5X5X5X5X5X5X5X5X5X5X5X5X5X5X5X5X5X5X5X5X5X5X5X5X5X5X5X5X5X5X5X5X5X5X5X5X5X5X5X5X5X5X5X5X5X5X5X5X5X5X5X5X5X5X5X5X5X5X5X5X5X5X5X5X5X5X5X5X5X4XmXM.. @ X + X + X + X X X X X + X X X X X # X X X X X X X X X X X X X X X X X + X + X + X + X + X X X X X X X X X X X X X X X X X + X X X X X X X X X + X + X + X X X X X + X + X + X + X X X + X O mXl.r.W W l.vXM.X X X + X + X . + X M.zXt.[ N { B 6XM.@ X + OX6XB B ",
". $ X X X X X % X X X % X @.X % X X X % X X X % X X X & X X X % & % X p.[.p.& p.% p.[.p.p.p.p.p.p.p.p.* p.p.p.* p.p.% p.[.% X X + X X X X X + $ X % % N.= G 4.E.5.C.5.4.F F = F = = % p.[.% X % X X + $ X X X X X $ X @.X X X X X X X X X X X X X X X X X X X X X X X & X X X & X X X X X X X X X X X @.X @.X @.X X X p.X p.p.N.p.N.p.N.* R.* * [.% X & X X X % X & X $ X & X X X & X & X X + X X X + X X X X & X X @ $ OX6X4X9X9X9X9Xc.9X9X9Xc.9X9X9Xc.9X9X9Xc.9X9X9Xc.9X9X9Xc.9X9X9Xc.9X9X4X2X4X2X4X2X4X2X;X;X5X5X5X5X5X5X5X5X5X5X5X5X5X5X5X5X5X5X5X5X5X5X5X5X5X5X5X5X5X5X5X5X5X5X5X5X5X5X5X5X5X5X5X5X5X;X5X5X5X5X5X5X5X5X5X5X5X5X5X5X5X5X5X5X5X5X5X5X5X5X5X5X5X5X5X5X5X5X5X5X5X5X5X5X5X5X5X5X5X5X5X5X5X5X5X5X5X5X5X5X5X5X5X5X5X5X5X5X5X5X5X5X5X5X5X5X5X5X5X5X4XzXMX$ X X X X X X X X X X X X X X X X X X X X X X X X X X X X X X X X X X X X X X X X X X X X X X X X X X X X X X X X X X X X X X X X X X X X X X X X X X X X X X X X X X X X X X X X X X X & X X M.W.O.W N Q l.M.+ @.X X X X X X X M.vXO.} W W B 6X].X X X % . zX9X[ ",
"  . X X X X X X X X X # X X @.X & X X # X X X # & X X # X X @.# @.X % X % @.p.X % [.p.% p.% p.% p.% * p.p.% p.% p.% p.X & X X o X X X X X X X X p.N.F F G G 4.F 4.F h.= N.% N.& % X X o X X X o X X X + X X X X X X X X X X X o X X & # X X X X X X X X X X X X X X X X X X & X X X X # X X X X @.X @.X @.X X # X X % X p.% * % N.% N.p.R.p.* @.% X X X X X X X X X X # X X @.X X X X # X X X X X X X # X X @.# X X $ zX4X4X9X9X9X9X9X9X9X9X9X9X9X9X9X9X9X9X9X9X9X9X9X9X9X9X9X9X9X9X9X9X9X2X2X;X2X4X2X;X4X4X2X5X5X5X5X5X5X5X5X5X5X5X5X5X5X5X5X5X5X5X5X5X5X5X5X5X5X5X5X5X5X5X5X5X5X5X5X5X5X5X5X5X5X5X5X5X;X5X5X5X5X5X5X5X5X5X5X5X5X5X5X5X5X5X5X5X5X5X5X5X5X5X5X5X5X5X5X5X5X5X5X5X5X5X5X5X5X5X5X5X5X5X5X5X5X5X5X5X5X5X5X5X5X5X5X5X5X5X5X5X5X5X5X5X5X5X5X5X5X5X5X5X5X;X'.M.o X X X X X X @ X X X X X X X X X X X X X X X X X X X X X X X X X X X + X X X + X X X X X X X X X X X X X X X + X X X + X X X X X X X X @.X @.X X X X + X X X + X X X + X X X X X X & X X # X OXm.l.M N l.'.$ @ X X X + X X M.vXO.N W _.c.bXM.O X X X # X OX'.l.",
"M.$ X & X $ X X X % X % X % X % X % X % X % X % X % X % X p.@.% @.p.% p.p.p.p.p.% p.p.p.p.N.p.* p.N.p.N.p.R.p.* % p.X % X % X X X % X % X p.p.= = #.F G F h.F F N.N.% p.X % X X X @.X X X $ X X X X X X X X X X X X X X X @.X X X @.X & X $ X X X % X X X $ X & X @.X % X % & % X % X [.X % X % X % X % X % X % X % % p.p.N.p.N.* N.* N.p.R.p.p.& % X X X @.X @.X % X % X @.X @.X & X X X $ X $ X & X & X @.X @.X & mX6X2Xc.9X9X9Xc.9X9X9Xc.9X9X9Xc.9X9X9Xc.9X9X9Xc.9X9X9Xc.9X9X9Xc.9X9X9X9X4X2X4X2X4X2X4X2X4X;X5X5X5X5X5X5X5X5X5X5X5X5X5X5X5X5X5X5X5X5X5X5X5X5X5X5X5X5X5X5X5X5X5X5X5X5X5X5X5X5X5X5X5X;X5X5X5X5X5X5X5X5X5X5X5X5X5X5X5X5X5X5X5X5X5X5X5X5X5X5X5X5X5X5X5X5X5X5X5X5X5X5X5X5X5X5X5X5X5X5X5X5X5X5X5X5X5X5X5X5X5X5X5X5X5X5X5X5X5X5X5X5X5X5X5X5X5X5X5X5X5X5X;XzX. $ X X X $ X # . $ X X X X X X X X X X X X X X X X X X X X X X X X X X X $ X X X X X @.X X X X X X X X X X X X X X X X X $ X X X X X % @.p.@.[.X @.X X X X X X X X X X X X X X X X X @.X & X $ zX! ) M W l./.$ X $ X & X M.m.<.[ N W c.6X].X X + % X X X $ mX'.",
"  . X X X X X X X # X X X # X X % # X X X # X X % # & X % # % [.p.@.p.p.p.& p.& p.% p.% p.% p.p.R.p.* p.p.@.@.X X X X X X @ X + X X [.[.p.% = = = = a.a.a.N.N.$ $ o X X X X X X X + X @ X @ X X X X X X X X X @ X X X X X + X + X # X + X @ X X X # X X X + X # X # [.X % # % @.% # @.X @.# & X % # X X @.# X X % & p.% N.% N.% N.% * p.p.@.% X @.# X X X @ X X X # X X X X X X X X X X X @ X X X X X + X X & # & zX4X4X9X9X9X9X9X9X9X9X9X9X9X9X9X9X9X9X9X9X9X9X9X9X9X9X9X9X9X9X9X9X9X9X9X4X4X4X2X;X4X;X2X;X4X;X5X5X5X5X5X5X5X5X5X5X5X5X5X5X5X5X5X5X5X5X5X5X5X5X5X5X5X5X5X5X5X5X5X5X5X5X5X5X5X5X5X5X;X5X5X5X5X5X5X5X5X5X5X5X5X5X5X5X5X5X5X5X5X5X5X5X5X5X5X5X5X5X5X5X5X5X5X5X5X5X5X5X5X5X5X5X5X5X5X5X5X5X5X5X5X5X5X5X5X5X5X5X5X5X5X5X5X5X5X5X5X5X5X5X5X5X5X5X5X5X5X5X5X;XzXM.X X X + X + X # X # X X X X X X X X X X X X X X X X X @ X X X X X + X + X + X X X # X X X X X X X X X X X X X X X X X + X X X X X X @.# & # X X X X X X X X X X X X X X X X X X X X X X X X M.'.U M W B '.M.X + X X M.'.O.( w.B c.6XMX@ + . X # X X X O M.bX",
"M.$ X & X X X & X @.X % X X X % & X X % X @.& % & % & p.% p.% * p.R.p.R.p.* p.N.p.p.p.N.p.R.p.N.p.p.& % X X X X X X X $ X X X % [.p.p.N.R.N.N.N.N.= N.= p.& + $ X $ X @.X X X X X X X X X & X X X X X X X X X X + X X X X X + X X X X X X X X X X & X & X X X p.% p.p.N.p.R.% R.% p.% p.[.% & % & % X % X % & p.p.R.p.N.N.N.% N.* R.p.* % p.& % X X X X X X X X X & X @.X X X X X X X & X X X & X X X X X @.X % mX4X4X9X9X9X9Xc.9X9X9X9X2X9X9Xc.9X9X9Xc.9X9X9Xc.9X9X9Xc.9X9X9Xc.9X9X9Xc.9X9X4X2X4X2X4X2X4X2X;X2X5X5X5X5X5X5X5X5X5X5X5X5X5X5X5X5X5X5X5X5X5X5X5X5X5X5X5X5X5X5X5X5X5X5X5X5X5X5X5X5X5X;X5X5X5X5X5X5X5X5X5X5X5X5X5X5X5X5X5X5X5X5X5X5X5X5X5X5X5X5X5X5X5X5X5X5X5X5X5X5X5X5X5X5X5X5X5X5X5X5X5X5X5X5X5X5X5X5X5X5X5X5X5X5X5X5X5X5X5X5X5X5X5X5X5X5X5X5X5X5X5X5X5X5X4XmX. $ X X X X X X X X X X X X X X X X X X X X X X X X X X X X X X X X X X X X X X X X X X X X X X X X X X X X X X X X X X X X X X X X X X X X X X X X X X X X X X X X X X X X X X X X X X X $ . OXd.( W Q c.vX$ X X M.W.U Q N w.c.bXMXo X + $ X X X X X $ + M.",
"  + @.# X X % X X X @.X X X X # @.X @.# % X % & @.% p.% p.p.R.p.R.p.R.% p.p.p.% p.p.R.p.R.p.p.X X X X X X o X @ X @ X X & & p.% p.% p.p.R.% p.@.% @.% X X @ X @ + @ X X X X X @ X + X + @.X X @ X X X X X X X @ + @ X o X + X o + X & # X X X @ X X X X X X p.% * % N.p.N.p.N.p.* % p.X [.X @.X & X % & % % p.% N.% N.% N.p.* % p.% p.[.p.& @.X X X @.X X X @.+ X X X o X @ X X X X X X X X X X & X @.X X X & zX4X4X9X9X9X9X9X=X2X;X;X5X;X;X9X9X9X9X9X9X9X9X9X9X9X9X9X9X9X9X9X9X9X9X9X9X9X2X2X;X2X4X2X;X4X;X2X;X;X5X5X5X5X5X5X5X5X5X5X5X5X5X5X5X5X5X5X5X5X5X5X5X5X5X5X5X5X5X5X5X5X5X5X5X5X5X5X5X5X5X5X5X5X5X5X5X5X5X5X5X5X5X5X5X5X5X5X5X5X5X5X5X5X5X5X5X5X5X5X5X5X5X5X5X5X5X5X5X5X5X5X5X5X5X5X5X5X5X5X5X5X5X5X5X5X5X5X5X5X5X5X5X5X5X5X5X5X5X5X5X5X5X5X5X5X5X5X5X5X5X5X5X5X4X/.. X # X o X X X X X X X X X X X X X X X X X X X X X X X X X X X X X X X X X @ X X X + X X X X X X X X X @ X X X X X X X X + @ X X X X X X X X X X X X X X X X X X X X X X + @ X X X + X + X . vXB ( N l.6XOXX M.W.Y N N W c.bXM.O X + X @ X X X # X X + oX",
"M.% & % X p.& % X % & % X % X % X % & % & p.% p.% N.* N.* N.N.N.R.= R.N.p.N.R.N.p.N.p.* % p.X & X & + X X & X X X % X p.p.* p.* p.p.% p.& % X X X @.X X X @.X [.X X X X X @.X X X $ X X X $ X X X $ X X X @.X X X $ X X X & X X X p.& % X & X $ X % X % @.p.p.N.* N.N.N.N.N.N.N.p.p.@.% X % & % & p.% R.* N.R.N.* N.* N.p.N.p.p.% p.[.p.@.p.X X X % & X X % & X X & X X X $ X X X & X X X % X % X % X @.X % mX6X2Xc.9X9X9Xc.2X2X5X;X5X5X5X;X2Xc.9Xc.9X9X9Xc.9X9X9Xc.9X9X9Xc.9X9X9Xc.9X9X9X9X4X2X4X2X4X2X4X2X4X2X;X5X5X5X5X5X5X5X5X5X5X5X5X5X5X5X5X5X5X5X5X5X5X5X5X5X5X5X5X5X5X5X5X5X5X5X5X5X5X5X5X5X5X5X5X5X5X5X5X5X5X5X5X5X5X5X5X5X5X5X5X5X5X5X5X5X5X5X5X5X5X5X5X5X5X5X5X5X5X5X5X5X5X5X5X5X5X5X5X5X5X5X5X5X5X5X5X5X5X5X5X5X5X5X5X5X5X5X5X5X5X5X5X5X5X5X5X5X5X5X5X5X5X5X5X5X4XM.. [.X X X X X X X X X X X X X X X X X X X X X X X X X X X $ X X X @.X X X X X X X X X X X X X X X X X X X X X X X X X X X $ X X X X X X X X X X X X X X X X X X X X X X X $ X X X X X X X $ OX'.O.N W l.bXvX'.<.r.W B n bXMX+ X X @.X X X X X X X $ + $ ",
"  + @.X & # @.# @.# X X X # & X % # % & p.X p.% N.% N.R.= R.N.* N.R.N.p.R.% R.p.p.% p.X X @ X @ X @ X X X # @.& p.X % p.p.% % X [.# X X X @ X @ X X X X X X X # X # X X X X X X X + X X X O X X X + X + X + X X X O X X & # % & p.& % X & X & X % # % % * % R.p.N.* N.* N.% N.% p.X X X @.# % & p.% R.* R.% * % N.% p.% p.X % [.% # & X & X X X X # X X X X X X X # X X X @ X X X # X X X # X X X X X + $ mX4X4X9X9X9X9X9X4X;X5X5X5X5X5X5X5X4X9X9X9X9X9X9X9X9X9X9X9X9X9X9X9X9X9X9X9X9X9X9X4X4X;X2X;X4X;X2X;X4X;X;X5X5X5X5X5X5X5X5X5X5X5X5X5X5X5X5X5X5X5X5X5X5X5X5X5X5X5X5X5X5X5X5X5X5X5X5X5X5X5X5X5X5X5X5X5X5X5X5X5X5X5X5X5X5X5X5X5X5X5X5X5X5X5X5X5X5X5X5X5X5X5X5X5X5X5X5X5X5X5X5X5X5X5X5X5X5X5X5X5X5X5X5X5X5X5X5X5X5X5X5X5X5X5X5X5X5X5X5X5X5X5X5X5X5X5X5X5X5X5X5X5X5X5X5X5X5X6X. # X + X X X X X X X X X X X X X X X X X X X X X X X X X X X X X X X # X X X X X X X X X X X X X X X X X X X X X X X # X X X X X X X X X X X X X X X X X X X X X X X X X X X X X X X + X + . zXt.N N W B 9XB ] ] _.c.bXM.@ X # X X X X X @ X X # @ + . ",
"  $ X p.X % & p.[.% X % X % X % & p.[.p.p.N.p.N.N.= = |.N.= N.= N.N.R.N.p.N.p.p.% % X & + X X & X % X % X p.[.p.% p.[.p.[.% X & X X X $ X X X & X X X X X X X X X X X X X X X X X X X $ X X X X X @.X X X X X & X R.p.N.* N.N.= N.N.R.N.p.p.% p.% * p.R.R.N.* N.N.N.N.= N.N.p.p.& % X % & p.& p.p.R.* N.p.N.% N.p.* % p.% p.X % & % X % X X X & X X X @.X X X % X @.X X X X X % X X X X X $ X % X & &   mX6X4Xc.9X9X9X9X;X;X5X5X5X5X5X5X5X5X;X_.9X9X9Xc.9X9X9Xc.9X9X9Xc.9X9X9Xc.9X9X9Xc.9X2X4X2X4X2X4X2X4X2X;X2X;X;X5X5X5X5X5X5X5X5X5X5X5X5X5X5X5X5X5X5X5X5X5X5X5X5X5X5X5X5X5X5X5X5X5X5X5X5X5X5X5X5X5X5X5X5X5X5X5X5X5X5X5X5X5X5X5X5X5X5X5X5X5X5X5X5X5X5X5X5X5X5X5X5X5X5X5X5X5X5X5X5X5X5X5X5X5X5X5X5X5X5X5X5X5X5X5X5X5X5X5X5X5X5X5X5X5X5X5X5X5X5X5X5X5X5X5X5X5X5X5X5X5X5X5X5X5X4XmX$ X X X X X X X X X X X X X X X X X X X X X X X X X X X X X X X X X & X X X X X X X X X X X X X X X X X X X X X X X & X X X X X X X X X X X X X X X X X X X X X X X X X X X X X X X X X X o M.m.r.M tXW { { N [ c.6X].+ X X & X X X X X X + X X X + $ ",
"  $ % X % X % & @.& % & @.& % X p.% p.% N.N.= = = = a.= = N.= N.N.p.N.% p.% p.# & X $ X & X % X p.p.p.[.% & % X X X X X X X X X X X X # X X X X X X X X X X X + X + X X X X X X X X X + X X X @ X X X X X X p.p.N.= = = = = F = a.= = N.N.* N.p.R.p.R.p.* p.N.R.N.N.= N.N.p.p.X @.X X # [.X % X p.% * % p.% p.% p.% p.X @.X % # % X % X X X X # X X X X X X X X X X X X X X X # X X X X X X X X X X   zX4X4X9X9X9X2X2X;X5X5X5X5X5X5X5X5X5X5X;X2X9X9X9X9X9X9X9X9X9X9X9X9X9X9X9X9X9X9X9X9X9X4X2X;X2X4X2X;X4X;X2X;X4X5X5X5X5X5X5X5X5X5X5X5X5X5X5X5X5X5X5X5X5X5X5X5X5X5X5X5X5X5X5X5X5X5X5X5X5X5X5X5X5X5X5X5X5X5X5X5X5X5X5X5X5X5X5X5X5X5X5X5X5X5X5X5X5X5X5X5X5X5X5X5X5X5X5X5X5X5X5X5X5X5X5X5X5X5X5X5X5X5X5X5X5X5X5X5X5X5X5X5X5X5X5X5X5X5X5X5X5X5X5X5X5X5X5X5X5X5X5X5X5X5X5X5X5X5X5X5X6X. X + X X X X X X X X X X X X X X X X X X X X X X X X X X X X X X X X X X X X X X X X X X X X X X X X X X X X X X X X X X X X X X X X X X X X X X X X X X X X X X X X X X X X X X X X X X X . OXt.( N N { N B W 6XOX+ X X X X X X X + X X X X X X X . ",
"  % @.p.& p.[.p.@.% @.p.[.p.% p.% N.N.= = F a.#.a.#.a.F = = N.N.R.N.p.p.& p.& % & p.% p.p.* p.R.p.* p.p.X % X X o $ X X X @.X @.X @.X @.X $ o X X % X X X $ X X X $ X $ X X X X X @.X X X $ X X X % % p.p.= = a.= #.F F F G F - F #.a.F = = N.N.R.N.* N.* N.N.= N.= N.N.p.p.X % & p.@.% & p.p.p.% * p.p.% p.% p.% p.% % X % [.% X % X % X % X % X % X X X & X @.X @.X X X % X & X % X & X & X % X   zX4X2Xc.9X9X2X2X5X5X5X;X5X5X5X5X5X5X5X5X;X9X9Xc.9Xc.9Xc.9X9X9Xc.9X9X9Xc.9X9X9Xc.9X9X9X9X4X2X4X2X4X2X4X2X4X2X;X;X5X5X5X5X5X5X5X5X5X5X5X5X5X5X5X5X5X5X5X5X5X5X5X5X5X5X5X5X5X5X5X5X5X5X5X5X5X5X5X5X5X5X5X5X5X5X5X5X5X5X5X5X5X5X5X5X5X5X5X5X5X5X5X5X5X5X5X5X5X5X5X5X5X5X5X5X5X5X5X5X5X5X5X5X5X5X5X5X5X5X5X5X5X5X5X5X5X5X5X5X5X5X5X5X5X5X5X5X5X5X5X5X5X5X5X5X5X5X5X5X5X5X5X5X5X5X4XMX. $ X X X X X X X X X X X X X X X X X X X X X $ X X X % X X X X X X X X X X X X X X X X X X X X X X X X X X X X X X X X X X X X X X X X X X X X X X X X X X X X X X X X X X X X X X X % X @.M.zX[ Q { N W { ! W.M.$ X @.X & X X X X X $ X X X $ X $ ",
"U.+ % & % # % & % X % % p.% p.% N.* = = a.a.F F h.a.F = = R.N.p.p.X & X $ X @.X p.[.p.p.HX[.p.% p.# X X X + X + X @ X X X O X X X # X X X @ + X X + X X X X X X X @ X + X X X X $ # X X & X % % R.% N.R.= = a.a.F F h.F 4.G 4.D - F h.F F = = N.N.% * * N.* = N.= * * % % # X X % X p.% p.p.p.p.p.[.p.% p.@.p.& p.# [.X % # @.X & # X X X X X X X X X X X X X X X X X X & X X X X # X X X X X + & mX4X4X9X9X9X;X;X5X5X5X5X5X5X5X5X5X5X5X5X5X;X2X9X9X9X9X9X9X9X9X9X9X9X9X9X9X9X9X9X9X9X9X9X4X4X;X2X;X4X;X2X;X4X;X2X;X5X5X5X5X5X5X5X5X5X5X5X5X5X5X5X5X5X5X5X5X5X5X5X5X5X5X5X5X5X5X5X5X5X5X5X5X5X5X5X5X5X5X5X5X5X5X5X5X5X5X5X5X5X5X5X5X5X5X5X5X5X5X5X5X5X5X5X5X5X5X5X5X5X5X5X5X5X5X5X5X5X5X5X5X5X5X5X5X5X5X5X5X5X5X5X5X5X5X5X5X5X5X5X5X5X5X5X5X5X5X5X5X5X5X5X5X5X5X5X5X5X5X5X5X5X5X;XbXX . X @ X X X X X X X X X X X X X X X X X X X @ X X X X X X X X X X X X X X X X X X X X X X X X X X X X X X X X X X X X X X X X X X X X X X X X X X X X X X X X X X X X X X X X X X X + X X . '.} N N *XW W [ '.M.@ X + X X X + X + X + X X X X X . ",
"  % % p.% % % p.% p.% N.* N.N.= = F a.h.F - h.- F F = = N.N.p.p.X & X % & p.& p.% p.[.p.% p.& % X X X $ X X X X X X X @.X X X X X & X X X X X X X X X X X X X X X X X X X X X p.p.N.N.= N.= = F = = = = = F a.- G 4.4.5.4.5.4.5.S S - - F F = |.N.N.* = N.= N.= N.* X % X % [.p.p.R.* N.* R.p.p.p.p.[.p.% p.[.p.& % X p.& % X % X X X & X X X $ X X X & X X X & X X X @.X X X X X X X & X % + $ mX4X2Xc.9X9X;X;X5X5X5X5X5X5X5X5X5X5X5X5X5X5X5X2X9X9X9Xc.9X9X9Xc.9X9X9Xc.9X9X9Xc.9X9X9Xc.9X2X4X2X4X2X4X2X4X2X4X2X4X2X5X5X5X5X5X5X5X5X5X5X5X5X5X5X5X5X5X5X5X5X5X5X5X5X5X5X5X5X5X5X5X5X5X5X5X5X5X5X5X5X5X5X5X5X5X5X5X5X5X5X5X5X5X5X5X5X5X5X5X5X5X5X5X5X5X5X5X5X5X5X5X5X5X5X5X5X5X5X5X5X5X5X5X5X5X5X5X5X5X5X5X5X5X5X5X5X5X5X5X5X5X5X5X5X5X5X5X5X5X5X5X5X5X5X5X5X5X5X5X5X5X5X5X5X5X5X5XbX. X + X X X X X X X X X X X X X X X X X X X X X X X X X X X X X X X X X X X X X X @.X X X X X X X X X X X X X X X X X X X X X X X X X X X X X X X X X X X X X X X X X X X X X X X @.X X X X + /.! Q { { *X{ c.zXM.X + X @ $ X X X X X X X X X X + $ ",
"U.@.p.[.% % p.% p.% N.* = N.= = F F G G - G G F F = = p.p.X % X @.& p.[.% & % # @.X p.# @.X @.X X X X X X X X X X X X + X X X X X X & X X X X X X X X X X X X X X X % % N.N.F a.#.G - F #.F h.a.F = = = F F - G 4.5.C.S 5.5.C.5.C.S S - - F F = = N.N.* = N.{.* p.& % X p.p.R.* N.R.N.p.* p.p.% % @.% X % & % & @.X % X @.X % X & X X X X X X X X X X X X X X X X X X X X X X o X X X X X X   zX4X4X9X9X2X;X5X5X5X5X5X5X5X5X5X5X5X5X5X5X5X5X5X;X9X9X9X9X9X9X9X9X9X9X9X9X9X9X9X9X9X9X9X9X9X4X2X;X2X4X2X;X2X4X2X;X4X;X;X5X5X5X5X5X5X5X5X5X5X5X5X5X5X5X5X5X5X5X5X5X5X5X5X5X5X5X5X5X5X5X5X5X5X5X5X5X5X5X5X5X5X5X5X5X5X5X5X5X5X5X5X5X5X5X5X5X5X5X5X5X5X5X5X5X5X5X5X5X5X5X5X5X5X5X5X5X5X5X5X5X5X5X5X5X5X5X5X5X5X5X5X5X5X5X5X5X5X5X5X5X5X5X5X5X5X5X5X5X5X5X5X5X5X5X5X5X5X5X5X5X5X5X5X5X5X6XM.+ X X X X X X X X X X X X X X X X X X X X X X X X X X X X X X X X X X X X X X X X X X X X X X X X X X X X X X X X X X X X X X X X X X X X X X X X X X X X X X X X X X X X X X X # X X X + X oXm.[ { *XW B l.OX$ + X X X @ X X X + X X X X X X X M.",
"  % % p.% N.* N.* = N.= = #.a.h.F - G G F h.= = N.N.p.p.X % @.p.% p.p.p.@.% X X X % X @.X % X X X X X @.X @.X X X $ X X X X + X X @.X X X @.X X X $ X @.X $ X % * F G S 5.C.C.j.C.: C.; 4.4.h.#.= #.F h.F 4.4.; 5.: C.j.C.j.j.g.j.j.C.C.S 4.h.F = F = = N.= R.p.& p.% N.N.= {.= R.N.* R.% p.% p.[.p.% p.[.p.[.p.& p.@.% & % X % & % X X X & X & X X X X X @.X X X @.X % X & X % X % X & X & mX4X4Xc.9X2X5X5X5X5X5X5X5X5X5X5X5X5X5X5X5X5X5X5X5X2X9Xc.9Xc.9Xc.9X9X9Xc.9X9X9Xc.9X9X9Xc.9X9X9X2X4X2X4X2X4X2X4X2X4X2X4X2X;X5X5X5X5X5X5X5X5X5X5X5X5X5X5X5X5X5X5X5X5X5X5X5X5X5X5X5X5X5X5X5X5X5X5X5X5X5X5X5X5X5X5X5X5X5X5X5X5X5X5X5X5X5X5X5X5X5X5X5X5X5X5X5X5X5X5X5X5X5X5X5X5X5X5X5X5X5X5X5X5X5X5X5X5X5X5X5X5X5X5X5X5X5X5X5X5X5X5X5X5X5X5X5X5X5X5X5X5X5X5X5X5X5X5X5X5X5X5X5X5X5X5X5X5X5X5X6XOX$ @ $ X & X X X X X X X X X X X X X @.X X X X X X X X X X X X X X X X X X X X X X X % X X X X X X X X X X X X X X X X X X X X X X X X X & X X X X X X X X X X X X X X X X X X X X X @.X X X $ /.I.] ] N W l./.M.X X @.X & X $ X X X $ + X + @.X $ ",
"U.  % % * % N.* = * = = a.= F F h.F F = = % p.% % X % & p.% % % % # X X X X + @ X O X X X # X X X X X # X # X X X @ + X X @ X + X X X X X # X @ X @ X X % & = F 5.C.6.6.%.6.6.6.6.j.j.5.S F - F F F G - 4.4.; 5.C.H j.j.6.g.6.6.6.g.6.j.C.4.- F F N.= * N.% % X % % * R.= * N.* N.% p.% p.& % [.% & % & [.X @.X % # @.X X # X X @.# X X X @ X X X X X X X # X X X + + X X X X X X X X X $ mX6X4X9X9X4X5X5X5X5X5X5X5X5X5X5X5X5X5X5X5X5X5X5X5X5X;X9X9X9X9X9X9X9X9X9X9X9X9X9X9X9X9X9X9X9X9X9X;X4X;X2X;X4X;X2X;X4X4X2X;X;X5X5X5X5X5X5X5X5X5X5X5X5X5X5X5X5X5X5X5X5X5X5X5X5X5X5X5X5X5X5X5X5X5X5X5X5X5X5X5X5X5X5X5X5X5X5X5X5X5X5X5X5X5X5X5X5X5X5X5X5X5X5X5X5X5X5X5X5X5X5X5X5X5X5X5X5X5X5X5X5X5X5X5X5X5X5X5X5X5X5X5X5X5X5X5X5X5X5X5X5X5X5X5X5X5X5X5X5X5X5X5X5X5X5X5X5X5X5X5X5X5X5X5X5X5X5X;XmX. X X X X X X X X X X X X X X X X X X X X X X X X X X X X X X X X X X X X X X X X X # X X X X X X X X X X X X X X X X X X X X X X X X X X X X X X X X X X X X X X X X X X X X X X X + X X X + M.bXl.[ M W w.6X/.. X @ X X X + X + X + X X X + X M.",
"U.* % N.* N.* = N.= = = = a.= F = = p.p.& $ X * p.N.p.N.R.R.% % [.% X $ X X X & X X X & X X X @.X X X X X X X X X X X X X X X X X X X X X X X $ & p.p.= a.- 4.j.^.J J Q.J J 3.J 6.6.: : S S - - - 4.- ; 5.C.C.j.j.6.6.J 3.J 3.J 3.^.6.6.C.C.- - F F N.= * p.% R.R.{.R.= N.= * N.p.p.p.R.p.* % * % p.[.p.% % & % & X X % X X X % X X X @.X X X X X X X @.X & X @.X X X & X % X % & % X p./.6X4Xc.9X2X5X5X5X5X5X5X5X5X5X5X5X5X5X5X5X5X5X5X5X5X5X;X9X9X9Xc.9X9X9Xc.9X9X9Xc.9X9X9Xc.9X9X9Xc.9X2X4X2X4X2X4X2X4X2X4X2X;XB ! ;X5X5X5X5X5X5X5X5X5X5X5X5X5X5X5X5X5X5X5X;X5X5X5X;X5X5X5X5X5X5X5X5X5X5X5X5X5X5X5X5X5X5X5X5X5X5X5X5X5X5X5X5X5X5X5X5X5X5X5X5X5X5X5X5X5X5X5X5X5X5X5X5X5X5X5X5X5X5X5X5X5X5X5X5X5X5X5X5X5X5X5X5X5X5X5X5X5X5X5X5X5X5X5X5X5X5X5X5X5X5X5X5X5X5X5X5X5X5X5X5X5X5X5X5X5X5XbX  + X X X X X X X X X X X X X X X X X X X X X X X X X X X X X X X X X X X X X X X X X X X X X X X X X X X X X X X X X X X X X X X X X X X X X X X X X X X X X X X X X X X X X X X X X X $ X X X . mX'.O.N w.! '.MXX X X X X X X X X X X X X $ + $ ",
"U.% N.p.N.R.N.p.N.% N.% R.% p.& % X X O X % N.= a.= = * * % % X X X X X X X & X X X X # X X X # X X X @ X X X X X X X X X X & + + o X @ $ $ N.N.= F - 4.C.j.6.6.J u.Q.u.J J J 3.6.j.j.5.5.4.S 4.5.S C.H j.j.6.g.^.3.J 3.J u.J 3.^.6.6.j.C.5.4.F F N.= * p.% R.p.N.N.= * N.* N.% * % * % p.% p.[.p.p.p.% % & % # & X X # X X X X X X X # X X X + X X X X X X & X X X % # @.X % # p.X % nX6X4X9X9X2X;X5X5X5X5X5X5X5X5X5X5X5X5X5X5X5X5X5X5X5X5X5X5X2X9X9X9X9X9X9X9X9X9X9X9X9X9X9X9X9X9X9X9X9X4X2X;X2X4X2X;X2X;X2X;X2X8.lX;X5X5X5X5X5X5X5X5X5X5X5X5X5X5X5X5X5X5X5X5X5X5X;X5X5X5X5X5X5X5X5X5X5X5X5X5X5X5X5X5X5X5X5X5X5X5X5X5X5X5X5X5X5X5X5X5X5X5X5X5X5X5X5X5X5X5X5X5X5X5X5X5X5X5X5X5X5X5X5X5X5X5X5X5X5X5X5X5X5X5X5X5X5X5X5X5X5X5X5X5X5X5X5X5X5X5X5X5X5X5X5X5X5X5X5X5X5X5X5X5X5X5X5X5X5X5X6XM.X X X X X X X X X X X X X X X X X X X X X X X X X X X X X X X X X X X X X X X X X X X X X X X X X X X X X X X X X X X X X X X X X X X X X X X X X X X X X X X X X X X X X X X X X X X o X + & # X OXt.W N Q ! zX$ + X @ X X X X X X X X X X X M.",
"U.% p.p.p.p.% p.& % @.% X & X $ + @.% p.qXK.a.a.= = p.% X % X X X X X X X @.X & X X X X X X X X X X X & X @.X X X @.X X X $ X % $ % p.= = #.D 5.5.j.j.6.6.J 3.J 3.Q.J Q.J Q.^.J 6.> j.j.C.: H j.C.j.A 6.6.J 3.J u.Q.J Q.J Q.Q.Q.3.J 6.j.H ; D G = = N.N.* N.R.N.R.= N.N.R.N.R.N.p.N.p.* p.p.% p.% * p.p.@.% & % X % X X X & X $ X & X & X @.X X X $ X X X % X % & p.@.% & p.& p.X % OX6X4Xc.9X2X;X5X5X5X5X5X5X5X5X5X5X5X5X5X5X5X5X5X5X5X5X5X5X5X2Xc.9X9X9Xc.9X9X9Xc.9X9X9Xc.9X9X9Xc.9X9X2X2X4X2X4X2X4X2X4X2X4X;X} 1XpX_.5X5X5X5X5X5X5X5X5X5X5X5X5X5X5X5X5X5X5X;X5X;X5X5X5X5X5X5X5X5X5X5X5X5X5X5X5X5X5X5X5X5X5X5X5X5X5X5X5X5X5X5X5X5X5X5X5X5X5X5X5X5X5X5X5X5X5X5X5X5X5X5X5X5X5X5X5X5X5X5X5X5X5X5X5X5X5X5X5X5X5X5X5X5X5X5X5X5X5X5X5X5X5X5X5X5X5X5X5X5X5X5X5X5X5X5X5X5X5X5X5X5X5X5X5X5X4XM.X X X X X X X X X X X X X X X X X X X X X X X X X X X X X X X X X X X X X X X X X X X X X X X X X X X X X X X X X X X X X X X X X X X X X X X X X X X X X X X X X X X X X X X X X X X X X X X X + o mXl.M M Q I.OX$ X $ X X X X X X X X X $ X $ ",
"  $ & X $ o X X X @ X + X @ X X p.% = = F = N.% % X X @ X o X X X X X @ X # X # X X X X X # X X X X X X X X X X X O X X & % N.N.= = h.G 5.5.: j.6.g.6.6.^.3.^.3.J 3.J 3.J 3.^.g.6.j.g.: j.: j.j.6.g.6.g.J u.Q.J 2.u.Q.J Q.u.Q.3.3.6.j.H 5.F F = = * N.% N.* N.R.{.* N.R.N.% * p.R.% p.% p.% p.% p.% p.& [.# X X $ X X X X o X X X @ X X X # X X X X X X & # & X % # % X % # & # & OX6X4X9X9X2X;X5X5X5X5X5X5X5X5X5X5X5X5X5X5X5X5X5X5X5X5X5X5X5X5X4X=X9X9X9X9X9X9X9X9X9X9X9X9X9X9X9X=X9X9X2X;X4X;X4X;X4X;X2X;X4X2XlXaXiXw.5X5X5X5X5X5X5X5X5X5X5X5X5X5X5X5X5X5X5X5X5X5X5X5X5X5X5X5X5X5X5X5X5X5X5X5X5X5X5X5X5X5X5X5X5X5X5X5X5X5X5X5X5X5X5X5X5X5X5X5X5X5X5X5X5X5X5X5X5X5X5X5X5X5X5X5X5X5X5X5X5X5X5X5X5X5X5X5X5X5X5X5X5X5X5X5X5X5X5X5X5X5X5X5X5X5X5X5X5X5X5X5X5X5X5X5X5X5X5X5X5X5X5X5X5X5X4XzXX # X X X X X X X X X X X X X X X X X X X X X X X X X @ X X X X X X X X X X X X X X X X X X X X X X X X X X X X X X X X X X X X X X X X X X X X X X X X X X X X X X X X X X X X X X X X X X X + X O M.'.r.M W B zXM.+ + X X X X X X X X X + X . ",
"M.$ X $ + $ + X X X X X + $ & N.= a.= = p.% X $ X X X X . X + & X X X X X X X @.X X X X X X X X X X X X + X X $ X $ % N.= K.F - - 5.5.: : g.6.J 3.J 6.^.3.J u.J ^.J 3.J 3.^.6.^.6.6.6.3.6.6.6.J ^.J J Q.Q.(.K  X2.Z.Q.2.Q.Q.J ^.6.j.C.5.#.F = |.= = N.N.N.N.R.= R.N.* N.* * p.R.p.p.p.HXp.p.& p.% p.& % X X X $ X X X & X X X X X X X X X & X X X X X & X % X p.& % & % & p.X % M.6X4Xc.9X9X;X5X5X5X5X5X5X5X5X5X5X5X5X5X5X5X5X5X5X5X5X5X5X5X5X5X;X9X9Xc.9X9X9Xc.9X9X9Xc.9X9X9Xc.9X9X9Xc.2X2X4X2X4X2X4X2X4X2X;X<.cXaXaX} 5X5X5X5X5X5X5X5X5X5X5X5X5X5X5X5X5X5X5X5X5X;X5X5X5X5X5X5X5X5X5X5X5X5X5X5X5X5X5X5X5X5X5X5X5X5X5X5X5X5X5X5X5X5X5X5X5X5X5X5X5X5X5X5X5X5X5X5X5X5X5X5X5X5X5X5X5X5X5X5X5X5X5X5X5X5X5X5X5X5X5X5X5X5X5X5X5X5X5X5X5X5X5X5X5X5X5X5X5X5X5X5X5X5X5X5X5X5X5X5X5X5X5X5X5X5X;XzX. X X X X X X X X X X X X X X X X X X X X X X X X X X X X X X X X X X X X X X X X X X X X X X X X X X X X X X X X X X X X X X X X X X X X X X X X X X X X X X X X X X X X X X X X X X X X X X X X X @ OXW.U B [ './.. X X X X X X X X X X X + $ ",
". O X + X o X @ X X X X % p.N.R.N.% % X X o X o X X X X X X X # X X X X X X X # X X X X X X X X X X X @ X o $ X p.N.F F 4.5.C.H j.j.6.j.6.6.J 3.J 3.J u.J ^.J 3.J 3.J 3.3.6.^.6.6.6.3.g.3.6.J ^.Q.Q.Z.2. X%Xk.c  X2.2.Q.Q.u.^.j.: S 4.F F = = N.= N.N.* N.R.= R.N.p.N.% * % * % p.@.% # % & % # % X @.X X X X # X X X o X @ X o X X X + X X X # & X X # @.X & # % X % # % & % OX6X4X9X9X2X;X5X5X5X5X5X5X5X5X5X5X5X5X5X5X5X5X5X5X5X5X5X5X5X5X5X5X;X2X9X9X9X9X9X9X9X9X9X9X9X9X9X9X9X9X9X9X2X4X2X;X2X4X2X;X2X;X[ D.iXiXjX} 5X5X5X5X5X5X5X5X5X5X5X5X5X5X5X5X5X5X;X5X;X5X5X5X5X5X5X5X5X5X5X5X5X5X5X5X5X5X5X5X5X5X5X5X5X5X5X5X5X5X5X5X5X5X5X5X5X5X5X5X5X5X5X5X5X5X5X5X5X5X5X5X5X5X5X5X5X5X5X5X5X5X5X5X5X5X5X5X5X5X5X5X5X5X5X5X5X5X5X5X5X5X5X5X5X5X5X5X5X5X5X5X5X5X5X5X5X5X5X5X5X5X5X5X5X5X;X6X. X X X X X X X X X X X X X X X X X X X X X X X X X X X X X X X X X X X X X X X X X X X X X X X X X X X X X X X X X X X X X X X X X X X X X X X X X X X X X X X X X X X X X X X X X X X X X X X X X X . OX'.B W } '.M.+ X X X + X X X + X X X . ",
"M.+ X X X $ X $ X X X % % p.% % X % X X X $ X X X X X X X X X X X X X @.X % X @.X % X X X @.X X X @.X X X % N.F F ; E.C.j.g.j.6.6.J 3.J Z Q.Q.Q.Q.Z.Q.Z.Q.Z.Q.Q.J Q.^.J 3.J 3.J 3.J 3.^.u.Q.J 2.Q. X XA. XA. Xk. X X2.2.Z J g.j.S 4.#.#.= F = = N.= N.N.* N.N.= R.N.* R.% * p.p.% p.@.% X % X % X % X X X @.X X X X X & X $ X X X & X X X @.X % X % X X X % X % & p.[.p.X p.OX6X4Xc.9X9X;X5X5X5X5X5X5X5X5X5X5X5X5X5X5X5X5X5X5X5X5X5X5X5X5X5X5X5X5X9X9Xc.9Xc.9X9X9Xc.9Xc.9Xc.9X9X9Xc.9X9X4X2X4X2X4X2X4X2X;X2XlXjXiXiXjX<.5X5X5X5X5X5X5X5X5X5X5X5X5X5X5X5X5X;X5X;X5X5X5X5X5X5X5X5X5X5X5X5X5X5X5X5X5X5X5X5X5X5X5X5X5X5X5X5X5X5X5X5X5X5X5X5X5X5X5X5X5X5X5X5X5X5X5X5X5X5X5X5X5X5X5X5X5X5X5X5X5X5X5X5X5X5X5X5X5X5X5X5X5X5X5X5X5X5X5X5X5X5X5X5X5X5X5X5X5X5X5X5X5X5X5X5X5X5X5X5X5X5X5X5X5X5X5X6XM.$ X X X X X X X X X X X X X X X X X X X X X X X X X X X X X X X X X X X X X X X X X X X X X X X X X X X X X X X X X X X X X X X X X X X X X X X X X X X X X X X X X X X X X X X X X X X X X X X X X X . zXl.( N ! zX$ X $ X X X $ X X X $ X $ ",
"  O X + X @ X @ X # X X & X X + X O X + X + X + X X X X X X X X X X X X X # X # X # X X X + X @ X X & % = = G 4.C.$.j.j.6.g.3.6.Z 3.Q.u.2.Q.2.2.%XK  X2.Z.Q.2.Q.Q.u.J u.J 3.J 3.J 3.J u.J u.Q.Q.Z.2. X%X X%X X%X X2.2.u.^.g.j.S 4.F F a.a.N.= R.N.* N.% R.% R.* N.% p.p.p.& % & % X % X @.X X X X # X X X # X X X X X X X # X X X o X X X X X X X X X X & # & X % # % & & mX6X4X9X9X9X;X5X5X5X5X5X5X5X5X5X5X5X5X5X5X5X5X5X5X5X5X5X5X5X5X5X5X4X6X'.4X9X9X9X9X9X9X9X9X9X9X9X9X9X9X9X9X9X2X2X;X4X4X2X;X4X;X;XE cXiXiXiXjXU ;X5X5X5X5X5X5X5X5X5X5X5X5X5X5X5X5X5X5X5X5X5X5X5X5X5X5X5X5X5X5X5X5X5X5X5X5X5X5X5X5X5X5X5X5X5X5X5X5X5X5X5X5X5X5X5X5X5X5X5X5X5X5X5X5X5X5X5X5X5X5X5X5X5X5X5X5X5X5X5X5X5X5X5X5X5X5X5X5X5X5X5X5X5X5X5X5X5X5X5X5X5X5X5X5X5X5X5X5X5X5X5X5X5X5X5X5X5X5X5X5X5X5X5X5X5X5X4XOX+ X X X X X X X X X X X X X X X X X X X X X X X X X X X X X X X X X X & X X X X X X X X X X X X X X X X X X X X X X X X X X X X X X X X X X X X X X X X X X X X X X # X # X X X X X X X X X X X X X X X zXl.) N c.'.vXX + X + X + X + X + X . ",
"M.$ X X X X X X X & X @.X @.X @.X X X X X X X X X X X X X X X @.X X X X X % X $ X X X X X X X % & N.N.#.- C.C.6.6.^.g.^.^.Q.J Z.Q.Z.2. X(.k.%XA.k.A. Xk. X X(. X2.2.Q.2.Q.Q.J Q.Z J u.Q.J Q.Q.Z.2.Z.2. X X X%X X(.Z.J J 6.j.5.; G #.a.F = = N.= R.N.p.N.p.N.p.N.* * p.p.% p.& % X @.X & X @.X X X X X X X & X X X X X $ X & X X X & X @.X X X X X & X % & % X % X @.& % OX6X4X9X9X9X;X;X5X5X5X5X5X5X5X5X5X5X5X5X5X5X5X5X5X5X5X5X5X5X5X;X9Xm.b.X.o.6X9X9X9X9X9Xc.9X9X9Xc.9X9X9Xc.9X9X9X9X4X2X4X2X4X2X4X;X[ jXaXaXiXiXiX<.5X5X5X5X5X5X5X5X5X5X5X5X5X5X5X5X5X5X5X;X5X5X5X5X5X5X5X5X5X5X5X5X5X5X5X5X5X5X5X5X5X5X5X5X5X5X5X5X5X5X5X5X5X5X5X5X5X5X5X5X5X5X5X5X5X5X5X5X5X5X5X5X5X5X5X5X5X5X5X5X5X5X5X5X5X5X5X5X5X5X5X5X5X5X5X5X5X5X5X5X5X5X5X5X5X5X5X5X5X5X5X5X5X5X5X5X5X5X5X5X5X5X5X5X5X5X5X;XbX$ X X + X X @.X X X X X X X X X X X X X X X X X X X X X X X X X X X @.& X X X X X X X X X X X X X X X X X X X X X X X X X X X X X X X X X X X X X X X X X X X X X X [.X X X X X X X X X X X X X X X X X $ zXU N B [ m.M.X X @.X X X X X X + $ ",
"  + X o X + X X X X X + X X X X X X X # X X X X X X X X X X X # X X X o X X X X X X X X X X p.* a.F 4.S j.6.J 3.J J Q.Q.Z.2.(.2.%X%Xk. Xk.k.L >.L k.L k.L k.A.%X XK Z.2.2.Q.Q.u.J u.J 3.J 3.J u.Q.Q.Z.2.(.K  X2.Z.Q.J 6.j.S S G h.a.= N.N.* N.p.R.% * p.p.p.R.p.p.% % X @.X @.X @.X X X X X X X X X X X X X X + X X X X X o X # X X & # X X X X & X @.X @.X % $ @.[.% mX6X4X9X9X9X;X5X5X5X5X5X5X5X5X5X5X5X5X5X5X5X5X5X5X5X5X5X5X;X4X'.W.XXH H H G.6X9X9X9X9X9X9X9X9X9X9X9X9X9X9X9X9X9X4X4X4X2X;X2X4X;X_.pXaXaXiXuXaXaX[ 5X5X5X5X5X5X5X5X5X5X5X5X5X5X5X5X;X5X;X5X5X5X5X5X5X5X5X5X5X5X5X5X5X5X5X5X5X5X5X5X5X5X5X5X5X5X5X5X5X5X5X5X5X5X5X5X5X5X5X5X5X5X5X5X5X5X5X5X5X5X5X5X5X5X5X5X5X5X5X5X5X5X5X5X5X5X5X5X5X5X5X5X5X5X5X5X5X5X5X5X5X5X5X5X5X5X5X5X5X5X5X5X5X5X5X5X5X5X5X5X5X5X5X5X5X5X5X5X6XM.@.# X X X X X X X X X X X X X X X X X X X X X X X X X X X X X X X # X X X X X X X X X X X X X X X X X X X X X X X X X X X X X X X X X X X X X X X X X X X X X X X X X X X X X X X X X X X o X X X + X X M.'.Q w.Q l.vX. X # X X X + X X X . ",
"M.$ X X X $ X X X % X X X X X X X % X @.X @.X X X X X X X X X & X @.X X X $ X @.X % X % % = K.4.; j.j.%.3.Q.Q.Z.(. Xk.k.%XA. XA.k.7.A.7.L S.:.S.h S.7.S.h 7.L 7.k.A.%X(.2.Z.Q.Q.^.J ^.J 6.J 3.J J Z.Q.Z.2.Z.Z.Z.Q.J 6.g.C.; G h.a.#.= = * N.R.R.p.N.p.* p.* p.p.% p.[.% X % X @.X % X @.X @.X & X % X X X p.X X X @.X X X & X & X % X % X % X % X % @.% & p.[.p.% p.zX4X4X9X9X9X;X5X5X5X5X5X5X5X5X5X5X5X5X5X5X5X5X;X5X5X5X5X4X6X/.H.D G.5.H H : : '.2X9X9Xc.9Xc.9Xc.9X9X9Xc.9X9X9Xc.9X2X4X2X4X2X4X2X2XlXaXjXcXaX8.v.{ 2X5X5X5X5X5X5X5X5X5X5X5X5X5X5X5X;X5X;X;X5X5X5X5X5X5X5X5X5X5X5X5X5X5X5X5X5X5X5X5X5X5X5X5X5X5X5X5X5X5X5X5X5X5X5X5X5X5X5X5X5X5X5X5X5X5X5X5X5X5X5X5X5X5X5X5X5X5X5X5X5X5X5X5X5X5X5X5X5X5X5X5X5X5X5X5X5X5X5X5X5X5X5X5X5X5X5X5X5X5X5X5X5X5X5X5X5X5X5X5X5X5X5X5X5X5X5X5X5X4X].@.@.X $ X @.X X X X X X X X X X X X X X X X X X X X X X X X X X X X X X X X X X X X X X X X X X X X X X X X X X X X X X X X X X X X X X X X X X X X X X X X X X X X X X X X X X X & X @.X X X @.X X X X + vXl.N N } '.MXX @.X $ X X X $ X $ ",
"  O X + X @ X X X # X X X X X X X # X # X X X X X # X X X X X X X X X + X X X + X X % = h.4.$.j.> 6.J ^.Z.2. Xk.7.k.A.k.A.K k.k.L >.L >.7.h S.h S.h S.g S.L :.L L %X X(.Z.u.J 3.J 6.6.g.6.j.6.g.%.6.J ^.Q.^.J ^.%.j.j.S 4.F #.= = * N.* R.% * p.* % % % p.& % @.% X X X X @ X X X X X X X # X X X # X X X X X + X + X X X o X X X X X X & # X X @.# X X % X [.&   6X4X4X9X9X9X;X5X5X5X5X5X5X5X5X5X5X5X5X5X5X5X5X5X5X5X;X6XbX].|.4.D 5.5.H 5.H 5.G.bX2X9X9X9X9X9X9X9X9X9X9X9X9X9X9X9X9X4X2X;X4X4X2X;Xv.jXpX8.O.{ Q v.lXc.5X5X5X5X5X5X5X5X5X5X5X5X5X5X5X5X5X5X5X5X5X5X5X5X5X5X5X5X5X5X5X5X5X5X5X5X5X5X5X5X5X5X5X5X5X5X5X5X5X5X5X5X5X5X5X5X5X5X5X5X5X5X5X5X5X5X5X5X5X5X5X5X5X5X5X5X5X5X5X5X5X5X5X5X5X5X5X5X5X5X5X5X5X5X5X5X5X5X5X5X5X5X5X5X5X5X5X5X5X5X5X5X5X5X5X5X5X5X5X5X5X5X5X5X5X5X5X5X4XvXX @ X + X + X + X + X + X X X X X X X X X X X X X X X X X X X X X X X X X X X X X X X X X X X X X X X X X X X X X X X X X X X X X X X X X X X X X X X X X X X X X + X + X X X X X X X X X + X X X X X @ X M.'.} M N l.zX. + @.+ X + X + X . ",
"M.+ X X X X X X X X X X X X X X X X X @.X X X X X X X @.X X X X X X X X X X X % % F h.C.j.%.%.Q.Q.Z.(.*.k.7.L 7.L :.L 7.L :.>.7.L S.h S.Y.d S.P d P d P d d Y.S.L L  X XQ.Q.3.%.6.g.: j.C.j.: j.j.> 6.J J J 6.%.j.: 5.S G h.= = = = * N.p.p.% * % p.& p.% % & % X X X $ X X X @.X & X & X X X @.X & X X X X X X X X X % X X X p.& X X % @.@.X % X % X % $ & & MX6X4X2X9X9X9X;X5X5X5X5X5X5X5X5X5X5X5X5X5X5X5X5X5X5X4X6X&X|.D F - - 5.5.C.5.5.5.4.F m.4Xc.9X9X9Xc.9X9X9Xc.9X9X9Xc.9X9X=X2X4X2X4X2X;Xn 8.v.{ Q v.lXaXjXlX=X5X5X5X5X5X5X5X5X5X5X5X5X5X5X5X;X5X;X5X5X5X5X5X5X5X5X5X5X5X5X5X5X5X5X5X5X5X5X5X5X5X5X5X5X5X5X5X5X5X5X5X5X5X5X5X5X5X5X5X5X5X5X5X5X5X5X5X5X5X5X5X5X5X5X5X5X5X5X5X5X5X5X5X5X5X5X5X5X5X5X5X5X5X5X5X5X5X5X5X5X5X5X5X5X5X5X5X5X5X5X5X5X5X5X5X5X5X5X5X5X5X5X5X5X5X5X5X5X;XzXX X + X X X X X X X X X X X X X X X X X X X X X X X X X X X X X X X X X X X X X X X X X X X X X X X X X X X X X X X X X X X X X X X X X X X X X X X X X X X X X X X X X X X X X X X X X X X X X X X X X X & mXd.r.M B './.$ X X X X X X X $ ",
"  . X o X o X X X X X X X X X X X X X X X X X X X X X X X + X X X X X O X % N.a.4.$.%.%.Z.Z. X%XA.k.7.k.h h S.h S.h S.h 7.h S.h S.:.d :.d d P d a d a d p d P h 7.k. XQ.Q.g.6.: : S ; 5.5.5.C.S C.: j.j.6.j.j.$.C.5.; #.F = = N.N.* R.% p.% p.# @.X & X X X @.X & X X + X X X # X X & # X X X # X X X @ X + X X X X % X % X % X @.X % X @.& % # X X % X @.X nX4X4X2X9X9X9X;X5X5X5X5X5X5X5X5X5X5X5X5X5X5X5X5X4X6XvX].F F F F - G 4.- 5.D 4.G F N.|.zX4X9X9X9X9X9X9X9X9X9X9X9X9X9X9X9X2X;X2X4X2X;X;Xc.} v.lXaXjXaXaXiX8.5X5X5X5X5X5X5X5X5X5X5X5X5X5X5X;X5X5X5X5X5X5X5X5X5X5X5X5X5X5X5X5X5X5X5X5X5X5X5X5X5X5X5X5X5X5X5X5X5X5X5X5X5X5X5X5X5X5X5X5X5X5X5X5X5X5X5X5X5X5X5X5X5X5X5X5X5X5X5X5X5X5X5X5X5X5X5X5X5X5X5X5X5X5X5X5X5X5X5X5X5X5X5X5X5X5X5X5X5X5X5X5X5X5X5X5X5X5X5X5X5X5X5X5X5X5X5X5X5X5X6X  @ + + X X X X X + X X X X X X X X X X X X X X X X X X X X X X X X X X X X X X X X X X X X X X X X X X X X X X X X X X X X X X X X X X X X X X X X X X X X X X X + X X X X X X X X X X X + X X X X X + X # . m.U N B [ m.M.X X X + X X X M.",
"M.$ X X X $ X X X X X X X X X & X $ X X X X X X X X X X X $ X X X % X p.N.h.4.j.6.J J < *.Y.7.Y.L 7.L 7.h S.S.S.S.P S.S.h P :.d d P d P d a a T a T 0.0.P !.S.S.L A.2.J 6.g.C.C.4.4.- 4.- ; 4.; ; : C.j.C.: C.C.5.+Xh.h.= |.N.N.* N.p.p.p.p.X % X % X X + $ X @.X % X X X $ X @.X @.X @.X X + X X $ + X + % @.p.% p.% % & % @.% X p.& % @.% X % X % & p.$ mX4X=X9Xc.9X2X;X;X5X5X5X5X5X5X5X;X5X5X5X5X5X4X6XzXMX|.a.F = F F - F - G - F F = F N.F F &X4X9X9Xc.9X9X9Xc.9X9X9Xc.9Xc.9Xc.2X2X4X2X;XB <.pXaXjXaXaXiXaXiXjXO.5X5X5X5X5X5X5X5X5X5X5X5X5X5X;X5X5X5X;X5X5X5X5X5X5X5X5X5X5X5X5X5X5X5X5X5X5X5X5X5X5X5X5X5X5X5X5X5X5X5X5X5X5X5X5X5X5X5X5X5X5X5X5X5X5X5X5X5X5X5X5X5X5X5X5X5X5X5X5X5X5X5X5X5X5X5X5X5X5X5X5X5X5X5X5X5X5X5X5X5X5X5X5X5X5X5X5X5X5X5X5X5X5X5X5X5X5X5X5X5X5X5X5X5X5X5X5X5X5X5X6XM.X X X X X X X X X X X X X X X X X X % X X X X X X X X X X X X X X X X X X X X X X X X X X X X X X X X X X X X X X X X X X X X X X X X X X X X X X X X X X X X X X X X X X X X X X X X X X X $ X X + $ X X X M.W.( B } l.vX. $ X X X @.X $ ",
"  O X X X @ X X X X X X X X X X X + X + X X X X X @ X # X + X + X X N.= - 5.j.6.J J Z. X7.7.7.k.7.k.7.:.S.:.P d P S.S.h d h d :.P s P d a p T a T p 0.p a S.S.k. X^.^.g.j.S S - - F #.F G F - - ; S C.; C.S ; - - F F = = * N.% p.# & X % # X X X X X + X @ X X X + X X X X X # X @ X X X # X + X X X X % [.p.% p.% p.X [.X & X X X X X @.# X X & # & nX6X;X=X=X9X2X2X5X5X5X5X5X5X5X5X5X5X5X5X5X4X9XzXOXU.U.qXqX= qXa.= F F F F |.N.N.U.= |.5.A J H.4X9X9X9X9X9X9X9X9X9X9X9X9X9X9X2X2X4X2X5X! J.jXaXaXiXiXpXaXiXaXpXB 5X5X5X5X5X5X5X5X5X5X5X5X5X5X5X5X5X;X5X5X5X5X5X5X5X5X5X5X5X5X5X5X5X5X5X5X5X5X5X5X5X5X5X5X5X5X5X5X5X5X5X5X5X5X5X5X5X5X5X5X5X5X5X5X5X5X5X5X5X5X5X5X5X5X5X5X5X5X5X5X5X5X5X5X5X5X5X5X5X5X5X5X5X5X5X5X5X5X5X5X5X5X5X5X5X5X5X5X5X5X5X5X5X5X5X5X5X5X5X5X5X5X5X5X5X5X5X5X5X5X4X/.. X X X X X X X X X X X X X X X X X # X X X X X X X X X X X X X X X X X X X @ X X X X X X X X X X X X X X X X X X X X X X X X X X X X X X X X X X X X X X X X X X X X X X X X X X X X X + X + X + X + X + X O vXl.N W B '.OXO X + X + X . ",
"M.$ X X X X X X X X X X X X X X X X X X X X X X X X + X X X + % % = F +X; j.> , Z.< (.< *.*. X*.7.Y.Y.P S.P d P d P S.P d P d P P a p T a u p y 0.y 0.T P S.L k.Z.Q.g.g.C.S D - F F a.#.F G h.+X4.; ; C.; E.G - F a.= = R.N.% p.& & X & X X X $ X X X & X X X X X X X X + X X X # X + X X & X $ X % [.p.p.R.p.R.p.p.% p.[.p.& % X $ X % @.% X % & . bX6X4X9X9X_.2X2X5X5X5X5X5X5X5X5X5X5X;X6X6XzXOXU.& N.R.N.N.|.qX= N.F = = = F qXF F - H 6.Z 2.K F.9X9X9X9X9Xc.9X9X9Xc.9X9X9Xc.9X2X4X2X;X} pXjXaXaXiXaXiXiXiXaXaXpX2X5X5X5X5X5X5X5X5X5X5X5X5X5X5X;X5X;X5X5X5X5X5X5X5X5X5X5X5X5X5X5X5X5X5X5X5X5X5X5X5X5X5X5X5X5X5X5X5X5X5X5X5X5X5X5X5X5X5X5X5X5X5X5X5X5X5X5X5X5X5X5X5X5X5X5X5X5X5X5X5X5X5X5X5X5X5X5X5X5X5X5X5X5X5X5X5X5X5X5X5X5X5X5X5X5X5X5X5X5X5X5X5X5X5X5X5X5X5X5X5X5X5X5X5X5X5X5X5X5X5X4XzX& X X X X X X X X X X X X X X X X X X X X X X X X X X X X X X X X X X X X X X X X X X X X X X X X X X X X X X X X X X X X X X X X X X X X X X X X X X X X X X X X X X X X X X X X X X X $ X X + X X X + X + + M.zXO.N w.! zX. + X X X X $ ",
"  . X X X @ X X X X X X X X X # X X X X X X X # X X X o & & p.* a.F 4.5.: j.%.^.J J Z.J Z. X7.7.S.S.d S.d d d g P d P d P d a d a a 0.p 0.a T p T 0.T P P Y.7. XZ.3.6.5.S h.G a.F a.F a.F F - G 4.4.; 5.+XG h.= = * = * R.p.p.# X X X o X X X X X X X X X X X o X X X X X X X X X X X + X X X # @.& p.% * % * % p.% % X % X % X X X % # @.& p.M.mX6X4X2X9X9X9X;X;X5X5X5X5X5X5X5X;X4X6XbXOXM.U.& GXp.p.p.N.p.N.p.N.p.N.% N.N.F F 4.H 6.g.Z Z 2.u.Z F.c.2X9X9X9X9X9X9X9X9X9X9X9X9X9X4X2X;X[ J.aXiXaXiXaXiXiXiXiXiXaX8.;X5X5X5X5X5X5X5X5X5X5X5X5X5X5X5X5X5X5X5X5X5X5X5X5X5X5X5X5X5X5X5X5X5X5X5X5X5X5X5X5X5X5X5X5X5X5X5X5X5X5X5X5X5X5X5X5X5X5X5X5X5X5X5X5X5X5X5X5X5X5X5X5X5X5X5X5X5X5X5X5X5X5X5X5X5X5X5X5X5X5X5X5X5X5X5X5X5X5X5X5X5X5X5X5X5X5X5X5X5X5X5X5X5X5X5X5X5X5X5X5X5X5X5X5X5X5X5X5X5X5X5XbX. X X X + X X X X X X X X X X X X X X X X X X X X X X X X X X X X X X X X X X X X X X X X X X X X X X X X X X X X X X X X X X X X X X X X X X X X X X X X X X X X X X X X X X X + X X X X X X X + X X X @ X X X mXd.( W [ ! /.$ @ X X X M.",
"M.$ X X X $ X X X X X X X X X & X X X X X % X X X $ X @.@.* N.= F +X; $.$.> j.> j.%.J *.*.#X#X!.p T P 3 d P d P d P d P P !.p !.p T p T a u T u T u T T d 3 7.*.Z.Q.g.: S +Xh.F = #.a.#.F h.h.+X4.; 4.+Xh.h.= = {.= R.* % p.X X X $ + X X % X X X @.X X X X X X X $ X X X X X X X $ X X X @.X p.@.* * * p.N.% * % * % p.@.p.X % X % X $ X   mX6X4X9X9X_.2X2X;X;X5X5X5X5X;X6X6X'.mX].  qXp.R.p.p.% p.p.R.p.qXp.p.% p.p.= F 5.H 6.6.Q.J Q.Z Q.u.3.6.3.n 9X9Xc.9X9X9Xc.9X9X9Xc.9Xc.2X2X;X_.lXjXiXaXiXaXiXaXiXaXiXaXjXv.5X5X5X5X5X5X5X5X5X5X5X5X5X5X5X;X5X5X5X5X5X5X5X5X5X5X5X5X5X5X5X5X5X5X5X5X5X5X5X5X5X5X5X5X5X5X5X5X5X5X5X5X5X5X5X5X5X5X5X5X5X5X5X5X5X5X5X5X5X5X5X5X5X5X5X5X5X5X5X5X5X5X5X5X5X5X5X5X5X5X5X5X5X5X5X5X5X5X5X5X5X5X5X5X5X5X5X5X5X5X5X5X5X5X5X5X5X5X5X5X5X5X5X5X5X5X5X5X5X5X5X5X6XMX+ $ X X X @.X X X X X X X X X X X X X X X X X X X X X X X X X X X X X X X X X X X X X X X X X X X X X X X X X X X X X X X X X X X X X X X X X X X X X X X X X X X X X X X X X X X X X X X $ X X X @.X X X @.X $ vXt.N M [ m.M.$ X % X $ ",
"  . X X X @ X X X X X X X # X # X X X + X @ X @ X + X X p.* = F - 4.5.5.; S C.: %.^.< #X0.3 0.3 !.d 3 d a d p d P d P d p d P h d S.P P T p T 0.u T u 0.!.Y.7. XZ.^.^.g.: S - a.F = F h.h.F h.h.4.G G a.a.= N.* R.& % X & + X + X @ X X X @ X X X X X + X X X + X O + @ X @ X @ X X X X X # % [.p.% p.% p.% % % p.X % [.% # X X & # % . mX6X4X4X9X=X2X;X;X5X5X5X4X4X6XbXvXOX  p.GX[.p.X [.# @.X & # % % p.X & & p.N.#.5.j.A 3.3.u.g.3.g.6.A A n.u.Z '.4X9X9X9X9X9X9X9X9X9X9X9X9X2X;X;XE jXpXaXiXaXpXiXiXaXpXiXiXaXB 5X5X5X5X5X5X5X5X5X5X5X5X5X5X;X5X5X5X5X5X5X5X5X5X5X5X5X5X5X5X5X5X5X5X5X5X5X5X5X5X5X5X5X5X5X5X5X5X5X5X5X5X5X5X5X5X5X5X5X5X5X5X5X5X5X5X5X5X5X5X5X5X5X5X5X5X5X5X5X5X5X5X5X5X5X5X5X5X5X5X5X5X5X5X5X5X5X5X5X5X5X5X5X5X5X5X5X5X5X5X5X5X5X5X5X5X5X5X5X5X5X5X5X5X5X5X5X5X5X5X5X5X4XnXX @ X + X X X X X X X X X X X X X X X X X X X X X X X X X X X X X X X X X X X X X X X X X X X X X X X X X X X X X X X X X X X X X X X X X X X X X X X X X @ X X X X X X X X X X X X X + X + X + X X X + X X X X M.'.r.M Q l.vX. # O X $ ",
"M.$ + $ X X X X X X X X X X X X X X X X X X + X + X % N.= K.F - - ; 4.C.: %.^.&.< !.0.9.0.9.0.y 0.T a T a T P P d P d P S.d h S.S.P P T 0.u y 9.y 9.y y !.3 7.*. XZ.J Z.6.j.5.- F G - +XG h.F h.h.h.= = N.N.% p.X $ X @.X X + X X X X X X X X X X X + $ X X + $ X $ X % X $ X & X & X % X % & p.% p.% * % p.% * p.% [.* [.% X % @.+ mX6X4X;X;X2X;X4X;X4X4X6X6XmXOXU.% N.p.p.p.p.% p.& & & @.X $ X $ X % X $ % F F C.j.6.j.g.j.6.: C.H A H A A Z ` C m.9X9X9X9Xc.9X9X9Xc.9X9X9X9X;X_.c.aXiXaXiXaXiXiXiXaXiXaXiXjXlX_.5X5X5X5X5X5X5X5X5X5X5X5X5X;X5X5X5X5X5X5X5X5X5X5X5X5X5X5X5X5X5X5X5X5X5X5X5X5X5X5X5X5X5X5X5X5X5X5X5X5X5X5X5X5X5X5X5X5X5X5X5X5X5X5X5X5X5X5X5X5X5X5X5X5X5X5X5X5X5X5X5X5X5X5X5X5X5X5X5X5X5X5X5X5X5X5X5X5X5X5X5X5X5X5X5X5X5X5X5X5X5X5X5X5X5X5X5X5X5X5X5X5X5X5X5X5X5X5X5X5X5X5X;X/.X X X X X X X X X X + X X X X X X X X X X X X X X X X X X X X X X X X X X X X X X X X X X X X X X X X X X X X X X X + X X X X X X X X X X X @ X X X X X X X X X X X X X X X X X X X + X X X X X X X X X X X X X + OXd.+.W [ '.].. X @ $ ",
"  O X o X @ X + X X X + X X X @ X X X + X + X X & % = = #.h.S S g.6.J Q.*.7.2 3 9.y 9.y 9.y 9.T y 0.T p a d P d S.S.S.h 7.h S.:.P d T 0.u y e y 9.y 9.0.T !.S.k.*.k.7. XZ.%.j.- S ; C.4.G F h.a.= * N.* N.% p.X $ + $ + X + X @ X X X # X @ X X X X X o X . $ @.% % * % * % % X % @.% [.% X p.% % % p.% p.% p.% p.[.% X % X % X p.mX6X4X4X4X6X4X6XbXmXmXM.M.% & p.[.% & % X & X & X $ o X @ X @ X X & X % N.- 5.j.j.j.H H S 5.D 5.S H H 6.3.2.0XC x b 4X9X9X9X9X9X9X9X9X9X9X9X;XO.Q <.aXiXiXiXiXiXiXiXiXiXiXaXiX8.;X5X5X5X5X5X5X5X5X5X5X5X5X5X5X5X5X5X5X5X5X5X5X5X5X5X5X5X5X5X5X5X5X5X5X5X5X5X5X5X5X5X5X5X5X5X5X5X5X5X5X5X5X5X5X5X5X5X5X5X5X5X5X5X5X5X5X5X5X5X5X5X5X5X5X5X5X5X5X5X5X5X5X5X5X5X5X5X5X5X5X5X5X5X5X5X5X5X5X5X5X5X5X5X5X5X5X5X5X5X5X5X5X5X5X5X5X5X5X5X5X5X5X5X5X5X5X5X5X5X5X5X5X;XbXX @ X + X X X X X X X o X X X + X X X X X X X X X X X X X X X X X X X X X X X X X + X X X X X + X X X X X X X X X X X X X X X + X X X X X X X X X X X X X X X X X X X + X X X X X X X X X X X X X X X X X X X o X M.W.O.W N ! '.. X X . ",
"M.$ X X X X X X X % X X X X X X + X X X X X . $ p.= K.; $.%.J < 7.2 0.9.9.4 e 4 9.4 e 4 e e t 9.T u 0.T p 0.a 3 S.P 7.S.S.3 d 3 p T T 9.u e e e e e 9.9.9.4 3 3 Y.3 #X#X*.&.6.> g.> : ; #.#.a.a.N.= = a.= = * p.% % X X X $ X X X X X X + X + X X $ X $ X % p.= = = = a.= = N.N.% N.* N.% N.p.* p.p.p.* p.* % p.% p.% p.% p.% % &   OX/.nX]..   $ p.% % & p.p.p.& % X & X & X X X & X $ o $ + X @ & U.F G C.j.6.: : 5.S D - D 4.5.j.6.Q.Q.0X$X%XK >.b.=X9Xc.9X9X9Xc.9X9X9X2X2X8.sX[ pXaXiXaXiXaXiXaXiXiXiXaXaXjXE 5X5X5X5X5X5X5X5X5X5X5X5X5X5X;X5X5X5X5X5X5X5X5X5X5X5X5X5X5X5X5X5X5X5X5X5X5X5X5X5X5X5X5X5X5X5X5X5X5X5X5X5X5X5X5X5X5X5X5X5X5X5X5X5X5X5X5X5X5X5X5X5X5X5X5X5X5X5X5X5X5X5X5X5X5X5X5X5X5X5X5X5X5X5X5X5X5X5X5X5X5X5X5X5X5X5X5X5X5X5X5X5X5X5X5X5X5X5X5X5X5X5X5X5X5X5X5X5X5X5X5X5X5X5X6XM.$ X X X X X X X X X X X $ X X X $ X X X X X X X $ X X X X X X X $ X X X X X X X X X X X X X X X X X X X X X X X X X X X X X X X $ X X X X X X X X X X X X X X X $ X X X X X X X $ X X X X X X X X X X X X X X + $ OXW.[ ( Q ! /.$ X $ ",
"  O X # X @ X X X X X + X X X + X @ X X X + % = - $.%.Z.1 1 2 9.e 9.4 e 5 e 5 e 5 e e e e y y y u 0.0.p T p 0.a p h S.S.P d 3 P T 0.9.y e y e e e y 9.y e 9.9.0.2 3 2 3 1 Z.J J , ^.> S - #.h.F h.h.- - h.= = = {.@.X X X + X + X + X + X O + X X + X X % U.a.h.h.h.h.F K.= = = = = = * N.% * % * % % % p.% p.% p.% p.% p.% % [.% % p.& p.JXp.& & # $ X X # X X X @ X X X # X X X O X X X @ X o % N.- 5.j.j.j.H 5.D D F - F - S 6.6.Q.Z 2.2.$XK $XK | 4X9X9X9X9X9X9X9X9X2X9XsXcXm gXaXiXaXiXiXiXiXiXiXiXiXpXiXiX[ 5X5X5X5X5X5X5X5X5X5X5X5X5X5X5X5X5X5X5X5X5X5X5X5X5X5X5X5X5X5X5X5X5X5X5X5X5X5X5X5X5X5X5X5X5X5X5X5X5X5X5X5X5X5X5X5X5X5X5X5X5X5X5X5X5X5X5X5X5X5X5X5X5X5X5X5X5X5X5X5X5X5X5X5X5X5X5X5X5X5X5X5X5X5X5X5X5X5X5X5X5X5X5X5X5X5X5X5X5X5X5X5X5X5X5X5X5X5X5X5X5X5X5X5X5X5X5X5X5X5X5X5X5X5X4XOX+ X + X X X X X X X X X X X X X X X X X X X X X @ X X X + X + X + X X X X X X X @ X X X X X X X X X X X X X X X X X X X # X X X O X X X @ X X X X X X X X X X X X X + X X X X X @ X X X X X X X X X X X O X X X @ X zX! ) M [ m.M.X . ",
"M.$ + X X X X X X X + X + X X X + X X p.p.K.; %.&.1 !.9.e 4 e V.5 V.5 V.5 V.5 9 V.V.q 5 e e y e y 9.y u y u T u a a P 0.p T !.T 0.9.T 9.9.e 9.4 9.4 9.4 e 5 e 4 9.4 9.9.3 < Z.< *.&.^.> C.$.$.: : > > > ; - h.h.= N.@.$ X X X X X X X X + X + $ X $ @.N.= h.4.$.$.$.; +Xh.#.a.#.a.a.= a.= = N.N.* N.% N.% p.% R.% * % R.p.* % * p.* p.p.% p.& p.& X X X + X X X X X X X X X X X X X + X X $ X N.F E.H : H 5.4.5.D - G 4.- 5.5.6.3.Q.Q.K v $XK %X0X$Xo.9X9X9X9Xc.9X9X9X2X_.lXcXaXsXaXiXaXiXiXiXaXiXiXiXaXiXiXiXpX_.5X5X5X5X5X5X5X5X5X5X5X5X5X5X;X5X5X5X5X5X5X5X5X5X5X5X5X5X5X5X5X5X5X5X5X5X5X5X5X5X5X5X5X5X5X5X5X5X5X5X5X5X5X5X5X5X5X5X5X5X5X5X5X5X5X5X5X5X5X5X5X5X5X5X5X5X5X5X5X5X5X5X5X5X5X5X5X5X5X5X5X5X5X5X5X5X5X5X5X5X5X5X5X5X5X5X5X5X5X5X5X5X5X5X5X5X5X5X5X5X5X5X5X5X5X5X5X5X5X5X5X5X5X5X4XmX$ X X X X X X X X X X X X X X X X X X X X X X X X X X X X X X X X X X X X X X X X X X X X X X X X X X X X X X X X X X X X X X + X X X X X X X + X X X X X X X X X X X X X X X X X X X X X X X X X X X X X + X X X # M.m.+.N [ l.vX. $ ",
". . X @ X + X + X X X . + X X @ + @.= #.j.J < 1 9.9.5 e 5 e 5 e 5 5 V.q V.5 9 q 5 q 5 e 4 e e y e y 9.y u y u y u 0.T d 0.0.0.S.3 3 0.3 9.0.e y 9.9.4 e 5 5 V.e 4 e 4 y 2 1 1 < 1 &.Z.^.%.> %.^., , Z.^.> $.$.5.h.= N.X $ + X O X X X X X o X @ X @.N.= - ; > > ^.> : - - a.F = a.a.K.= a.a.= N.N.* N.% N.p.N.* N.* N.* N.p.N.p.R.% p.X % X % # & X X O X + X @ X X X # X X X X X X X + X X N.F 4.4.5.D 4.G - F D G 4.4.5.H 6.g.Z Z K K C $XC K 2.0Xo.4X9X9X9X9X9X9X2X9XlXaXiXiXjXiXiXiXiXiXiXiXiXiXiXiXiXiXjX8.;X5X5X5X5X5X5X5X5X5X5X5X5X5X;X5X5X5X5X5X5X5X5X5X5X5X5X5X5X5X5X5X5X5X5X5X5X5X5X5X5X5X5X5X5X5X5X5X5X5X5X5X5X5X5X5X5X5X5X5X5X5X5X5X5X5X5X5X5X5X5X5X5X5X5X5X5X5X5X5X5X5X5X5X5X5X5X5X5X5X5X5X5X5X5X5X5X5X5X5X5X5X5X5X5X5X5X5X5X5X5X5X5X5X5X5X5X5X5X5X5X5X5X5X5X5X5X5X5X5X5X5X5X5X5X;XbX. X @ X X X X X X X X X X X X X X X X X X X @ X X X X X X X + X X X X X X X X X X X X X X X X X X X X X X X X X X X X X X X X X X X X X X X @ X X X X X X X X X X X + X X X X X X X X X X X @ X X X X X X X X X X X . OXd.( W t.'.OXM.",
"M.$ X X X $ + X X $ X X X % % N.F : %.< 1 9.9.4 e V.V.V.5 9 5 9 5 =.V.9 5 9 5 V.5 9 5 V.q V.e q e e t 9.u 9.u 9.u 9.T 0.P !.d 1 S.3 #X3 3 9.9.4 2 4 9.5 5 =.V.V.5 5 e 4 0.9.2 2 1 s.*.&.^.&.Z.*.*.s.*.&.^., > j.- h.= N.$ % + $ X @.X X X % X @.% N.= +XE.> %.%.%.%.: ; h.h.= F a.h.K.h.F h.F F = F = = = = = = = a.= = N.= N.N.p.* & % X % & % X $ . X + X X X X X X & X X X & X % X $ & N.K.4.D 4.D D F F F - G 5.5.C.: 3.X.Z Z 2.K  Xc  XK 2.Z 0X| 2X9Xc.9X9X9X9X_.lXaXiXiXiXiXjXiXaXiXaXiXiXiXaXiXaXiXaXjX<.5X5X5X5X5X5X5X5X5X5X5X5X5X;X5X5X5X5X5X5X5X5X5X5X5X5X5X5X5X5X5X5X5X5X5X5X5X5X5X5X5X5X5X5X5X5X5X5X5X5X5X5X5X5X5X5X5X5X5X5X5X5X5X5X5X5X5X5X5X5X5X5X5X5X5X5X5X5X5X5X5X5X5X5X5X5X5X5X5X5X5X5X5X5X5X5X5X5X5X5X5X5X5X5X5X5X5X5X5X5X5X5X5X5X5X5X5X5X5X5X5X5X5X5X5X5X5X5X5X5X5X5X5X5X5X5X6X  + X X X X X X X X X X X X X X X X X X X X X X X X X X X X X X X X X X X X X X X X @.X @.X X X X X X X X X X X X X X X % X X X X X X X X X X X X X X X X X X X X X X X @.X X X X X X X X X X X X X X X @.X X X $ + @.. W.! M Q t.zX].",
"  O X X X @ X X X @ X [.= F C.%.< 1 9.9.4 y 4 e 5 e 5 5 V.5 V.5 V.5 V.5 V.q 5 5 V.5 V.5 V.q 5 e e r e y 9.y 9.y u 0.!.Y.S.Y.3 Y.1 7.1 1 1 1 2 2 9.y 4 5 9 5 9 5 V.4 4 y 9.0.9.2 2 1 1 &.&.Z.*.< 1 1 1 *.*.&., > $.h.K.* * X $ X $ + $ X % + $ @.* {.h.4.: g.%.^.%.g.: - h.a.a.a.h.F h.G 4.G h.F h.a.a.a.a.= a.= a.= = = = * * % p.# X X X O X # X + X + X @ X X X X X + X X X X X @ X X R.= K.F F |.F F F |.D D 5.S H A 6.X.Z Z 2.` $XK K ` ` Z Z 3.W.4X9X9X9X9X9X;X8.iXiXiXiXiXiXiXiXkXaXpXiXiXiXpXaXiXaXpXaX[ 5X5X5X5X5X5X5X5X5X5X5X5X5X5X5X5X5X5X5X5X5X5X5X5X5X5X5X5X5X5X5X5X5X5X5X5X5X5X5X5X5X5X5X5X5X5X5X5X5X5X5X5X5X5X5X5X5X5X5X5X5X5X5X5X5X5X5X5X5X5X5X5X5X5X5X5X5X5X5X5X5X5X5X5X5X5X5X5X5X5X5X5X5X5X5X5X5X5X5X5X5X5X5X5X5X5X5X5X5X5X5X5X5X5X5X5X5X5X5X5X5X5X5X5X5X5X5X5X5X5X5X5X5X5X5X5X9XOXX @ X + X + X + X X X X X X X X X X X X X X X @ X X X X X X X X X X X X X X X X X X X X X X X X X X X X X X X X X X X X X X X X X X X X X X X X X X X X X + X + X + X X X X X X X X X X X X X X X X X X X X X + X X X OX'.( M [ l.m.",
". $ X X + X X & % = F C.> &.7.9.9.e e 5 4 5 4 V.5 V.5 V.5 V.5 V.V.V.5 9 5 V.5 9 V.9 5 9 9 9 q 5 e e e e e e y e y u !.#XS.3 3 2 Y.1 < 1 *.*.7.2 2 9.e =.9 =.5 6 9 =.5 V.4 4 9.4 2 2 1 1 1 1 1 2 2 9.0.2 1 s.*.&.> $.h.#.* * % % % R.* N.% % % N.= K.h.E.$.> > %.> > C.; h.h.F h.G 4.5.C.C.C.5.; - - h.- h.- #.- F #.a.|.N.N.% % & % X & X X X [.X X X X X X X @.X X X @.X & X @.X & % N.= F F #.F F F - D 4.S C.A 6.6.^.Z Q.Q.$X2.2.2.0X2.2.u.J 6.X.6X9X9X9X9X_.-X<.aXiXiXiXiXiXiXiXiXaXiXaXiXiXiXiXiXaXiXjXdX_.5X5X5X5X5X5X5X5X5X5X5X5X5X;X5X5X5X5X5X5X5X5X5X5X5X5X5X5X5X5X5X5X5X5X5X5X5X5X5X5X5X5X5X5X5X5X5X5X5X5X5X5X5X5X5X5X5X5X5X5X5X5X5X5X5X5X5X5X5X5X5X5X5X5X5X5X5X5X5X5X5X5X5X5X5X5X5X5X5X5X5X5X5X5X5X5X5X5X5X5X5X5X5X5X5X5X5X5X5X5X5X5X5X5X5X5X5X5X5X5X5X5X5X5X5X5X5X5X5X5X5X5X5X5X5X5X4X/.X X X X + X X X X X X X X X X X X X X X X X X X X X X X X X X X X X X X X X X X X X X X X X X X X X X X X X X X X X X X X X X X X X X X X X X X X X X X X X X X X X X X X X X X X X X X X X X X X X X X X X X X X X X + zXU N N Q ! ",
"$ . X o X $ N.F 5.6., (.1 !.9.y e e 4 e 4 e 5 e 4 e 5 e 4 e 5 e 5 5 V.q V.5 V.q V.5 9 5 9 5 9 q 5 e q y e y 9.y u 0.T 1 #X#X3 7.*.&.< ^.J ^.&.*.1 0.4 5 9 5 6 9 6 9 6 5 9 L.V.e 4 2 9.3 9.0.9.0.4 9.4 0.9.3 s.&., g.; #.a.= = * = = = * = * = = K.h.+X5.C.$.> j.> : $.4.- h.- - ; C.j.: g.j.j.C.C.5.; - S 4.; 4.4.h.#.= N.% % X @.X % # X + X X X + X O X X X # & X @.X & X @.X p.p.= = F = F = F G S 5.H H j.A 3.3.Q.u.2.2.0X2.0XZ Q.u.Z 3.3.A Z &X4X9X9X9X9X4X! aXiXhXiXiXiXiXiXiXiXkXaXiXiXiXiXiXiXiXiXaX8.5X5X5X5X5X5X5X5X5X5X5X5X5X5X5X5X5X5X5X5X5X5X5X5X5X5X5X5X5X5X5X5X5X5X5X5X5X5X5X5X5X5X5X5X5X5X5X5X5X5X5X5X5X5X5X5X5X5X5X5X5X5X5X5X5X5X5X5X5X5X5X5X5X5X5X5X5X5X5X5X5X5X5X5X5X5X5X5X5X5X5X5X5X5X5X5X5X5X5X5X5X5X5X5X5X5X5X5X5X5X5X5X5X5X5X5X5X5X5X5X5X5X5X5X5X5X5X5X5X5X5X5X5X5X5X5X5X;XzX$ @ X X X + X X X X X X X X X X X X X X X X X X X X X X X X X X X X X X X X X X X X X X X X X X X X X X X X X X X X X X X X X X X X X X X X X X X X X X X + X X X + X X X X X X X X X X X @ X X X X X X X X X X X @ X o M.m.t.M M [ ",
"M.$ & N.= - C.%.J < 7.3 !.9.9.e e 5 4 5 4 4 e 4 9.4 9.4 9.4 e 5 4 V.V.V.5 V.5 V.5 9 9 P.9 7 9 9 5 5 q 5 e e y 9.y 9.0.2 #X#X7.< ^.J %.> > %.%.&.1 L.V.6 6 7 P.7 P.7 6 P.9 P.5 5 4 4 4 4 e 4 4 5 L.=.4 4 e 4 2 1 &., : ; h.#.= K.a.h.K.h.K.h.h.- - ; ; ; ; : : > g.> : : ; C.C.j.6.J J J %.J ^.%.6.> j.j.j.> 6.> $.; G F N.N.% p.p.p.% % X $ + X + @.X X X $ X @.X p.% % % p.% p.N.F = F F F F - 5.: j.6.6.^.3.J Z 2.Q.K 2.0X2.2.Z Q.3.3.g.g.A 6.H.6X9Xc.9Xc.9X_.lXjXiXaXiXiXiXaXiXiXiXaXiXaXiXiXiXiXiXiXiXjXv.5X5X5X5X5X5X5X5X5X5X5X5X5X5X;X5X5X5X5X5X5X5X5X5X5X5X5X5X5X5X5X5X5X5X5X5X5X5X5X5X5X5X5X5X5X5X5X5X5X5X5X5X5X5X5X5X5X5X5X5X5X5X5X5X5X5X5X5X5X5X5X5X5X5X5X5X5X5X5X5X5X5X5X5X5X5X5X5X5X5X5X5X5X5X5X5X5X5X5X5X5X5X5X5X5X5X5X5X5X5X5X5X5X5X5X5X5X5X5X5X5X5X5X5X5X5X5X5X5X5X5X5X5X5X5X5X5X5X'.. X X $ X @.X @.X X X X X X X X X X X X X X X X X X X X X X X X X X X X X X X @.X X X X X X X X X X X @.X X X X X X X X X X X X X X X X X X X X X X X X X X X X X X X X X X X X X X X X X X X X X X X X X X X X X $ X $ X OXt.+.M ( ",
"U.U.a.h.; : %.J Z.%X7.d 0.0.9.y e y e e 4 0.9.3 9.3 2 3 9.3 9.0.4 e 5 4 V.e 5 5 V.5 9 9 P.9 9 5 V.q q e 4 y e y 9.0.2 !.#X*.&.J %.: > $.: : J &.2 4 6 6 7 9 7 6 7 9 P.6 6 5 9 5 V.4 5 5 9 5 V.5 =.5 5 5 4 9.9.3 *.^.> C.; h.h.h.4.- +X- ; - ; 5.C.; ; ; C.; : g.^.g.> g.> : %.^.J J Z.Q.Z.J Z.Q.Z.J Q.^.Z.J Z.J %.C.- = = % % % p.% % X X + X @ X # X X X X X X [.& p.% N.% N.N.= = F F D F 5.H 6.A 3.3.Q.u.Q.Z 2.Z 2.Z 2.u.Z 3.j.S H H C.S 5.b.9X4X9X9X9X9X4X} jXiXiXhXiXiXiXiXiXiXiXiXaXpXiXiXaXiXiXiXiXiX{ 5X5X5X5X5X5X5X5X5X5X5X5X5X;X5X5X5X5X5X5X5X5X5X5X5X5X5X5X5X5X5X5X5X5X5X5X5X5X5X5X5X5X5X5X5X5X5X5X5X5X5X5X5X5X5X5X5X5X5X5X5X5X5X5X5X5X5X5X5X5X5X5X5X5X5X5X5X5X5X5X5X5X5X5X5X5X5X5X5X5X5X5X5X5X5X5X5X5X5X5X5X5X5X5X5X5X5X5X5X5X5X5X5X5X5X5X5X5X5X5X5X5X5X5X5X5X5X5X5X5X5X5X5X5X5X5X5X5X4XM.@ X + X X X X X + X X X X X X X X X X X X X X X X X X X X X X X X X X X X X + X X X X X X X X X X X X X X X X X X X X X X X X X X X X X X X X X X X X X X X X X X X X X X X X X X X X X X X X X X X X X X X + X @ X + X M.W.U M B ",
"|.- 4.C.j.%.6.J Q.*.7.3 !.T y e 9.e 9.4 9.9.3 2 3 2 1 s.1 #X1 2 2 4 e 5 5 V.5 V.V.=.9 P.9 6 9 9 5 V.e 5 e 4 9.4 9.9.0.9.1 1 Z.&.%.> > > g.J < 9.L.6 P.7 7 7 7 7 7 7 P.7 6 P.9 P.9 6 9 P.=.P.6 P.6 6 9 =.5 4 9.2 1 &.^.> C.; ; $.$.: $.: $.> : > > > $.: $.j.g.%.%., J , J J J &.Z.*.k.*.k.7.k.7.7.7.L 7.7.Y.7.7.Z.6.4.#.= N.p.N.p.R.% % X X + & X X X % & % % N.p.N.N.|.N.F |.#.F - D 5.5.j.j.J Z Q.2. X2.2.Z 2.Q.Q.Z Q.3.6.j.H D D D 5.- D &X6X4X9X9Xc.9X9X9XpXaXiXiXiXiXiXiXaXiXaXiXaXiXaXiXiXiXaXiXaXiXpX2X5X5X5X5X5X5X5X5X5X5X5X5X;X;X5X5X5X5X5X5X5X5X5X5X5X5X5X5X5X5X5X5X5X5X5X5X5X5X5X5X5X5X5X5X5X5X5X5X5X5X5X5X5X5X5X5X5X5X5X5X5X5X5X5X5X5X5X5X5X5X5X5X5X5X5X5X5X5X5X5X5X5X5X5X5X5X5X5X5X5X5X5X5X5X5X5X5X5X5X5X5X5X5X5X5X5X5X5X5X5X5X5X5X5X5X5X5X5X5X5X5X5X5X5X5X5X5X5X5X5X5X5X5X5X5X5X5X5X6X/.X X X X @.X & X X X X X X X X X X X X X X X X X X X X X X X X X X X X X X X X X X X X X X X X X X X X X X X X X & X X X X X X X X X X X X X X X X X X X X X X X X X X X X X X X X X X X X X X X X X X X X X X X X X X + $ OXt.Q ( ",
"S S C.C.j.6.%.^.Z. X7.7.3 3 9.0.9.y 9.3 2 3 2 < < *.*.Z.&.&.< 1 2 0.4 e 5 5 V.5 9 5 6 9 9 5 9 5 5 q 5 e e y e e e 9.e 0.2 < &.^.%.> B.^.&.*.2 4 6 9 7 7 8 7 7 7 7 P.7 9 7 9 P.9 6 9 7 9 7 6 7 9 7 6 6 5 9 4 4 3 1 &.&.6.> : > g.> g.> g.^.%.%.^.%.g.> : > g.%.^., J &.Z.Z.Z. X%X*.k.7.L 7.h S.Y.S.Y.#Xd !.p 3 L Z.g.5.a.= N.N.% N.p.p.X @.X X @ X X @.% p.p.N.N.= = F F F F - D 5.5.j.A 3.3.J u.2.0X%X0XQ.J Q.3.Z 3.3.j.C.S - |.F F G a.N.zX6X4X9X9X9X9X9X;XO.D.aXiXaXiXiXiXiXiXiXiXiXiXiXiXaXiXiXiXiXiXjX8.-X5X5X5X5X5X5X5X5X5X5X5X5X5X;X5X5X5X5X5X5X5X5X5X5X5X5X5X5X5X5X5X5X5X5X5X5X5X5X5X5X5X5X5X5X5X5X5X5X5X5X5X5X5X5X5X5X5X5X5X5X5X5X5X5X5X5X5X5X5X5X5X5X5X5X5X5X5X5X5X5X5X5X5X5X5X5X5X5X5X5X5X5X5X5X5X5X5X5X5X5X5X5X5X5X5X5X5X5X5X5X5X5X5X5X5X5X5X5X5X5X5X5X5X5X5X5X5X5X5X5X5X5X5X5X5X5X5X5X4XmX. X + X X X X X X X X X X X X X X X X X X X X X X X + X X X X X X X X X X X X X X X X X X X X X X X @ X X X X X X X X X # X X X X X X X X X # X o X X X @ X @ X @ X X X # X X X . X X X + X X X @ + X X X X + X + X X X # $ bX( M ",
"S C.; : : > 6.J Z.< *.Y.#X!.!.9.!.9.2 2 #Xs.*.&.J , %.J %.&.< 1 3 4 e V.5 V.V.9 5 =.9 6 5 9 5 9 5 V.5 5 e 4 e 5 e 4 e 4 2 2 *.*.&.&.&.s.1 2 9.=.6 7 7 8 7 DX7 8 7 8 7 7 7 7 P.7 P.8 7 7 7 8 7 7 P.7 6 P.9 V.4 4 1 s.&., %.%.%.J J , J Z.J &.Z.Z., , %.%.> J J &.Z.*.*.*.*.Y.7.7.L 7.h 7.h S.S.#XS.0.p T !.T 3 S.2.> S h.= F = = N.= p.p.& % X $ X p.p.N.= F F - D 5.4.5.S H H j.j.J Z Q.2.$X0X X%XA.2.Q.3.3.g.6.6.g.C.5.F F N.= a.K.N.].bX9X9X9X9Xc.9Xc.9X_.lXjXiXaXiXiXiXaXiXiXiXjXiXaXiXaXiXaXiXaXiXiXaXv.5X5X5X5X5X5X5X5X5X5X5X5X5X;X5X5X5X5X5X5X5X5X5X5X5X5X5X5X5X5X5X5X5X5X5X5X5X5X5X5X5X5X5X5X5X5X5X5X5X5X5X5X5X5X5X5X5X5X5X5X5X5X5X5X5X5X5X5X5X5X5X5X5X5X5X5X5X5X5X5X5X5X5X5X5X5X5X5X5X5X5X5X5X5X5X5X5X5X5X5X5X5X5X5X5X5X5X5X5X5X5X5X5X5X5X5X5X5X5X5X5X5X5X5X5X5X5X5X5X5X5X5X5X5X5X5X5X5X5X;XbX  + $ + X X X X X X X X X X X X X X X X X X X X X X $ X X X $ X X X X X X X X X X X X X X X X X X X $ X X X X X X X X X @.X % X X X X X X X X X X X X X X X X X X X $ X @.X X X X X @.X X X @.X X + X X X X $ X X X @.X @.M.'.O.M ",
"S - ; 5.C.$.6.^.Z.Z.*.k.Y.7.#X#X2 1 1 7.*., J g.> : g.g.^.^.< 7.#X3 4 4 V.5 V.5 9 5 5 5 =.5 5 5 9 5 5 5 5 e V.5 V.e 4 e 9.3 1 *.1 *.1 1 2 3 e 5 6 P.7 7 8 7 8 7 8 7 7 7 7 9 7 9 7 9 7 P.7 P.7 7 7 9 P.9 6 5 5 y 2 *.*.Z.Z.^.Z.Z.Z.Z.&.Z.*.&.< &.&.^.J ^.J ^.Z.Z. Xk.7.L 7.L 7.L 7.k.L L 7.L S.S.d d P d a d P k.2.j.5.G h.a.F a.= U.p.& % # @.X p.* = F 4.S C.H j.H A A 6.g.3.3.Q.Q.2.K C c >.k. XZ J A : S C.H 5.F F N.% . & % p.$ mX4X4X9X9X9X9X9X9X9X2X[ jXiXaXaXiXiXiXiXiXiXiXiXiXiXiXiXiXiXaXiXiXiXaX{ 5X5X5X5X5X5X5X5X5X5X5X5X5X5X5X5X5X5X5X5X5X5X5X5X5X5X5X5X5X5X5X5X5X5X5X5X5X5X5X5X5X5X5X5X5X5X5X5X5X5X5X5X5X5X5X5X5X5X5X5X5X5X5X5X5X5X5X5X5X5X5X5X5X5X5X5X5X5X5X5X5X5X5X5X5X5X5X5X5X5X5X5X5X5X5X5X5X5X5X5X5X5X5X5X5X5X5X5X5X5X5X5X5X5X5X5X5X5X5X5X5X5X5X5X5X5X5X5X5X5X5X5X5X5X5X5X5X5X5X5X6XM.X # X + X X X X X X X X X X X X X X X X X X X X X X X X X + X X X X X X X X X X X X X X X X X # X X X X X X X X X X X X X X X X X X X X X X X # X X X X X # X X X + X X X + X X X X X X X # X X X X X X X X X + X + X X M.'.m *X",
"D - - ; C.j.g.J J Z.Z.< *.7.*.1 1 1 *.&.J %.g.> $.: : > > , &.s.1 2 9.L.4 V.5 6 9 =.5 =.5 9 5 6 9 6 5 =.V.=.9 6 9 =.5 V.e 2 1 1 1 s.1 2 2 4 e =.6 7 7 8 7 8 7 8 7 8 7 8 7 7 7 8 7 7 7 8 7 7 7 7 7 7 9 P.9 9 5 4 2 3 *.*.Z. X*.1 < 1 *.1 *.1 7.1 *.&.Z.&.J Z.Z.< *.7.L Y.7.7.L 7.L 7.L 7.L 7.h d Y.d S.P d P Y.A.J 6.S 5.- 4.- - F F N.N.% p.% = F 5.: J 3.Q.u.Q.u.J ^.Q.Q.2.2. Xc  Xx :.h :.>.k.Q.^.j.: D h.|.F N.p.X $ X X + % $ mX4X9X9X9X9Xc.9X9X9Xc.2XV cXaXaXsXpXaXiXiXiXiXiXaXiXaXiXaXiXaXiXiXiXjXpX_.5X5X5X5X5X5X5X5X5X5X5X5X5X;X5X5X5X5X5X5X5X5X5X5X5X5X5X5X5X5X5X5X5X5X5X5X5X5X5X5X5X5X5X5X5X5X5X5X5X5X5X5X5X5X5X5X5X5X5X5X5X5X5X5X5X5X5X5X5X5X5X5X5X5X5X5X5X5X5X5X5X5X5X5X5X5X5X5X5X5X5X5X5X5X5X5X5X5X5X5X5X5X5X5X5X5X5X5X5X5X5X5X5X5X5X5X5X5X5X5X5X5X5X5X5X5X5X5X5X5X5X5X5X5X5X5X5X5X5X5X4XMXX X X X X X X X X X X X X X X X X X X X X X X X X X X X X X X X X X X X X X X X X X X X X X X @.X X X X X X X X X X X X X X X X X X X X X X X & X X X X X X X X X X X X X X X X X X X X X & X X X X X X X X X X X X + X oXm.m W ",
"D #.- 4.C.$.> 6.J J Z.J (.Z.< Z.&.Z.Z.^.%.g.> C.$.C.> > J J &.*.2 0.9.0.4 5 9 5 6 9 6 5 9 5 6 5 9 9 6 5 6 9 6 5 =.5 =.e 4 3 s.1 1 *.2 3 9.e 5 5 6 6 7 7 7 7 8 7 7 7 8 7 7 P.7 9 7 9 7 9 7 P.7 P.7 9 P.9 9 5 5 9.9.1 1 *.*.7.#X1 3 #X3 1 3 1 3 *.*.*.*.Z.Z.Z. X(.*.k.7.k.7.k.L A.L A.L >.h h S.h 7.h S.h S.h 7.2.J g.: 5.C.H C.S 4.F F N.= F 5.j.J 0X XC k.C A.K A.c  XK k.z L >.h h :.h f :.k.u.3.C.5.= N.% % + X X X # X X & nXbX4X9X9X9X9X9X9X9X9X9X2X9XlXaXiXsX{ pXiXiXiXiXiXiXiXiXiXiXiXiXiXiXiXiXiXY ;X5X5X5X5X5X5X5X5X5X5X5X5X5X5X5X5X5X5X5X5X5X5X5X5X5X5X5X5X5X5X5X5X5X5X5X5X5X5X5X5X5X5X5X5X5X5X5X5X5X5X5X5X5X5X5X5X5X5X5X5X5X5X5X5X5X5X5X5X5X5X5X5X5X5X5X5X5X5X5X5X5X5X5X5X5X5X5X5X5X5X5X5X5X5X5X5X5X5X5X5X5X5X5X5X5X5X5X5X5X5X5X5X5X5X5X5X5X5X5X5X5X5X5X5X5X5X5X5X5X5X5X5X5X5X5X5X5X5X5X5X4XmXo @ X # X @ X X X X X @ X X X X X X X X X X X X X X X X X X X X X X X X X X X X X X X X X X X X X X X X X X X X X X X X X X X X X X X X X X X X X X X X X X X + X X X + X X X X X X X X X X X X X X X @ X @ X + X X X X X mXI.[ ",
"#.h.G ; ; j.j.> ^.J %.J J , J , J , J %.> > C.$.C.: : %.%.&.*.1 2 4 9.4 4 =.9 7 6 7 6 P.9 P.6 6 9 P.6 6 9 P.6 P.9 6 5 4 2 4 2 9.1 2 2 4 e V.5 =.9 7 7 7 7 8 7 8 7 8 7 8 P.8 P.7 9 8 9 7 9 8 P.7 9 7 9 6 9 6 4 4 3 2 1 1 1 2 0.9.0.9.0.9.0.2 3 1 *.1 *.*. X<  X*.k.7.k.7.k.7.A.7.k.7.L 7.>.7.h S.h S.S.S.h S.k.Z.^.J 6.> 6.J 3.^.j.: S H j.Q. XS.d P d P :.P S.S.h S.:.S.L S.:.d :.P f d x A.Z 6.5.- N.% X p.X $ X % X [.& X mX6X4X9X9X9X9Xc.9X9X9Xc.9X2Xn cXaXjXm <.jXaXiXiXiXiXiXjXiXaXiXjXiXaXiXiXiXjXv.5X5X5X5X5X5X5X5X5X5X5X5X5X5X;X5X5X5X5X5X5X5X5X5X5X5X5X5X5X5X5X5X5X5X5X5X5X5X5X5X5X5X5X5X5X5X5X5X5X5X5X5X5X5X5X5X5X5X5X5X5X5X5X5X5X5X5X5X5X5X5X5X5X5X5X5X5X5X5X5X5X5X5X5X5X5X5X5X5X5X5X5X5X5X5X5X5X5X5X5X5X5X5X5X5X5X5X5X5X5X5X5X5X5X5X5X5X5X5X5X5X5X5X5X5X5X5X5X5X5X5X5X5X5X5X5X5X5X5X5X5X;XzXX $ X @.X $ X X X X X & X X X X X X X X X X X X X X X X X $ X X X X X X X X X X X X X X X X X X X X X X X @.X X X @.X X X @.X X X % X X X X X X X X X X X @.X X X X X X X $ X X X X X X X @.X X X @.X @.X $ X @.X p.@.% X . mXvX",
"#.a.G - ; ; : $.j.j.6.6.> g.%.6.%.6.%.g.> C.C.; C.C.> ^., Z.1 3 9.0.4 4 V.5 P.6 7 9 P.9 6 9 6 9 P.9 P.9 6 9 7 9 =.5 L.y 9.3 9.2 9.3 4 4 5 4 V.5 6 5 6 9 7 9 7 9 7 9 P.9 9 ;.9 9 9 ;.9 9 9 9 9 9 P.9 9 9 9 q e y 0.Y.#X1 3 3 9.y 9.0.9.0.9.3 3 Y.Y.k.*. X X(. X%X X%Xk.k.A.k.>.k.>.k.L >.>.k.L L :.>.:.L S.>.k.2.Q.3.^.u.Q.Q.K 2.2.u.2.%X7.S.p P a s p d p s P s d h d h P h :.:.:.>.>.2.J A 5.F = % % X X # X @ X # & . nX6X4X=X9X9X9X9X9X9X9X9X9X9X9X;Xv.aXaXpXW sXaXiXiXpXiXiXiXiXiXiXiXiXiXiXiXiXiXiXQ 5X5X5X5X5X5X5X5X5X5X5X5X5X;X5X5X5X5X5X5X5X5X5X5X5X5X5X5X5X5X5X5X5X5X5X5X5X5X5X5X5X5X5X5X5X5X5X5X5X5X5X5X5X5X5X5X5X5X5X5X5X5X5X5X5X5X5X5X5X5X5X5X5X5X5X5X5X5X5X5X5X5X5X5X5X5X5X5X5X5X5X5X5X5X5X5X5X5X5X5X5X5X5X5X5X5X5X5X5X5X5X5X5X5X5X5X5X5X5X5X5X5X5X5X5X5X5X5X5X5X5X5X5X5X5X5X5X5X5X5X5X5X6XMXX X X X + X X X X X X X X X X X X X X X X X X X X X X X X X X X X X X X @ + X X X X X X X X X X X X + X X X X X # X X X # X X X # X X X X X X X X X X X X X X X X X + X + X X X X X X X # X X X X X X X # @.X @.# & X X @ + M.",
"#.#.h.+X5.; 5.C.C.: C.j.j.> j.> 6.> > > : : C.j.g.%.%.&.< 2 2 9.0.4 9.V.V.7 7 7 7 7 6 7 P.P.6 7 7 7 7 7 P.7 7 7 =.6 5 5 4 4 e 4 9.4 4 V.V.=.5 =.9 =.9 P.6 7 9 7 9 7 9 P.9 9 9 9 9 9 9 9 9 9 9 P.9 =.9 9 5 5 9.9.3 3 3 0.0.9.y e 9.e y 9.T T 3 3 7.7.k.*. X X X X Xk.k.A.k.A.k.7.k.L >.L A.L L 7.L :.h S.:.7.k.A.K 2.2. Xk.7.S.P d P P a p a P a a a a a a a d a d P f P f P h L K Q.u.^.5.- = N.& % @.& # @.X $ # & MXbX4X9X9Xc.9X9X9X_.9X9X9Xc.9X9X9X=XY jXaX8.[ jXiXaXiXiXiXiXiXiXiXaXiXaXiXaXiXiXiXpX_.5X5X5X5X5X5X5X5X5X5X5X5X5X5X;X5X5X5X5X5X5X5X5X5X5X5X5X5X5X5X5X5X5X5X5X5X5X5X5X5X5X5X5X5X5X5X5X5X5X5X5X5X5X5X5X5X5X5X5X5X5X5X5X5X5X5X5X5X5X5X5X5X5X5X5X5X5X5X5X5X5X5X5X5X5X5X5X5X5X5X5X5X5X5X5X5X5X5X5X5X5X5X5X5X5X5X5X5X5X5X5X5X5X5X5X5X5X5X5X5X5X5X5X5X5X5X5X5X5X5X5X5X5X5X5X5X5X5X5X5X5X5X6XOXX X $ X X X X X X X X X X X X X X X X X X X X X X X X X X X X X X X X X X X X X X X X X X X X X X X X X X X X X X X X X X X X X X X X X X X X X X X X X X X @.X & X X X X X X X & X X & @.X X X X X X X @.& % & & X X X X X $ ",
"#.F h.h.4.- 5.4.; 5.; 5.; 5.C.; $.C.$.; C.; : g.J J &.< 2 2 9.3 2 9.4 e 9 9 7 P.7 7 7 9 7 6 7 7 -.7 8 7 7 7 7 P.P.9 =.5 V.L.5 e L.4 5 5 V.5 V.5 9 5 9 9 7 9 7 9 9 9 9 5 9 q 9 q 9 5 9 q 9 5 9 5 9 5 9 q 5 e e y T 0.T 0.T y 9.y 9.y 9.y y 0.0.d S.L 7.%X X X X%X X XA.c k.k.A.k.A.k.L k.L >.h >.h L S.h 7.h L k.L >.7.h d P T p ^ p a s p p a p a p a s a P a d p s P L >.c K u.u.6.j.D F N.N.& & X [.# X # @.X M.zX6X4X9X9X9X9X9X9X9X9X9X9X9X9X9X9X9X_.pXiXjX] <.cXiXiXiXiXiXiXiXiXiXiXiXiXiXiXiXiXjX8.;X5X5X5X5X5X5X5X5X5X5X5X5X5X;X5X5X5X5X5X5X5X5X5X5X5X5X5X5X5X5X5X5X5X5X5X5X5X5X5X5X5X5X5X5X5X5X5X5X5X5X5X5X5X5X5X5X5X5X5X5X5X5X5X5X5X5X5X5X5X5X5X5X5X5X5X5X5X5X5X5X5X5X5X5X5X5X5X5X5X5X5X5X5X5X5X5X5X5X5X5X5X5X5X5X5X5X5X5X5X5X5X5X5X5X5X5X5X5X5X5X5X5X5X5X5X5X5X5X5X5X5X5X5X5X5X5X5X5X5X5X5X5X4X/.X X + X X X X X X & X X X X X X X X X X X X X X X X X X X X X X X X X X X X X X X X X X X X X X X X X X X X X X X X X X X X X X X X X X X X X X X X X X X X # X X X @ X X & # X X X + X X X X X X X + X X X X X X X + X X X . ",
"#.h.h.G h.- - +X- +X- +X4.; 4.; 4.; - ; ; : > %.J &.&.s.2 4 9.4 9.5 L.V.5 P.6 7 7 KX7 8 7 7 7 KX8 CX-.KX7 DX7 8 7 7 6 6 5 =.5 V.5 =.5 =.9 6 9 6 5 6 9 9 9 7 9 9 9 9 9 9 5 9 q 5 q 9 q 5 q 9 5 9 5 9 5 5 q 5 e 9.y 9.T 9.y 9.t 9.y e u 9.0.T p 3 Y.7.L A. XA.k.A.C A.k.A.k.L A.L >.7.A.A.>.L >.L h S.h S.h d h S.:.P P T p u a u p u a a p u a a p a P a P a P P f :.k. XZ J 6.g.H 5.F F N.qX% % X @.[.@.X p.OXzX6X9X9X9X9Xc.9X9X9Xc.9X9X9Xc.9X9X9Xc.2X} aXjXpX*XlXjXiXaXiXaXiXaXiXaXaXaXiXaXiXaXiXaXjX<.5X5X5X5X5X5X5X5X5X5X5X5X5X;X5X5X5X5X5X5X5X5X5X5X5X5X5X5X5X5X5X5X5X5X5X5X5X5X5X5X5X5X5X5X5X5X5X5X5X5X5X5X5X5X5X5X5X5X5X5X5X5X5X5X5X5X5X5X5X5X5X5X5X5X5X5X5X5X5X5X5X5X5X5X5X5X5X5X5X5X5X5X5X5X5X5X5X5X5X5X5X5X5X5X5X5X5X5X5X5X5X5X5X5X5X5X5X5X5X5X5X5X5X5X5X5X5X5X5X5X5X5X5X5X5X5X5X5X5X5X5X5X5X4XzX  X X X X X X X % X X X @.X X X X X X X X X X X X X X X X X X X X X X X X X X X X X X X X X X X X X X X $ X X X X X X X X X X X X X X X X X X X X X X X X X X X % X X X @.X & X % X @.X @.X X X % X X X @.X @.X X X X X @.X $ ",
"#.= F F h.F h.h.h.F h.F h.F h.F h.F - 4.E.$.> %., ^.J *.2 3 9.9.L.4 5 5 6 9 7 7 8 7 8 7 -.7 -.8 DX7 KX8 KX7 7 7 7 6 P.9 6 5 9 5 9 5 =.9 =.5 9 9 9 5 9 ;.9 5 9 ;.9 q 5 q 5 e q e q w q q q q q q 5 q q e q w e y t y u y u 0.u y u T u 0.T P p S.S.>.L k.k.k.k.c  XK k.k.>.c >.k.L k.L A.L z L >.:.>.h h d f P P a p T p u p a p a p a p a p a P p s d s d s d h L 0XQ.3.6.H 4.F = N.N.p.p.X X X X + [.X nXbX6X4X9X9X9X9X9X9X9X9X9X9X9X9X9X9X9X9X9X9X4XO.jXiX8.[ aXpXiXiXaXiXiXiXaXiXaXiXaXiXiXiXiXpXaX[ 5X5X5X5X5X5X5X5X5X5X5X5X5X5X5X5X5X5X5X5X5X5X5X5X5X5X5X5X5X5X5X5X5X5X5X5X5X5X5X5X5X5X5X5X5X5X5X5X5X5X5X5X5X5X5X5X5X5X5X5X5X5X5X5X5X5X5X5X5X5X5X5X5X5X5X5X5X5X5X5X5X5X5X5X5X5X5X5X5X5X5X5X5X5X5X5X5X5X5X5X5X5X5X5X5X5X5X5X5X5X5X5X5X5X5X5X5X5X5X5X5X5X5X5X5X5X5X5X5X5X5X5X5X5X5X5X5X5X5X5X5X5X5X5XbX. X + X X X X X # X # X X X X X X X X X X X X X X X X X X X X X X X X X X X X X X X X X X X X X X X X X @ X X X X X X X X X X X X X X X X X X X X X X X @ X X X # X # X X X X X # X X X # X X X # X + X + X X X # X + X + X . ",
"#.#.a.#.a.K.a.#.a.K.a.#.= a.= #.a.h.h.fX+XC.$.%.J &.Z.1 3 4 9.L.L.V.5 6 6 7 7 DX-.KX-.CX-.DX-.CX-.CX-.CX-.8 7 8 7 7 P.P.9 6 5 =.5 =.9 6 9 =.9 9 V.9 5 9 9 9 q 9 5 5 q 5 q q e q e q e q q q q q q q e q e e t e u t y u y u T u 0.y 0.u 3 a d P h 7.L L >.A.%XA.k.k.k.L A.L A.L A.L L L L L >.S.h :.h P P a P a a a p u a a p a p a p u a a d P d P d P f d h L K J j.C.#.F N.N.p.p.& & X X X X X X nXbX4X2X9Xc.9X9X9Xc.9X9X9X_.9X9X9Xc.9X9X9X9X9X9X2XlXaXjX( <.cXaXiXiXiXaXiXaXaXaXiXaXaXaXiXaXiXaXpXw.5X5X5X5X5X5X5X5X5X5X5X5X5X;X5X5X5X5X5X5X5X5X5X5X5X5X5X5X5X5X5X5X5X5X5X5X5X5X5X5X5X5X5X5X5X5X5X5X5X5X5X5X5X5X5X5X5X5X5X5X5X5X5X5X5X5X5X5X5X5X5X5X5X5X5X5X5X5X5X5X5X5X5X5X5X5X5X5X5X5X5X5X5X5X5X5X5X5X5X5X5X5X5X5X5X5X5X5X5X5X5X5X5X5X5X5X5X5X5X5X5X5X5X5X5X5X5X5X5X5X5X5X5X5X5X5X5X5X5X5X5X5X5X5X6X  + X X & X X X X X & X X X X X X X X X X X X X X X X X X X X X X X X X X X X X X X X X X X X X X X X X X X X X X X X X X X X X X X X X X X X X X X X X X X X X & X & X X X $ X X X & X X X X X X X X X X X & X X X $ X X + $ ",
"#.= a.= a.= a.= = N.= * N.N.= = a.= a.a.K.h.E.g.&.*.1 3 4 e 5 L.5 5 =.5 7 7 8 7 -.8 KX7 -.8 DX7 -.8 DX7 -.7 -.7 7 7 7 9 6 9 6 5 9 5 9 5 9 5 9 5 9 5 9 q 9 q 5 q q q q e q t q r e t e t e e q t e e e y e y e y t y u p T a y p T p T P p d P :.7.L L k.L k.k.c k.k.A.c k.>.L >.L L :.h :.h S.h f f P s P d P f P d p s p d a s p d a s p s P f d s P f f :.h 0Xu.H - = N.% p.X X X $ o X X X X X . 6X;X9X9X9X9X9X9X9X9X9X9X9X9X9X9X9X9X9X9X9X9X9X2Xc.J.aXpXN sXjXiXaXiXaXiXiXiXaXiXaXiXaXiXiXiXiXiXlX;X5X5X5X5X5X5X5X5X5X5X5X5X5X5X5X5X5X5X5X5X5X5X5X5X5X5X5X5X5X5X5X5X5X5X5X5X5X5X5X5X5X5X5X5X5X5X5X5X5X5X5X5X5X5X5X5X5X5X5X5X5X5X5X5X5X5X5X5X5X5X5X5X5X5X5X5X5X5X5X5X5X5X5X5X5X5X5X5X5X5X5X5X5X5X5X5X5X5X5X5X5X5X5X5X5X5X5X5X5X5X5X5X5X5X5X5X5X5X5X5X5X5X5X5X5X5X5X5X5X5X5X5X5X5X5X5X5X5X5X5X5X5X5X5X4XOX$ X X X X X X X X X X X X X X X X X X X X X X X X X X X X X X X X X X X X X X X X X X X X X X X X X X X X + X X X X X X X X X X X X X X X X X X X X X X X + X X X o X X X X X X X X X X X X X + X @ X X X X X o X o X X X . ",
"= #.= = = = N.N.% p.p.p.% N.p.* p.N.% N.N.#.4.%.&.2 2 4 L.=.5 =.5 =.9 7 7 8 7 8 7 CX-.CX-.CX-.CX8 CX-.DX-.CX-.DX8 8 7 7 P.7 6 P.9 P.9 9 9 9 9 9 5 9 5 9 q 9 q 5 q 5 q q t q e e t e t e t e e e t e 9.e t e u u y u T T a u 0.T p T a a P a d d h :.L L A.L A.A.C A.A.A.A.7.L S.:.P d P s P d P d P d P f P f P :.P d p P a d P s P P P d P d P s P d P :.7.C J H 4.= N.% % X $ X $ X X X % X @.X   bX4X9Xc.9X9X9Xc.9X9X9Xc.9Xc.9Xc.9X9X9Xc.9Xc.9X2X! cXaXsXQ aXiXaXaXaXiXaXiXaXiXaXaXaXiXaXiXiXiXjX<.;X5X5X5X5X5X5X5X5X5X5X5X5X5X;X5X5X5X5X5X5X5X5X5X5X5X5X5X5X5X5X5X5X5X5X5X5X5X5X5X5X5X5X5X5X5X5X5X5X5X5X5X5X5X5X5X5X5X5X5X5X5X5X5X5X5X5X5X5X5X5X5X5X5X5X5X5X5X5X5X5X5X5X5X5X5X5X5X5X5X5X5X5X5X5X5X5X5X5X5X5X5X5X5X5X5X5X5X5X5X5X5X5X5X5X5X5X5X5X5X5X5X5X5X5X5X5X5X5X5X5X5X5X5X5X5X5X5X5X5X5X5X5X5X5X4X/.$ $ + $ X X X X X X X X X X X X X X X X X X X X X X X X X X . $ X X X X X X X X X X X X X X X X X X X X X X X X X X X X X X X X X X X X X X X $ X X X @.X X X % X & & p.% % X & X @.X @.X X X $ X X X X X X X $ + X X X X $ ",
"N.% * % p.@.% X % # X X X X X X X X X X * {.+X> &.1 9.e V.5 9 5 =.5 6 6 7 P.7 7 KX7 -.8 KX7 -.8 KX7 -.8 DX7 -.8 DX7 7 P.7 9 7 9 6 9 9 5 9 q V.q 9 q 5 q 5 q q q q r e t e r e t e y t y e y t y e y t y t y u 0.u p T p 0.p 0.P a d p d P f d h :.L L >.L c A.k.A.z >.>.:.h P f P s P d P s P s P h :.h S.h d h P f d s P s d s P f d f d f d s d f f h :.K J : - N.N.% % # X X X X X X X X X # X O bX4X9X9X9X9X9X9X9X9X9X9X9X9X9X9X9X9X9X9X9X9X9X;Xv.aXjX} T.aXiXiXaXiXaXiXaXiXaXiXaXiXaXiXiXiXiXiX} 5X5X5X5X5X5X5X5X5X5X5X5X5X5X5X5X5X5X5X5X5X5X5X5X5X5X5X5X5X5X5X5X5X5X5X5X5X5X5X5X5X5X5X5X5X5X5X5X5X5X5X5X5X5X5X5X5X5X5X5X5X5X5X5X5X5X5X5X5X5X5X5X5X5X5X5X5X5X5X5X5X5X5X5X5X5X5X5X5X5X5X5X5X5X5X5X5X5X5X5X5X5X5X5X5X5X5X5X5X5X5X5X5X5X5X5X5X5X5X5X5X5X5X5X5X5X5X5X5X5X5X5X5X5X5X5X5X5X5X5X5X5X5X5X5X;XbX. @ X @ X X X X X X X X X X X X X X X X X X X X X X X X X X X X X X X X X X X X X X X X X X X X X X X X X + X X X X X X X X X X X X X X X X X + X X X + X X X # X # % & % X X @ X X X # X X X @ + + X # X X X + X X X X X . ",
"    & % X X + $ X X X X + X X & X X X % * a.4.> &.2 4 V.V.6 9 6 9 6 6 7 7 8 7 DX-.DX8 CX-.DX8 CX-.DX8 CX8 CX-.CX-.DX7 7 7 7 9 7 9 6 9 9 5 9 q 9 q 9 q 5 q 5 q q q q t e t e t e t e t e t t y e u t y u T u 0.u a T p a a T p a P p d a d d h d h :.>.L >.L >.L >.L L P f P d P P a d a d P s P :.:.L :.h S.h P d P s P d P s d d P f P d P s P s d h :.k.Q.j.5.|.N.& % X $ X @.X & X $ X X X & X X mX4X9X9X9X_.9X9X9Xc.9X9X9Xc.9X9X9Xc.9X9X9Xc.9X2X8.jXpXN lXaXiXaXiXaXaXaXiXaXiXaXiXaXiXaXiXiXiXiXB 5X5X5X5X5X5X5X5X5X5X5X5X5X5X;X5X5X5X5X5X5X5X5X5X5X5X5X5X5X5X5X5X5X5X5X5X5X5X5X5X5X5X5X5X5X5X5X5X5X5X5X5X5X5X5X5X5X5X5X5X5X5X5X5X5X5X5X5X5X5X5X5X5X5X5X5X5X5X5X5X5X5X5X5X5X5X5X5X5X5X5X5X5X5X5X5X5X5X5X5X5X5X5X5X5X5X5X5X5X5X5X5X5X5X5X5X5X5X;X5X5X5X5X5X5X5X5X5X5X5X5X5X5X5X5X5X5X5X5X5X5X5X5X5X5X5X6XM.$ + X X X X X X X X X X X X X X X X X X X X X X X X X X X X X X X X X X X X X X X X X X X X X X X X X X X X X X X X X X X X X X X X X X X X X X @.X & X @.X @.& % X % X $ X X X X X X X X X X + X X & X X X X + X X X + $ ",
"  + @.O X @ X o X X X @ X @ X o X X p.p.= h.> J 1 9.V.5 9 5 6 5 6 9 7 9 7 7 8 7 -.8 KX7 -.8 KX7 -.8 KX7 -.8 KX7 -.7 8 7 7 P.7 9 9 9 9 5 9 q 9 q 5 q q e q q q w q t e y t y t y t y t y u y t y u y u p T p u p a p a p a p a d P d p f P h d h S.h L x L >.:.>.:.h 7.h :.f d s P P P s f f d h :.L h L :.h P f P f P f d s d g f f d f d s d f d h S.c 2.g.H F N.% & X X X & # X X X + X X & # X X OX4X9X9X9X9X9X9X9X9X9X9X9X9X9X9X9X9X9X9X9X9X9X9XpXiXsX{ aXiXiXiXaXiXaXiXaXiXiXiXiXiXiXiXiXpXiXlX_.5X5X5X5X5X5X5X5X5X5X5X5X5X;X5X5X5X5X5X5X5X5X5X5X5X5X5X5X5X5X5X5X5X5X5X5X5X5X5X5X5X5X5X5X5X5X5X5X5X5X5X5X5X5X5X5X5X5X5X5X5X5X5X5X5X5X5X5X5X5X5X5X5X5X5X5X5X5X5X5X5X5X5X5X5X5X5X5X5X5X5X5X5X5X5X5X5X5X5X5X5X5X5X5X5X5X5X5X5X5X5X5X5X5X5X5X5X5X5X;X5X5X5X5X5X5X5X5X5X5X5X5X5X5X5X5X5X5X5X5X5X5X5X5X5X5X4XMX@ X o X X X X X X X X X X X X X X X X X # X X X X X X X X X X X X X X X X X X X X X X X X X X X X X X X X X X X X X X X X X X X @ X X X + X X X X X X @.X X X X # & X X X X X X X X X X X X o X o X X X + X o X @ X X X . ",
"M.$ X X X $ X X X @.X X X @.X X X N.= K.4.> , s.2 L.5 6 9 P.=.P.6 7 7 7 7 KX7 DX7 DX-.DX8 CX-.CX-.CX-.DX-.CX-.DX-.DX8 8 7 8 P.7 9 9 9 9 5 9 5 9 q 5 q q q q q q t e t e y 9.u t u t u t u t u u y u y u a u a T p 0.p a P a p a d a d P d P d P :.S.h :.h S.L :.L :.L :.h P d P d P d d f P :.:.h S.L :.:.d :.P d P d d f P d d f P d P d P d d h S.>. XZ j.- F U.p.& & X % X & X @.X X X @.X @.X $ M.6X4X_.9X_.9Xc.9X9X9Xc.9Xc.9Xc.9Xc.9Xc.9X9X2X[ aXjXv.v.jXaXiXaXaXaXiXaXiXaXiXaXiXiXiXiXiXiXiXlX;X5X5X5X5X5X5X5X5X5X5X5X5X5X;X;X5X5X5X5X5X5X5X5X5X5X5X5X5X5X5X5X5X5X5X5X5X5X5X5X5X5X5X5X5X5X5X5X5X5X5X5X5X5X5X5X5X5X5X5X5X5X5X5X5X5X5X5X5X5X5X5X5X5X5X5X5X5X5X5X5X5X5X5X5X5X5X5X5X5X5X5X5X5X5X5X5X5X5X5X5X5X5X5X5X5X5X5X5X5X5X5X5X5X5X5X5X5X5X;X5X5X5X5X5X5X5X5X5X5X5X5X5X5X5X5X5X5X5X5X5X5X5X5X5X5X5X4XmX& X $ X X X X X X X X X X X X X X X X X X X X X X X X X X X X X X X X X X X X X X X X X X X X X X X X X X X X X X X X X X X X X X X $ X X X $ X X X % X % X % X @.X % X X X $ X X X X X X X $ X X X % X $ + $ + X X X X $ ",
"  O X # X @ X X X # X X X # X X % {.h.- > ^.< 3 4 4 =.9 6 5 6 9 7 P.8 7 8 7 7 7 KX7 -.8 CX7 -.8 CX7 -.8 KX7 -.7 -.7 8 7 7 9 P.9 9 5 9 q 5 q 5 q 5 q q e q t e t e r t y t y u y u i u y u p u p u p T p a d a d p d p d a s p s d s P s P s d :.d h :.h :.x >.C A.c z z :.L :.h d h f h d h f h :.>.L L :.h d :.d h f f d h f h d f d f d :.S.h :.A.%Xu.g.D F N.p.X X X X X X # X # X X X @ X X X # . 6X4X9X9X9X9X9X9X9X9X9X9X9X9X9X9X9X9X9X9X9X2Xm jXaXQ 8.jXiXiXiXiXiXaXiXiXiXiXiXiXiXiXiXiXiXjXv.5X5X5X5X5X5X5X5X5X5X5X5X5X5X;X5X5X5X5X5X5X5X5X5X5X5X5X5X5X5X5X5X5X5X5X5X5X5X5X5X5X5X5X5X5X5X5X5X5X5X5X5X5X5X5X5X5X5X5X5X5X5X5X5X5X5X5X5X5X5X5X5X5X5X5X5X5X5X5X5X5X5X5X5X5X5X5X5X5X5X5X5X5X5X5X5X5X5X5X5X5X5X5X5X5X5X5X5X5X5X5X5X5X5X5X5X5X5X5X5X5X5X5X5X5X5X5X5X5X5X5X5X5X5X5X5X5X5X5X5X5X5X5X5X5X5X5X;XzX. X # X X X X X X X X X X X X X X X X X X X X X X X X X X X X X X X X X X X X X X X X X X X # X X X # X X X X X X X X X X X @ X X X X X X X # X X & X X X X # X X X @ X X X + X X X X X X X @ X X X X X X X O X X X + X . ",
"M.$ X X X X X X X X X X X X X & @.= 4.> , < 1 4 4 5 9 P.6 7 7 DX7 KX7 DX7 DX8 CX-.KX-.CX-.DX-.CX-.CX8 CX-.DX7 -.7 8 7 7 7 7 9 7 9 9 9 9 q ;.q 5 q q q q q q t e t e y t t t y t u u y u u u p u a u p T a a P a P p d a p a d a d a P a d P f P f d h h x k.c k.c C c L >.:.L :.h :.h P :.d :.:.L :.L :.:.d :.d :.P :.P :.d :.P f d f d f :.L L K Q.6.j.4.F N.p.& X X % X & X @.X & X X # X + X + X o zX4X9X9Xc.9X9X9Xc.9X9X9Xc.9X9X9Xc.9X9X9Xc.2XY aXpXW pXaXaXiXiXiXaXiXiXiXiXiXiXiXaXiXaXiXiXaXQ 5X5X5X5X5X5X5X5X5X5X5X5X5X;X5X5X5X5X5X5X5X5X5X5X5X5X5X5X5X5X5X5X5X5X5X5X5X5X5X5X5X5X5X5X5X5X5X5X5X5X5X5X5X5X5X5X5X5X5X5X5X5X5X5X5X5X5X5X5X5X5X5X5X5X5X5X5X5X5X5X5X5X5X5X5X5X5X5X5X5X5X5X5X5X5X5X5X5X5X5X5X5X5X5X5X5X5X5X5X5X5X5X5X5X5X5X5X5X5X5X5X5X5X5X5X5X5X5X5X5X5X5X5X5X5X5X5X5X5X5X5X5X5X5X5X5X5X;X6X  # X X X X X X X X X X X X X X X X X X X X X X & & & X X X X X X X X X X X X X X X X X X X X X % X & X $ X & X X X X X X X X + X X $ X @.X & X % X & X @.X & X X X X X $ X X X X X X X X X X X & X X X & X X X $ X X X $ ",
"$ + X o X + X # X X X @ X X X X @.N.+X$., < 2 2 4 5 6 9 7 7 8 7 -.7 DX7 8 8 KX7 -.8 KX7 -.8 DX7 -.8 DX7 -.7 -.7 8 7 8 P.7 9 7 9 9 9 9 q 5 q 5 q q q q e q t q r t y t y u y t i u p u p u p u p ^ p T p a P a d p d P s a p a d p d p s d s f h :.h L C x C k.c C c z z L >.:.h h h :.h :.h :.h h >.:.>.:.h :.h :.h :.h :.h S.h f h d h :.k.$X3.6.H 4.F |.N.% X X + X X X X & # X X & X X X X o X o & mX4X9X9X9X9X9X9X9X9X9X9X9X9X9X9X9X9X9X9X2X_.lXjX<.} cXiXiXiXiXiXiXiXiXiXiXiXiXiXiXiXiXiXiXpXc.5X5X5X5X5X5X5X5X5X5X5X5X5X5X;X5X5X5X5X5X5X5X5X5X5X5X5X5X5X5X5X5X5X5X5X5X5X5X5X5X5X5X5X5X5X5X5X5X5X5X5X5X5X5X5X5X5X5X5X5X5X5X5X5X5X5X5X5X5X5X5X5X5X5X5X5X5X5X5X5X5X5X5X5X5X5X5X5X5X5X5X5X5X5X5X5X5X5X5X5X5X5X5X5X5X5X5X5X5X5X5X5X5X5X5X5X5X5X5X5X;X5X5X5X5X5X5X5X5X5X5X5X5X5X5X5X5X5X5X5X5X5X5X5X5X5X5X5X6XOXX # X X X X X X X X X X X X X X X X X X X X X # X X X X X X X X X X X X X X X X X X X # X X X X X X & X X X & # X X X X X X X X & X @.X X X X # X X X X X X X o X @ X @ X X X X X X X X X X X X X X & # X X X o X + X . ",
"M.$ X $ X $ X & X X X X X $ X & X N.K.$.> < 2 4 4 P.6 7 7 DX7 DX7 DX-.DX8 CX8 CX8 CX8 CX-.CX8 CX-.CX-.CX-.DX8 -.7 KX7 8 P.8 9 P.9 9 9 9 q 9 q 5 q 5 q q e q e e t e t t u u u u y u u u p u a u p u a a p a a a P a P a P a P a P a d P d P :.S.L L C k.c A.k.A.C L x L L 7.L :.L S.:.S.:.S.:.:.>.h L :.L :.L :.L h >.:.L :.h S.:.P :.S.>. Xu.j.- #.N.N.% p.X @.X % X X X & X @.X @.X X X $ X $ X & & M.6X9X9X9X9Xc.9X9X9Xc.9X9X9Xc.9Xc.9Xc.9X2Xn aXuXm <.jXiXaXiXjXiXaXiXjXiXiXiXjXiXiXiXjXiXjXlX_.5X5X5X5X5X5X5X5X5X5X5X5X5X;X5X5X5X5X5X5X5X5X5X5X5X5X5X5X5X5X5X5X5X5X5X5X5X5X5X5X5X5X5X5X5X5X5X5X5X5X5X5X5X5X5X5X5X5X5X5X5X5X5X5X5X5X5X5X5X5X5X5X5X5X5X5X5X5X5X5X5X5X5X5X5X5X5X5X5X5X5X5X5X5X5X5X5X5X5X5X5X5X5X5X5X5X5X5X5X5X5X5X5X5X5X5X5X5X5X5X5X5X5X5X5X5X5X5X5X5X5X5X5X5X5X5X5X5X5X5X5X5X5X5X5X5X5X5X4X/.o X X X X @.X X X X X X X X X X X X X X X X X X X X X @.X % X X X % X X X X X X X X X @.X @.X X X X X @.X % X @.X @.X X X % X % X p.@.@.X % X X X @.X @.X @.X & X $ X & X X X X X % X @.X X X $ X $ X & X $ + X X X X $ ",
"  O X X X # X X X X X X X # X # % % a.; %., 2 4 =.5 P.6 8 P.8 7 8 P.8 7 KX7 DX-.DX8 DX-.CX7 -.7 CX7 -.8 DX7 8 7 7 P.7 7 7 9 9 9 9 5 9 q 5 q q q q w q e e r e y e y u y u p u i u p u p u p a p a p a P a s p d P s P d P s d d P s d f d h :.>.L c k.c z c A.c k.z >.x L >.h >.h >.h h :.L h >.L x L x L c k.z L c >.A.L >.L h :.h :.h h 2.g.- |.% p.X X X X X X X X + X @ X # X X X X X O X o X # [.  6X4X9X9X9X9X9X9X9X9X9X9X9X9X9X9X9X9X9X;XO.aXpXB lXaXiXiXiXiXiXiXiXiXiXiXiXiXiXiXiXiXiXiX8.5X5X5X5X5X5X5X5X5X5X5X5X5X5X5X5X5X5X5X5X5X5X5X5X5X5X5X5X5X5X5X5X5X5X5X5X5X5X5X5X5X5X5X5X5X5X5X5X5X5X5X5X5X5X5X5X5X5X5X5X5X5X5X5X5X5X5X5X5X5X5X5X5X5X5X5X5X5X5X5X5X5X5X5X5X5X5X5X5X5X5X5X5X5X5X5X5X5X5X5X5X5X5X5X5X5X5X5X5X5X5X5X5X5X5X5X5X5X5X5X5X5X5X5X5X5X5X5X5X5X5X5X5X5X5X5X5X5X5X5X5X5X5X5X5X5X5X5X5X;XbXo @ X X @.# X X X X X X X X X X X X X X X X X X X X X # & # X X X # X X X # X X X X X X X # X # X X X # X # X X X # X X & # % X & # X X X # X X X X X X X # X # X X X X X X X X X X X X X X X @ X @ X X X @ + + X X X . ",
"M.$ X X X & X X X & X $ X p.% R.R.a.h.$.%.< 2 =.9 6 6 7 7 DX7 DX7 KX7 DX-.CX-.CX-.CX-.CX-.CX-.CX-.DX-.CX-.DX7 -.7 8 7 7 7 7 9 7 9 9 9 9 q 5 q 5 q q q q t e t e t t y t u u y u u u p u p u p u p a p a p a d a P a d a d P d P d P h P :.P h :.h :.x h >.L >.L A.>.x :.>.L >.:.L L L h >.L >.:.>.L k.L c  Xc A.c k.C L A.L >.:.h :.h S.L 2.: - N.% X $ X $ X @.X X X X X X X & X X X % X X X % X % % = zX4X9Xc.9X9X9Xc.9X9X9Xc.9X9X9Xc.9X9X9X2XV jX8.Q aXaXiXaXiXiXiXaXiXiXiXiXiXiXiXiXiXiXiXjXv.5X5X5X5X5X5X5X5X5X5X5X5X5X5X;X5X5X5X5X5X5X5X5X5X5X5X5X5X5X5X5X5X5X5X5X5X5X5X5X5X5X5X5X5X5X5X5X5X5X5X5X5X5X5X5X5X5X5X5X5X5X5X5X5X5X5X5X5X5X5X5X5X5X5X5X5X5X5X5X5X5X5X5X5X5X5X5X5X5X5X5X5X5X5X5X5X5X5X5X5X5X5X5X5X5X5X5X5X5X5X5X5X5X5X5X5X5X5X5X5X5X5X;X5X5X5X5X5X5X5X5X5X5X5X5X5X5X5X5X5X5X5X5X5X5X5X5X5X5X5XbX. X X X X & X & X X X X X X X X X X X X X X X X X X X & X & X X X X X X X X X & X X X X X X X @.X X + & X & X $ X @.X % [.p.[.p.X X X @.X X X X X X X @.X X X X X X X @.X X X X X X + X X X X $ X X X & X X X X X X + $ ",
". . X @ X X & @ X X X X p.p.N.N.F 4.> > , *.9.4 9 9 6 9 7 7 DX7 -.7 -.7 KX-.DX8 DX8 DX8 CX8 DX7 -.8 DX7 -.7 -.7 7 7 8 7 7 9 7 9 9 9 9 q 5 q 5 q q e q t e t e y e y t y u p u p u p u p a p u p a p a d a d a s p d P s d s P f d :.d h f h :.h :.h :.h :.h :.z h x :.x L >.L z >.>.L z >.z L x L C k.c C c C K c $X XK k.c A.k.h L :.>.>.Q.C.= % X X X X X X + X X X @ X + X # X X @.X p.p.R.% % [.R.qXM.4X9X9X9X9X9X9X9X9X9X9X9X9X9X9X9X9X9X2XlXjXT.} jXiXiXiXiXiXiXiXiXiXiXpXiXiXiXiXiXiXiXaXQ 5X5X5X5X5X5X5X5X5X5X5X5X5X5X5X5X5X5X5X5X5X5X5X5X5X5X5X5X5X5X5X5X5X5X5X5X5X5X5X5X5X5X5X5X5X5X5X5X5X5X5X5X5X5X5X5X5X5X5X5X5X5X5X5X5X5X5X5X5X5X5X5X5X5X5X5X5X5X5X5X5X5X5X5X5X5X5X5X5X5X5X5X5X5X5X5X5X5X5X5X5X5X5X5X5X5X5X5X5X5X5X5X5X5X5X5X5X5X5X5X5X5X5X5X5X5X5X5X5X5X5X5X5X5X5X5X5X5X5X5X5X5X5X5X5X5X5X5X5X5X4XM.+ X X X X X # X X X X X X X @ X @ X @ X X X X X X X X X X X X X X X # X X X X X X X X X X & X X o X o X X X X % [.p.& % & @.# X X X X X X X X X X X X X X X X X X & # X X & X X # X # X X X o X @ X X X X X X X X X . ",
"M.$ X $ + $ X % @.* * = = #.a.h.4.> , < *.4 L.6 9 7 P.7 7 CX-.DX8 CX-.KX-.CX-.CX-.CX-.CX-.CX-.CX-.CX-.-.8 CX-.8 7 8 7 7 7 8 9 6 9 9 9 9 q 9 q q q q e q t e t e t 9.u t y u u u p u a u p u a T p T a a P a P p P a d P d P f d d P f P :.P :.f h P :.d :.f :.f h :.h :.>.L >.L >.L A.A.z L z k.C A.c %XK  XK  X$X XK (.K A.C A.A.7.L 7.%XJ - N.$ $ + $ @ $ X X X $ X $ X $ X % X p.% N.= F N.N.$ p.p.R.$ 6X4Xc.9Xc.9X9X9Xc.9X9X9Xc.9X9X9Xc.2Xl.aXjX} gXcXaXiXaXiXaXaXaXiXaXaXaXiXiXiXaXiXaXaXaXc.5X5X5X5X5X5X5X5X5X5X5X5X5X5X;X5X5X5X5X5X5X5X5X5X5X5X5X5X5X5X5X5X5X5X5X5X5X5X5X5X5X5X5X5X5X5X5X5X5X5X5X5X5X5X5X5X5X5X5X5X5X5X5X5X5X5X5X5X5X5X5X5X5X5X5X5X5X5X5X5X5X5X5X5X5X5X5X5X5X5X5X5X5X5X5X5X5X5X5X5X5X5X5X5X5X5X5X5X5X5X5X5X5X5X5X5X5X5X5X5X5X5X;X5X5X5X5X5X5X5X5X5X5X5X5X5X5X5X5X5X5X5X5X5X5X5X5X5X5X5X6XOX$ X X X % X @.X % X X X % X X X $ X X X @.X X X X X X X X X X X % X @.X $ X X X @.X @.X @.X X X $ + X & p.[.p.% p.@.% X % X @.X % X @.X @.X X X X X @.X @.X @.X % X X X X X $ X & X X X X X X X $ X & X & + $ X X X $ ",
"  O X @ X @ X X * {.a.K.h.h.; ; $.g.&.2 4 4 6 =.P.9 7 P.-.7 -.8 KX7 -.8 KX8 CX8 CX8 -.8 DX7 -.8 -.7 -.7 -.7 8 7 7 9 7 9 7 9 9 9 9 q 5 q V.q q e q t e t e r t y t y u y u p u p u p u p u p a p a d p s P s P d P s d f d f d f d h d h d h :.h :.h f h f h :.h f L h >.L z L A.L C k.c A.K c $XC K $X0XK ` 2.Q.2.Z 2.2.0X2.$X$Xk.k.A. X2.H F % $ o X @ X . X X X @ X X X X X X p.% = a.K.a.= % X X @.# & bX4X9X9X9X9X9X9X9X9X9X9X9X9X9X9X9X2X} jXpX[ 8.aXpXiXiXiXiXaXiXaXiXaXiXaXpXiXiXaXpXaXlX_.5X5X5X5X5X5X5X5X5X5X5X5X5X5X5X5X5X5X5X5X5X5X5X5X5X5X5X5X5X5X5X5X5X5X5X5X5X5X5X5X5X5X5X5X5X5X5X5X5X5X5X5X5X5X5X5X5X5X5X5X5X5X5X5X5X5X5X5X5X5X5X5X5X5X5X5X5X5X5X5X5X5X5X5X5X5X5X5X5X5X5X5X5X5X5X5X5X5X5X5X5X5X5X5X5X5X5X5X5X5X5X5X5X5X5X5X5X5X5X5X5X5X5X5X5X5X5X5X5X5X5X5X5X5X5X5X5X5X5X5X5X5X5X5X5X5X5X5X5X5X;XzX. X X X # X # X # X X X X X X X X X X X X X X X X X X X X X X X # X X X X X X X # X # X # + X X # X X p.& % & % # X X X o X X X X X X X X X X X # X X X X X # X # X X X X X @ X X X X X X X @ X @ X X X @ X X X X X . ",
"M.X X X X X + % p.= = a.= #.4.$.> &.1 4 L.6 6 7 P.7 7 DX7 KX-.CX-.DX-.CX-.CX-.CX-.CX8 CX-.CX-.DX8 -.8 -.8 -.7 -.7 7 9 8 9 7 9 9 9 9 q 9 q q e q e q t q t e t e t t y t u u y u u u p u a u p u a a p a P p P a P P s P d P f P s d f d f d h P :.P h P :.P h f :.:.h :.>.L >.L z A.c A.c C K $XK $X2.(.2.Q.u.Q.3.3.3.Q.Q.0X0X$X$XA.%X X3.S N.% X X X $ + X + X + X X X X % % N.R.= = #.a.= p.p.X X X @.X mX4X9X9X9X9Xc.9X9X9Xc.9X9X9Xc.9X9X;X8.jXpXW pXaXiXiXaXiXaXiXaXaXaXiXaXiXaXiXaXiXaXjXlX;X5X5X5X5X5X5X5X5X5X5X5X5X5X5X;X5X5X5X5X5X5X5X5X5X5X5X5X5X5X5X5X5X5X5X5X5X5X5X5X5X5X5X5X5X5X5X5X5X5X5X5X5X5X5X5X5X5X5X5X5X5X5X5X5X5X5X5X5X5X5X5X5X5X5X5X5X5X5X5X5X5X5X5X5X5X5X5X5X5X5X5X5X5X5X5X5X5X5X5X5X5X5X5X5X5X5X5X5X5X5X5X5X5X5X5X5X5X5X5X5X5X5X;X5X5X5X5X5X5X5X5X5X5X5X5X5X5X5X5X5X5X5X5X5X5X5X5X5X5X5X;XbX. X X X X @ X X X X X X X X X X X X X X X X X X X X X X X X X X X X X X X X X X X X X X X + p.@.p.[.p.& @.X % X X X X X X X X X X X X X X X $ X X X $ X X X X X X X X X X X $ X X X X X X X & X X X $ X X + X X X + $ ",
"  . X X X X X X @.X % % = a.+X$., 1 9.9.V.5 6 6 7 7 8 7 8 7 8 7 8 7 8 7 -.7 DX7 -.8 -.7 -.7 -.7 8 7 8 7 8 7 8 7 7 9 7 9 9 9 9 5 ;.q 5 q q e q t e t e y e t e y t y t y u i u i u p u p ^ p T p a p a d a d p s P s P s d s d f d s d f f f d g f g f h f h f h :.h :.>.h >.L c A.C k.K K K K ` 2.2.0XZ Q.3.u.g.6.A 6.g.^.J 2.2.$XK  Xu.j.F N.X X # X @ X o X @ X @ $ X % * = * N.N.= * * % % X $ X X X X oX6X4X9X9X9X9X9X9X9X9X9X9X9X9X9X9X2XY jX8.Q pXiXiXiXiXiXiXaXkXaXiXaXiXaXiXaXiXiXaXdXQ 5X5X5X5X5X5X5X5X5X5X5X5X5X5X5X5X5X5X5X5X5X5X5X5X5X5X5X5X5X5X5X5X5X5X5X5X5X5X5X5X5X5X5X5X5X5X5X5X5X5X5X5X5X5X5X5X5X5X5X5X5X5X5X5X5X5X5X5X5X5X5X5X5X5X5X5X5X5X5X5X5X5X5X5X5X5X5X5X5X5X5X5X5X5X5X5X5X5X5X5X5X5X5X5X5X5X5X5X5X5X5X5X5X5X5X5X5X5X5X5X5X5X5X5X;X5X5X5X5X5X5X5X5X5X5X5X5X5X5X5X5X5X5X5X5X5X5X5X5X5X5X5X6XM.X @ X X X X X X X X X X X X X X X + X X X X X X X X X X X X X X X X X X X X X X X @ X X % & p.@.p.X X X X o X o & X X X X @ X X X X X X X @ X X X @ X @ X @ X @ X X X X X @ X @ X X X X X o X X X @ X @ X X X X X . ",
"M.$ X X X % X X X % % = a.+X; %.< 7XL.=.5 P.6 7 7 KX7 8 7 8 7 7 7 8 8 -.8 CX-.CX8 DX-.-.-.CX8 -.7 -.7 8 7 8 7 8 P.8 9 P.9 9 9 9 q 9 q q e q e e e e e e t e t e t e t t u t u t i u u u p u a T p T a a p a P a P a d p d a d P d P d P f P f d f d f f f P f P :.P :.:.L :.>.L z L C k.K $X2.2.Z 2.Q.Q.Z Q.3.6.A j.H : : > ^.Q.2.Z.Q.J 5.F   $ + $ + $ + $ + $ + & X p.R.= N.N.% N.p.p.& % X @.X $ X X X % bX9X9Xc.9X9X9Xc.9X9X9Xc.9X9X9X9XB aXiX+.} jXiXiXiXaXiXaXaXaXiXaXaXaXiXaXiXjXpX+.] w.5X5X5X5X5X5X5X5X5X5X5X5X5X5X5X;X5X5X5X5X5X5X5X5X5X5X5X5X5X5X5X5X5X5X5X5X5X5X5X5X5X5X5X5X5X5X5X5X5X5X5X5X5X5X5X5X5X5X5X5X5X5X5X5X5X5X5X5X5X5X5X5X5X5X5X5X5X5X5X5X5X5X5X5X5X5X5X5X5X5X5X5X5X5X5X5X5X5X5X5X5X5X5X5X5X5X5X5X5X5X5X5X5X5X5X5X5X5X5X5X5X5X5X5X5X;X5X5X5X;X5X5X5X5X5X5X5X5X5X5X5X5X5X5X5X5X5X5X5X5X5X5X4XMXX X + X X X X X X X X X X X X X X X X $ X X X $ X X X X X X X @.X @.X $ X X X $ X X X p.[.p.@.p.X X X % X $ + $ X & X $ + $ X $ X X X X X $ X $ X $ X $ X $ X $ X X X X X $ X $ X & X % X X X & X $ X & X X + $ X $ ",
"  . X X X X X X & @.R.{.K.#.$., 2 4 =.9 6 9 6 9 7 9 7 P.7 9 7 P.7 7 8 7 8 7 8 7 8 7 8 7 -.7 7 7 8 9 7 9 7 9 7 9 7 9 9 9 9 q 9 q 5 q q e q r e t e r t t e y t y t y t y t y u i u p u a u p a p T p a p a d p P p s P s P s P s d s d s d f f f f h f h f h f g d h f h :.>.L k.>.c k.K K Z Q.u.J 3.u.3.u.g.6.H j.S 5.D - D H A 3.6.6.H #.% $ X X @ + @ X O + X X X [.% N.R.R.% % # X X X o X X X O X + X # mX4X9X9X9X9X9X9X9X9X9X9X9X9X9X;X} aXjXv.v.iXiXpXiXiXiXiXaXiXaXiXaXaXaXaXaXsX) { ] 2X5X5X5X5X5X5X5X5X5X5X5X5X5X5X;X5X5X5X5X5X5X5X5X5X5X5X5X5X5X5X5X5X5X5X5X5X5X5X5X5X5X5X5X5X5X5X5X5X5X5X5X5X5X5X5X5X5X5X5X5X5X5X5X5X5X5X5X5X5X5X5X5X5X5X5X5X5X5X5X5X5X5X5X5X5X5X5X5X5X5X5X5X5X5X5X5X5X5X5X5X5X5X5X5X5X5X5X5X5X5X5X5X5X5X5X5X5X5X5X5X5X5X5X5X5X5X5X5X;X5X5X5X5X5X5X5X5X5X5X5X5X5X5X5X5X5X5X5X5X5X5X5X4XzX$ + X X X X X X X X X X X @ X @ X X X X X + X + X X X X X X X # X + X X X X X # & & p.[.% # X X X X X X X X X @ X X X @ X @ X + X X X @ X X X @ X @ X @ X @ X @ X X X X X @ X X X X X @ X X X @ X @ X X X X X X X . ",
"M.$ X X X X X % X * p.{.= h.> s.L.=.5 6 6 6 9 P.6 7 P.7 P.7 7 8 7 7 7 8 7 -.7 -.7 8 7 -.7 8 7 7 7 7 0 7 0 7 9 7 9 9 9 9 ;.9 q 5 q q e q t e t e t e t e t e t e t e y t u t y t u t y u u u p u a T p a p a P a P a d a P a d P d P d p s d f d f d h P f d f d f f f P :.:.>.L A.k.c A.K 2.u.J 3.3.6.3.6.6.j.j.H 5.D h.= = = - 4.; 4.- N.% X $ X X @ & X X X $ X X X * p.p.X & X X o $ X X @ X X X X $ X X oX6X4X9X9X9X9X9X9Xc.9X9X9Xc.9X2X<.jXaXm <.jXiXiXiXaXiXiXiXiXiXiXiXjXaXdXT.] ] ] { 2X5X5X5X5X5X5X5X5X5X5X5X5X5X5X5X;X5X5X5X5X5X5X5X5X5X5X5X5X5X5X5X5X5X5X5X5X5X5X5X;X5X5X5X5X5X5X5X5X5X5X5X5X5X5X5X5X5X5X5X5X5X5X5X5X5X5X5X5X5X5X5X5X5X5X5X5X5X5X5X5X5X5X5X5X5X5X5X5X5X5X5X5X5X5X5X5X5X5X5X5X5X5X5X5X5X5X5X5X5X5X5X5X5X5X5X5X5X5X5X5X5X5X5X5X5X;X5X5X5X;X5X5X5X5X5X5X5X5X5X5X5X5X5X5X5X5X5X5X5X5X5X5X5XbX. X X X X X X X X $ X X X $ + X X X X X X X X X X X + X + $ + X X X X X X $ & p.@.p.[.p.X % X X @ $ X X X X X X + X X X X X X X X $ X X X $ X X X $ X X X $ X X X X X X X $ X X X X X X X & # X o $ X X X X X X + $ ",
"  + X o X X $ X @.X % % a.; < 9.=.5 9 5 6 9 6 9 6 9 P.9 P.9 7 9 7 9 7 P.7 7 8 7 7 7 7 0 7 7 7 9 7 9 7 9 9 9 P.9 9 9 9 q ;.q 5 e q e q r e t e r e t e y e t e y e y t y t y t y u y u i u p T p a p T p a P a d p d a s p d d f P s p s d f d h :.h P h f f f g f f s h :.h L x L z A.K K Z Q.3.3.g.6.A g.H C.S - F F = p.$ % U.= = = % % X $ @ X @ X X X @ X X X X $ X & # X X X @ X @ X X X @ X @ X o X . & bX4X9X9X9X9X9X9X9X9X9X9X9X9X2XlXiXjXQ 8.aXiXiXiXiXiXiXiXiXiXiXjXsXT.tX] tX] ] n 5X5X5X5X5X5X5X5X5X5X5X5X5X5X5X;X5X5X5X5X5X5X5X5X5X5X5X5X5X5X5X5X5X5X5X5X5X5X5X5X5X5X5X5X5X5X5X5X5X5X5X5X5X5X5X5X5X5X5X5X5X5X5X;X5X5X5X5X5X5X5X5X5X5X5X5X5X5X5X5X5X5X5X5X5X5X5X5X5X5X5X5X5X5X5X5X5X5X5X5X5X5X5X5X5X5X5X5X5X5X5X5X5X5X5X5X5X5X5X5X5X5X5X5X5X5X5X5X5X5X5X;X5X5X5X5X5X5X5X5X5X5X5X5X5X5X5X5X5X5X5X5X5X5X4XMX# & o X @ X X X + X X X @ X X X X X X X # X @ X @ X X X @ X o X o X X & X @.& % # @.X X X X @ X @ X X X @ X @ X @ X @ X @ X @ X @ X X X @ X @ X @ X @ X @ X @ X X X X X @ X X X # X @ X X X @ X @ X X X @ X X X . ",
"M.$ X X X & X & X % U.#.C.&.2 =.9 P.9 6 9 6 9 6 9 P.9 7 9 7 9 7 9 7 9 7 P.8 7 7 9 8 7 8 7 8 9 7 9 8 9 7 9 7 9 9 9 9 V.9 q 5 q q e q e e t e t e t e t e t e t e t e t e t e t t u t u u y u y u a u a a p a P a P a P a P a d P d P d P d P f P :.P :.P f P f d f P s P :.7.>.L >.L c  X2.2.Q.J 3.3.j.j.H H 4.#.= = N.p.X $ X p.% p.p.p.% % X $ o $ X & + $ X X X $ X X X $ + X X $ X $ o $ X $ X $ X $ X $ X MX4X9X9X9X9Xc.9X9X9Xc.9X9X2Xw.pXiXiXQ Y jXiXjXiXiXiXaXiXiXiXiX8.m ] m ] ] ] } -X;X5X5X5X5X5X5X5X5X5X5X5X5X5X5X5X5X5X5X5X5X5X5X5X5X5X5X5X5X5X5X5X5X5X5X5X5X5X5X5X5X5X5X5X5X5X5X5X5X5X5X5X5X5X5X5X5X5X5X5X5X5X5X5X;X5X5X5X5X5X5X5X5X5X5X5X5X5X5X5X5X5X5X5X5X5X5X5X5X5X5X5X5X5X5X5X5X5X5X5X5X5X5X5X5X5X5X5X5X5X5X5X5X5X5X5X5X5X5X5X5X5X5X5X5X5X;X5X5X5X;X;X5X5X5X5X5X5X5X5X5X5X5X5X5X5X5X5X5X5X5X5X5X5X4X/.& X X X X X $ X X X $ X $ X $ X X X X X X X $ + X + & X $ + $ X X X p.@.% X % X X X & X X + $ + $ + $ + $ X $ + $ X $ X X X $ X $ X $ X X X $ X $ X $ X $ X $ X X X X X $ X $ X X X & X & X $ X $ X & X X + @.X $ ",
"  O X X & X X X % * h.$.&.2 L.5 6 5 9 9 9 q 5 5 9 5 9 9 9 5 9 9 9 9 9 9 P.9 0 9 P.9 9 9 7 9 9 9 9 9 9 9 9 ;.9 ;.9 q 5 q q w q t e r e t e r t t e y t t e r t t e y t t e y t y t y t y u i u y u p a a a d a P p s P P a s P d P h d f d h f h :.h :.h d h f f d f f h :.>.L z k.c C K K ` Q.3.3.A A 5.5.F F U.% X $ X & X @.X % # p.% % X X o X @ X @ X o X X X @ X X X @ + @ X @ + @ X @ X @ X @ X X X O X o bX4X9X9X9X9X9X9X9X9X9X9X4X! cXiXpX{ lXaXaXiXaXiXaXiXaXiXsXm ] ] ] tX] ] ] c.B 5X5X5X5X5X5X5X5X5X5X5X5X5X5X5X;X5X5X5X5X5X5X5X5X5X5X5X5X5X5X5X5X5X5X5X5X5X5X5X5X5X5X5X5X5X5X5X5X5X5X5X5X5X5X5X5X5X5X5X5X5X5X5X5X5X5X5X5X5X5X5X5X5X5X5X5X5X5X5X5X5X5X5X5X5X5X5X5X5X5X5X5X5X5X5X5X5X5X5X5X5X5X5X5X5X5X5X5X5X5X5X5X5X5X5X5X5X5X5X5X5X5X5X5X5X5X5X5X5X5X5X;X5X5X5X5X5X5X5X5X5X5X5X5X5X5X5X5X5X5X5X5X5X5X;XzX. & # X X X O X + X + X @ X @ X X X X X X X + X X X X X X X X X X X X X X X # X X X X + @ X @ + @ X X X @ X @ + @ X @ X X X @ X @ X @ X X X @ X @ X @ X @ X @ X X X X X @ X @ X # X X X X X # X X X # X X X # X . ",
"M.$ X [.X X X p.= +X> s.2 4 L.6 9 =.5 9 5 V.q 9 5 V.q 9 5 9 5 9 9 9 9 9 9 9 9 P.9 9 9 P.9 9 9 P.9 9 9 9 9 9 ;.9 q 9 q ;.q q e q e e t e t e t e t e t e t e t e e e t e t e t e t t t t u u y u p 0.p T p p P a P p d a P a d a d P d P :.P h P h S.:.P h d h d :.P h P h L >.L A.k.c k.K %X2.2.u.3.A : D F p.& + X X p.% * p.* % p.& % X X X $ X X X $ + X X X X X X & X X X $ X X X $ + X X $ X X X & X X X $ mX6X9X6X9X9X9Xc.9X9X9X_.;X<.jXiXlXw.gXsXsXpXdXpXpXpXsXT.] ] ] ] ] ] ] ] { ! E 5X5X5X5X5X5X5X5X5X5X5X5X5X5X5X5X;X5X5X5X5X5X5X5X5X5X5X5X5X5X5X5X5X5X5X5X5X5X5X5X;X5X5X5X5X5X5X5X5X5X5X5X5X5X5X5X5X5X5X5X5X5X5X5X;X5X5X5X5X5X5X5X5X5X5X5X5X5X5X5X5X5X5X5X5X5X5X5X5X5X5X5X5X5X5X5X5X5X5X5X5X5X5X5X5X5X5X5X5X5X5X5X5X5X5X5X5X5X5X5X5X5X5X5X5X5X5X5X5X5X5X5X;X5X5X5X5X5X5X5X5X5X5X5X5X5X5X5X5X5X5X5X5X5X5X6X  X @.X & X X X X X X + $ X X X X X X X X X X X X X X X & X X X % X X X X X X X X X X X $ + X + $ X X X $ X X X $ + X X $ X X X $ X X X & X X X X X X X $ + X X X X X X $ X X X & X & X & X & X $ X & X X X & X $ ",
"  . X X X X % = +X> < 1 4 4 V.5 9 5 9 q V.q 5 q q q 5 q q q 9 q 9 q 9 q 9 5 9 5 9 9 9 ;.9 9 9 5 9 9 9 5 9 5 9 q 5 q q q q e q r e t e y e t e y e t e y e t e r e t e y e t e y t y t y u y u p a a T d p d a d P d p s p d P s P d P h f h f h f h :.h f h d h S.:.:.L h >.L z A.C >.c A.c %XQ.Q.3.6.S D N.% o X X % p.N.p.p.X % X $ o X X X @ X X X @ X o X o X X X X X X X o X X X @ X X X # X @ X X X X @.X M.4X9X9X9X9X9X9X9X9X9X2X2XY jXiX8.-XQ tXm m m tXm ] ] { ] ] ] ] ] ] ] ] _.Y E 5X5X5X5X5X5X5X5X5X5X5X5X5X5X5X;X5X5X5X5X5X5X5X5X5X5X5X5X5X5X5X5X5X5X5X5X5X5X5X5X5X5X5X5X5X5X5X5X5X5X5X5X5X5X5X5X5X5X5X5X5X5X5X5X5X5X5X5X5X5X5X5X5X5X5X5X5X5X5X5X5X5X5X5X5X5X5X5X5X5X5X5X5X5X5X5X5X5X5X5X5X5X5X5X5X5X5X5X5X5X5X5X5X5X5X5X5X5X5X5X5X5X5X5X5X5X5X;X5X5X5X5X5X5X5X5X5X5X5X5X5X5X5X5X5X5X5X5X5X5X5X5X5X5X5X6XOXX X X X X X X + X X X @ X X X # X X X # X X X X X X % X X X @.# X X X @ X X X X X X X @ X + X @ X X X @ X @ X @ X X X @ X @ X o X @ X o X o X X X X X o X X X X X X X @ X X X X X X X # X X X X X X X X X X @.. ",
"M.$ X & X p.= +X> &.1 4 L.=.5 9 5 9 5 9 q 9 q 5 q 5 q q e 5 q 9 q 9 q 9 q 9 9 9 q 9 9 9 9 9 9 9 9 9 9 9 q 9 q 9 q 9 q q e q e e t e t e t e t e t e t e t q t e t q t e t e t 9.t e u u u u u u p u a a P T p a P a p a P a d P d P f d :.P h S.:.d :.S.h P h S.h S.h :.L L A.L >.7.>.A.k.A.K 2.Z Q.6.H F |.% $ & N.N.= N.N.% % & p.& $ X & X & X $ + $ X & X $ X % & % X $ X @.X $ + $ X $ X @.X X o X X @.X $ mX4X4X_.9Xc.9X9X9Xc.9X2X_.pXaXaXm _.[ ] ] ] ] ] ] ] ] ] ] ] ] ] ] ] ] Q w.SX! 5X5X5X5X5X5X5X5X5X5X5X5X5X5X;X5X5X5X5X5X5X5X5X5X5X5X5X5X5X5X5X5X5X5X5X5X5X5X5X5X5X5X5X5X5X5X5X5X5X5X5X5X5X5X5X5X5X5X5X5X5X5X5X5X5X5X5X5X5X5X5X5X5X5X5X5X5X5X5X5X5X5X5X5X5X5X5X5X5X5X5X5X5X5X5X5X5X5X5X5X5X5X5X5X5X5X5X5X5X5X5X5X5X5X5X5X5X5X5X5X5X5X5X5X5X5X5X5X5X5X5X5X;X5X5X5X5X5X5X5X5X5X5X5X5X5X5X5X5X5X5X5X5X5X5X4XOX. $ X X X $ X X X $ X $ + $ X X X % X X X % X X X % [.% X % X % X % X X X & X & X @.X & X $ X & X & X X X X X & X $ X $ X & X X X & X X X & X X X @.X X X % X X X & X X X & X X X % X X X % X @.X % X X X @.X $ ",
"  + X X % R.h.C.%.&.2 9.4 y 5 5 5 q 5 q q e q e e r e t e r q e q w q q q q q q q q 9 q 9 q 9 q 9 q 9 q ;.q q q q w q e q r t t e y t y t y t y e r t t e r t t e r t t e y t y t y u y t y u p u p a P a d a P p d P d P s P s P h :.h S.h h h :.L :.h S.h S.h h >.:.>.L z >.k.L >.>.c k.K K Q.Q.3.6.S - N.% % p.* = N.= N.= N.= N.= % % X X X X + X o X X X + % + % X % % % [.% X X + X @ X X X X X @ X @ X + zX5X;X2X9X9X9X9X9X9X9X;XB J.iXgX] -X{ ] ] tX] ] ] ] ] ] ] tX] ] ] tX] _.8.0 c.5X5X5X5X5X5X5X5X5X5X5X5X5X5X5X5X5X5X5X5X5X5X5X5X5X5X5X5X5X5X5X5X5X5X5X5X5X5X5X5X5X5X5X5X5X5X5X5X5X5X5X5X5X5X5X5X5X5X5X5X5X5X5X5X5X5X5X5X5X5X5X5X5X5X5X5X5X5X5X5X5X5X5X5X5X5X5X5X5X5X5X5X5X5X5X5X5X5X5X5X5X5X5X5X5X5X5X5X5X5X5X5X5X5X5X5X5X5X5X5X5X5X5X5X5X5X5X5X5X5X5X5X5X;X5X5X5X5X5X5X5X5X5X5X5X5X5X5X5X5X5X5X5X5X5X;XzXo @ X X X + X X X + X @ X @ X X X X X X X # X X % # & X @.X & X & # X X X o X X X X X X X @ X # X X X @ X @ X X X @ X X X X + + X X X X X X X X X X X X X # X X X # X X X X X X X # X X X # X X X X X X & X X $ ",
". $ X % R.K.4.> %.< 1 9.9.4 4 V.5 5 e 5 e q t e e e t e t e t e e q e q q q q 5 q q q 9 q 9 q 9 q 9 q 9 q 5 q 5 q q e q e e t e t e t e t e t e t e t e t e t e t e t e t e y t t t y u u u p u T u p T a a P p P a d a d P d P d S.h d :.d h S.h :.L S.:.S.h S.h :.L :.A.L >.L >.L z A.c  X2.2.Q.J A : D F % N.% = N.F F - - 5.S 5.- - N.p.X $ X X X % & p.% p.% p.% N.N.= N.N.p.% X X X X X X X X X $ X X X $ 6X5X5X2X9X9X9Xc.9X9X9X5X[ cXpXv.] w.w.m ] ] ] ] ] ] ] } ] ] ] ] ] ] { [ ;.w 2X5X5X5X5X5X5X5X5X5X5X5X5X5X5X5X5X5X5X5X5X5X5X5X5X5X5X5X5X5X5X5X5X5X5X5X5X5X5X5X5X5X5X5X5X5X5X5X5X5X5X5X5X5X5X5X5X5X5X5X5X5X5X5X5X5X5X5X5X5X5X5X5X5X5X5X5X5X5X5X5X5X5X5X5X5X5X5X5X5X5X5X5X5X5X5X5X5X5X5X5X5X5X5X5X5X5X5X5X5X5X5X5X5X5X5X5X5X5X5X5X5X5X5X5X5X5X5X5X;X5X5X5X5X5X;X5X5X5X5X5X5X5X5X5X5X5X5X5X5X5X5X5X5X5X5X5XbXMX& X X X $ X $ X X + $ X X X $ X & X % X X X % X % X % X % X % X @.X $ X X X X X & X & X X X X X X X & X X X X X X X & X X X $ X & X @.X X X @.X X X @.X & X @.X & X @.X X X X X @.X @.X & X $ X X X @.X @.X   ",
"  . $ X N.F E.$., < 2 3 e e 5 e 5 q q e e e e y e y e y t y e t e e q e q e q e q q q q q q 9 q 5 q 9 q q q q e q e q t e t e y e y t y t y e y e t e y e t e r e t e y e y t i u y u p u p u p u a 0.p a P a d p d P s d d P h S.h S.h S.:.S.h :.>.L >.L h S.h :.h 7.>.L >.L >.>.c A.c c 2.0X2.2.u.g.S #.N.N.% N.N.F F 4.5.j.A 6.6.6.H - U.% X & % N.% N.* N.% N.N.a.a.F F h.= = * p.# X X X + X o X X X X & M.6X5X5X;X9X9X9X9X9X9X2Xc.n aXi.N ] { _.{ ] ] ] ] ] ] ] ] ] ] ] ] ] ] _.Y BXD.;X5X5X5X5X5X5X5X5X5X5X5X5X5X5X5X;X5X5X5X5X5X5X5X5X5X5X5X5X5X5X5X5X5X5X5X5X5X5X5X5X5X5X5X5X5X5X5X5X5X5X5X5X5X5X5X5X5X5X5X5X5X5X5X5X5X5X5X5X5X5X5X5X5X5X5X5X5X5X5X5X5X5X5X5X5X5X5X5X5X5X5X5X5X5X5X5X5X5X5X5X5X5X5X5X5X5X5X5X5X5X5X5X5X5X5X5X5X5X5X5X5X5X5X5X5X5X5X5X5X5X5X5X5X5X5X5X5X5X5X5X5X5X5X5X5X5X5X5X5X5X5X5X5X5X5X5X4XOXX X @ X X X @ X X X @ X X X X X X X # X X X X X X % X p.[.p.X X X X o X X X X X X X X X X X X X X X @ X # X X X X X @ X X X X X X X X X X X X X X X X X X X X X X X X X X X X X X X X X X X X X X X X X X @.$ ",
". $ X % * #.+X> %.*.1 9.e V.4 V.e 5 e e e e t e u e u e u e t e t q e q e q q q q q q q q 9 q 9 q 9 q 9 q 5 q q e q e e e e t e t e t 9.t e t e t e t e t e t e t e t e t e u u y u u u T u u u p u a T d a P P d P f P h P :.S.h S.L L h S.h 7.L 7.L L L 7.:.P :.P :.h L 7.L L k.A.k.A.c  X$XK 2.2.3.C.F F N.|.F - 4.C.: 6.3.Q.Z Q.u.6.4.F % N.N.F a.F N.N.N.N.= h.G ; S ; 5.4.#.#.= N.% % X % X p.X % % p.% MX4X5X5X4X9Xc.9X9X9X_.9XJ.c.8.m ] ] } w.w.] } ] ] ] m ] ] ] ] ] ] ] { ! VXBXJ.5X5X5X5X5X5X5X5X5X5X5X5X5X5X5X;X5X5X5X5X5X5X5X5X5X5X5X5X5X5X5X5X5X5X5X5X5X5X5X5X5X5X5X5X5X5X5X5X5X5X5X5X5X5X5X5X5X5X5X5X5X5X5X5X5X5X5X;X5X5X5X5X5X5X5X5X5X5X5X5X5X5X5X5X5X5X5X5X5X5X5X5X5X5X5X5X5X5X5X5X5X5X5X5X5X5X5X5X5X5X5X5X5X5X5X5X5X5X5X5X5X5X5X5X5X5X5X5X5X5X5X5X5X5X5X;X5X5X5X5X5X5X5X5X5X5X5X5X5X5X5X5X5X5X5X5X5X4XmX$ X X X X X $ X & X X X & X X X % X % X % X $ X p.@.p.[.p.X $ X & X X X $ X X X X X @.X % X & X & X X X @.X @.X % X X X % X @.X % X @.X % X X X & X X X & X X X & X X X & X X X @.X @.X % X X X & X X X @.X $ ",
"  O X & * * F - j.^.1 2 9.y 4 e q w e y e y t y u y u y t y t y e r e t q t q e q e q q q e q q q q q q q e q e e r e t e y t y t y u y t y t y t y t t t y t y t y t y t y u y u p u y u p 0.p a p a d P h S.h S.>.L k.L z >.k.>.k.k.$Xk.K k.k.A.k.>.>.L L :.h P h :.h :.>.L c >.c A.c C c A.c c Q.J j.5.F D G 4.5.j.6.^.3.Q.Z 2.u.Z g.5.|.|.F 4.- F qX= N.= F - 4.C.C.j.: j.C.C.- #.= N.% % % p.% N.* = U.N.OX4X5X5X5X9X9X9X9X9X;Xt.w c.{ ] ] ] { ] _.{ ] ] ] ] ] ] ] ] tX] Q { 2XD.FXBXU 5X5X5X5X5X5X5X5X5X5X5X5X5X5X5X5X5X5X5X5X5X5X5X5X5X5X5X5X5X5X5X5X5X5X5X5X5X5X5X5X5X5X5X5X5X5X5X5X5X5X5X5X5X5X5X5X5X5X5X5X5X5X5X5X5X5X5X5X5X5X5X5X5X5X5X5X5X5X5X5X5X5X5X5X5X5X5X5X5X5X5X5X5X5X5X5X5X5X5X5X5X5X5X5X5X5X5X5X5X5X5X5X5X5X5X5X5X5X5X5X5X5X5X5X5X5X5X5X5X5X5X5X5X5X5X5X;X5X5X5X5X5X5X5X5X5X5X5X5X5X5X5X5X5X5X5X5X5XbX. X X X X X + X X X X X X X X X X X X X # X X @.# & X X . + . X X X X X X X X X X X X X # X X X X X X X X X X X # X X X # X X X X X X & # X X X X X X X X X X X X X X X X X X X X X X & # X X X X X X X + X M.",
"  $ X p.* {.= - $.B.&.s.2 9.9.4 e e e e t e y e u t y t u t y e t e t e e q e q q q q q q q q 5 q 5 q 9 q 5 q q e e e e t e y t u u y t u t u t t e t e t e y t t t u t u t y u i u p u a y a T p a P a d 7.A.k.K 0X2. XK K 2.2.2. X%X X2.K K A.k.A.k.L L :.h S.:.S.h S.:.:.>.L C k.z A.>.:.L L k. X2.Q.g.A H j.j.3.3.Q.2.$XK  Xc $XQ.^.: G.5.6.j.5.F F = F G ; 5.j.j.%.6.%.6.%.6.j.5.4.F F = F a.#.h.+X- - F &X4X5X5X;X2X9X9Xc.9X2XJ.FXl.w.] ] ] ] ] ] _.] ] ] ] ] Q ] { Q w.{ [ E FX8 FXV 5X5X5X5X5X5X5X5X5X5X5X5X5X5X5X;X5X5X5X5X5X5X5X5X5X5X5X5X5X5X5X5X5X5X5X5X5X5X5X5X5X5X5X5X5X5X5X5X5X5X5X5X5X5X5X5X5X5X5X5X5X5X5X5X5X5X5X5X5X5X5X5X5X5X5X5X5X5X5X5X5X5X5X5X5X5X5X5X5X5X5X5X5X5X5X5X5X5X5X5X5X5X5X5X5X5X5X5X5X5X5X5X5X5X5X5X5X5X5X5X5X5X5X5X5X5X5X5X5X5X5X5X5X5X5X5X5X;X5X5X5X5X5X5X5X5X5X5X5X5X5X5X5X5X5X5X5X5X6X  X % X X X $ X @.X % X X X $ X X X % X X X % X & X $ + X X $ X X X & X X X X X X X & X X X & X X X X X X X X X @.X % X X X X X X X @.X X X $ X X X & X X X & X X X & X X X $ X X X & X X X $ X X X X X $ X $ ",
"  + % @.* = h.$., &.*.*.2 0.9.y e t e y t y e y u y t y u y t y t t e t q e q w q e q e q q q q q q 5 q q q q e e e e y t y t y u p u y u y t y t y t y t y t y u y u p u p u p ^ p ^ p a p T d p d P h S.z K 3.6.g.3.3.^.3.3.g.J Q.(.Q.2.Q.2.2.C K C x L >.:.h :.h :.x L >.A.c C c >.z h >.h >.L c c Z Z 3.3.3.J Q.2.2.C c A.z >.x C ` Z 3.Q.^.6.S D F #.- C.H j.6.^.6.J 3.J ^.J 3.6.j.: S S 5.C.$.> j.j.C.4.zX;X5X5X5X;X9X9X9X2Xl.VXFXE =X] tX] ] ] ] { { ] ] ] { >X>Xn [ <.lXv.D.FXVXBXt.5X5X5X5X5X5X5X5X5X5X5X5X5X5X5X5X5X5X5X5X5X5X5X5X5X5X5X5X5X5X5X5X5X5X5X5X5X5X5X5X5X5X5X5X5X5X5X5X5X5X5X5X5X5X5X5X5X5X5X5X5X5X5X5X5X5X5X5X;X5X5X5X5X5X5X5X5X5X5X5X5X5X5X5X5X5X5X5X5X5X5X5X5X5X5X5X5X5X5X5X5X5X5X5X5X5X5X5X5X5X5X5X5X5X5X5X5X5X5X5X5X5X5X5X5X5X5X5X5X5X5X5X5X5X5X5X5X5X5X5X5X5X5X5X5X5X5X5X5X5X5X5X5X5X5X5X5X5X4XOX% X X X X X X X X X & X X X X # X X X X X X X X X X X X X X X X X # X X X X X # X X X X X X X X X X & X X + X X @.# & X X o X X X X X X X X X + X X X X X X X X X X X X X X X X X X X X X X X X X X X X X . ",
"M.$ X * * #.; B.&.s.1 2 2 4 e e e 4 e e t e t u y u u u u e t e t e e q e q q q q 5 q q q 5 q 5 q ;.q 5 q 5 q q e q e e t e y u p u u u u 9.u t u 9.t t u 9.u u u u u u p u u u p u a T p T p p P P S.S.A.%X3.j.S 5.5.: H j.j.3.J Z.Q.2.Q.2.Q.2.K  XK A.A.:.L :.L :.>.L z L C %XC L >.S.h S.L :.>.A.K 2.Z Q.J 2.2. XC A.z L L :.h f h :.A.L A. X3.: - - - C.: 6.6.J J Q.J Z.2.Z.2.(.Z.Z.J J ^.J J &.J J j.C.D '.5X5X5X5X;X9X9Xc.4XJ.FXBXJ.2XQ ] ] ] ] ] Q ] ] ] m gXsXpXpXjXjXlXE FXVX8 8 t.5X5X5X5X5X5X5X5X5X5X5X5X5X5X5X5X5X5X5X5X5X5X5X5X5X5X5X5X5X5X5X5X5X5X5X5X5X5X5X5X5X5X5X5X5X5X5X5X5X5X5X5X5X5X5X5X5X5X5X5X5X5X5X5X5X5X5X5X5X5X5X5X5X5X5X5X5X5X5X5X5X5X5X5X5X5X5X5X5X5X5X5X5X5X5X5X5X5X5X5X5X5X5X5X5X5X5X5X5X5X5X5X5X5X5X5X5X5X5X5X5X5X5X5X5X5X5X5X5X5X5X5X5X5X5X5X5X;X5X5X5X5X5X5X5X5X5X5X5X5X5X5X5X5X5X5X5X5X;X/.& % & % [.X X p.X % X % X X X $ + X X $ + X X & X X X % X X X % X X X & X X X $ X X X & X X X & X % X % X X X @.X @.X % X X o $ X X X & X X X & X X X % X X X & X X X & X X X & X X X & X X X & X % X % X $ ",
"  . X % = a.E.> %.Z.2 2 e 9.e e e y e t e y t y u y u y t y t t e r t t q e q e q w q e q e q q q q q q q q q e e r t t t y u i u p u y t y u y t y u y t y t y u p u p u p a p a p a P a s P s P h :.k.2.g.C.D D F D G 4.S g.^.K 2.2.u.J 3.Q.Z 2.2.%Xc k.C L x L C k.z A.c %Xc A.A.L h :.L :.>.L K K 2.2.2.0X2.$XK A.z L >.:.h f h f h f h h $XQ.A 5.S 5.H g.6.J ^.2.2.2.2.Z.2. X%XA. XA.%XA. X XQ.J j.; F qX6X5X5X5X5X;X2X9X2Xc.SXDXVXSX9XB ] ] ] { _.] tXT.sXpXiXiXiXaXpXjX} J.FXVXVXP.B 5X5X5X5X5X5X5X5X5X5X5X5X5X5X5X5X5X5X5X5X5X5X5X5X5X5X5X5X5X5X5X5X5X5X5X5X5X5X5X5X5X5X5X5X5X5X5X5X5X5X5X5X5X5X5X5X5X5X5X5X5X5X5X5X5X5X5X5X5X5X5X5X5X5X5X5X5X5X5X5X5X5X5X5X5X5X5X5X5X5X5X5X5X5X5X5X5X5X5X5X5X5X5X5X5X5X5X5X5X5X5X5X5X5X5X5X5X5X5X5X5X5X5X5X5X5X5X5X5X5X5X5X5X5X5X5X5X5X;X5X5X5X5X5X5X5X5X5X5X5X5X5X5X5X5X5X5X5X;X6X$ X % X X X @.# X X X # X X X X X X X X X X X X X X X X X X X # X + X X X X X @ X X X X X X X X X X & # X X X X X X X # X + X o X X X X X X X X X X X X X X X # X X X X X X X X X X X X X X X X X X X X X . ",
"M.$ X * N.h.; > , < 1 4 e L.e 4 e e t e t e y t u u y t u t y e t e t q q q q q q q e q q q q 5 q q q q q q q q e e t e t t y t u u u t u u y t u t y t u t y u u u p u a u p a p p d P d P P P h L $X0X6.5.F F N.= = F - j.3.0XK k.K 2.u.Q.Q.2.2.$XK %XK C c A.c >.z >.k.A.c L k.h h P :.:.L :.k. XK (.K  Xc A.c c c L >.:.h d h d f d f d L A.Q.3.A j.: 6.6.Q.2. X%Xk. X XK  X XA.k.7.Y.S.7.7.(.J : S F = M.6X5X5X5X5X;X9X9X2XV BXP.8 P.[ 2X} ] ] _.{ ] dXiXjXiXiXiXaXiXjXsX} 0 DXVXFXSXc.5X5X5X5X5X5X5X5X5X5X5X5X5X5X5X5X5X5X5X5X5X5X5X5X5X5X5X5X5X5X5X5X5X5X5X5X5X5X5X5X5X5X5X5X5X5X5X5X5X5X5X5X5X5X5X5X5X5X5X5X5X5X5X5X5X5X5X5X5X;X5X5X5X5X5X5X5X5X5X5X5X5X5X5X5X5X5X5X5X5X5X5X5X5X5X5X5X5X5X5X5X5X5X5X5X5X5X5X5X5X5X5X5X5X5X5X5X5X5X5X5X5X5X5X5X5X5X5X5X5X5X5X5X5X5X5X5X5X5X;X5X5X5X5X5X5X5X5X5X5X5X5X5X5X5X5X5X5X5X6XM.$ X $ X % X % & % X X X $ X X X $ X X X $ X X X $ X X + $ X & X & X X X % X X X $ X X X $ X X X & X X + $ X X X $ X X X & X X X $ X X X X X X X $ + X X $ X X X $ X X X % X X X $ X X X $ X X X & X $ X $ ",
"  . % [.N.a.$.%.&.*.1 2 4 9.4 9.e e e y t y t y u y t y u y e y e t q w q e q e q e q e q e q e q q q e q q q e e t e y t y t y u y u i u y u i u y u i u i u p u p u p a p a p p s P f d f P >.K u.3.6.5.= N.% % % N.F C.3.0X0Xc C  XZ Q.Q.0XZ 2.2.0X2.2.2.K 0X$Xc k.c k.C k.C >.>.:.g :.h :.z z K K 2.K K C K c K C c A.x :.h f f f g f h :.c 2.u.^.6.6.6.J Q. Xk.L k.L k.k. XA.L 7.h S.S.7.%XQ.j.; F = U.OX4X5X5X5X5X;X2X9X9Xw VXVXP.P.l.;X{ ] _.m m m jXiXiXiXiXiXiXiXiXm Y BXVX8 8 w 2X5X5X5X5X5X5X5X5X5X5X5X5X5X5X5X5X5X5X5X5X5X5X5X5X5X5X5X5X5X5X5X5X5X5X5X5X5X5X5X5X5X5X5X5X5X5X5X5X5X5X5X5X5X5X5X5X5X5X5X5X5X5X5X5X5X5X5X5X5X5X5X5X5X5X5X5X5X5X5X5X5X5X5X5X5X5X5X5X5X5X5X5X5X5X5X5X5X5X5X5X5X5X5X5X5X5X5X5X5X5X5X5X5X5X5X5X5X5X5X5X5X5X5X5X5X5X5X5X5X5X5X5X5X5X5X5X5X5X5X5X5X5X5X5X5X5X5X5X5X5X5X5X5X5X5X5X5X5X5X4XOXX @.X p.@.% % p.# X X X X X X X X X X X X X X X X X X X @ X X X X X X X X X X X X X X X X X X X X X X X o X X X X X X X X X X & X X X X o X X X @ X X X X X X X X X X X X X X X X X X X X X X X X X X X . ",
"  % * N.* h.; B.&.s.2 4 9.4 4 5 e q e q t e t 9.u t u u u t t e t q e q q 5 q q q 5 q q q q q q e q q q q 5 q q e q t e t t u t u t u t u t u t u t u u y u u u p u a u p ^ p a P a d P s P :.A.3.: 5.4.= N.% % X p.= ; 6.(.C C c L A.c K $X2.2.Z 0X2.0X2.2.` 2.K A.c  Xc A.c k.x S.:.d :.:.z L c C 2.$X2.$XK K K $XK c C >.:.P f P f P :.P :.L C (.Q.Q.Q.2.2. Xk.S.h S.h S.h 7.h S.S.S.S.S.L  X^.j.- #.* N.zX4X5X5X5X5X;X9X2X! ;.DXVXDX;.l.=X{ *Xm cX8.O.jXiXiXiXaXiXiXiXpX} VXVX8 VXFX1X2X5X5X5X5X5X5X5X5X5X5X5X5X5X5X5X5X5X5X5X5X5X5X5X5X5X5X5X5X5X5X5X5X5X5X5X5X5X5X5X5X5X5X5X5X5X5X5X5X5X5X5X5X5X5X5X5X5X5X5X5X5X5X5X5X5X5X5X5X5X;X5X5X5X5X5X5X5X5X5X5X5X5X5X5X5X5X5X5X5X5X5X5X5X5X5X5X5X5X5X5X5X5X5X5X5X5X5X5X5X5X5X5X5X5X5X5X5X5X5X5X5X5X5X5X5X5X5X5X5X5X5X5X5X5X5X5X5X5X5X;X5X5X5X5X5X5X5X5X5X5X5X5X5X5X5X5X5X5X5X4XzXp.p.R.* R.% p.@.% X % X X X & X X X & X X X & X X X % X X X @.X X X & X X X % X X X & X X X % X X X & X X X % X X X % X % @.@.X % X & X X X % X X X % X X X % X X X & X X X & X X X % X X X % X % X % X $ ",
"U.% a.K.h.- $.g.&.< 2 2 4 9.e e q w q e e r t y u p u y t i t t e r e e q q q q q w q e q t q t q r e e q w e e e y t y t y u y u i u i u i u i u i u i u p u p a p a p a s p s P s d s d h h 0Xg.#.F N.p.X & X X $ F C.J 2.A.z x z h z C v 2.Z 2.Z 2.` K ` 2.Z 2.` K K c c C C >.>.L x >.c C c C K K ` 2.Z 2.` K ` 2.` $X$XL h f h f h f h :.>.L C  XK c K k.>.:.h d d P h d Y.S.h S.Y.S.L k.^.6.S G = N.  bX5X5X5X5X5X;X2X2XI.DXVXVXVXSXc.8.x.{ J.jXgXT.aXiXiXiXiXiXiXjXm Y FXVXP.8 ZX1X;X5X5X5X5X5X5X5X5X5X5X5X5X5X5X5X5X5X5X5X5X5X5X5X5X5X5X5X5X5X5X5X5X5X5X5X5X5X5X5X5X5X5X5X5X5X5X5X5X5X5X5X5X5X5X5X5X5X5X5X5X5X5X5X5X5X5X5X5X5X5X;X5X5X5X5X5X5X5X5X5X5X5X5X5X5X5X5X5X5X5X5X5X5X5X5X5X5X5X5X5X5X5X5X5X5X5X5X5X5X5X5X5X5X5X5X5X5X5X5X5X5X5X5X5X5X5X5X5X5X5X5X5X5X5X5X5X5X5X5X5X;X5X5X5X5X5X5X5X5X5X5X5X5X5X5X5X5X5X5X5XbX& p.% p.% % # @.X X X X X X X X X X X X X X X X X X X X X X X X X X X X X X X X X X X X X & # X X X O X X X X X X $ + * 4.> : #.$ $ X X X X # X X X # X X X # X X X X X X X X X X X # X X X X X X X X X . ",
"U.N.= +X$.> %.B.Z.1 1 9.9.4 e 5 e 5 e q e e y t y u y t u t y e t e t q q q q q q q e q e e e q e e e q e q e q t e t e u t y u u t y t u u i u i u i u a u p u a a p a P a P a d P s P s d >.Z.j.- = F = = % p.U.F 5.J 2.C z :.h :.h :.z $X` 2.2.0X` $XK c ` 2.2.K ` K $Xk.x L z >.c z c C c C $XC $X$X2.K ` K 2.K ` 2.` K A.S.:.d :.P :.P h :.h :.h :.L :.h P f P d a P a P !.P a d d Y.7.Z.J : 4.a.= * ].6X5X5X5X5X5X;X9X4XE FX8 VXFXw l.lXv.8.jXcX+.gXjXiXaXiXiXiXjXpX! w FXVX8 VXBXD.;X5X5X5X5X5X5X5X5X5X5X5X5X5X5X5X5X5X5X5X5X5X5X5X5X5X5X5X5X5X5X5X5X5X5X5X5X5X5X5X5X5X5X5X5X5X5X5X5X5X5X5X5X5X5X5X5X5X5X5X5X5X5X5X5X5X5X5X5X5X5X5X5X5X5X5X5X5X5X5X5X5X5X5X5X5X5X5X5X5X5X5X5X5X5X5X5X5X5X5X5X5X5X5X5X5X5X5X5X5X5X5X5X5X5X5X5X5X5X5X5X5X5X5X5X5X5X5X5X5X5X5X5X5X5X5X5X5X5X5X5X5X;X5X5X5X5X5X5X5X5X5X5X5X5X5X5X5X5X5X5X6X].% p.& % X X X $ X X X $ X X X $ X X X & X X X $ X X X $ X X X & X X X $ X X X $ X X X % X @.X & X X + % X X X X + N.C.s.4 =.1 - . X + @.X @.X $ X & X & X X X $ X X X $ X X X & X X X % X X X % X $ X   ",
"U.* F h.> ^.&.&.< < 1 0.4 9.4 e q e q w e t e y u y u y u y t y e t e t q e q e q e q t e t e t e t q t q t q t e t e y u y u i u i u i u i u i u i u p ^ p ^ p a p a s p s p s d s d f f h >.Z j.D - 4.4.F F G H H 6.3.2.K x z :.h :.z >.K K ` 2.Z 2.` $Xc c ` K K C K c C >.z x c c ` C $Xc K $XK C K c ` K ` 2.2.2.u.Z u.C >.h >.:.h :.h f h f f f g f f d s P s a d a p T d a P a S.L (.J : 5.F |.N.N.OX4X5X5X5X5X5X;X9X2Xt.FXVX8 VXw c.lX8.aXaXjXm 8.iXiXiXiXiXiXjX<.<.BXP.VXVXVX8 J.5X5X5X5X5X5X5X5X5X5X5X5X5X5X5X5X5X5X5X5X5X5X5X5X5X5X5X5X5X5X5X5X5X5X5X5X5X5X5X5X5X5X5X5X5X5X5X5X5X5X5X5X5X5X5X5X5X5X5X5X5X5X5X5X5X5X5X5X5X5X5X5X5X5X5X5X5X5X5X5X5X5X5X5X5X5X5X5X5X5X5X5X5X5X5X5X5X5X5X5X5X5X5X5X5X5X5X5X5X5X5X5X5X5X5X5X5X5X5X5X5X5X5X5X5X5X5X5X5X5X5X5X5X5X5X5X5X5X5X5X5X5X5X;X5X5X5X5X5X5X5X5X5X5X5X5X5X5X5X5X5X4XmX& X X X X X X X X X X X X X X X X X X X X X X X X X X X X X X X X X X X X X & X X X X # & X @.X X X X # X o % % = : s.5 7 7 KX*.#.U.N.= = $ X X X X @.X X X X X X X X X X X X X X X X X @.X X # X X $ $ ",
"|.h.4.: %.&.&.s.1 s.3 4 e 5 e 5 e 5 e q e e t 9.y 9.u t u e t e t e e e e q e q e 5 e q t e e q t q e q t q t e t e t t y t u t i t u u i u u u p u u u p u a ^ p a p a d a d P s P f d h :.2.3.H : G F U.|.F C.5.G.H 3.2.C z :.:.P :.:.x C K 2.Z Q.` K c A.C x C >.x L z L x x C A.K c $X%XK K K C C >.C C K K ` K K 2.Z 2.K >.k.k.c z >.S.f d f P d P s P d a p a a a p u a T p !.S.7. XQ.j.C.D #.= = N.&X4X5X5X5X5X5X;Xc.2Xt.VXDXVXFX1Xl.pXjXiXaXaXT.8.jXiXjXaXaXiXaXQ w DXVXVXDXVXBXJ.;X5X5X5X5X5X5X5X5X5X5X5X5X5X5X5X5X5X5X5X5X5X5X5X5X5X5X5X5X5X5X5X5X5X5X5X5X5X5X5X5X5X5X5X5X5X5X5X5X5X5X5X5X5X5X5X5X5X5X5X5X5X5X5X5X5X5X5X;X5X5X5X;X5X5X5X5X5X5X5X5X5X5X5X5X5X5X5X5X5X5X5X5X5X5X5X5X5X5X5X5X5X5X5X5X5X5X5X5X5X5X5X5X5X5X5X5X5X5X5X5X5X5X5X5X5X5X5X5X5X5X5X5X5X5X5X5X5X5X5X5X5X;X;X5X5X5X5X5X5X5X5X5X5X5X5X5X5X5X5X5X;XzX$ & X % X % X X X & X X X & X X X & X X X % X X X & X X X & X X X & X X X & X X X & X X X % X @.X % & % % #.> , Z.2 =.KX7 CX7 V.*.&.Z.s.&.: F % + & X % X & X X X % X % X % X X X % X % X % X % X @.X   ",
"; S $.> B.J &.*.s.1 3 9.V.4 4 e e w e e e y t y u y u y u y t y t y t t e r e t e r e t e r e t e r t t e r t y t y u y u i u i u i u i u i u p u p u p a p a p a s P s d f f h f h f h :.c u.n.H D |.$ &   4.H A g.Q.$X>.v z z :.x h z C c K Z 3.3.2.K x z x z h l h x x c z C z $XK ` $X` 2.Z 2.K C z z c c ` K ` $XK K ` c c C ` f.c :.h f f d f d f d s P s p d a p a p a d P Y.7.K Q.g.H - D |.F = F zX;X5X5X5X5X5X4X9X2Xl.0 VXVXZX1Xc.pXiXiXpXaXpXaXiXaXsXaXaXcX<.E FXVXVXVXVXVXFXJ.5X5X5X5X5X5X5X5X5X5X5X5X5X5X5X5X5X5X5X5X5X5X5X5X5X5X5X5X5X5X5X5X5X5X5X5X5X5X5X5X5X5X5X5X5X5X5X5X5X5X5X5X5X5X5X5X5X5X5X5X5X5X5X5X5X5X5X5X5X5X5X5X5X5X5X5X5X5X5X5X5X5X5X5X5X5X5X5X5X5X5X5X5X5X5X5X5X5X5X5X5X5X5X5X5X5X5X5X5X5X5X5X5X5X5X5X5X5X5X5X5X5X5X5X5X5X5X5X5X5X5X5X5X5X5X5X5X5X5X5X5X5X5X;X5X5X5X5X5X5X5X5X5X5X5X5X5X5X5X5X5X5X6X& X X X X X X X X # X X X X X X X X X X X X X X X X X X X X X X X X X X X X X X X @ X X @.# X X [.# $ U.> &.7X6 6 5 7 7 8 7 8 9 6 5 6 P.7 9.< : * X X X X X X X @.# X X X # X X X # X X @.X X X X X @.$ ",
": > > , J Z., s.s.2 3 4 L.V.e e e e e q e e y t u u y u u t y t u t y e t e t e t e t e t e t e t e t e t e y t t t y t u u i u u u i u u u i u a u a u a a p a P P s P s d h d :.f h d h z Z 3.A : F |.= F - 3.Z C x :.x x c h l :.z x C z ` ` u.Q.K C x l l :.h :.l :.x z c A.C C v c K K ` 2.` $Xc z C C K C c C K C c C z L x A.C :.:.d f d s d f d s P P p P a p a a a P a S.7.(.Z.6.j.S 5.G #.F #.F '.5X5X5X5X5X5X;X9X2Xl.5 DXVXBXD.n pXaXiXaXiXaXaXpXgX{ Q aXaX} D.FXVX8 VX8 VXBXY 5X5X5X5X5X5X5X5X5X5X5X5X5X5X5X5X5X5X5X5X5X5X5X5X5X5X5X5X5X5X5X5X5X5X5X5X5X5X5X5X5X5X5X5X5X5X5X5X5X5X5X5X5X5X5X5X5X5X5X5X5X5X5X5X5X5X5X5X;X5X5X5X;X5X5X5X5X5X5X5X5X5X5X5X5X5X5X5X5X5X5X5X5X5X5X5X5X5X5X5X5X5X5X5X5X5X5X5X5X5X5X5X5X5X5X5X5X5X5X5X5X5X5X5X5X5X5X5X5X5X5X5X5X5X5X5X5X5X5X5X5X5X5X5X;X5X5X5X5X5X5X5X5X5X5X5X5X5X5X5X5X5X6XM.[.X $ X X X $ X X X & X X X $ X X X & X X X % X X X $ X X X $ X X X $ X X X & X X X $ X @.X % X % a.%.2 6 7 DX7 -.7 -.8 -.7 -.7 8 7 -.7 7 4 s.S % X % X X X % X X X % X X X % X X X % X % X % X @.X % ",
"S ; > ^., ^.Z.&.1 1 2 0.4 e 4 w e t e y e y t y u i u y u y u y u y t y t t e y t y e y e t e y e t e y t y t y u y t y u i u i u i u i u i u p ^ p ^ p a p a s d s P f d f f h :.h :.l x c K 3.3.A G.D 5.5.6.Z C z h z c v x z l l l v z c K ` ` ` C z l l h l j z x C C ` K ` f.` K ` K ` K ` K ` K ` c c C c x K K ` C c x C x x L l :.h f h f f s g s f P s p s a p a d p :.h K Q.g.g.H C.- - F #.F #.6X5X5X5X5X5X5X2X9X9X9XSX8 8 DXJ.B aXiXaXiXiXiXdXm ] ] w.} 8.} VXVXVXP.VXVX8 FXY 5X5X5X5X5X5X5X5X5X5X5X5X5X5X5X5X5X5X5X5X5X5X5X5X5X5X5X5X5X5X5X5X5X5X5X5X5X5X5X5X5X5X5X5X5X5X5X5X5X5X5X5X5X5X5X5X5X5X5X5X5X5X5X5X5X5X5X5X5X5X5X5X5X;X5X5X5X5X5X5X5X5X5X5X5X5X5X5X5X5X5X5X5X5X5X5X5X5X5X5X5X5X5X5X5X5X5X5X5X5X5X5X5X5X5X5X5X5X5X5X5X5X5X5X5X5X5X5X5X5X5X5X5X5X5X5X5X5X5X5X5X5X5X5X5X;X5X5X5X5X5X5X5X5X5X5X5X5X5X5X5X5X;XmXo $ X X X X X X X X X X X X X X X X X X X X X X X X X X X X X X X X X X X X X X X X X X X @.X & * , L.7 7 -.7 8 7 -.7 8 7 8 7 7 7 8 7 7 7 9 3 Z.= % X X X @.X & X @.X X X X # X X X # X X @.X & X % $ ",
"#.+X$.%., &.&.< 2 9.2 4 9.4 e e y e e e u e u u y u u u u u u u u u u 9.u e t e t e t e t e t e t e t e t 9.t t u t y t y t u u i u u u i u u u ^ u a ^ a a p a s a d d f P :.:.x :.x h z z $XK ` 0X3.3.X.2.$Xx x :.l z ` K c x k l x x c x C x c >.x :.l :.l l z x c c ` 2.` 2.Z 2.Z 2.` C $Xc K c K K c k.C A.C C c C c A.z k.x :.h :.:.f :.f f d f d f P s p s a p a p a d S.k.2.^.^.j.j.C.; S 5.G - |.6X5X5X5X5X5X;X2Xc.9Xc.w BXVXBXJ.[ aXiXiXiXjXyX] ] ] ] ] w.-XJ.BX8 VX8 VXDXVXBX8.5X5X5X5X5X5X5X5X5X5X5X5X5X5X5X5X5X5X5X5X5X5X5X5X5X5X5X5X5X5X5X5X5X5X5X5X5X5X5X5X5X5X5X5X;X5X5X5X5X5X5X5X5X5X5X5X5X5X5X5X5X5X5X5X5X5X5X5X;X5X5X5X5X5X5X5X5X5X5X5X5X5X5X5X5X5X5X5X5X5X5X5X5X5X5X5X5X5X5X5X5X5X5X5X5X5X5X5X5X5X5X5X5X5X5X5X5X5X5X5X5X5X5X5X5X5X5X5X5X5X5X5X5X5X5X5X5X5X5X5X5X5X5X5X5X;X;X5X5X5X5X5X5X5X5X5X5X5X5X5X5X5X;XbX  X % X $ X X X % X X X & X X X & X X X & X X X & X X X & X X X % X % X & X X X & X $ X $ X N.a.- &.LX7 KX8 -.7 -.8 -.7 -.7 8 7 8 7 8 7 8 9 5 1 : % @.X % X % X % X % X % & % X % X % X % X % X % X % ",
"#.#.$.%., Z.&.*.2 0.9.0.9.y 9.y 9.y t y u T u y u p u p u i u y u p u y u y u y t y t y t y t t e y t y t y t y t i u y u i u i u i u i u p i a i p a p a s P s P f f f f h f j h z l l h z x z x v 2.` K c x z x z x v ` _ K v k v z z z v x k l z l z x v z v x v K ` _ u.u.X.3.X.u.u.` ` c $XK ` v v c K C c c ` c c x c z z x z h x :.h :.h f g f f d f d s p s a p a s :.>.c u.^.6.6.A j.H C.S 4.5.}.;X5X5X5X5X5X5X2X9X9X9X1XZXVXFXJ.B aXiXaXaXsXtX] tX] Q ] { c.NXDXVXVXVXVXP.VXFX8.5X5X5X5X5X5X5X5X5X5X5X5X5X5X5X5X5X5X5X5X5X5X5X5X5X5X5X5X5X5X5X5X5X5X5X5X5X5X5X5X5X5X5X5X5X5X5X5X5X5X5X5X5X5X5X5X5X5X5X5X5X5X5X5X5X5X5X5X5X5X5X5X5X5X5X5X5X5X5X5X5X5X5X5X5X5X5X5X5X5X5X5X5X5X5X5X5X5X5X5X5X5X5X5X5X5X5X5X5X5X5X5X5X5X5X5X5X5X5X5X5X5X5X5X5X5X5X5X5X5X5X5X5X5X5X5X5X5X5X5X5X5X5X5X5X5X;X5X5X5X5X5X5X5X5X5X5X5X5X5X5X5X5X6XOXX X $ o X X X # X X X X X X X X X X X X X X X X X X X @ X X X X X X X X X X X # X X X + a.; > g.< 5 7 7 7 7 -.0 7 7 8 9 7 7 7 9 7 9 7 9 7 5 0.6.N.% $ O X X @.# & X & # X X & # X X X # & X @.# & $ ",
"#.; > , &.&.Z.s.2 9.2 9.0.9.y 9.y 9.y u u u T u p u p u 0.u 0.u u u p u u u y t t t y e t t t e t e y t t t y t u t y t u u u t u u i u i u a u a ^ p i p a s a s d f d f f h f j :.l f h :.l f l z c x z x z x C z c 2.` c v x z x k x k x k l l l k x v z z x C z ` 2.Z Z X.3.X.Z Z 2.` c v z K K ` c K C $XC ` c K x z x z L x :.x :.:.f h f f f f d s d s a p a d a d d L A.K 2.u.J 3.3.6.> j.g.: 6.d.;X5X5X5X5X5X;X9X9X9X9XD.BXVXBXJ.} aXiXjXsX{ ] ] ] .X+.sX8.t.FXVX8 VX8 VX8 VXBXU 5X5X5X5X5X5X5X5X5X5X5X5X5X5X5X5X5X5X5X5X5X5X5X5X5X5X5X5X5X5X5X5X5X5X5X5X5X5X5X5X5X5X5X5X5X5X5X5X5X5X5X5X5X5X5X5X5X5X5X5X5X5X5X5X5X5X5X5X5X5X5X5X5X5X;X5X5X5X5X5X5X5X5X5X5X5X5X5X5X5X5X5X5X5X5X5X5X5X5X5X5X5X5X5X5X5X5X5X5X5X5X5X5X5X5X5X5X5X5X5X5X5X5X5X5X5X5X5X5X5X5X5X5X5X5X5X5X5X5X5X5X5X5X5X5X5X;X;X5X5X5X5X5X5X5X5X5X5X5X5X5X5X5X4XmX$ % X $ X $ X X X $ X X X $ X X X $ X X X $ X X X & X X + $ X X X % X X X $ X X X $ @.K.$., < 2 2 4 V.7 7 -.7 8 7 8 7 8 7 8 7 7 7 8 7 7 9 9 0.Z.: %.g.#.% % X % X % X X X % X % X % X X X % X [.X   ",
"S $., &.< *.< *.2 2 9.3 T 0.9.0.u T u y u a u p T p u p T p u p T p u p u y u y u y t y t y t y t y t y t y t y u i u i u i u i u i u i i ^ i p i p a s a s a s s f f h f f f l f g f h :.h h z x z x z x v C ` ` Z Z u.v v C v k z x v x k l k l k x v C v x z z v c _ Z  .3...Z ` $X` K c z v c ` K ` K v c ` f.` c c z z x z >.z :.z :.h f h f h f g s s d s a s P s d h L K K Q.Q.u.Q.Z Q.u.J Z J Q.I.5X5X5X5X5X5X;X9X9X9X;XJ.FXVXFXJ.[ jXiX8.w.w.w.T.sXpXiXjXO.lXFXVXVXVXP.VXVX8 FXV 5X5X5X5X5X5X5X5X5X5X5X5X5X5X5X5X5X5X5X5X5X5X5X5X5X5X5X5X5X5X5X5X5X5X5X5X5X5X5X5X5X5X5X5X5X5X5X5X5X5X5X5X5X5X5X5X5X5X5X5X5X5X5X5X5X5X5X5X5X;X5X5X5X5X5X5X5X5X5X5X5X5X5X5X5X5X5X5X5X5X5X5X5X5X5X5X5X5X5X5X5X5X5X5X5X5X5X5X5X5X5X5X5X5X5X5X5X5X5X5X5X5X5X5X5X5X5X5X5X5X5X5X5X5X5X5X5X5X5X5X5X5X5X5X5X5X5X;X5X5X5X5X5X5X5X5X5X5X5X5X5X5X5X;XbX  @ X X X X X X X X X X X X X X X X X X X X X X X X X X X X X X X # X X X X X X @.$ = $.&.3 =.6 =.e 5 5 7 P.7 7 8 7 7 7 7 9 7 9 8 9 7 9 7 9 e 3 2 9.9.^.- % $ # % # X X @.# X X % # @.X @.X % X % $ ",
": %.< 2 s.s.1 s.3 9.3 3 0.9.T 9.T 9.u u y u y u p u a u p u a u p u u u y u u t u 9.t e t e t e t e t t u 9.t t u t u t u t u t i t u u i u i u ^ i a ^ p i p a s P f f f f f f f f f f j f l l z l l j l x ` ` ..X.u.2.` C C x v l k l z l k l x l z x c z C x c c K c _ ` Z ` ` C K c c x z c v K ` $X` c K K ` c $XC C >.x >.z :.x :.l f h f f f :.f f P s d s a d P h 7.A. XK (.2.(.2. XZ. XK  X(.k.n 5X5X5X5X5X5X2X9X_.9X2XY BXVXBXY } jXsXw.m [ <.cXjXiXaXiX} 1XFXVXDXVX8 VXDXVXBXV 5X5X5X5X5X5X5X5X5X5X5X5X5X5X5X5X5X5X5X5X5X5X5X5X5X5X5X5X5X5X5X5X5X5X5X5X5X5X5X5X5X5X5X5X5X5X5X5X5X5X5X5X5X5X5X5X5X5X5X5X5X5X5X5X5X5X5X5X;X5X5X5X5X5X5X5X5X5X5X5X5X5X5X5X5X5X5X5X5X5X5X5X5X5X5X5X5X5X5X5X5X5X5X5X5X5X5X5X5X5X5X5X5X5X5X5X5X5X5X5X5X5X5X5X5X5X5X5X5X5X5X5X5X5X5X5X5X5X5X5X5X5X5X5X5X5X5X5X;X5X5X5X5X5X5X5X5X5X5X5X5X5X5X5X6XM.$ X & X X X & X X X & X X X & X % X % X % X % X X X % X X X % X % X % X X X $ = > J s.9.6 7 CX7 7 9 P.6 7 7 -.7 8 7 8 7 7 9 8 9 7 9 7 9 9 9 5 5 9 5 9.^.C.F = $ & X % X & X % X % & % X % X % X % ",
"^.&.2 2 9.1 1 1 2 1 1 1 !.3 0.3 T 0.u T u p y p a p 0.p a p a p u p u i u y u y t y t y t r t y t y t y t y t y t i u i u i u i u i u i u a u ^ i p a s a s p s d f f f f j f g f j h l j k j k l k l l l v ` X.3. .Z _ K v v v x v x v x v l z l v z v c v z v ,.` v ` ` u.` Z K ` v ` c v K ` ` ` ` ` f.` K v K v C c z c x C x z x z h z h h f h g :.f h :.h f h :.h :.>.k.c  XK  X%Xk.%Xk.k.L k.%Xf.c.5X5X5X5X5X5X;X9X9X9X;XV FX8 FXY n lXB gXJ.( sXaXiXiXiXlX} VXVX8 VXVXVXVXVX8 FXY 5X5X5X5X5X5X5X5X5X5X5X5X5X5X5X5X5X5X5X5X5X5X5X5X5X5X5X5X5X5X5X5X5X5X5X5X5X5X5X5X5X5X5X5X5X5X5X5X5X5X5X5X5X5X5X5X5X5X5X5X5X5X5X5X5X5X5X5X5X5X5X5X5X5X5X;X5X5X5X5X5X5X5X5X5X5X5X5X5X5X5X5X5X5X5X5X5X5X5X5X5X5X5X5X5X5X5X5X5X5X5X5X5X5X5X5X5X5X5X5X5X5X5X5X5X5X5X5X5X5X5X5X5X5X5X5X5X5X5X5X5X5X5X5X5X5X5X5X5X;X5X5X5X5X5X5X5X5X5X5X5X5X5X5X4XOXX X X X X X X X X X X X X X X X X X # X X X X X X X X X X X # X X @.X X X & % : s.=.6 7 7 -.7 8 7 8 9 7 9 7 9 7 0 7 9 7 9 7 9 9 9 9 9 9 9 9 q 9 ;.9 r 0.7.< ^.- % $ @ X X X # X X @.X & # % # & $ ",
"*.s.2 L.4 9.1 2 1 3 1 3 3 !.3 0.0.T T u T u p u a T a T a T p u u u p u u u y t u t y e t e t e t e t e t t u t u t y t u u u u u u i u i u a u a ^ p i p a s a s d f s f f f f f f j f e.:.l j l h l l z c _ 2.Z 2.` c v C v z k x v l k x v x v k v x v c v c v f.` K v K ` ` ` ` Z ` ` f.` ` _ 2.` K ` K ` C c C C x z x z >.x x z L z :.l :.:.f h :.>.k.z L >.:.L :.L L k.L A.L >.7.h 7.>.7.A.A.%Xf.6X5X5X5X5X5X5X2X9X9X9X2XE BXVXBXY n } lXjXpX] iXiXiXiXjXv.V FX8 VX8 VX8 VX8 VXBXY 5X5X5X5X5X5X5X5X5X5X5X5X5X5X5X5X5X5X5X5X5X5X5X5X5X5X5X5X5X5X5X5X5X5X5X5X5X5X5X5X5X5X5X5X5X5X5X5X5X5X5X5X5X5X5X5X5X5X5X5X5X5X5X5X5X5X5X5X5X5X;X5X5X5X5X5X5X5X5X5X5X5X5X5X5X5X5X5X5X5X5X5X5X5X5X5X5X5X5X5X5X5X5X5X5X5X5X5X5X5X5X5X5X5X5X5X5X5X5X5X5X5X5X5X5X5X5X5X5X5X5X5X5X5X5X5X5X5X5X5X5X5X5X5X5X5X5X5X5X5X;X5X5X5X5X5X5X5X5X5X5X5X5X5X;XzX& X & X $ X X X $ X X X & X X X & X X X % X @.X % X % X % X X X % X % X p.* ; , 7X7 -.8 -.8 -.7 -.7 8 7 7 7 8 9 7 9 7 9 7 9 7 9 7 9 9 9 9 9 9 ;.9 9 9 e e 9.2 &.> = $ + % & % X % X % X % X % X   ",
"3 2 4 5 =.9.9.3 2 0.3 #X!.3 !.a T a T p T p T p a p a d a p T p u i u p u y t y u y e y e t e y e t e y t y t y u y t i u y u ^ u i u i i ^ i p ^ a a s a s a s s f s g f g f h f h f l j l h l j l h z z ` v ` ` ` v v C v z v k v x v k v z v z v z v c v c v v ` ,.` K ` v _ ` Z Z u._ Z ` u.Z Z 2.` K ` $X` c K C c C C z c x z x z x z :.h f h :.z c 2.c K z z h >.L z h >.:.h S.h 7.h L $X X2.Z.u.c.5X5X5X5X5X;X2X9X9X9X4X! 8 8 FXY ;Xv.aXaXsXm iXiXiXiXiX} J.FXVXVXVXVXVXVXVX8 FXJ.5X5X5X5X5X5X5X5X5X5X5X5X5X5X5X5X5X5X5X5X5X5X5X5X5X5X5X5X5X5X5X5X5X5X5X5X5X5X5X5X5X5X5X5X5X5X5X5X5X5X5X5X5X5X5X5X5X5X5X5X5X5X5X5X5X5X5X5X5X5X5X5X5X5X5X5X5X5X5X5X5X5X5X5X5X5X5X5X5X5X5X5X5X5X5X5X5X5X5X5X5X5X5X5X5X5X5X5X5X5X5X5X5X5X5X5X5X5X5X5X5X5X5X5X5X5X5X5X5X5X5X5X5X5X5X5X5X5X5X5X5X5X5X5X5X5X5X5X5X5X5X;X5X5X5X5X5X5X5X5X5X5X5X5X5X6XM.& X $ X X X X # X X X X [.& X # X X X # X X @.X @.X @.X X X @.X @.X % X = > 2 9 -.7 -.7 8 7 8 7 8 7 7 9 7 0 8 9 7 9 P.9 9 9 9 9 9 9 9 q 9 5 9 q 9 q q e e y 3 < %.N.@.@.% X % # % X % # % X % $ ",
"4 4 5 6 9 =.4 V.e 4 9.9.0.9.!.0.p T p T a u a T p 0.P a p u a u i u u u u t u t u e t e t q t e t e t e t e t 9.u 9.u t y t u t u t u u ^ u ^ i ^ i a a p i s P f d f s f f f f h f h :.j f l :.l h l l v C c c v c v c v z v x z l k l v x v z v c v c v c v c ` c v c v c ` ` Z 2.Z Z u.Z Z Z Z 2.` 2.` c c C K c $XC c x z x z x x :.x :.h f h f h L K c K  Xx >.>.:.L :.:.S.:.S.7.S.>.A.2.Q.u.J Z u.6X5X5X5X5X5X;X9X9Xc.9X2Xc.;.8 BXY w.pXiXiX8.v.jXiXjXiXpX} ;.8 8 VXDXVX8 VXDXVXBXJ.;X5X5X5X5X5X5X5X5X5X5X5X5X5X5X5X5X5X5X5X5X5X5X5X5X5X5X5X5X5X5X5X5X5X5X5X5X5X5X5X5X5X5X5X5X5X5X5X5X5X5X5X5X5X5X5X5X5X5X5X5X5X5X5X5X5X5X5X5X5X;X5X5X5X5X5X;X5X5X5X5X5X5X5X5X5X5X5X5X5X5X5X5X5X5X5X5X5X5X5X5X5X5X5X5X5X5X5X5X5X5X5X5X5X5X5X5X5X5X5X5X5X5X5X5X5X5X5X5X5X5X5X5X5X5X5X5X5X5X5X5X5X5X5X5X5X5X5X5X5X5X;X;X5X5X5X5X5X5X5X5X5X5X5X5X4XOXX % X X X % X % X % X % X % X % X % X % X % X % X % X % X p.@.% & % X % * , 9.7 7 CX8 -.7 -.7 8 7 8 7 7 7 8 0 7 9 7 9 0 9 9 9 9 9 9 9 9 5 9 5 9 5 9 q q e 5 9.9.7.g.D #.& p.[.p.@.% & % @.% X   ",
"5 5 =.9 6 5 =.5 9 5 4 y 9.0.T P p d d d a p 0.p 0.d a p a p a p u p u y u i u y t y t t e r e t e r t t e r t y t y t y t y t y t i u ^ i p ^ p a s a s P s s s s f s g s e.f j f j h l j k l l l z l z z v c v ,.v v v v v v v x v k v k v v v v ` v v v ` v ` v ` v ` v _ ` _ Z ' Z  .3.....3.Z u.` ` f.` K v c v K v c v z c x z z z h x :.h f h h C c ` c c >.z h h :.L :.h S.L h k.K u.3.g.g.: 6.n.6X5X5X5X5X5X;X9X9X9X9X;X9X1XFXFXY B aXiXjXT.T.jXiXiXjX<.U FXVXVX8 VXVXVXVXVX8 DXD.;X5X5X5X5X5X5X5X5X5X5X5X5X5X5X5X5X5X5X5X5X5X5X5X5X5X5X5X5X5X5X5X5X5X5X5X5X5X5X5X5X5X5X5X5X5X5X5X5X5X5X5X5X5X5X5X5X5X5X5X5X5X5X5X5X5X5X5X5X5X5X5X5X5X5X5X5X5X5X5X5X5X5X5X5X5X5X5X5X5X5X5X5X5X5X5X5X5X5X5X5X5X5X5X5X5X5X5X5X5X5X5X5X5X5X5X5X5X5X5X5X5X5X5X5X5X5X5X5X5X5X5X5X5X5X5X5X5X5X5X5X5X5X5X5X5X5X5X5X5X5X5X5X;X5X5X5X5X5X5X5X5X5X5X5X;XbX& X X X X X X X X # X X X # X X % # X X X # X X X # X X & # & # % # X + = J L.7 -.7 8 7 8 9 7 0 7 9 7 9 7 9 9 9 9 ;.9 9 9 q 9 q 9 q ;.q 9 q q q 5 q q e q e e y 3 k.< J D $ % & % # % # % # & $ ",
"6 6 9 7 P.P.6 P.9 6 5 5 e e y T p !.d a P a a T p T p T a u p u u u i t u t u t t e t q t q t q t q t e t e t e t t y t t t t t t u i u ^ u a i a a p i s P s P s s f s f f j f :.:.l h l l l l x l k l v z v c v v v x v x v x z x v x v k v v v v v ,.v v ` c ` f.` f.` v ` 2.Z Z 3.Z 3.Z  .Z Z ` _ 2.` K ` c v $X` C c z C x x l z x l :.h f h d h h c C c >.x :.h P h :.L S.L L 2.2.3.6.: : 5.C.C.n.=X5X5X5X5X5X;X_.9X9X9X2X2X1XCXBXY l.aXaXiXv.+.jXiXaXcXO.Y BXVX8 VX8 VX8 VX8 VXFX1X2X5X5X5X5X5X5X5X5X5X5X5X5X5X5X5X5X5X5X5X5X5X5X5X5X5X5X5X5X5X5X5X5X5X5X5X5X5X5X5X5X5X5X5X5X5X5X5X5X5X5X5X5X5X5X5X5X5X5X5X5X5X5X5X5X5X5X5X5X5X;X5X5X5X5X5X5X5X;X5X5X5X5X5X5X5X5X5X5X5X5X5X5X5X5X5X5X5X5X5X5X5X5X5X5X5X5X5X5X5X5X5X5X5X5X5X5X5X5X5X5X5X5X5X5X5X5X5X5X5X5X5X5X5X5X5X5X5X5X5X5X5X5X5X5X5X5X5X5X5X5X5X5X;X;X5X5X5X5X5X5X5X5X5X5X5XbX. $ X % X X X % X X X % X X X % X @.X % & % X % X X X % X X X % X @.X % = , L.8 8 -.7 -.7 7 7 8 7 7 9 7 9 6 9 9 9 9 ;.9 5 9 q 9 q ;.q ;.q q q 5 q 5 q q q q e e y u !.2 J F & % [.% X p.[.% X % ",
"P.9 P.9 7 6 7 9 P.9 9 q q e 9.a 0.a 3 d P d P h P P a p T p u p u i u i u y t y t t e t e t q t q t q t e t e y t y t y t y t ^ u i u ^ i a i s a s a s p s s s s g f j f j f l :.l j k x k l v x z x v k v k v z v z v v v k v v v ,.v v v v ` v v v _ v ` v _ ` ` v _ ` ` v ` _ u.Z  .Z Z Z u.` ` ` ` 2.` K ` K v c v C v z C x z x z h h :.l :.h :.z z c k.z L L :.h :.z A.$XK Z J g.j.5.5.D - - S H.6X5X5X5X5X5X2X9X9X9X9X;X;XJ.BXFXY B aXiXaX( sXaXiXiXaX[ 1X8 8 VXVXVX8 VXVXVX8 8 w 9X5X5X5X5X5X5X5X5X5X5X5X5X5X5X5X5X5X5X5X5X5X5X5X5X5X5X5X5X5X5X5X5X5X5X5X5X5X5X5X5X5X5X5X5X5X5X5X5X5X5X5X5X5X5X5X5X5X5X5X5X5X5X5X5X5X5X5X5X5X5X5X5X5X5X5X5X;X5X5X5X5X5X5X5X5X5X5X5X5X5X5X5X5X5X5X5X5X5X5X5X5X5X5X5X5X5X5X5X5X5X5X5X5X5X5X5X5X5X5X5X5X5X5X5X5X5X5X5X5X5X5X5X5X5X5X5X5X5X5X5X5X5X5X5X5X5X5X5X5X5X5X5X5X;X;X5X5X5X5X5X5X5X5X5X5X4XOXX @.X & X X X & X X # X X X X @.X @.X & X @.X @.X p.# & X @.X @.X % X N., 7X6 8 7 8 7 8 7 7 9 7 9 7 9 9 9 9 q 9 q 9 q 5 q q q q e q q q q q q q q q q q e e y 9.y u 0.#X6.N.+ % X % X % @.% $ ",
"7 7 P.7 7 7 7 8 P.7 9 9 q 5 e 9.T u a 3 d a S.S.h P P T a u y u y u u t u 9.t e t q e q t q q q e q e q t q t e t e t t u t u u i t u u ^ u a ^ p i a a s P s s f s f f h f j f j f l l k l k x z x v x v l v k v z v ~.v k v z v z v v v z v v v v ` v ` ,.` v ` ,.` v ` v ` v ` ` _ _ Z 0XZ ` ` K v K ` K v K v c c C c x v x z >.x k.C c c :.>.:.x x C A.x L >.:.>.L C  X2.Q.3.3.j.: S 4.#.D F - h.|.4X5X5X5X5X;X2X_.9Xc.2X2X;XJ.BXBXY ! aXaXiXv.sXjXiXjXsXt.P.DXVX8 VXDXVX8 VXDXVXDX;.l.5X5X5X5X5X5X5X5X5X5X5X5X5X5X5X5X5X5X5X5X5X5X5X5X5X5X5X5X5X5X5X5X5X5X5X5X5X5X5X5X5X5X5X5X5X5X5X5X5X5X5X5X5X5X5X5X5X5X5X5X5X5X5X5X5X5X5X5X5X5X5X;X5X5X5X5X5X;X5X5X5X5X5X5X5X5X5X5X5X5X5X5X5X5X5X5X5X5X5X5X5X5X5X5X5X5X5X5X5X5X5X5X5X5X5X5X5X5X5X5X5X5X5X5X5X5X5X5X5X5X5X5X5X5X5X5X5X5X5X5X5X5X5X5X5X5X5X5X5X5X5X5X5X5X;X;X5X5X5X5X5X5X5X5X5X4XmX% X % X % X % X % X % X % X % X % X % X p.X @.& p.& % X % X % X p.X @.$ j.2 =.7 -.7 7 7 8 7 8 9 8 9 0 9 9 9 9 q 9 q q q q q q e q q q t q q q e q e q e q e e t e u 9.!.< G % $ % [.% @.p.[.U.",
"8 P.7 7 7 P.7 P.7 9 9 5 5 e e y t T T p 0.d d g S.d P P a p y 0.u y u y t y t y t r e t q t q e q t e t e r t t t y t y u i u i u ^ u i u a a p a s d s P f s f s j f j g l j l h k l l l k x v k v z v z v v v v v v v v v v v z v v ` v _ v _ v ' ` ' ` ' ` _ ` _ ` ` ` ' ` ` ` Z ` Z _ u.Z Z ` _ ` ` ` _ ` ` K ` K v C v c v C v z K 2.3.Z K C K c K C C x x >.C C ` 2.3.3.g.j.S 5.D - F F = F = F ].4X5X5X5X5X5X2X9X9X9X2X;X;XU BXFXJ.[ aXkXaX( lXaXiXiXv.<.BXP.VXVX8 VXVXVX8 VXVXVX8 l.5X5X5X5X5X5X5X5X5X5X5X5X5X5X5X5X5X5X5X5X5X5X5X5X5X5X5X5X5X5X5X5X5X5X5X5X5X5X5X5X5X5X5X5X5X5X5X5X5X5X5X5X5X5X5X5X5X5X5X5X5X5X5X5X5X5X5X5X5X5X5X5X5X5X5X5X5X5X5X5X5X5X5X5X5X5X5X5X5X5X5X5X5X5X5X5X5X5X5X5X5X5X5X5X5X5X5X5X5X5X5X5X5X5X5X5X5X5X5X5X5X5X5X5X5X5X5X5X5X5X5X5X5X5X5X5X5X5X5X5X5X5X5X5X5X5X5X5X5X5X5X5X5X5X5X5X5X5X5X5X5X5X5X5X5X5X6X. X X X # X X X # X X X # & X @.X X X & # X X @.# X X X X X # % X $ $ * #., 9.6 9 7 9 7 9 0 9 0 9 9 q 9 q q q q e q t e r t t e r e t e r e t e r t t e r e t t y u T T 7.6.U.% X [.& % X [.$ ",
"8 7 7 DX7 -.7 8 7 7 9 9 q 5 e e t e y u 0.T d P d a P T a u T u u u y t t t t e t e t q q q q q e q t q t e t e t t u t u u i u i u a u a ^ a i p a s P s d f s f f j f j :.e.f e.j l h l l k l k k v k v z v k v v v ,.v c v v v v ` v v v v v v v ` v ` v _ v ` ` ` ,.` v ` v ` ` _ ` Z Z ' ` ` ` ` 2.` ` ` K v c v C v c ` Z X.Z 2.K Z Z Z 2.2.K ` C c x C >.c $XZ Q.6.6.H : S 4.G - F F = #.= F = ].4X5X5X5X5X;X=X_.9X9X4X2X5XV BXBXJ.} aXiXaXv.sXcXiXjX[ D.FX8 VX8 VX8 VX8 VX8 VX8 FXO.5X5X5X5X5X5X5X5X5X5X5X5X5X5X5X5X5X5X5X5X5X5X5X5X5X5X5X5X5X5X5X5X5X5X5X5X5X5X5X5X5X5X5X5X5X5X5X5X5X5X5X5X5X5X5X5X5X5X5X5X5X5X5X5X5X5X5X5X5X5X5X;X5X5X5X5X5X;X5X5X5X5X5X5X5X5X5X5X5X5X5X5X5X5X5X5X5X5X5X5X5X5X5X5X5X5X5X5X5X5X5X5X5X5X5X5X5X5X5X5X5X5X5X5X5X5X5X5X5X5X5X5X5X5X5X5X5X5X5X5X5X5X5X5X5X5X5X5X5X5X5X5X5X5X5X;X5X;X5X5X5X5X5X5X5X5X4XMXX @.X X X % X X X % X X X % X @.X % & % X % & % X % X % X % X N.a.+X+X$.^.2 4 =.9 7 9 7 9 7 9 9 q 9 q q q q e q t e t t t e t t t e t e t e t e t e t e t e u u y u 0.0.(.- $ % X % [.% X U.",
"8 7 8 7 -.7 8 7 7 P.7 5 9 q 5 e e t t y u p !.d p d T p T T u y u y t y t t e y e t q t q e q w q e q t e t e y t y t i u i u i u ^ i p a p a s p s d f s s s g f j f l h l h l j l l z x z x v z v k v v v v v v v v v v v v _ v _ ` _ v _ v ` ` _ ` _ ` _ ` _ ` ' ` _ ` ` v _ ` _ ` u._ Z ` ` ` ` ` ` ` ` 2.` v ` K ` v ` Z H S S 3.u.Z 3.Z u.2.` $Xv C z z K 2.Z 3.H H S S D G F F a.a.= a.= = = = OX4X5X5X5X5X;X9X9X9X9X2X;X;Xt.BXFXJ.[ jXpXaXm pXiXiXlX[ SXDXVXVXVXVXVX8 VX8 VX8 P.BXE 5X5X5X5X5X5X5X5X5X5X5X5X5X5X5X5X5X5X5X5X5X5X5X5X5X5X5X5X5X5X5X5X5X5X5X5X5X5X5X5X5X5X5X5X5X5X5X5X5X5X5X5X5X5X5X5X5X5X5X5X5X5X5X5X5X5X5X5X5X5X5X5X5X5X5X5X5X5X;X5X5X5X5X5X5X5X5X5X5X5X5X5X5X5X5X5X5X5X5X5X5X5X5X5X5X5X5X5X5X5X5X5X5X5X5X5X5X5X5X5X5X5X5X5X5X5X5X5X5X5X5X5X5X5X5X5X5X5X5X5X5X5X5X5X5X5X5X5X5X5X5X5X5X5X5X5X5X5X5X5X5X5X5X5X5X5X;XzX  # X X X # X X & X X X % X X X X X @.X @.X X X X X X X @.X % a.$.> %.J *.1 2 y V.5 9 9 9 9 9 5 9 q q q q r e t t y t y t y u y t y u y t y t y t y t y t y u y u 0.y 0.#XS   X % X % @.% $ ",
"8 DX7 DX-.CX-.-.7 8 7 7 9 9 q 5 e q t e u u T u p T 0.u T u y u u e t e t e t e t q e q e q q q e q e q t q t e t e u t u t u u i u a ^ a ^ a a s a s P f P f f h f l l l :.l h l h l l k l z x v k v k v ,.v v v v v v v v v v ` v ` v ` v ` v ` v ` ` ` v ` v ` v ` v ` ,.` v ` v ` ` ` K ` c ` ` ` ` ` 2.` K ` K ` v ` 2.6.H D 5.H 3.3.Q.Z 2.` $XK C C x c K Z 3.A G.D - F #.F #.a.F = F = = = F = ].4X5X5X5X5X2X9X_.9X9X4X2X5Xx.DXBXJ.} cXiXaXT.pXaXaX8.O.FXVXDXVX8 VXDXVX8 VXDXVX8 BXY 5X5X5X5X5X5X5X5X5X5X5X5X5X5X5X5X5X5X5X5X5X5X5X5X5X5X5X5X5X5X5X5X5X5X5X5X5X5X5X5X5X5X5X5X5X5X5X5X5X5X5X5X5X5X5X5X5X5X5X5X5X5X5X5X5X5X5X5X5X5X5X;X5X5X5X5X5X5X5X;X5X5X5X5X5X5X5X5X5X5X5X5X5X5X5X5X5X5X5X5X5X5X5X5X5X5X5X5X5X5X5X5X5X5X5X5X5X5X5X5X5X5X5X5X5X5X5X5X5X5X5X5X5X5X5X5X5X5X5X5X5X5X5X5X5X5X5X5X5X5X5X5X5X5X5X5X5X;X;X;X5X5X5X5X5X5X5X6X. % X % X % X % X % X % X % X % X % X % [.% X % & % X % $ * G > %.*.1 2 3 4 9.4 5 9 9 9 9 9 5 9 q q e q t e u 9.u t i t u t y t u t u t u t u e t 9.u e u t u u u u a T S.3.N.p.% % [.p.% U.",
"CX7 -.8 DX7 -.8 8 7 7 9 9 5 9 q q e e t e y u y y a y 0.T p T 0.u y t y e y t t e r e t q r q e q r e t e r t t t y u y u i u i u p a p a s P s P s s f s g f j f k x z l z l z l v x v x v v v v v v v v v v v v _ v _ v _ v _ v ' v _ v _ v _ v ' v _ v _ ` _ v _ ` _ v _ v ` v _ ` _ ` ` K ` ` _ ` _ ` _ ` ` ` _ ` Z Z A A D - D : 6.Z u.Z Z 2.` $XK C v K Z 3.H 5.G F = |.= F = = = = = = = = N.= OX4X5X5X5X5X;X9X9X9X2X4X;X;Xl.8 FXJ.[ cXkXaX) pXkXjX} Y FX8 P.VXVX8 VXVXVX8 P.VXVXBXY 5X5X5X5X5X5X5X5X5X5X5X5X5X5X5X5X5X5X5X5X5X5X5X5X5X5X5X5X5X5X5X5X5X5X5X5X5X5X5X5X5X5X5X5X5X5X5X5X5X5X5X5X5X5X5X5X5X5X5X5X5X5X5X5X5X5X5X5X5X5X5X5X5X5X5X5X5X5X5X5X5X5X5X5X5X5X5X5X5X5X5X5X5X5X5X5X5X5X5X5X5X5X5X5X5X5X5X5X5X5X5X5X5X5X5X5X5X5X5X5X5X5X5X5X5X5X5X5X5X5X5X5X5X5X5X5X5X5X5X5X5X5X5X5X5X5X5X5X5X5X5X5X5X5X5X5X5X5X;X5X5X5X5X5X5X5X5X4XOXX X X X X & # & X % X X X & # & X X # % # % # % X % + * K.%.&.1 2 5 5 V.5 9 5 9 5 V.q 5 q 5 q q t e y t y t i u i u p u a u a u i u p u y u y u y t y u y u p u p 0.d S.Q.D $ % X % & % $ ",
"-.DX8 CX8 CX-.CX8 8 7 7 P.P.9 9 5 9 q q e e t e u 9.y u 0.T 0.u 0.u y e t e t q t q t q e q t q q q t q t e t e t t y t u u ^ u p i p i p a s p s d f d f f h :.j l z h x x z z z k v x v z v z v v v ,.v v v v v v v v v v ` v ` ` _ v _ v ` v v v _ v v v ` v ` v ` v v v ` v v v ` v ` K ` f.` ` ` ` _ ` _ ` Z Z 3.3.A H D 4.- G.A 3.u.Z Z 2.` K ` c c C ` Q.j.H D #.= |.= F = F = F = F = F = = N.].4X5X5X5X5X;X2Xc.9X2X;X2X;Xl.;.BXD.} aXaXpXgXpXaXiXQ 1XFXVX8 VX8 VX8 VX8 VX8 VX8 FXD.;X5X5X5X5X5X5X5X5X5X5X5X5X5X5X5X5X5X5X5X5X5X5X5X5X5X5X5X5X5X5X5X5X5X5X5X5X5X5X5X5X5X5X5X5X5X5X5X5X5X5X5X5X5X5X5X5X5X5X5X5X5X5X5X5X5X5X5X5X5X5X5X5X;X5X5X5X5X5X;X5X5X5X5X5X5X5X5X5X5X5X5X5X5X5X5X5X5X5X5X5X5X5X5X5X5X5X5X5X5X5X5X5X5X5X5X5X5X5X5X5X5X5X5X5X5X5X5X5X5X5X5X5X5X5X5X5X5X5X5X5X5X5X5X5X5X5X5X5X5X5X5X5X5X5X5X5X5X5X;X;X;X5X5X5X5X5X;XzX& X & X % X % X % & % X % X % X % X % X % & % X % $ N.F $.&.2 L.6 6 7 9 7 9 6 9 9 5 5 q 5 q q t e t t y t u u p u a u p u a u p u a u i u u u y t u u y u u u p u p d Y. X-   X p.% % + U.",
"KX8 KX7 DX-.CX7 -.7 8 7 7 9 P.9 9 5 9 q 5 q q e e y 9.0.T 0.y 0.y T t y e t q r q t q t q e q w q e q r e t e y t y t i u i i p a p ^ s a s P s s f f j f h f l j k l z x z x v z v z v c v ,.` v ` v _ v v v _ v ` v _ v _ v ' ` _ v ' ` ' v ' v _ v ' v _ v _ v ` v v v v v _ v ` v _ ` _ ` Z _ Z _ u.Z 3.3.A A A A G.G.D 5.D 5.H 3.X.Z Z 2.Z K K K v c v 2.X.H - D = = N.|.= = = F = F = F = a.= = OX4X5X5X5X5X5X2X9X9X4X2X;X;Xc.;.DX1X! aXpXaXT.iXiXlX} 8 VXVXVX8 VXVXVX8 VXVXVXVXVXFX1X2X5X5X5X5X5X5X5X5X5X5X5X5X5X5X5X5X5X5X5X5X5X5X5X5X5X5X5X5X5X5X5X5X5X5X5X5X5X5X5X5X5X5X5X5X5X5X5X5X5X5X5X5X5X5X5X5X5X5X5X5X5X5X5X5X5X5X5X5X5X5X5X;X5X5X5X5X5X5X5X;X5X5X5X5X5X5X5X5X5X5X5X5X5X5X5X5X5X5X5X5X5X5X5X5X5X5X5X5X5X5X5X5X5X5X5X5X5X5X5X5X5X5X5X5X5X5X5X5X5X5X5X5X5X5X5X5X5X5X5X5X5X5X5X5X5X5X5X5X5X5X5X5X5X5X5X5X5X5X5X;X5X5X5X5X5X5X5X6XM.X X % X & X % # % X % X % X % # % X % X % @.@.X N.G > g.< 2 =.9 7 9 7 9 9 9 9 ;.9 q q e q t e y u y u p u p ^ p a p a p a p ^ p a p u p u p u p u i u p u p T p P :.7.Z.S U.N.qX- - D F ",
"8 DX8 CX-.CX-.CX-.CX8 8 7 8 7 7 9 P.9 9 5 9 5 V.e 4 9.9.T u T 9.y 9.u e t q e q e q q q e q q q e q e q t q t e t t u t i t i i a u a ^ p a s d f s f f :.f h :.l h z l z l z c v z v z v c v v v c ` v v v v v v v v v v v v v ` v v v v v v v ` v v v ` v ` v ` c v z v k v v v v ` v _ ` Z Z Z Z Z Z ..A H H G.H G.G.G.H H 6.A 3.Z Q.Z 0X2.K ` C c C K C ` 3.H 5.F F = F = F |.#.F F F #.F F = F = ].4X5X5X5X5X5X;X9X9X2X4X2X;Xl.SXBX1Xx.aXaXaX+.pXjXv.V BX8 VXDXVX8 VXDXVX8 VXDXVX8 8 ;.c.5X5X5X5X5X5X5X5X5X5X5X5X5X5X5X5X5X5X5X5X5X5X5X5X5X5X5X5X5X5X5X5X5X5X5X5X5X5X5X5X5X5X5X5X5X5X5X5X5X5X5X5X5X5X5X5X5X5X5X5X5X5X5X5X5X5X5X5X5X5X5X5X;X5X5X5X5X5X5X5X5X5X5X5X5X5X5X5X5X5X5X5X5X5X5X5X5X5X5X5X5X5X5X5X5X5X5X5X5X5X5X5X5X5X5X5X5X5X5X5X5X5X5X5X5X5X5X5X5X5X5X5X5X5X5X5X5X5X5X5X5X5X5X5X5X5X5X5X5X5X5X5X5X5X5X5X5X5X5X5X;X;X;X5X5X5X5X4X/.X p.@.% & % [.% X % X % X % & % X % [.% X % % a.4.%.< 1 1 4 9 7 7 8 7 7 9 7 9 9 5 9 q q e e t t y u p u p u a u p u p a p u a u p u a u p u p u p u a u p u a a d S.k.Z.g.S C.%.Q.< Z.Z.",
"-.7 -.8 CX8 CX8 CX7 -.7 8 9 7 9 7 9 9 9 9 q 9 q V.e e y u 0.T !.T 0.t y e r e t q r q t q r q q q r e t e r t y t y t i u i u a i p a a a s s g f l h l :.l l l l z l z l v z v z v v v v _ v ` v _ ` ` v _ v _ v _ v _ v ' v _ v _ v v v ' v _ v ' v ` v ' v v v ` v v k v v v v _ v _ ` ' Z  .u. .Z A G.D G.A 3...3. .3.X.3. .Z u.` Z ` ` $Xv C v C C C K 2.6.H D D F F F F F F F F F F F F F F N.= OX4X5X5X5X5X5X;X9X9X;X4X;X4X9Xw DXw } aXaXaX) lXaX} Y FXP.8 VXVXVX8 VXVXVX8 VXVXVX8 0 l.5X5X5X5X5X5X5X5X5X5X5X5X5X5X5X5X5X5X5X5X5X5X5X5X5X5X5X5X5X5X5X5X5X5X5X5X5X5X5X5X5X5X5X5X5X5X5X5X5X5X5X5X5X5X5X5X5X5X5X5X5X5X5X5X5X5X5X5X5X5X5X5X5X5X5X5X5X5X5X5X5X5X5X5X5X5X5X5X5X5X5X5X5X5X5X5X5X5X5X5X5X5X5X5X5X5X5X5X5X5X5X5X5X5X5X5X5X5X5X5X5X5X5X5X5X5X5X5X5X5X5X5X5X5X5X5X5X5X5X5X5X5X5X5X5X5X5X5X5X5X5X5X5X5X5X5X5X5X5X5X5X5X5X5X5X5X5X5XbX& # [.& @.# % # % # & X % # & X % # % # X + & h., 2 L.5 L.e 9 9 7 9 7 9 9 ;.9 q ;.q q t e y u i u p ^ p ^ p a p a p a s a p a p a p a p a p ^ p u p a p a d p d S.k.(.u.^.g.Q.%XA.k.h L ",
"-.8 8 CX-.CX-.CX-.CX8 DX7 8 7 8 7 7 9 7 9 9 9 9 V.5 e e y T 3 3 3 T y e t q t q q q e q q q q q q q t q t e t e t t y t u u i u a i a a s d f d f :.l :.h :.l h l l z l x x k x z z v c v v ` ,.` v ` v ` v v v v v v v v v v k v v v v v v v v v v ` ,.v v v k v z v l v x v k v v v v Z Z  .Z  .Z A G.D G.g.Q.$XC v z v 2.` 2.` K ` K v c v x x x z x z C ` Z : H 4.4.F D F D F F F F F F F F = = N.OX4X5X5X5X5X5X5X9X2X2X4X2X;Xc.w FXw O.pXaXaXv.sXaX[ w VX8 VX8 VX8 VX8 VX8 8 8 VX8 8 BXt.5X5X5X5X5X5X5X5X5X5X5X5X5X5X5X5X5X5X5X5X5X5X5X5X5X5X5X5X5X5X5X5X5X5X5X5X5X5X5X5X5X5X5X5X5X5X5X5X5X5X5X5X5X5X5X5X5X5X5X5X5X5X5X5X5X5X5X5X5X5X5X5X;X5X5X5X5X5X5X5X;X5X5X5X5X5X5X5X5X5X5X5X5X5X5X5X5X5X5X5X5X5X5X5X5X5X5X5X5X5X5X5X5X5X5X5X5X5X5X5X5X5X5X5X5X5X5X5X5X5X5X5X5X5X5X5X5X5X5X5X5X5X5X5X5X5X5X5X5X5X5X5X5X5X5X5X5X5X5X5X5X5X;X;X;X5X5X5X6XOXX @.p.@.% X % X % X % & % X % X & X % X $ $ C.2 7 7 7 9 9 5 P.9 7 9 7 9 9 9 9 q q e e u t i u ^ u p u a a p ^ a a p a p a a u a u p u a i a u a i p a a P f S.L A.2.J J (.k.L >.L L :.",
"-.7 DX7 -.8 CX7 -.8 DX7 8 7 -.7 7 7 7 9 7 9 P.9 9 q 5 e e y !.d 0.T e t q e q t q e q t q e q q q e q t q t e y t y t i u i i a a p a s s g f h f h h l l l l z l z l z l k x v k v z v v v v _ v ` v _ v ` v _ v v v v v v v v v v v v v v v _ v ` v _ v v v v v v v v z v x v v v c _ ` Z Z  .Z u.A D 5.H Z ` C v x v v ` v ` c v c ` K c x z l z x z z K 2.3.A S 5.G - F F = a.N.= N.F a.F = = * N.mX4X5X5X5X5X5X5X2X2X;X2X;X4X9Xw ZXSXx.pXiXjX( 8.8.O.8 8 VXVXVX8 VXVXVX8 VX8 VX8 P.8 FXV 5X5X5X5X5X5X5X5X5X5X5X5X5X5X5X5X5X5X5X5X5X5X5X5X5X5X5X5X5X5X5X5X5X5X5X5X5X5X5X5X5X5X5X5X5X5X5X5X5X5X5X5X5X5X5X5X5X5X5X5X5X5X5X5X5X5X5X5X5X5X5X5X5X5X5X5X5X5X5X5X5X5X5X5X5X5X5X5X5X5X5X5X5X5X5X5X5X5X5X5X5X5X5X5X5X5X5X5X5X5X5X5X5X5X5X5X5X5X5X5X5X5X5X5X5X5X5X5X5X5X5X5X5X5X5X5X5X5X5X5X5X5X5X5X5X5X5X5X5X5X5X5X5X5X5X5X5X5X5X5X5X5X5X;X5X5X5X5X;XzXo @.X @.X % # @.X % # @.X % # @.X % # % X N.> 7X7 8 P.7 9 9 9 P.9 P.9 9 9 9 q q e e y t i u p a p a p a p a s a p a s a p a s a p a p a p a s a a a s p d :.z k.K Q.3.2.k.L >.L L :.h ",
"7 DX-.CX-.CX8 CX-.CX-.DX7 KX8 8 7 -.7 8 P.8 9 7 9 9 5 5 e 5 e e e q e q e q q q q q q q q q q q q q q q t q t e t e t t i u i ^ p ^ p P f d f f f f h :.l :.l h l h j l l h x x k l k x v x v v v c ` v v ,.v v v k v v v z v v v k v v v v v v v ,.v v v ,.v k v l v k v l k k v x v v ` K ` ` _ 0Xu.3...Z ` c c x c c v c v K v z z x z x x l x h x x c $XZ 3.H 5.D h.|.F N.N.p.N.N.N.N.= = = N.N.N.vX;X5X5X5X5X;X5X2X;X2X4X2X;Xc.r FXSXO.pXaXiX8.sX<.8.BXVX8 VXDXVX8 VXDXVX8 VXDXVX8 VXBXY 5X5X5X5X5X5X5X5X5X5X5X5X5X5X5X5X5X5X5X5X5X5X5X5X5X5X5X5X5X5X5X5X5X5X5X5X5X5X5X5X5X5X5X5X5X5X5X5X5X5X5X5X5X5X5X5X5X5X5X5X5X5X5X5X5X5X5X5X5X5X5X5X5X5X;X5X5X5X5X5X5X5X5X5X5X5X5X5X5X5X5X5X5X5X5X5X5X5X5X5X5X5X5X5X5X5X5X5X5X5X5X5X5X5X5X5X5X5X5X5X5X5X5X5X5X5X5X5X5X5X5X5X5X5X5X5X5X5X5X5X5X5X5X5X5X5X5X5X5X5X5X5X5X5X5X5X5X5X5X5X5X5X5X5X;X;X;X5X5X6X].X @.X % & % X % & % X % [.% X % & % @.p.% > 2 7 7 8 7 8 9 7 9 8 9 9 9 9 9 5 e q t e y u u u p u a ^ p ^ p a p a p a p a p a p ^ a a p a p a p a p p d P h L K 2.3.J 2.A.>.:.h S.h :.",
"KX7 KX8 DX7 -.8 -.7 -.7 -.7 8 7 8 7 7 9 7 9 7 9 9 5 9 q 5 q q q q r q q q r q t q r q q q r q q q r q t q r t t t y t y u ^ i p a d d f f g f g f l h l l z l l l k j l j k l z l k l v k v v v v _ v ` v v v v v v v v v v v v v v v v v ' v v v v v v v v v v k v v v l v v v k v v v v ` v v c ` c v c v z z z v K ` K ` K v z v z v x z x z x c z c c Z 3.A 5.F F N.N.% % % % X % % * % R.% * & p.zX;X5X5X5X5X5X5X5X4X;X2X;X4X=X1XVXP.t.pXaXiXiXaX[ 1XVXVXVX8 VXVXVX8 VXVXVX8 VXVXVX8 FXJ.5X5X5X5X5X5X5X5X5X5X5X5X5X5X5X5X5X5X5X5X5X5X5X5X5X5X5X5X5X5X5X5X5X5X5X5X5X5X5X5X5X5X5X5X5X5X5X5X5X5X5X5X5X5X5X5X5X5X5X5X5X5X5X5X5X5X5X5X5X5X5X5X5X5X5X5X5X5X5X5X5X5X5X5X5X5X5X5X5X5X5X5X5X5X5X5X5X5X5X5X5X5X5X5X5X5X5X5X5X5X5X5X5X5X5X5X5X5X5X5X5X5X5X5X5X5X5X5X5X5X5X5X5X5X5X5X5X5X5X5X5X5X5X5X5X5X5X5X5X5X5X5X5X5X5X5X5X5X5X5X5X5X5X5X5X5X5X5X5X4XzX$ X X # & X % # & X [.X & X % # @.X % & % S 2 5 7 7 7 9 7 9 7 9 9 9 9 q 5 q q r t y u p a p a p a p a s p p a s p p a s p p a s a p a s p d p s d f d h :.k.C u.3.u.2.K L >.:.>.h h ",
"-.DX-.CX-.DX-.CX-.KX8 DX8 KX7 -.7 8 7 8 7 7 9 7 9 9 5 9 q 5 q q q q q q q q t q q q q q q q q q q q q q q q t e t e u t u u a u a a P P s d f d f f j h l l l h l h l f l j l j l l k l k z v ,.v v v v v v v k v k v k v v v ,.v v v v v v v k v k v k v v v k v k v k v k v k v k v k v ,.v x z k k l k l v l x z ` c v c v z C x c x x l z :.z x c c ` u.A 5.F F N.N.% % & p.[.% & p.% p.@.p.% %   zX;X5X5X5X5X5X5X;X;X2X;X2X;X9X1XFXP.E lXcXiXaXlX} ;.DXVX8 VX8 VX8 VX8 VX8 VX8 VX8 VXBXD.2X5X5X5X5X5X5X5X5X5X5X5X5X5X5X5X5X5X5X5X5X5X5X5X5X5X5X5X5X5X5X5X5X5X5X5X5X5X5X5X5X5X5X5X5X5X5X5X5X5X5X5X5X5X5X5X5X5X5X5X5X5X5X5X5X5X5X5X5X5X5X5X5X5X;X5X5X5X5X5X5X5X5X5X5X5X5X5X5X5X5X5X5X5X5X5X5X5X5X5X5X5X5X5X5X5X5X5X5X5X5X5X5X5X5X5X5X5X5X5X5X5X5X5X5X5X5X5X5X5X5X5X5X5X5X5X5X5X5X5X5X5X5X5X5X5X5X5X5X5X5X5X5X5X5X5X5X5X5X5X5X5X5X5X5X5X5X5X;X5XbXM.% X % & % X % X % X % X % X p.[.p.% % * > #X=.P.8 7 7 9 7 9 0 9 9 9 9 q q e e t t u u p a p a p a p a d a p a d a P a d a p a p a P a s a s d f d f P h L %X2.u.Q.2.%X>.:.h :.h f ",
"-.7 CX7 -.8 KX7 -.7 8 7 8 7 -.7 7 7 7 9 7 9 7 9 9 9 9 q 5 q 5 q q q q t q t q t q q q e q q q q q q q t q t q r t y t i u i u p a p a s d s s g s f f l l l h l j l h l j l l k k k k v k v ,.v v v v v v v v v v v v v v v v v v v v v v v v v v v v v v v v v v v l v k v k v k v k v k v k v k v l v x z l z l C K ` v v c v c v x z x z x c z c $XZ 3.H S |.= N.* @.% X % # @.X % # % X % # % X   bX;X5X5X5X5X5X5X5X4X;X2X;X4X2X1XDXDXE lXaXiXaXgXE BXP.8 VXVXVX8 VXVXVX8 VXVXVX8 VXVXZXw 2X5X5X5X5X5X5X5X5X5X5X5X5X5X5X5X5X5X5X5X5X5X5X5X5X5X5X5X5X5X5X5X5X5X5X5X5X5X5X5X5X5X5X5X5X5X5X5X5X5X5X5X5X5X5X5X5X5X5X5X5X5X5X5X5X5X5X5X5X5X5X5X5X5X5X;X5X5X5X5X5X5X5X5X5X5X5X5X5X5X5X5X5X5X5X5X5X5X5X5X5X5X5X5X5X5X5X5X5X5X5X5X5X5X5X5X5X5X5X5X5X5X5X5X5X5X5X5X5X5X5X5X5X5X5X5X5X5X5X5X5X5X5X5X5X5X5X5X5X5X5X5X5X5X5X5X5X5X5X5X5X5X5X5X5X5X5X5X5X;X4XvX$ [.X % & @.X % # % X % X % @.% @.% @.= > 9.9 7 9 7 9 7 9 9 9 9 ;.9 q q e e t t y u p a p a p a s a p a s p s a s p s a s a s p s p s P s d f d g f h :.>.A.K 2.u.2.$X>.x :.h f h ",
"8 DX-.KX8 CX-.DX8 KX8 -.7 KX7 8 7 8 7 7 P.8 9 7 9 9 9 9 5 9 q 5 q q q q q q q q q q q q q q q q q q q q t q t q t t t t i t i u a u a ^ p i s d s d f f j f j :.j f j :.e.f l j k l k l k l v ,.v z v ,.v k v ,.v k v k v k v v v ,.v v v k v ~.v k v v v k v k v l k l v k v k v x k l z l k l k l k x v l x l x x v c v x c c c x z x z x C C K c 2.Z A 5.|.N.% p.@.% & % @.% X % [.p.X % % % X % & bX;X5X5X5X5X5X5X;X;X2X4X2X;X2XD.FXFXV 8.jXiXjX} J.FX8 VX8 VXDXVX8 VXDXVX8 VXDXVX8 VXFX;.l.5X5X5X5X5X5X5X5X5X5X5X5X5X5X5X5X5X5X5X5X5X5X5X5X5X5X5X5X5X5X5X5X5X5X5X5X5X5X5X5X5X5X5X5X5X5X5X5X5X5X5X5X5X5X5X5X5X5X5X5X5X5X5X5X5X5X5X5X5X5X5X5X5X;X5X5X5X5X5X5X5X5X5X5X5X5X5X5X5X5X5X5X5X5X5X5X5X5X5X5X5X5X5X5X5X5X5X5X5X5X5X5X5X5X5X5X5X5X5X5X5X5X5X5X5X5X5X5X5X5X5X5X5X5X5X5X5X5X5X5X5X5X5X5X5X5X5X5X5X5X5X5X5X5X5X5X5X5X5X5X5X5X5X5X5X5X5X5X;X;X6X  [.% @.% & p.% p.[.p.@.% @.p.[.% [.p.* %.9.7 7 7 9 7 9 7 9 P.9 9 5 9 q q e e t t ^ u a a p a p a p a p a p a p a P a p a P a s p s P f d f P f f h P :.:.A.A.2.2.2.A.z :.h :.h h ",
"-.7 8 7 8 7 8 7 8 7 7 7 8 7 7 7 7 9 7 9 7 9 9 9 9 5 9 5 9 q q q q r q t q r q t e r q t q r q t q r e t q r t t t i u i u ^ i a ^ p a s p s s g f g f e.h l j l j l e.l j k l k k k k v k v v _ v _ v v v v v v v v v v v v v _ v v v v v _ v v v _ v v v v v v k v z v k v v v k v k v x v k v k v k v v v z z l v c v c v ,.v z v z v z v v ` 2.u.3.A 5.qXN.& % # % X % X $ X % # % X % X $ X % X $ 6X;X5X5X5X5X5X5X;X2X;X4X;X4X;XD.ZXBXU <.cXaXpXQ NXDXP.8 P.VXVXVXVX8 VX8 VX8 P.VXVX8 VX8 ! 5X5X5X5X5X5X5X5X5X5X5X5X5X5X5X5X5X5X5X5X5X5X5X5X5X5X5X5X5X5X5X5X5X5X5X5X5X5X5X5X5X5X5X5X5X5X5X5X5X5X5X5X5X5X5X5X5X5X5X5X5X5X5X5X5X5X5X5X5X5X5X5X5X5X;X5X5X5X5X5X5X5X5X5X5X5X5X5X5X5X5X5X5X5X5X5X5X5X5X5X5X5X5X5X5X5X5X5X5X5X5X5X5X5X5X5X5X5X5X5X5X5X5X5X5X5X5X5X5X5X5X5X5X5X5X5X5X5X5X5X5X5X5X5X5X5X5X5X5X5X5X5X5X5X5X5X5X5X5X5X5X5X5X5X5X5X5X5X5X5X4XzX% & % X % # % X % X % & % # & X % + K., L.9 7 9 7 9 9 9 9 q 9 q ;.q q t t y u p i p a s p s d s p s P s d s d s P s d s P f s s s g f h f h :.l :.z h x C ` Z u.Q.` C z x z l z "
};
