/* XPM */
static char * 1_xpm[] = {
"512 384 125 2",
"  	c #414230",
". 	c #42392F",
"+ 	c #3E3526",
"@ 	c #363725",
"# 	c #393127",
"$ 	c #3A3932",
"% 	c #31312A",
"& 	c #4B4238",
"* 	c #2A2922",
"= 	c #494A38",
"- 	c #5D5242",
"; 	c #515340",
"> 	c #59524C",
", 	c #595A47",
"' 	c #615A54",
") 	c #312914",
"! 	c #5E4325",
"~ 	c #68522B",
"{ 	c #6C491F",
"] 	c #6B4925",
"^ 	c #755835",
"/ 	c #78572B",
"( 	c #846335",
"_ 	c #967240",
": 	c #B48D55",
"< 	c #52391F",
"[ 	c #655A4A",
"} 	c #54493A",
"| 	c #514B45",
"1 	c #31291F",
"2 	c #232116",
"3 	c #4B4132",
"4 	c #564622",
"5 	c #43423B",
"6 	c #4B4A43",
"7 	c #3A2804",
"8 	c #171008",
"9 	c #726359",
"0 	c #594B41",
"a 	c #4C3831",
"b 	c #433029",
"c 	c #282118",
"d 	c #211806",
"e 	c #210F04",
"f 	c #1A0F10",
"g 	c #181710",
"h 	c #110E03",
"i 	c #1E170C",
"j 	c #0F0907",
"k 	c #6C6357",
"l 	c #726B65",
"m 	c #443015",
"n 	c #4B3716",
"o 	c #797361",
"p 	c #7D766F",
"q 	c #84736A",
"r 	c #696452",
"s 	c #332929",
"t 	c #7C6C62",
"u 	c #877B6A",
"v 	c #847263",
"w 	c #716C59",
"x 	c #36241D",
"y 	c #2A210D",
"z 	c #29180F",
"A 	c #6A5A51",
"B 	c #62534A",
"C 	c #8C7B72",
"D 	c #8D7A6B",
"E 	c #3A3131",
"F 	c #2A2121",
"G 	c #211819",
"H 	c #8B847E",
"I 	c #8A8471",
"J 	c #4C4142",
"K 	c #746354",
"L 	c #54494A",
"M 	c #5C5152",
"N 	c #000100",
"O 	c #52524A",
"P 	c #655A5A",
"Q 	c #968374",
"R 	c #837B63",
"S 	c #453620",
"T 	c #675E47",
"U 	c #8C846C",
"V 	c #423839",
"W 	c #55462F",
"X 	c #7C6A5C",
"Y 	c #988D7B",
"Z 	c #948C74",
"` 	c #A99586",
" .	c #97867C",
"..	c #6B5A4C",
"+.	c #3A290D",
"@.	c #9D8D70",
"#.	c #A59578",
"$.	c #A89C84",
"%.	c #9E9684",
"&.	c #9C947C",
"*.	c #928266",
"=.	c #171816",
"-.	c #130F00",
";.	c #A38874",
">.	c #30322F",
",.	c #383937",
"'.	c #A99774",
").	c #8D7260",
"!.	c #B4A68D",
"~.	c #605238",
"{.	c #837458",
"].	c #30210F",
"^.	c #392918",
"/.	c #746B53",
"(.	c #513926",
"_.	c #482C1C",
":.	c #635254",
"<.	c #381F0C",
"[.	c #20211F",
"}.	c #282927",
"|.	c #554547",
"1.	c #857353",
"2.	c #938361",
"3.	c #070904",
"4.	c #0F110D",
"    . . .   + + .   . . .   @ @ . . # # $ $ # # @ @ @ % @ @ $ . & & . . .   * *     = = - - ; ; > > > > , , > > ' ' & & % % * * ) ) + + ! ! ! ! ! ! ! ! ! ! ! ! ! ! ! ! ! ! ! ! ! ! ! ! ! ! ! ! ~ ~ { { ~ ~ ] ] ~ ~ ] ] ~ ~ ] ] ^ ^ ~ ~ / / ~ ~ ^ ^ ~ ~ ^ ^ ~ ~ ^ ^ / / ^ ^ ^ ^ / / / / / / / / / / / / / / / / ( ( / / ( ( / / ( ( / / ( ( ( ( ( ( ( ( ( ( ( ( _ _ _ _ _ _ _ _ _ _ _ _ _ _ _ _ _ _ _ _ _ _ _ _ _ _ _ _ _ _ _ _ _ _ _ _ : : _ _ : : : : : : : : : : : : : : : : : : : : : : : : : : : : : : : : : : : : : : : : : : : : : : : : : : : : : : : : : : : : : : : : : : : : : : : : : : _ _ _ _ _ _ _ _ _ _ _ _ _ _ _ _ _ _ _ _ _ _ _ _ _ _ _ _ _ _ _ _ _ _ _ _ ( ( _ _ ( ( ( ( ( ( ( ( ( ( ( ( ( ( ( ( / / ( ( / / ( ( / / ( ( / / ( ( / / ( ( / / ^ ^ / / ^ ^ ^ ^ / / ^ ^ / / ^ ^ / / / / / / / / ^ ^ / / ^ ^ ] ] / / ~ ~ ~ ~ ] ] ~ ~ ] ] ~ ~ ] ] ~ ~ ! ! ] ] ! ! ] ] ~ ~ ! ! ~ ~ ! ! ] ] ~ ~ ! ! ! ! < < # # ) ) @ @ @ @ = = > > [ [ - - , , ; ; ; ; } } | | . . * * @ @ % @         . . @ @ @ @ @ @ # # . . @ @ @ @ @ @ .   @ @     @ @       . ",
"    . .     + +     . .     @ @ . . # # . $ # # @ @ % % @ @ . . & & . .     * *     = = - - ; ; > > > > , , > > ' ' & & % % * * ) ) + + ! ! ! ! ! ! ! ! ! ! ! ! ! ! ! ! ! ! ! ! ! ! ! ! ! ! ! ! ~ ~ { { ~ ~ ] ] ~ ~ ] ] ~ ~ ] ] ^ ^ ~ ~ / / ~ ~ ^ ^ ~ ~ ^ ^ ~ ~ ^ ^ / / ^ ^ ^ ^ / / / / / / / / / / / / / / / / ( ( / / ( ( / / ( ( / / ( ( ( ( ( ( ( ( ( ( ( ( _ _ _ _ _ _ _ _ _ _ _ _ _ _ _ _ _ _ _ _ _ _ _ _ _ _ _ _ _ _ _ _ _ _ _ _ : : _ _ : : : : : : : : : : : : : : : : : : : : : : : : : : : : : : : : : : : : : : : : : : : : : : : : : : : : : : : : : : : : : : : : : : : : : : : : : : _ _ _ _ _ _ _ _ _ _ _ _ _ _ _ _ _ _ _ _ _ _ _ _ _ _ _ _ _ _ _ _ _ _ _ _ ( ( _ _ ( ( ( ( ( ( ( ( ( ( ( ( ( ( ( ( / / ( ( / / ( ( / / ( ( / / ( ( / / ( ( / / ^ ^ / / ^ ^ ^ ^ / / ^ ^ / / ^ ^ / / / / / / / / ^ ^ / / ^ ^ ] ] / / ~ ~ ~ ~ ] ] ~ ~ ] ] ~ ~ ] ] ~ ~ ! ! ] ] ! ! ] ] ~ ~ ! ! ~ ~ ! ! ] ] ~ ~ ! ! ! ! < < # # ) ) + @ @ @ = = > > [ [ - - , , ; ; ; ; } } | | . . * * @ @ % @           . @ @ @ @ @ @ # # . . @ @ @ @ @ @     @ @     @ @         ",
". .     . . .   . . .   . . . . @ @ @ @ @ # @ @ # # # # # #         .   $ $ 1 1 . . | | ; ; - - ; ; > > - - , , , , = = @ @ % % ) ) @ # ! ! ! ! ! ! ! ! ! ! ! ! ! ! ! ! ! ! ! ! ! ! ! ! ! ! ! ! ~ ~ ] ] ~ ~ ] ] ~ ~ ] ] ] ] ~ ~ ] ] ~ ~ ] ] ^ ^ ~ ~ ^ ^ ^ ^ ^ ^ / / ^ ^ / / ( ( / / ( ( / / ( ( / / ( ( / / ( ( / / ( ( ( ( ( ( ( ( ( ( ( ( _ _ ( ( _ _ ( ( _ _ _ _ ( ( _ _ _ _ _ _ _ _ _ _ _ _ _ _ _ _ _ _ _ _ _ _ _ _ _ _ _ _ _ _ _ _ _ _ : : _ _ : : : : : : : : : : : : : : : : : : : : : : : : : : : : : : : : : : : : : : : : : : : : : : : : : : : : : : : : : : : : : : : : : : : : : : : : : : : : : : _ _ : : _ _ _ _ _ _ _ _ _ _ _ _ _ _ _ _ _ _ _ _ _ _ _ _ ( ( _ _ _ _ _ _ _ _ ( ( ( ( _ _ ( ( _ _ ( ( ( ( ( ( ( ( ( ( ( ( / / ( ( / / ( ( / / ( ( / / ^ ^ / / / / ^ ^ / / ^ ^ / / ^ ^ ^ ^ / / / / / / ^ ^ ~ ~ ~ ~ ~ ~ / / ] ] ~ ~ ] ] ~ ~ ] ] ~ ~ ! ! ~ ~ ! ! ~ ~ ! ! ] ] ! ! ] ] ~ ~ ! ! ] ] ! ! ! ! ! ! + + 1 1 1 1 # # & & , , > > > , > > > > | | | ; = &     2 2 % % % # & & . .     % % + # @ # @ @ @ @ . . @ @ . . @ @ . . . .     . .     ",
". .     . .     . . .   . . . . @ @ @ @ # # @ @ # # # # # #         .   $ $ 1 1 . . | | ; ; - - ; ; > > - - , , , , = = @ @ % # ) ) @ # ! ! ! ! ! ! ! ! ! ! ! ! ! ! ! ! ! ! ! ! ! ! ! ! ! ! ! ! ~ ~ ] ] ~ ~ ] ] ~ ~ ] ] ] ] ~ ~ ] ] ~ ~ ] ] ^ ^ ~ ~ ^ ^ ^ ^ ^ ^ / / ^ ^ / / ( ( / / ( ( / / ( ( / / ( ( / / ( ( / / ( ( ( ( ( ( ( ( ( ( ( ( _ _ ( ( _ _ ( ( _ _ _ _ ( ( _ _ _ _ _ _ _ _ _ _ _ _ _ _ _ _ _ _ _ _ _ _ _ _ _ _ _ _ _ _ _ _ _ _ : : _ _ : : : : : : : : : : : : : : : : : : : : : : : : : : : : : : : : : : : : : : : : : : : : : : : : : : : : : : : : : : : : : : : : : : : : : : : : : : : : : : _ _ : : _ _ _ _ _ _ _ _ _ _ _ _ _ _ _ _ _ _ _ _ _ _ _ _ ( ( _ _ _ _ _ _ _ _ ( ( ( ( _ _ ( ( _ _ ( ( ( ( ( ( ( ( ( ( ( ( / / ( ( / / ( ( / / ( ( / / ^ ^ / / / / ^ ^ / / ^ ^ / / ^ ^ ^ ^ / / / / / / ^ ^ ~ ~ ~ ~ ~ ~ / / ] ] ~ ~ ] ] ~ ~ ] ] ~ ~ ! ! ~ ~ ! ! ~ ~ ! ! ] ] ! ! ] ] ~ ~ ! ! ] ] ! ! ! ! ! ! + + 1 1 1 1 # # & & , , > > > , > > > > | | | ; = &     2 2 % % % # & & . .     % % # # # @ @ @ @ @ . . @ @ . . @ @ . .   . .   . .     ",
"3 3 . .     + + .   . . . $ @ @ . . # # $ $ # # @ @ % % @ @ . . & &   .     * *     = = - - ; ; > > ; ; > , > > ' ' & & @ % * * @ % + + ! ! ! ! ! ! ! ! ! ! ! ! ! ! ! ! ! ! ! ! ! ! ! ! ! ! ! ! ! ! ! ! ! ! ] ] ! ! ~ ~ ! ! ~ ~ ] ] ! ! ~ ~ ] ] ~ ~ ] ] ~ ~ ~ ~ ^ ^ ^ ^ / / ^ ^ ^ ^ / / ^ ^ / / ( ( / / ( ( ^ ^ ( ( ( ( ( ( ( ( ( ( ( ( _ _ ( ( _ _ ( ( _ _ ( ( _ _ ( ( _ _ ( ( _ _ _ _ _ _ _ _ _ _ _ _ _ _ _ _ _ _ _ _ _ _ _ _ _ _ _ _ : : _ _ : : _ _ : : : : : : : : : : : : : : : : : : : : : : : : : : : : : : : : : : : : : : : : : : : : : : : : : : : : : : : : : : : : : : : : : : : : : : _ _ : : _ _ : : _ _ _ _ _ _ _ _ _ _ _ _ _ _ _ _ _ _ _ _ _ _ _ _ _ _ _ _ ( ( _ _ _ _ ( ( _ _ ( ( ( ( _ _ ( ( ( ( ( ( ( ( ( ( ( ( / / ( ( / / / / / / / / / / / / ^ ^ / / ^ ^ / / ^ ^ / / ^ ^ ^ ^ / / ^ ^ / / ^ ^ ~ ~ ^ ^ ~ ~ / / ~ ~ ^ ^ ~ ~ ^ ^ ~ ~ ~ ~ ] ] ~ ~ ] ] ~ ~ ! ! ~ ~ ! ! ] ] ! ! ! ! ~ ~ ! ! ] ] ! 4 4 4 @ @ ) ) @ # @ @ = = > > [ [ - - , , ; ; ; ; } } | | . . * * @ @ % @         . . @ @ @ @ @ @ # # . . @ @ . . @ @ . . . . .     . .     . ",
"3 3   . .   + +     .   . . @ @ . . # # $ $ @ # @ @ @ % % @ $ . & & . .     * *     = = - - ; ; > > ; ; , , > > ' ' & & @ % * * @ @ + + ! ! ! ! ! ! ! ! ! ! ! ! ! ! ! ! ! ! ! ! ! ! ! ! ! ! ! ! ! ! ! ! ! ! ] ] ! ! ~ ~ ! ! ~ ~ ] ] ! ! ~ ~ ] ] ~ ~ ] ] ~ ~ ~ ~ ^ ^ ^ ^ / / ^ ^ ^ ^ / / ^ ^ / / ( ( / / ( ( ^ ^ ( ( ( ( ( ( ( ( ( ( ( ( _ _ ( ( _ _ ( ( _ _ ( ( _ _ ( ( _ _ ( ( _ _ _ _ _ _ _ _ _ _ _ _ _ _ _ _ _ _ _ _ _ _ _ _ _ _ _ _ : : _ _ : : _ _ : : : : : : : : : : : : : : : : : : : : : : : : : : : : : : : : : : : : : : : : : : : : : : : : : : : : : : : : : : : : : : : : : : : : : : _ _ : : _ _ : : _ _ _ _ _ _ _ _ _ _ _ _ _ _ _ _ _ _ _ _ _ _ _ _ _ _ _ _ ( ( _ _ _ _ ( ( _ _ ( ( ( ( _ _ ( ( ( ( ( ( ( ( ( ( ( ( / / ( ( / / / / / / / / / / / / ^ ^ / / ^ ^ / / ^ ^ / / ^ ^ ^ ^ / / ^ ^ / / ^ ^ ~ ~ ^ ^ ~ ~ / / ~ ~ ^ ^ ~ ~ ^ ^ ~ ~ ~ ~ ] ] ~ ~ ] ] ~ ~ ! ! ~ ~ ! ! ] ] ! ! ! ! ~ ~ ! ! ] ] ! 4 4 4 @ @ ) ) + @ @ @ = = > > [ [ - - , , ; ; ; ; } } | | . . * * @ @ @ +           . @ @ @ @ @ @ @ # . . @ @ . . @ @ . . . .   . . .     . . ",
"    3 3   . .   . . .   @ @ . . @ @ @ @ # # @ @ # % # # # #           .   $ 1 1 . . | | | | | ; ; ; , , , > [ [ > , = = @ @ @ @ ) ) @ # ! ! ! ! ! ! ! ! ! ! ! ! ! ! ! ! ! ! ! ! ! ! ! ! ! ! ! ! ! ! ! ! ! ! ] ] ! ! ] ] ! ! ~ ~ ] ] ~ ~ ] ] ~ ~ ] ] ~ ~ ~ ~ ^ ^ ^ ^ ^ ^ ^ ^ / / ^ ^ / / ^ ^ / / / / ( ( / / ( ( / / ( ( ( ( ( ( ( ( _ _ ( ( _ _ ( ( _ _ ( ( _ _ ( ( _ _ ( ( _ _ _ _ _ _ _ _ _ _ _ _ _ _ _ _ _ _ _ _ _ _ _ _ _ _ _ _ _ _ _ _ : : _ _ : : : : : : : : : : : : : : : : : : : : : : : : : : : : : : : : : : : : : : : : : : : : : : : : : : : : : : : : : : : : : : : : : : : : : : _ _ : : _ _ _ _ _ _ _ _ _ _ _ _ _ _ _ _ _ _ _ _ _ _ _ _ ( ( _ _ ( ( _ _ _ _ ( ( _ _ ( ( ( ( _ _ ( ( _ _ ( ( _ _ ( ( ( ( ( ( ( ( / / ( ( / / / / / / / / / / / / ^ ^ / / ^ ^ / / ^ ^ ^ ^ / / ^ ^ / / ^ ^ / / ^ ^ ~ ~ / / ] ] ~ ~ ] ] / / ] ] ~ ~ ] ] ~ ~ ] ] ~ ~ ! ! ~ ~ ! ! ] ] ! ! ! ! ~ ~ ! ! ] ] ! ! ! ! ~ ~ ! ! ! ! # # + + 1 1 # # & & , , > > , , > > > > | | ; ; = &     2 2 % % % # & & . .     % % + # # # # @ @ @ . . @ @ . . @ @ .   . .     . . & & ",
"    3 3   .     . .   . @ @ . . @ @ @ @ # # @ @ # # # # # #             . $ 1 1 . . | | | | ; ; ; ; , , > > [ [ , , = = @ @ % @ ) ) + + ! ! ! ! ! ! ! ! ! ! ! ! ! ! ! ! ! ! ! ! ! ! ! ! ! ! ! ! ! ! ! ! ! ! ] ] ! ! ] ] ! ! ~ ~ ] ] ~ ~ ] ] ~ ~ ] ] ~ ~ ~ ~ ^ ^ ^ ^ ^ ^ ^ ^ / / ^ ^ / / ^ ^ / / / / ( ( / / ( ( / / ( ( ( ( ( ( ( ( _ _ ( ( _ _ ( ( _ _ ( ( _ _ ( ( _ _ ( ( _ _ _ _ _ _ _ _ _ _ _ _ _ _ _ _ _ _ _ _ _ _ _ _ _ _ _ _ _ _ _ _ : : _ _ : : : : : : : : : : : : : : : : : : : : : : : : : : : : : : : : : : : : : : : : : : : : : : : : : : : : : : : : : : : : : : : : : : : : : : _ _ : : _ _ _ _ _ _ _ _ _ _ _ _ _ _ _ _ _ _ _ _ _ _ _ _ ( ( _ _ ( ( _ _ _ _ ( ( _ _ ( ( ( ( _ _ ( ( _ _ ( ( _ _ ( ( ( ( ( ( ( ( / / ( ( / / / / / / / / / / / / ^ ^ / / ^ ^ / / ^ ^ ^ ^ / / ^ ^ / / ^ ^ / / ^ ^ ~ ~ / / ] ] ~ ~ ] ] / / ] ] ~ ~ ] ] ~ ~ ] ] ~ ~ ! ! ~ ~ ! ! ] ] ! ! ! ! ~ ~ ! ! ] ] ! ! ! ! ~ ~ ! ! ! ! # # + + 1 1 # # & & , , , > > , > > > , | | ; ; = =     2 2 % % % # & & . .     % % # # # # # @ @ @ . . @ @ . . @ @ .   . .     . . 3 & ",
"3 3           . .     . . . @ @ . . # # $ $ # # @ @ @ % % @ $ . & & .       * *     = = - - ; | > > > , > , > , ' ' & & @ % 1 1 @ @ % + ! ! ! ! ! ! ! ! ~ ~ ! ! ~ ~ ! ! ~ ~ ! ! ~ ~ ! ! ~ ~ ] ] / / ] ] / / ~ ~ / / ~ ~ ^ ^ ~ ~ ^ ^ ~ ~ ^ ^ ~ ~ ^ ^ ~ ~ ^ ^ ~ ~ ^ ^ / / ^ ^ / / ^ ^ / / ^ ^ / / / / ^ ^ / / / / / / / / ( ( / / ( ( ( ( _ _ ( ( _ _ ( ( _ _ _ _ _ _ _ _ _ _ _ _ _ _ _ _ _ _ _ _ _ _ _ _ _ _ _ _ _ _ _ _ _ _ _ _ _ _ _ _ : : _ _ : : : : : : : : : : : : : : : : : : : : : : : : : : : : : : : : : : : : : : : : : : : : : : : : : : : : : : : : : : : : : : : : : : : : : : : : : : : : : : _ _ : : _ _ _ _ _ _ _ _ _ _ _ _ _ _ _ _ _ _ _ _ _ _ _ _ _ _ _ _ _ _ ( ( _ _ _ _ ( ( _ _ ( ( ( ( ( ( ( ( ( ( ( ( ( ( ( ( ( ( ( ( / / ( ( / / ( ( / / ( ( / / / / / / / / / / / / ^ ^ / / / / / / ^ ^ ^ ^ / / ^ ^ ~ ~ ^ ^ / / ^ ^ ~ ~ ^ ^ ~ ~ ^ ^ ~ ~ ~ ~ ] ] ~ ~ ] ] ~ ~ ! ! ~ ~ ! ! ! ! ~ ~ ! ! ~ ~ ! ! ! ! # + 1 1 % % % % = = , , [ [ - - , , | ; ; ; | | | | .   * * @ @ @ +     5 5 . . @ @ % % % @ @ % . . @ @ . . @ @   . . .     . .     . . ",
"3 3           . .     . . . @ @ . . # # $ $ # # @ @ % @ @ @ . . & & . .     * *     = = - - ; | > > > > , , > , ' ' & & @ % 1 1 @ @ @ + ! ! ! ! ! ! ! ! ~ ~ ! ! ~ ~ ! ! ~ ~ ! ! ~ ~ ! ! ~ ~ ] ] / / ] ] / / ~ ~ / / ~ ~ ^ ^ ~ ~ ^ ^ ~ ~ ^ ^ ~ ~ ^ ^ ~ ~ ^ ^ ~ ~ ^ ^ / / ^ ^ / / ^ ^ / / ^ ^ / / / / ^ ^ / / / / / / / / ( ( / / ( ( ( ( _ _ ( ( _ _ ( ( _ _ _ _ _ _ _ _ _ _ _ _ _ _ _ _ _ _ _ _ _ _ _ _ _ _ _ _ _ _ _ _ _ _ _ _ _ _ _ _ : : _ _ : : : : : : : : : : : : : : : : : : : : : : : : : : : : : : : : : : : : : : : : : : : : : : : : : : : : : : : : : : : : : : : : : : : : : : : : : : : : : : _ _ : : _ _ _ _ _ _ _ _ _ _ _ _ _ _ _ _ _ _ _ _ _ _ _ _ _ _ _ _ _ _ ( ( _ _ _ _ ( ( _ _ ( ( ( ( ( ( ( ( ( ( ( ( ( ( ( ( ( ( ( ( / / ( ( / / ( ( / / ( ( / / / / / / / / / / / / ^ ^ / / / / / / ^ ^ ^ ^ / / ^ ^ ~ ~ ^ ^ / / ^ ^ ~ ~ ^ ^ ~ ~ ^ ^ ~ ~ ~ ~ ] ] ~ ~ ] ] ~ ~ ! ! ~ ~ ! ! ! ! ~ ~ ! ! ~ ~ ! ! ! ! # + 1 1 % % % @ = = , , [ [ - - , , | ; ; ; | | | | .   * * @ @ @ @ .   5 5 . . @ @ @ % @ @ % @ . . @ @ . . @ @   . . .     . .     . . ",
"    3 3 . .     . .   . @ @ . . @ @ . . # # @ @ # # # # # #         .   $ $ 1 1 @ @ 6 6 ; ; - - ; | > > - - [ [ , , = = % % % % ) ) @ # ! ! ! ! ! ! ! ! ! ! ~ ~ ! ! ~ ~ ] ] ~ ~ ] ] ~ ~ ] ] ~ ~ ~ ~ / / ~ ~ / / ~ ~ ^ ^ ~ ~ ^ ^ ~ ~ / / ~ ~ / / ~ ~ ~ ~ ~ ~ ^ ^ / / ^ ^ / / ^ ^ / / / / ^ ^ / / / / ( ( / / ( ( / / ( ( ( ( ( ( ( ( _ _ ( ( _ _ _ _ _ _ _ _ _ _ _ _ _ _ _ _ _ _ _ _ _ _ _ _ _ _ _ _ _ _ _ _ _ _ _ _ _ _ _ _ _ _ _ _ : : : : : : : : : : : : : : : : : : : : : : : : : : : : : : : : : : : : : : : : : : : : : : : : : : : : : : : : : : : : : : : : : : : : : : : : : : : : : : : : : : : : : : _ _ _ _ _ _ _ _ _ _ _ _ _ _ _ _ _ _ _ _ _ _ _ _ ( ( _ _ _ _ _ _ _ _ _ _ ( ( _ _ ( ( _ _ ( ( ( ( ( ( ( ( ( ( ( ( ( ( ( ( ( ( ( ( / / ( ( / / ( ( / / ( ( / / / / / / / / ^ ^ / / ^ ^ / / ^ ^ / / ^ ^ ^ ^ / / ^ ^ / / ^ ^ / / ^ ^ ~ ~ ^ ^ ~ ~ ^ ^ ~ ~ ~ ~ ] ] ~ ~ ! ! ~ ~ ! ! ~ ~ ~ ~ ! ! ~ ~ ! ! ! 4 4 ! # @ @ + @ @ # # & & ' ' > > , , - - > > ; | | ; = & & & 2 2 % % # # & & .       % % @ @ @ # @ @ @ @ . . @ @ . .   . .     . .     . .   ",
"    3 3 . . .   . .     @ @ . . @ @ . . # # @ @ # # # # # #           .   $ 1 1 @ @ 6 6 ; ; - - ; ; > > - - [ [ , , = = % % % % ) ) + + ! ! ! ! ! ! ! ! ! ! ~ ~ ! ! ~ ~ ] ] ~ ~ ] ] ~ ~ ] ] ~ ~ ~ ~ / / ~ ~ / / ~ ~ ^ ^ ~ ~ ^ ^ ~ ~ / / ~ ~ / / ~ ~ ~ ~ ~ ~ ^ ^ / / ^ ^ / / ^ ^ / / / / ^ ^ / / / / ( ( / / ( ( / / ( ( ( ( ( ( ( ( _ _ ( ( _ _ _ _ _ _ _ _ _ _ _ _ _ _ _ _ _ _ _ _ _ _ _ _ _ _ _ _ _ _ _ _ _ _ _ _ _ _ _ _ _ _ _ _ : : : : : : : : : : : : : : : : : : : : : : : : : : : : : : : : : : : : : : : : : : : : : : : : : : : : : : : : : : : : : : : : : : : : : : : : : : : : : : : : : : : : : : _ _ _ _ _ _ _ _ _ _ _ _ _ _ _ _ _ _ _ _ _ _ _ _ ( ( _ _ _ _ _ _ _ _ _ _ ( ( _ _ ( ( _ _ ( ( ( ( ( ( ( ( ( ( ( ( ( ( ( ( ( ( ( ( / / ( ( / / ( ( / / ( ( / / / / / / / / ^ ^ / / ^ ^ / / ^ ^ / / ^ ^ ^ ^ / / ^ ^ / / ^ ^ / / ^ ^ ~ ~ ^ ^ ~ ~ ^ ^ ~ ~ ~ ~ ] ] ~ ~ ! ! ~ ~ ! ! ~ ~ ~ ~ ! ! ~ ~ ! ! 4 4 ! ! # @ + + @ @ # # & & ' ' > > , , - - > > ; | ; ; = & & & 2 2 % % # # & &   .     % % @ @ @ # @ @ @ @ . . @ @ . .   . .     . .   . .     ",
"3 3     3 3   .     . . . . @ @ . . @ @ . $ # # @ @ % % # @ . . & &   .     * *     = = - - | | , > ; ; > , , > ' ' & & # # @ @ % # # # ! ! ! ! ! ! ~ ~ ! ! ! ! ~ ~ ] ] ~ ~ ] ] ~ ~ ] ] ~ ~ ] ] ~ ~ ~ ~ ^ ^ ~ ~ ^ ^ ~ ~ ^ ^ ~ ~ ^ ^ ^ ^ ^ ^ ~ ~ ^ ^ ~ ~ ^ ^ ~ ~ ^ ^ ^ ^ ^ ^ ^ ^ / / ^ ^ / / / / / / / / ( ( / / ( ( ( ( ( ( ( ( ( ( ( ( _ _ ( ( ( ( ( ( ( ( _ _ ( ( _ _ _ _ ( ( _ _ _ _ _ _ _ _ _ _ _ _ _ _ _ _ _ _ _ _ _ _ _ _ _ _ _ _ : : _ _ : : : : : : : : : : : : : : : : : : : : : : : : : : : : : : : : : : : : : : : : : : : : : : : : : : : : : : : : : : : : : : : : : : : : : : : : : : : : : : _ _ _ _ _ _ _ _ _ _ _ _ _ _ _ _ _ _ _ _ _ _ _ _ ( ( _ _ ( ( ( ( ( ( ( ( ( ( ( ( ( ( ( ( ( ( ( ( ( ( ( ( ( ( ( ( ( ( ( ( ( ( ( ( / / ( ( / / ( ( / / ( ( / / ^ ^ ^ ^ ^ ^ ^ ^ ^ ^ ^ ^ ^ ^ ^ ^ ^ ^ ^ ^ ^ ^ ^ ^ ^ ^ ~ ~ ^ ^ / / ^ ^ ~ ~ ^ ^ ~ ~ ~ ~ ~ ~ ~ ~ ] ] ~ ~ ! ! ~ ~ ! ! ~ ~ ! ! ! ! ~ ~ ! ! ~ ~ ! ! ! ! # + 1 1 % % % @ = = > , [ [ - - , , | ; ; ; | | | | .   * * @ @ % @     5 5 . . @ @ @ % @ @ @ # . . @ @ . . @ @ .     . .   . .         ",
"3 3     3 3   . .     . . . @ @ . . @ @ . $ # # @ @ % % @ @ $ . & & . .     * *     = = - - | | , > ; ; > , > > ' ' & & # # @ @ % # # # ! ! ! ! ! ! ~ ~ ! ! ! ! ~ ~ ] ] ~ ~ ] ] ~ ~ ] ] ~ ~ ] ] ~ ~ ~ ~ ^ ^ ~ ~ ^ ^ ~ ~ ^ ^ ~ ~ ^ ^ ^ ^ ^ ^ ~ ~ ^ ^ ~ ~ ^ ^ ~ ~ ^ ^ ^ ^ ^ ^ ^ ^ / / ^ ^ / / / / / / / / ( ( / / ( ( ( ( ( ( ( ( ( ( ( ( _ _ ( ( ( ( ( ( ( ( _ _ ( ( _ _ _ _ ( ( _ _ _ _ _ _ _ _ _ _ _ _ _ _ _ _ _ _ _ _ _ _ _ _ _ _ _ _ : : _ _ : : : : : : : : : : : : : : : : : : : : : : : : : : : : : : : : : : : : : : : : : : : : : : : : : : : : : : : : : : : : : : : : : : : : : : : : : : : : : : _ _ _ _ _ _ _ _ _ _ _ _ _ _ _ _ _ _ _ _ _ _ _ _ ( ( _ _ ( ( ( ( ( ( ( ( ( ( ( ( ( ( ( ( ( ( ( ( ( ( ( ( ( ( ( ( ( ( ( ( ( ( ( ( / / ( ( / / ( ( / / ( ( / / ^ ^ ^ ^ ^ ^ ^ ^ ^ ^ ^ ^ ^ ^ ^ ^ ^ ^ ^ ^ ^ ^ ^ ^ ^ ^ ~ ~ ^ ^ / / ^ ^ ~ ~ ^ ^ ~ ~ ~ ~ ~ ~ ~ ~ ] ] ~ ~ ! ! ~ ~ ! ! ~ ~ ! ! ! ! ~ ~ ! ! ~ ~ ! ! 4 ! # + 1 1 % % % @ = = , , [ [ - - , , ; ; ; ; | | | |     * * @ @ % @     5 5 . . @ @ @ % @ @ # # . . @ @ . . @ @     . .   . . . .       ",
"    3 3           . $ . @ @ . . @ @ . . + # @ @ % # # @ # #         .   $ $ 1 1 $ . | | | ; | ; | | > > - - [ [ , , = = @ % % % ) ) @ # ! ! ! ! ] ] ! ! ! ! ! ! ] ] ! ! ] ] ! 4 ] ] ! ! ~ ~ ] ] ~ ~ ] ] ~ ~ ] ] ! ! ~ ~ ! ! ~ ~ ] ] ~ ~ ] ] ^ ^ ~ ~ ^ ^ ~ ~ ^ ^ ^ ^ ^ ^ / / ^ ^ / / ^ ^ / / / / / / ^ ^ / / / / / / / / / / / / ( ( ( ( ( ( ( ( ( ( ( ( ( ( _ _ ( ( ( ( ( ( _ _ _ _ _ _ _ _ _ _ _ _ _ _ _ _ _ _ _ _ _ _ _ _ _ _ _ _ _ _ _ _ _ _ _ _ _ _ _ _ _ _ : : : : : : : : : : : : : : : : : : : : : : : : : : : : : : : : : : : : : : : : : : : : : : : : : : : : : : : : : : : : : : : : _ _ : : _ _ _ _ _ _ _ _ _ _ _ _ _ _ _ _ _ _ _ _ _ _ _ _ _ _ _ _ ( ( ( ( ( ( ( ( ( ( ( ( ( ( ( ( ( ( ( ( ( ( ( ( ( ( ( ( ( ( ( ( / / ( ( / / / / / / / / / / / / ^ ^ / / / / ^ ^ / / ^ ^ ~ ~ ^ ^ ~ ~ ^ ^ ~ ~ / / ~ ~ ^ ^ ] ] ~ ~ ] ] ~ ~ ] ] ~ ~ ] ] ~ ~ ! ! ~ ~ ! ! ! ! ] ] ! ! ] ] ! ! ] ] ~ ~ ~ ~ ! ! ~ ~ ! ! ! 4 4 ! @ @ + @ @ @ # # & & ' ' > > , , - - > > | | ; ; = & & & 2 2 % % % # & &         % % @ @ @ # # @ @ # . . @ @ .     . .     .     . .     ",
"    3 3           . . $ @ @ . . @ @ . . # # @ @ % @ # @ % @           .   $ 1 1 . . | | | ; | ; | | > > - - [ [ , , = = @ @ % % ) ) @ # ! ! ! ! ] ] ! ! ! ! ! ! ] ] ! ! ] ] ! ! ] ] ! ! ~ ~ ] ] ~ ~ ] ] ~ ~ ] ] ! ! ~ ~ ! ! ~ ~ ] ] ~ ~ ] ] ^ ^ ~ ~ ^ ^ ~ ~ ^ ^ ^ ^ ^ ^ / / ^ ^ / / ^ ^ / / / / / / ^ ^ / / / / / / / / / / / / ( ( ( ( ( ( ( ( ( ( ( ( ( ( _ _ ( ( ( ( ( ( _ _ _ _ _ _ _ _ _ _ _ _ _ _ _ _ _ _ _ _ _ _ _ _ _ _ _ _ _ _ _ _ _ _ _ _ _ _ _ _ _ _ : : : : : : : : : : : : : : : : : : : : : : : : : : : : : : : : : : : : : : : : : : : : : : : : : : : : : : : : : : : : : : : : _ _ : : _ _ _ _ _ _ _ _ _ _ _ _ _ _ _ _ _ _ _ _ _ _ _ _ _ _ _ _ ( ( ( ( ( ( ( ( ( ( ( ( ( ( ( ( ( ( ( ( ( ( ( ( ( ( ( ( ( ( ( ( / / ( ( / / / / / / / / / / / / ^ ^ / / / / ^ ^ / / ^ ^ ~ ~ ^ ^ ~ ~ ^ ^ ~ ~ / / ~ ~ ^ ^ ] ] ~ ~ ] ] ~ ~ ] ] ~ ~ ] ] ~ ~ ! ! ~ ~ ! ! ! ! ] ] ! ! ] ] ! ! ] ] ~ ~ ~ ~ ! ! ~ ~ ! ! ! 4 ! ! # @ @ + @ @ % # & & ' ' > > , , - - > > | | | ; = = & & 2 2 % % # # & &         % % @ @ # # @ @ @ # . . @ @ .   . .     . .   . .       ",
"3 3 . . .   . .   . @ @ . . @ @ . . @ @ @ @ # # $ $ % % # @ . . & &   .     * *     = & ; ; ; | ; ; ; ; , , , , ' ' & & % % 1 1 ) ) @ # ! ! ! ! ! ! 4 4 4 ! 7 7 8 8 1 1 9 9 0 0 a a b b @ % @ + 1 1 c c d d 8 8 e e 8 8 8 8 8 8 8 8 8 8 e e 8 8 8 8 8 8 8 f 8 8 8 8 8 8 f 8 8 8 8 8 8 8 8 8 8 8 g g 8 8 f 8 8 h g g 8 8 i i 8 8 d d 8 8 d d 8 8 d d 8 8 i d 8 8 d i 8 8 i i 8 8 d i 8 8 d i 8 8 d d 8 8 i d 8 8 i i e e i i e e e e 8 8 e d 8 8 e d e e i d e e d i 8 8 f i 8 8 i i e e i i e e i i f 8 i i 8 8 i i 8 8 i i e e i i 8 8 f i 8 8 e d 8 8 i i 8 8 i i 8 8 i i 8 8 i i 8 8 f i 8 8 d d 8 8 d d 8 8 i i d e i i 8 8 e d 8 8 d d 8 8 i i e e i i e e i d 8 8 d i 8 8 i i 8 8 f i 8 8 i i 8 8 i i 8 8 f i 8 8 d i 8 8 d e 8 8 i i d d i i e e i i 8 8 i i i i g g 8 8 f i 8 8 i i 8 8 8 8 8 h g i 8 h 8 8 8 8 8 8 j j 8 8 8 8 8 8 f 8 8 8 8 8 1 1 1 1 # # # # . . ' ' k k l l # # 8 8 m m ! ! ! ! 4 4 ! ! ! ! @ @ ) ) % % % % = = , , [ [ - - , > ; ; ; ; | | | | .   * * @ @ @ @     & & . . @ @ # # @ @ # # . . @ @ . . . . .     . .     .     .   ",
"3 3 . .   . . .   . @ @ . . @ @ . . @ @ @ + # # . $ % % @ @ . . & & . .     * *     & = ; ; ; | ; ; ; ; , , , , ' ' & & % % 1 1 ) ) # + ! ! ! ! ! ! 4 4 ! ! 7 7 8 8 1 1 9 9 0 0 a a b b @ % + + 1 1 c c d d 8 8 e d 8 8 8 8 8 8 f 8 8 8 e d 8 8 8 8 8 8 f 8 8 8 8 8 8 8 8 f 8 8 8 8 8 8 8 8 8 8 g g 8 8 f 8 8 h g g 8 8 i i 8 8 d d 8 8 i d 8 8 d d 8 8 d i 8 8 d i 8 8 i i 8 8 i i 8 8 i i 8 8 d d 8 8 i d e 8 i i e e i i e e e e 8 8 d d 8 8 d d e e i d e e i i 8 8 i i 8 8 i i e e d i e e i i 8 8 i i 8 8 i i 8 8 i i e e i i 8 8 i i 8 8 d d 8 8 d i 8 8 i i 8 8 i i h 8 i i 8 8 i i 8 8 i d 8 8 i i 8 8 i i e e i i 8 8 e d 8 8 d d 8 8 d d e e i i e e i d 8 8 d i 8 8 i d 8 8 f i 8 8 i i 8 8 f i 8 8 i i 8 8 d i h 8 e e 8 8 i i e d d i e e i i 8 8 i i i i g g 8 8 8 f i 8 8 i i 8 8 8 8 h g i h 8 8 8 8 8 8 8 j j 8 8 8 8 8 8 8 f 8 8 8 8 1 1 1 1 # # # # . . ' ' k k l l # # 8 8 m m ! ! ! ! 4 4 4 ! ! ! @ @ ) ) % % @ % = = , , [ [ - - , > ; ; ; ; | | | |     * * @ @ @ @     & & . . @ @ # # @ @ @ # . . @ @ $ . . .       .       .     . . ",
"    3 3 . .   . @ @   . + @ . . @ @ . . @ # $ $ # # # @ # #             . $ 1 1 $ $ | | ; | ; | | | > > - - [ [ , > = = @ @ % % ) ) @ # ! ! 4 ! ! ! 4 ! ! 4 n n 8 8 # # o o p p p q q q p p q p p q p p 9 9 9 9 r r [ [ & & . . # # # # 1 1 1 1 c c 8 8 8 8 i i 8 8 8 8 8 8 8 f 8 8 h g 8 8 8 8 8 8 f 8 h 8 8 f 8 8 g g 8 8 8 8 8 8 e e 8 8 i i 8 8 i i 8 8 i d 8 8 d i 8 8 i d 8 8 i d 8 8 d i 8 8 i i 8 8 d i e e i i e e d i f 8 e e 8 8 e e 8 8 e e 8 8 d d 8 8 i i e e d e e e i i e e d i 8 8 i i 8 8 d i 8 8 i i e e i i 8 8 i i 8 8 i i 8 8 d i 8 8 f i 8 8 d d 8 8 i d 8 8 f i 8 8 i d 8 8 i d e 8 i d d e i i e d d d 8 8 d i h 8 d e 8 8 e d 8 8 e d 8 8 e d 8 8 e e 8 8 d d 8 8 d d 8 8 i d 8 8 e e 8 8 i d 8 8 i i e 8 e e e 8 d d 8 8 8 8 8 8 f i 8 8 i 8 8 f i 8 8 8 8 8 h j 8 8 j j 8 8 8 8 i g 2 2 s s 1 1 . . & & | | ' ' k k k k l l l l p p p p q p p p q p t t t o # # 8 8 n n ! ! ! ! ! ! ! ! ! 4 + + ) ) 1 1 # #     ' ' > > , , ; ; > > | | ; ; = = & & * * % % % @ & & .       % % @ @ # #   . @ @ . . @ @       .     . . .   . .   . ",
"    3 3 . .   . @ @ . . @ @ . . @ @ . . @ # $ $ # # # @ # #             . $ 1 1 . $ | | | | ; | ; | > > - - [ [ , > = = @ @ % % ) ) + + ! ! 4 ! ! ! 4 ! 4 4 n n 8 8 # # o o p p p q q q p p p q p p p p 9 9 9 9 r r [ [ & & . . # # # # 1 1 1 1 c c 8 8 8 f i 8 8 i 8 8 8 f i 8 8 8 8 8 8 8 8 8 f 8 8 8 8 h g f 8 8 g g 8 8 8 8 8 8 e e 8 8 i i 8 8 i i 8 8 d i 8 8 i i 8 8 d i 8 8 i d 8 8 i i 8 8 i d 8 8 d d e e d i e e i i 8 8 e e 8 8 e e 8 8 e d 8 8 d d 8 8 i i e d i i e e i i e e d i 8 8 i i 8 8 i i 8 8 i i e e i d 8 8 i i 8 8 i i 8 8 i i 8 8 f i 8 8 d d 8 8 i d 8 8 i i 8 8 e d 8 8 i d e 8 i d e e i i e e i i e 8 i i h 8 e e 8 8 i d 8 8 i d 8 8 d d 8 8 e e 8 8 e d 8 8 e d 8 8 i i 8 8 e e 8 8 d d 8 8 i i e 8 d e 8 8 d d 8 8 8 8 8 8 f i 8 8 i 8 8 8 8 f i 8 8 8 j j 8 8 j j 8 8 8 8 f i 2 2 s s 1 1 . . & & | | ' ' k k k k l l l l p p p p p q p p p q t t o o # # 8 8 n n ! ! ! ! 4 ! ! ! ! 4 + + ) ) 1 1 # #     ' ' > > > , ; ; > > ; | | ; = = & & * * @ % % # & & .       % % @ @ # #   . @ @ . . @ @     . . .     . .   . . .   ",
"& &       . . .   . @ @ . . @ @ . . @ # + @ # # $ $ # # # @ $ $ & &   . .   * *     = = ; ; ; | ; ; ; ; , , , , ' ' & & % % 1 1 ) ) + + ! ! ! ! ! ! ! ! ! ! 7 7 i i 1 1 o o o o q q p q q p q p u u p p q u v v u u o o q v o o q v t t o o w w w w r r r r [ [ } } # # # # 1 x + + y y e e 8 8 i f 8 h g f 8 8 f i 8 8 8 8 8 8 8 8 8 8 f 8 8 8 8 h 8 8 8 8 8 8 f i 8 8 d d 8 8 d e 8 8 i i 8 8 i d 8 8 i i e 8 i i e d d i 8 8 d i h 8 d e 8 8 e e 8 8 e e 8 8 d d 8 8 i i 8 8 i i 8 8 i d 8 8 f i 8 8 i i 8 8 d d 8 8 d i e e i i e 8 d d 8 8 d i e 8 i i 8 8 d d 8 8 d d h 8 i i 8 8 i i 8 8 d d 8 8 i i 8 8 i i e d d i 8 8 i i 8 8 e d 8 8 d i 8 8 e d 8 8 e i 8 8 d e 8 8 d i 8 8 d d 8 8 d d 8 8 i i 8 8 i d 8 8 i g 8 8 8 8 8 8 8 8 8 f 8 8 8 8 h 8 8 8 e d z z x x + b b b # # | | ' ' ' ' ' A 9 9 9 9 o o o t p p o o q v p p q q q q u u q q u u u q u u o o p p p p q p t o # # 8 8 n n ! ! ! ! ! ! 4 4 ! ! + + 2 2 @ @ @ % = = , , [ [ - - , > | ; ; ; | | | | .   1 1 # @ @ %     & & . . @ @ # # # @ @ @ . . @ @ . . @ @     . . .     .         ",
"5 &       . . . .   @ @ . . @ @ . . @ @ @ + # # $ $ # # # @ $ $ & &   . .   * *     & = ; ; ; | ; ; ; ; , , , , ' ' & & % % 1 1 ) ) + + ! ! ! ! ! ! ! ! ! ! 7 7 i i 1 1 o o o t q q p q q q p q p u p p u u v v u u o o q v t o p q t t o o w w w w r r r r [ [ } } # # # # 1 x + + y y e e 8 8 f 8 8 h g 8 8 8 f i 8 8 8 8 8 8 8 8 8 8 8 f 8 8 8 8 h 8 8 8 8 f i 8 8 8 d d 8 8 d d 8 8 e d 8 8 d d 8 8 i i 8 8 i d e e d i 8 8 i d 8 8 e e 8 8 e e 8 8 e d 8 8 d d 8 8 f i 8 8 i d 8 8 e d 8 8 d d 8 8 f i 8 8 i d 8 8 e d e e i i e 8 d d 8 8 i d 8 8 e d 8 8 i d 8 8 d d 8 8 i d e 8 i i 8 8 d d 8 8 i i 8 8 d d 8 e i i 8 8 i i 8 8 e e 8 8 i d 8 8 e d 8 8 e i 8 8 e e e 8 d d 8 8 d d 8 8 d d 8 8 i i 8 8 i i 8 8 i g 8 8 8 8 8 8 8 8 f 8 8 8 8 h 8 8 8 8 e d z z x x b b b b # # | | ' ' ' ' A A 9 9 9 9 o o o t q p o o q v p p p q q q u u q u u u q u u u o o p p p p p q t o # # 8 8 n n ! ! ! ! ! ! 4 4 ! ! + + 2 2 @ @ % % = = , , [ [ - - , > | ; ; ; | | | | .   * 1 # @ @ @     & & . . @ @ # # # @ @ @ . . @ @ . . @ @     . . .     .       . ",
"    & & . .   . @ @ . . @ @ . . @ @ . . % % $ $ # # $ $ # % 5 5         $ $ 1 1 $ $ | | | | ; | ; | > > - - [ [ , , & = @ @ % % ) ) @ @ ! ! ! ! ! ! ! ! ! ! n n 8 8 . . l l u u o o B B o o q v t o u u q u C C q q u u u u q u u u D D D u u q u u u D u u q u o o q p o o o o 9 9 9 w w 9 9 w ' ' ' A | | $ $ # # E E 1 1 c F i i e d 8 8 8 8 8 8 8 8 8 8 8 8 h 8 8 8 8 8 8 8 8 8 8 8 8 8 8 8 8 8 e e 8 8 e e 8 8 d d 8 8 d d e e i i 8 8 d d 8 8 e e 8 8 d e 8 8 d d 8 8 e d 8 8 d d 8 8 i i 8 8 i d 8 8 i i 8 8 i d 8 8 i i 8 8 d i 8 8 i i 8 8 i d 8 8 i d 8 8 d d 8 8 d d 8 8 d d 8 8 d d 8 8 d i 8 8 d d 8 8 d d 8 8 e e 8 8 e e 8 8 e e 8 8 i d 8 8 d i 8 8 e e 8 8 e e 8 8 d d 8 8 d d 8 8 e e 8 8 d d 8 8 i i 8 8 8 8 1 1 # # 1 1 . . > > k k k k l l w w l l w w o o o t q p p p q p p q q p q q u u q u u p q q p p p p q u u u C C u u o o o o q v w w o o > > o o q p u u # # 8 8 m m ! 4 4 ! ! ! 4 ! ! ! @ + ) ) * * # # & & ' ' > > , , ; ; > > | | | ; = = & & * * % % % # & &     5 5 @ # @ @ # # . . @ @   . @ @   . . .     .         . & & ",
".   & & . .   . @ @ . . @ @ . . @ # $ . % % $ $ # # $ $ # % 5 5       .   $ 1 1 $ $ | | | | ; | ; | > > - - [ [ , , = = @ @ % % ) ) @ @ ! ! ! ! ! ! ! ! ! ! m n 8 8 . . l l u u o o B B o o p q o o q u u q C C u q D D u u u q u u u D u u u q u u u D u u q q o o q p o o o t 9 9 9 w 9 9 9 w ' ' ' A | | $ $ # # E E 1 1 c F i i e e 8 8 8 8 8 8 8 8 8 8 8 8 8 8 8 8 h 8 8 8 8 8 8 8 8 8 8 8 8 8 e e 8 8 e e 8 8 i d e 8 i d e e d d 8 8 d d h 8 e e 8 8 e e 8 8 i i 8 8 d e 8 8 d d 8 8 i i 8 8 i d 8 8 i d 8 8 e d 8 8 d d 8 8 d d 8 8 d i e 8 d d 8 8 d i e 8 d d 8 8 d d 8 8 d d 8 8 d d 8 8 d d 8 8 d d 8 8 d d 8 8 e e 8 8 e e 8 8 e e e 8 d d 8 8 d d 8 8 e e 8 8 e e 8 8 d d 8 8 d d 8 8 e e 8 8 i d 8 8 d i 8 8 8 8 1 1 # # 1 1 . . > > k k k k l l w w l l w w o o o t q p p p p q q q u q q u u u u u q p q q q p p p q u u u u C u u o o o o p q w w o o > > o o p p u u # # 8 8 m m ! 4 4 ! ! ! 4 ! ! ! + + ) ) * * # # & & ' ' > > , , ; ; > > ; | ; ; = = & & * * % % % @ & &     5 5 # @ @ @ # # $ . @ @ .   @ @   . . .     .       . . & & ",
"& &     .   . . . . # @ .   @ @ . . @ # # @ @ # $ $ # # @ @ $ . & &   .     * *     & = ; ; | | ; ; ; ; , , , , ' ' = & % % 1 1 ) ) + + ! ! ! ! ! ! ! ! ! ! 7 7 8 8 # # p p q p p p # # i i G G c c G G 1 1 & & , > | | | | > > > > p p q p p p p p q p H H p p q u u u I I q q u u o o C C u q q q p q q u o o q p o o p q w w l l k k k k [ [ | | & & + + + + + # 1 1 c c c c 8 8 8 8 8 8 8 8 f 8 8 8 8 h 8 8 8 8 8 8 i i 8 8 8 8 8 8 8 8 8 8 i i 8 8 d i 8 8 8 8 8 8 f i 8 8 i g 8 8 i g 8 8 i i 8 8 d i 8 8 d d 8 8 d i e e e i i 8 i i 8 8 i d e e i i e 8 d e 8 8 d e 8 8 e d 8 8 e e 8 8 8 8 8 8 i i 8 8 8 8 8 8 8 8 8 8 d d 8 8 d d 8 8 d i e 8 d e 8 8 d e 8 8 e d e e e e y y b b b b # # # # - - A A r r 9 9 9 w w w l l l l p p l l u q q p p p p q p p p p u u q u u u p p q p p p p p p q p p p p p p p q p p l l > > | | > > J J s s 1 * i i g i G G f 8 . . p p q p t o . . 8 8 n n ! ! ! ! ! 4 ! ! ! ! + + 2 2 % % % @ = & , , [ [ - - , > ; | ; ; | | | |     * 1 @ # @ @     & &     @ @ @ # # @ @ @ . . # @ . . @ @     .   & & . .   . .   ",
"& &     .   . . . . @ @ . . @ @ . . @ @ @ @ # # $ $ % # # @ . . & & . .     * *     = = ; ; ; | ; ; ; ; , , , , ' ' = & % % 1 1 ) ) + + ! ! ! ! ! ! ! ! ! ! 7 7 8 8 # # p p p q p p # # i i G G c c G G 1 1 & & , > | | | | > > > > p p p q p p p p p p H H p p q u u u I I q q D D o o C C q q q p q q u q t o p q o o p q w w l l k k k k [ [ | | & & + + + # # # 1 1 c F c c 8 8 8 8 8 8 8 8 8 f 8 8 8 8 h 8 8 8 8 8 i d 8 8 8 8 8 8 8 8 8 8 f i 8 8 i i 8 8 8 8 8 8 8 f 8 8 g g 8 8 f i 8 8 i i 8 8 d i 8 8 i i 8 8 e d d e e i i 8 d d 8 8 d i e e d d 8 8 d e 8 8 d e 8 8 e e 8 8 e e 8 8 8 8 8 8 i i 8 8 8 8 8 8 8 8 8 8 g i 8 8 d e 8 8 d d 8 8 d e 8 8 e d 8 8 e e e e e e y y b b b b # # # # - - A A r r 9 9 9 w w w l l l l p p l l u q q p p p p p q p p p u u q u u u p p p q p p p p u q q p p p p p p q p p l l > > | | > > J J s s 1 * i i g i G G f f . . p p p q o o . . 8 8 n n ! ! ! ! ! 4 ! ! ! ! + + 2 2 % % % % = = , , [ [ - - , > ; | ; ; | | | |     * 1 # @ @ %     & &     @ @ # # # @ @ @ . . # @ $ . + @   . . . & & . . .   .   ",
"    & & . .   . @ @ . . # @ . . @ @ . . % % # @ @ % $ $ # % & 5   .     . $ 1 1 $ $ | | | | | ; | ; > > - - [ [ , , & = @ @ % % ) ) @ @ ! ! ! ! ! ! ! ! ! ! n n 8 8 # # p p q u l l b b & & + # 1 1 % % x x b + + + 8 8 8 8 i i i g i i i g c c G G * * | | > > 0 0 B B - - A A u u q u u u D u u q C C u q u u q u u u p q q p q p u u p p q q o o u u q p p p o t t o k k o o k k k k [ B . . # + + + 1 1 # # c c d i 8 8 8 8 8 f i 8 8 8 8 8 8 8 i i 8 8 g i 8 8 8 8 8 f i g 8 8 i f 8 8 h g 8 8 8 8 8 8 i i 8 8 e d 8 8 d d 8 8 d d 8 8 i d 8 8 e d 8 8 i i 8 8 e e 8 8 d d 8 8 8 8 8 8 8 8 f 8 8 i 8 8 8 8 8 8 8 8 8 8 f 8 8 8 8 h i i 1 1 + + + # # + 0 0 B B K K r r t t 9 9 t t o t t o p p q q q u q u u q p p o o q v p p p p q p p p p p H H u u C I q q C C u q u p u u > > | | - - 0 0 | | * * s s i i G G g g 2 2 8 8 8 8 8 8 f i s s # # . $ # # | L | | # # p p p p q p # # 8 8 m m ! 4 ! ! ! ! 4 ! ! ! @ + ) ) 1 1 % #     , , > > [ [ ; ; > > ; | ; ; | | = & * * % % % # & &     5 5 # # @ # # # . . @ @ . . @ @   . @ @ .     .     .       ",
"    & & . . .   @ @ . . @ @ . . @ @ . . % % @ @ % % . $ % % & 5 .       $ $ 1 1 $ $ | | | ; | ; | | > > - - [ [ , , = & @ @ % % ) ) @ @ ! ! ! ! ! ! ! ! ! ! n n 8 8 # # p p u u l l b b & & + # 1 1 # % x x b + # # 8 8 8 8 f i g i i g i i c c G G * * | | > > 0 0 B B B - A A u u u q u u u D u u C C u q u u u q u u p q q p q p u u p p q p t o u u q p p p o t t o k k o o k k k k B B . . # + # # 1 1 # # c c d i 8 8 8 8 8 8 f i 8 8 8 8 8 8 f i 8 8 i i 8 8 8 8 8 8 f i 8 8 8 f 8 8 h g 8 8 8 8 8 f i 8 8 i d 8 8 8 i i 8 8 i d 8 8 i d 8 8 e d 8 8 i i 8 8 d e 8 8 d i 8 8 8 8 8 8 8 8 8 8 f i 8 8 8 8 8 8 8 8 8 8 8 8 f 8 8 8 8 i 1 1 # # # # # # - - B B K K r r t t 9 9 t t o t o o q p u q q u u u q q p p o o q v p p p p p q p p p p H H u u I I q q u C C u q p u u > > | | - - 0 0 0 | * * s s i i G G g g 2 2 8 8 8 8 8 8 f i s s # # . $ # # | L | | # # p p p p p q # # 8 8 m m ! 4 ! ! ! ! ! 4 ! ! # + ) ) 1 1 # #     , , > > [ [ ; ; > > ; | ; ; | | = & * * @ % # # & &     5 5 # # # @ # # . . @ @   . @ @   . @ @     . .       .     ",
"& &       . . . . . # @ . . @ @ . $ @ @ % @ # % @ @ @ # # @ . . & &   .     * *     & = ; ; ; | ; ; ; ; , , , , ' ' & & % % 1 1 ) ) + + ! ! ! ! ! ! ! ! ! ! 7 7 8 8 # # p p o o o t + + ' ' k k k k k k B B w w o t r r l l k r r r [ [ . . # + . . # + # + + + 8 e 8 8 d d i i c c d i i i g i L | | | > > > > ' ' > > p p p p q p p p H H p p p q u u p p q p p p u u p p o o q p p p q p p p o o l l o o l l k k ' ' ' A > > | | . . # + # + # # 1 1 c c g g 8 8 8 8 8 f i 8 8 f 8 f g g g g f g f f g f 8 f g g g f g g 8 f g g 8 8 i g 8 8 f i g f g i 8 f g g 8 8 f i 8 8 8 f 8 8 8 8 8 8 f 8 * * # # 1 * # # & & > > ' ' k k k k k k k k o t l l o t t o u u o o q q o o u u o o D D u u C C u C C I q u p p q p p q p p p p p p ' ' > > > > | | | | c c 1 1 i i c c d i i g i i 8 8 8 8 # # # # + + + b b # [ [ A A A A w w 9 9 t t t t o t 9 9 9 9 | | r r > > + + o o q v t o b b 8 8 n n 4 4 ! ! ! ! ! ! ! 4 @ @ ) ) @ % % # & & > , [ [ > > > > ; | ; ; | | | ;     * 1 + @ @ %     & &     @ @ # # # @ @ @ . . @ @ . . @ @   . . . .     .       . ",
"& &         . . . . @ @ . . @ @ . $ @ @ # @ % % @ @ @ # @ @ . . & & . .     * *     & = ; ; | | | ; ; ; , , , , ' ' & & @ % 1 1 ) ) + @ ! ! ! 4 ! ! ! ! ! ! 7 7 8 8 # # p p o o o o + + ' ' k k k k k k B B w w o t r r l l k k r r [ [ . . # + . . # @ + + + # e e 8 8 i d i i c c i i g i i i L | | | > > > > ' ' > > p p q p p p p p H H p p p q u u p p p q p p q u p p o o p p p p p p q p t o l l o t l l k r ' ' ' A > > | | $ . # @ + # # # 1 1 c F g g 8 8 8 8 f 8 8 g f 8 f f g g g g f g f f g g 8 f g g g f g g 8 f g g 8 8 g g 8 8 i i g f g i f g g g f 8 8 f i 8 8 f 8 8 8 8 8 8 f 8 * * # # 1 * # # & & > > ' ' k k k k k k k k t t l l o t t t u u o o q q t o u u o o D D D u u C C C I I q u p p q p p p p p p p p q ' ' > > M M | | | | c c 1 1 i i c c i i i g i i 8 8 8 8 # # # # + + + b b # [ [ [ A A A w w w 9 t t t t t o 9 9 9 9 | | r r > > + + o o q v t o b b 8 8 n n 4 4 ! ! ! ! ! ! ! ! @ @ ) ) % % # % & & > > [ [ > > > > ; ; ; ; | | | ;     1 1 @ # @ @   . & &     % # @ # # @ @ @ . . @ @ . . + @   . . . .   . .     .   ",
"    & 5   . .   @ @ . . @ @ . . @ @ . $ # # $ $ # % % @ % %       .     . $ 1 1 $ $ | | | | ; | ; | > > - - A [ > > = = @ @ % @ ) ) @ @ 4 4 ! ! ! ! ! ! ! ! n n 8 8 @ # l l o t o o . . ' ' l l . . p p r r t t u u C I q q u u o o p q o o p p 9 k l l p p q p p p p p p p l l . . .   . $ $ . # @ . . 8 8 8 8 i i c c d i i i i g i i 1 1 | | - 0 ' ' 0 0 B > > B C C p p q p p p p p u u q u u p p p q p p q l l o t l l l l k k k k k k k k k k k k ' ' ' A > M M > > > | | * * 1 1 1 * * 1 s s G G N N N N N N N N N N N N N N N N N N N N N N N N f g * * c c 1 1 s s & & > O M M > > ' ' ' ' ' P ' ' l l k k P ' k k l l l l l l t t p p o t u u q p p u u C u D D u u C C u I I D D Q Q B B - - - 0 0 0 1 1 # # i i c c 2 2 c c 8 8 8 f 8 8 5 5 # # . $ . .   . k k l l l l p p p q p p p p p p B B o o B B o o o o u u C I q u u q u C o o o t r r b b r r [ B b b p p o t p p # # 8 8 m m ! 4 ! ! ! ! ! ! ! ! + + ) ) 1 1 @ % & & ' ' > > > , ; ; > > | | ; | | 6 & & * * @ % % # & & 5 5 & & # # % @ # # . . @ @ . . @ @ . . @ @       .     . .     ",
"    & 5 . .   . @ @ . . @ @ . . @ @ . $ # # $ $ % % @ @ % %   .   .     . $ 1 1 $ $ | | | | | ; | ; > > - - A [ > > & = @ @ % @ ) ) @ @ 4 4 ! ! ! ! ! ! ! ! n n 8 8 # # l l o t o o . . ' ' l l . . p p r r t t u u C I q q q u o o q p o o p p 9 k l l p p p q p p p p p p l l . . . . $ $ . . # @ . . 8 8 8 8 i i c c d i i i g i i i 1 1 | | | - ' ' 0 0 B > > B C C p p p q p p p p u q u u q p p p p p q u l l t t l l l l k k k k k k k k k k k k ' ' ' A > M > > > > | | * * * 1 s * * 1 s * G G N N N N N N N N N N N N N N N N N N N N N N N N f g * * c c 1 1 s s & & > O M M > > ' ' ' P P ' ' ' l l k k P ' k k l l l l l l t t p p o o u u q p p u C C u C u u C I q u I I D D Q Q B B B - - - - 0 1 1 # # i i c c c 2 2 c 8 8 f i 8 8 5 5 # # . . .   . . k k l l l l p p q p p p p p p p B B o o B B o o o o q u C C u q u p C C o o o t r r b b r r [ B b b p p o t p p # # 8 8 m m ! 4 ! ! ! ! ! ! ! ! + + ) ) 1 1 @ # & 5 ' ' > > , > ; ; > , | | ; | | 6 & & * * @ % % # & & 5 5 & & # # @ @ # # . . @ @ . . @ @ . . @ @     . . .     .     ",
"5 5     5 5 . . .   $ $ $ . % @ . . @ @ $ $ % % % @ # # @ @ $ $ & & . .     * *     6 6 ; ; ; | | ; ; ; , , , > > , & & % % * * 1 1 + + ! ! ! ! 4 ! ! ! ! 4 m m 8 8 x x p p o t u q # # ' ' l l 3 3 + + 3 3 o o C D D u u C v v R R R v u u S S v v T T D D u u C I I U Q Q U U D D u u o o w w 9 9 u u Q Q v v D D u u C u 3 3 } } . .   . b b & 3 8 8 f i g i z z e e c c d i c c 1 1 > > > > M M L | ' ' > O p p l l p p q p p p l l l l l l l l ' ' k k A A k k > > k k B [ ' ' [ [ A [ > > > > M > > > | | O O O O $ $ c c E E V V > > | | L | | L , , O O O > > > ' ' ' ' r r ' ' k k k r r 9 k k l l k k w w l l l l p p p p o t p p o o q p > > > > | O M > | | 1 1 c F g i i g y y z z i i 8 8 . .   . a a . .   . l l p p p p p q p p C C u C u I o o q v [ [ D D v v D D D u Q Q U U D D q q o o K K - - v v D D D D u u C D D C q q u u # # + + ' ' w w [ [ + + p p q u u p # # 8 8 n n W W 4 4 ! ! ! 4 4 4 @ @ 2 2 @ @ @ @ = = , , [ [ - - , > ; ; ; ; | | ; | & & 1 1 @ % . . .   = = 5 5 $ $ # # $ $ # @ . . @ @ . . @ # . . . . .     .     $ . ",
"5 5     5 5 . .     $ . . . @ @ . . @ @ $ $ % % % # # # @ @ $ $ & &   .     * *     6 6 ; ; | | | ; | ; , , > > , , & & % % * * 1 1 @ + ! ! ! ! 4 ! ! ! ! 4 m m 8 8 x x p p o o u q # # ' ' l l 3 3 + + 3 3 o o u D D u u C v v v R v v D D S S v v T T D D D u Q I I U Q Q U U D D u u o o w w 9 9 u u Q Q v v u u D D u u 3 3 } } . .   . b b & 3 8 8 i i d i z z e e c c d i c c 1 1 > > > > M > L | ' ' O O p p l l p p p q p p l l l l l l l l ' ' k k A A r r > > k k [ [ A ' [ [ A [ > > > > M > L > | | O O O > $ $ c c E E V V > > | | L | | L , , O O O > > > ' ' ' ' r r ' ' k k k r k k k k l l k k w w l l l l p p p p o t p p o o p p > > > > | O > > | | 1 1 c F g i i i y y z z i i 8 8 . . . $ a a . .   . l l p p p p p q p p C C C u I I o o q v [ [ D D v v u u D u Q Q U U D D v q t o K K - - v v D D D D D u u C C u q q u u + + + # ' ' w w [ [ + + p p u u p p # # 8 8 n n W W 4 4 ! ! ! 4 4 4 @ @ 2 2 % @ @ @ = = , , [ [ - - , > ; ; ; ; | | | ; & & * 1 # % . .     = = 5 5 $ $ # # $ $ # @   . @ @ . . @ # . . . . .     .     $ . ",
"    5 5     .   $ $     % @ . . + @   . # # . $ @ # $ $ # # & 5 .       $ $ 1 1 . . | | ; ; ; ; | | > > > > , , > > = = # % 1 1 ) ) # # < < ! ! ! ! 4 ! ! ! n n 8 8 # # o t p p o o b b B B w w r r 9 w X X o o q u C D q v u u D u D D u u W W S S W W D D Y Y Q Q Z Z Z Q Q Z Q Q U U 3 3 o o B B I I U I Q Q Z Y ` ` Y Y  . .I I r r p p H H I I Y Y p p q p p p p p & & & & . . # + # + # . # @ i i g i G G g i c c g g 2 2 & & | | 6 6 6 | & & | | k k w w r r k k A A k k k k r r > > [ [ > > > > | L , > > > > M | | > O O L | | L O O L | | > O O O , , ' ' k k ' ' ' P ' ' k k ' ' w w 9 9 w w | | | | = = | | & & @ @ c c c 2 g g g i i g i i 8 h g f + + . .   . . . k k p p l l p p p p H H p p  . .H H [ [ l l H H H H I I Q  .H H  . . . .D D r r 9 w b b D D Q Q U U I I U I Q Q u u ....+ + + # v v Q Q o o C D u u C I D D u u o o o o k k w w 9 9 [ [ + # p p o o p p # # 8 8 +.+.4 4 ! ! 4 4 ! ! 4 4 + + ) ) * 1 # # 3 3 ' ' > , , > - - , > | | ; ; | | = = * * @ # @ @ = & 5 5 & & # # $ $ % # $ $ @ @ $ . @ @ . . @ @ .     . .     . .   ",
"    5 5     .   $ $     @ @   . @ @   . # # $ $ @ # $ $ # # 5 5   .     . $ 1 1 . $ | | ; ; ; ; | | > > > > , , > > = = # % * 1 ) ) @ # < < ! ! ! ! 4 ! ! ! n n 8 8 @ # t t p p o o b b B B w w r r w w X X o o q u C D v v D D D D D D u u W W S S W W D D Y Y  .Q Q Z Q Q Q Z Q Q I I 3 3 o o B B C I I U Q Q Y Y ` ` Y Y  .Q I I r r p p H H I I Y Y p p q p p p p p & & & & . . # + # + # . # # i i i i G G g i c c g g 2 2 & & | | | | | | & & | | r r w w 9 9 k k A A r r r r r r > > B [ > > > > | | > > > > M > L | | > O L | | L O L | | L O L O O , , ' ' k k ' ' ' ' ' P k k P ' w w r r w w | | | | = = | | & & + @ c c c 2 g g g i i g i i 8 h f 8 . + . .   . . . k k p p l l p p p p H H p p  . .H H [ [ l l H H H H I I Y  .H H  . . . .D D r r 9 w b b D D Q Q U U I I U I Q Q u u ....+ + + + v v Q Q o o C D u u I I D D u u o o o o w 9 9 w 9 9 [ [ + # p p o t p p # # 8 8 +.+.4 4 4 ! 4 4 ! ! ! 4 + + ) ) * 1 # # & & ' ' > , , > - - , > | | ; ; ; | = & * * @ # @ @ = & 5 5 5 & # # $ $ # # $ $ + @ . . @ @ . . @ @ .   . .     . . .   ",
"5 5 .   5 5 . .     $ $ . . @ @ . . @ @ @ @ @ # # @ # @ @ # .   5 & . .     * * 5 5 6 6 ; ; ; | ; ; ; ; , , > , , , & & + # * * 1 1 @ @ ! ! ! ! 4 ! ! ! ! 4 n m 8 8 # # t o l l p p # # ' ' k k o o q v v v X X D D u u C v v v u u D R D D v v D D u u Q Q u D Q Q U U @.@.@.@.#.#.Z Z T T S S S S Q Q Z Q Q Q Q Z Y Y ` $.%.%.....- - o o k K %.%.Y Y Z Z I I Y Y Y Y I I o o o t r r p p p q u u o o o t r r k k > > E E # # s s # % % @ 1 1 i i i g i i i g 2 G g i c c V V & & & 5 5 5 V V 6 6 | O O L | L | O O O > O 6 6 | O L | O O O L > > | | , , ' ' 5 5 5 & .   .   1 1 c F g i i g 2 G i i c c 8 8 8 8 1 1 # @ 1 1 # @ # # r r r r w w o o o o o t I I o o o o l l w w I I U I Y Y  .Q Y Y &.&.&.Y X X v v W W D C Y Y  .Y %.%.Y Y Z @.@.@.Q Q T T S + u u Q Q Q Z Q Z Z Q Q Q U *.I I D D Y Y u u C u v v R v u u C u D D D C q q p q o o o t w w w w B B + + o o p q o o # # 8 8 m m ! ! ! ! ! ! ! 4 4 ! @ @ 2 2 % @ @ # = = , , [ [ - - , > ; ; ; ; | | ; | = = 1 1 # % . .     = = 5 5 $ $ @ # $ $ % # . . @ @ . . @ @ . . $ .     . . .     . ",
"5 5 .   5 5 . .     $ $ . . @ @ . . @ @ @ @ # @ @ @ # @ @ @     & & .   .   * * 5 5 6 6 ; ; ; | ; ; ; ; , , > > , , = & + # * * 1 1 + @ ! ! ! ! ! ! ! 4 ! ! m m 8 8 # # o o l l p p # # ' ' k k o o v v R v X X D D D u u C v v D D u R D D q v D D u u Q Q u D Q Q U U @.@.@.@.#.#.Z Z T T S + S S Q Q Q Z Q Q Z Z Y Y ` $.%.%.....- - o o K K %.%.Y Y Y Z I I Y Y Y Y I I o o o t r r p p q p p C o o o t r r k k B > E E # # s s s % % @ 1 1 i i i g i i i g G G f g 2 c V V & & & 5 5 5 V V 6 6 O O O > O L | O O O O L | 6 O O O L | O O L > > | | , , ' ' 5 5 5 &   .     1 1 c F i i g i G 2 i i c c 8 8 8 8 1 1 # @ 1 1 # @ # # r r r r w w o o o t o o C I o o o o l l w w I I U I Y Y Q Q Y Y Y &.Y Y X X v v W W D C Y Y  .Y %.%.&.Y @.@.@.@.Q Q T T S + u u Q Q Q Q Z Q Q Q Q Q U *.I I D D Y Y u u C u v v v R v u D D u u C C u q q q o o o o w w w w B B + + o o p q o o # # 8 8 m m ! ! ! ! ! ! ! 4 ! ! @ @ 2 2 % @ @ @ = = , , [ [ - - , > ; ; ; ; | | | ; & & 1 1 @ % . .     = & 5 5 $ $ + # $ $ % # . . + @ . . @ # . . $ .       . .     . ",
".   5 5       .   $     % @ . . # @ . $ # # @ # @ # $ $ # # 5 5         . $ @ @ $ $ | | | ; | ; | | , > > > > , , > & = @ @ @ @ ) ) # # < < ! ! ! ! ! 4 ! ! n n 8 8 @ # l l o t o o . . [ [ l l w w v v o o C D u u D D v v D u v v u u X X Q Q D u D D Q Q Q Q Z Q Q Z *.*.@.@.D D Q Q Q Q Q Z I I Y Y Y Y &.&.Y Y ` $.&.&.` ` Y Z T ..+ + %.%.%.%.%.%.Z Z Y Y Y &.Y &.u u & & p p | | p p q p I I q v u u o o l l k k > > ' ' k k ' P ' ' ' ' ' P ' ' O O O L % % @ % x 1 s s % s s % h 8 G G f f i i g =.G G =.=.M M J J J J L | O O J J s s i i i g -.-.i i 8 -.-.8 1 1 1 1 c F # # s % O O O > ' ' ' P l l ' ' k k l l p p = = ' ' > , o o o t u u q u I I U I p p } } k k + + Y Y &.Y &.&.Q Q %.%.Y Y %.%.T T S + y y Q Q Z Y %.%.Y Y Y Y &.#.` ` Y &.&.Y I I %.%.Y Z Z Q Q Z Z @.*.*.*.*.u u C I U U I I q v u u D u D u o o u u q u q q p q u u o o t t 9 w ' ' # # p p o t p p # # 8 8 +.+.4 4 ! ! ! ! ! 4 ! ! + + ) ) 1 1 # # & & ' ' > , , > - - > > ; | ; ; | | = = * * @ # @ @ = & 5 5 = & # # $ $ # # . $ # @   . @ @ . . @ @ .     . .   . .     ",
"    5 5       .   $     @ @ . $ @ @ . $ # # # @ # @ $ $ # # 5 5     .   $   @ @ $ $ | | | | ; | ; | , > > > > , > > & = @ @ # @ ) ) + # < < ! ! ! ! ! 4 ! ! n m 8 8 # # l l t o o o . . [ [ l l w w v v o o u D u u C u v v u u q v u u X X Q Q D D D D Q Q Q Q Q Q Z Y *.*.@.@.D D Q Q Q Q Z Q I I Y Y Y Y &.&.&.Y ` ` Y &.` ` Y Z ....+ + %.%.%.%.%.%.Y Z Y Y &.Y &.&.u u & & p p | | p p q p I I q v u u o o l l k r > > ' ' k k P ' ' ' ' P ' ' ' ' > O L | % % @ % 1 1 s s % s % % h 8 G G g f g i f =.G G g =.M M J J J J L | O O J J s s i i i i 8 -.i i 8 -.8 8 1 1 1 1 c c # # s % O O O > ' ' ' ' l l ' ' k k l l p p = = ' ' > , o o o t u u u C I U I I q p } } k k + + Y Y Y &.Y &.Q Q %.%.Z Y %.%...T S S y y Q Q Y Y %.%.Y Y Y Y #.#.` ` Y &.Y Y I I %.%.Y Z Q Q Z Y @.@.*.*.*.*.u u C I U I I I q v D D u u C u o o q u q q p q q u u u o o t t w w ' ' # # p p o t p p # # 8 8 +.+.4 4 ! ! ! ! ! ! 4 ! b b ) ) 1 1 # # & & ' ' , , > , - - , > | | ; ; ; | = = * * @ # @ @ = & 5 5 & & + # $ $ % # . $ # @ . . @ @ . . @ @     . .   . . .     ",
"5 5 .   5 5 . . .   $ $ . . % @ . . @ @ @ @ # @ @ @ @ @ # @     & & . . & 5 * *     6 6 ; ; ; | ; ; ; ; , , , , ' ' & & @ % 1 1 1 1 @ + ! ! ! ! ! ! ! ! ! 4 m m 8 8 # # p p t t p p b b B [ t t X X v v R R o o C D v v D D v v D D v v u u D u U U *.*.u D *.*.*.*.*.*.Q Q U *.@.@.*.*.@.@.*.*.@.@.@.@.#.#.#.#.` ` Y &.&.Y Y Y ` $.` ` $.$.$.` ` $.&.&.` ` Y &.` ` #.#.Q Q - - x x 0 0 I I q v U U D D Q Q v v o o + + 9 9 . . t t o t o t l l l l k 9 9 w # # ' ' J J ' ' ' P ' ' > > & & + # V V % % s s G G * 1 | | | | & & > O L | | L g g s s % s 5 5 $ $ . . | | r r > > B [ > > > > ' ' > > r r 9 w w w l l w w o t r k | | [ [ - - p p q u u u Q Q U U Y Y I C - - ) ) @.@.Q Z Z @.@.@.Y Y &.Y &.#.#.#.$.$.` ` ` $.Y Y &.#.&.&.` ` ;.;.` ` Y &.;.;.@.@.@.@.;.;.#.#.*.*.*.*.*.U U *.*.*.u D D D Q Q U U U I R R D D u u C u u u q u o o p q o o o o w w l l [ [ + # o o q p o t # # 8 8 m m ! ! ! ! ! ! 4 4 ! ! @ @ 2 2 % @ @ @ = = , , [ [ > > , , - - ; | | | ; ; = & * 1 % % . .     & & 5 5 $ $ # # . $ + @   . # @ . . @ @ . . .         . .   $ . ",
"5 5     5 5 . . .   $ $ . . @ @ . . @ @ @ @ @ # @ @ @ @ @ @     & & . . & 5 * *     6 6 ; ; ; | ; ; | ; , , , , ' ' & & @ % 1 1 1 1 + + ! ! ! ! ! ! ! 4 ! ! m m 8 8 @ # p p t t p p b b B [ t t X X v v R v o o C D v v u u v v D D v v D D u u Q U U *.*.D *.*.*.*.*.*.Q Q U *.@.@.*.*.@.@.*.*.@.@.@.@.#.#.#.#.` ` Y &.&.&.Y Y $.$.` ` $.$.` ` $.$.%.&.` ` Y &.` ` #.#.Q Q B - x x 0 0 I I q v U U D D Q Q v v o o b + 9 9 . . t t o t o t l l l l 9 9 w 9 # # ' ' J J ' ' ' P ' ' > > & & + # V V % % s s G G 1 1 | | | | & & | O O L | L g g s s s % 5 5 $ $ $ . | | r r > > [ [ > > > > ' ' > > k k w w w w l l w w o o K k | | [ [ - - p p q u u u Q Q U U Y Y I C - - ) ) @.@.Q Z @.@.@.@.Y Y &.Y &.#.#.#.` $.$.` ` $.Y Y &.#.&.&.` ` ;.;.` ` Y &.;.;.;.@.@.@.@.;.#.#.*.*.*.*.*.U U *.*.*.u D D u Q Q U U U U R R D D D u u C u u u u o o q q o o o t w w l l [ [ + # o o p q o o # # 8 8 m m ! ! ! ! ! ! ! 4 4 ! @ @ 2 2 % @ @ @ = = , , [ [ > > , , - - ; | | | ; ; & & * 1 # % . .     & & 5 5 $ $ # # . $ @ # $ . + @ . . @ @ . . . .     . .     $ . ",
"    5 5         . $     % @ . . # @ . $ @ # # @ # @ $ $ # # 5 5 .       . . @ @ $ $ | | | | | ; | | > > > , ' ' , , = = @ % % >.) ) # # ! ! ! ! ! ! ! ! ! ! n n 8 8 # # l l p p t o # # B B o o X X v v o o o t q v u u v v u u v v D D u u C D D D u u C D *.*.*.*.Q Q U *.@.@.*.*.@.@.*.*.@.@.@.@.&.&.Y Y #.#.#.#.` ` Y Y &.&.` ` $.$.` ` $.$.` ` $.$.$.` ` $.Y &.` ` Q Q Z Q D D Q Q D D C I D D Y Z u u q u o o - - 0 - w w l l p p l l p p k k k k ' ' 3 3 O O E E ' ' ' P ' ' ' ' O | | | 5 5 5 & J J E E s s > > | | , > > | ' ' > > % % ,.,.6 6 5 5 5 & 6 6 ' ' k k r r [ [ [ [ + # ; ; 3 3 k k k k t o o o u u w w o o | | ) ) o o q p u q I I U I I I U I I I I U Y Y &.Y &.&.Y Y &.Y @.@.Y Y @.@.#.#.Z Y ` $.` ` %.%.#.#.` ` #.#.` ` @.;.;.;.@.@.@.@.@.@.'.#.Z @.@.@.*.*.*.*.D D Q Q U U D D u R I I D D U U D D D D v v D u u u q u o o q q o t t o k 9 A A # # p p o t p p # # 8 8 n n W W ! ! ! ! ! ! ! ! @ + ) ) * 1 # # 3 & ' ' , , [ [ > > > > | | ; | ; | = & * * @ # @ @ = & 5 5 & & + # $ E @ @ $ $ % # . . @ @ . . @ @               . & & ",
".   5 5     .   $       @ @ . . # @ $ $ # # @ @ # @ $ $ # # 5 5         . . @ @ $ $ | | | | ; ; | | > > > , ' ' , , = = @ % % % ) ) # # ! ! ! ! ! ! ! ! ! ! n n 8 8 # # l l p p o o b + B B o o X X v v o o o o v v D D v v D D q v D D D u u C D D D D u u *.*.*.*.Q Q U *.@.@.*.*.@.@.*.*.@.@.@.@.Y &.&.Y #.#.#.#.` ` Y Y &.&.` ` $.$.$.` ` $.$.` $.$.` ` $.` Y &.` ` Q Q Z Q D D Q Q D D C I D D Y Z u u u q o o B - - 0 w w l l p p l l p p k k k k ' ' 3 3 O O $ E ' ' ' P ' ' ' ' | | | | & 5 5 & J J E E s s > > | | O > > | ' ' M M % % ,.,.6 6 5 5 5 & 6 6 ' ' k k r r [ [ [ [ + # ; ; 3 3 k k k k t o o o q u w w o o | | ) ) o o p p u u I I I I U I I I I I U I Y Y &.&.Y Y Y Y Y &.#.@.Y Y Z @.#.#.Y Y ` $.` ` %.%.#.#.` ` #.#.$.` ;.;.;.;.;.@.@.@.@.@.'.#.@.@.Z @.*.*.*.*.D D Q Q U U D D R R I I D D U U D D D D v v D u u u u q o o p q o t t o k 9 A A # # p p t t p p # # 8 8 n n W W ! ! ! ! ! 4 ! ! + + ) ) * 1 # # & & ' ' , , [ [ > > > , | | | ; | | = & * * @ @ + @ = & 5 5 & & + # $ $ % # . $ @ @   . @ @ . . @ @               . & & ",
"5 5 .   5 5 . .     $ $ $ . % @ . . @ @ @ @ @ # @ @ # @ @ @     5 & .   & 5 * *     6 6 ; ; | | ; ; ; ; , , , , ' ' & & % # 1 1 1 1 # # ! ! ! ! ! ! ! 4 ! ! n n e e # # o o t t p p # # [ [ t t X X X X v v R v u u v v D D q v D D v v D D D D D D q v *.*.Q Q U *.U U @.@.@.@.@.;.@.@.@.@.;.@.@.@.@.@.#.#.#.#.` $.&.&.%.%.Y Y $.$.` ` $.` &.&.` ` &.&.` ` &.Y ` $.#.#.` $.Z Z Y Y Y Y  .Y Q Q Z Q Q Q U U R R D D D D u u C u u u u u C u v v X X K K w w W W | | r r w w r r k r ' ' M > | | L | & & V V 1 1 . $ > > > > M > ' ' ' P ' ' # # . $ & & + @ ; ; > > > , r r r r K K r r & & & 5 w w X X o o v v o o v v D D u u q u u u D C C u I Q u D Q Q Z Q Z Y Y  .Y Z Z Q #.#.#.#.$.$.#.#.;.;.@.@.#.#.#.#.#.#.#.#.$.$.%.&.$.$.#.#.` ` &.&.#.#.@.@.@.@.*.*.@.;.;.@.@.@.@.@.@.@.*.*.Q Q Q Q Z Y D D u u C D *.I D D I I D D u u C u D D v v q q o o o o X X o t ' ' # # l l t o t t # # 8 8 m m ! ! ! ! ! ! ! 4 ! ! @ @ 2 2 % @ @ @ = = , , [ [ > > , , B - ; ; | | ; ; & & * 1 % % . .     & & 5 5 $ $ @ @ $ $ # @ . . + @ . . @ # . . .   & & . .         ",
"5 5     5 5 . .     $ $ . . @ @ . . @ @ % @ # # @ # @ # @ @     5 & .   5 5 * *     6 6 ; ; | | ; ; ; ; > , , , ' ' & & % # 1 1 1 1 # # ! ! ! ! ! ! ! 4 ! ! n n e e # # o o t t p p # # [ [ t t t X X X v v R v u D v v D D v v D D v v D D D D D D v v *.*.Q Q *.*.*.U @.@.@.@.@.;.@.@.@.@.@.;.@.@.@.@.#.#.#.#.$.$.&.&.&.%.Y Y ` $.` ` ` $.&.&.` ` &.&.` ` &.Y $.$.#.#.$.$.Z Z Y Y Y Y Y  .Y Q Q Q Z Q D U R R D D D D u u C u u u u u u q v v X X K K w w W W | | r r w w r r r r ' ' > O L | | | 5 & V V 1 1 . $ > > > > > M ' ' ' P ' ' # # . . & & + @ ; ; > > > , r r r r K K r r & & & 5 w w X X o o v v o o v v D D u u u q u u u C C u I Q D D Q Q Q Q Y Y  .Y Z Z Z Q #.#.#.#.$.$.#.#.;.;.;.@.#.#.#.#.#.#.#.#.$.$.&.&.` $.#.#.` ` &.&.#.#.;.@.@.@.*.*.@.;.;.@.@.@.@.@.@.@.*.*.Q Q Z Q Z Y D D u u C D *.I D D C I D u u q u u u D v v q q t o o o t X X o ' ' # # l l o t o o # # 8 8 m m ! ! ! ! ! ! ! 4 ! ! @ @ 2 2 # @ @ # = = , , [ [ , > > , - - ; | | ; ; ; & & * 1 % % . .     & & 5 5 $ $ # @ $ $ % # . $ @ @ . . @ @ . . . . & & . .         ",
"    & &     5 5 . . .   $ $ . . $ $ $ . # # . $ # # . . + @ & &     & 5 . . @ @ $ $ | | ; | ; | | | > , > > ' ' > , = = % @ # % ) ) + + ! ! ! ! ! ! ! 4 ! ! m m 8 8 b b l l o t o o b b B [ t t t X X X X X v v R v D D v v D D v v D D D D u u C D D D *.*.*.*.*.U *.*.*.*.@.@.*.*.@.@.*.*.@.;.;.@.@.@.@.;.#.#.&.#.` ` Y &.Y %.%.Y &.&.Y Y $.` ` $.$.$.%.&.$.` #.#.` ` &.Y @.@.Y Y Y  .Y Z Y Y Z @.Z Z Q Q U U Q Q Z Q q q u C D D C I v v D D v v o o o t o o w 9 k k k k k w r r k r B B [ [ > > . .   . | | $ E ' ' [ B ' ' k k k r > > . . & & & 5 , , ' ' , , r r r r w w r r 9 w w k o t X X v v X X D D R R I I D D I U D D I I U I Y Y Q Q Z Q Q Q Y Y  .Q Y Y Y Z @.Y #.#.#.#.#.#.#.#.#.#.$.$.$.$.` $.#.#.$.$.#.&.&.Y #.#.` ` &.&.&.&.@.@.Y Y *.*.;.;.@.@.@.@.Q Q ;.;.*.*.@.@.Q Q U *.D D Z Q U *.I I D D U U D D C I v v u u D u D u o o q v t o o o l l ' ' # # p p l l p p # # 8 8 m m W W ! ! 4 ! ! ! ! ! @ + ) ) * 1 # # & & ' ' , , [ [ > > > > ; | ; ; | | = & * * # # # @   & 5 5 = & # # . $ # @ $ $ # @ . . @ @ . . @ @ .             . & & ",
".   & &     5 5 . . .   $ $ . . $ $ . . # # $ $ % # . . # # & &     & & . . @ @ $ $ | | | | ; ; | | > > > > ' ' > , = = @ @ # % ) ) + + ! ! ! ! ! ! ! 4 ! ! m m 8 8 b b l l t o t t b b B [ t t X X X X X X v v v v D D v v u u v v D D D D u u C D D D *.*.*.*.*.*.U *.*.*.@.@.*.*.@.@.*.*.;.@.@.@.@.@.Z @.#.#.#.&.` ` Y &.&.%.%.Y &.&.&.Y ` ` ` $.$.$.&.&.` ` &.#.` ` &.Y @.@.Y Y Y Y  .Y Z Y Z Z Y Z Z Q U U Q Q Q Z q q u C D D I I q v D D q v o o o t o o w w 9 9 r r 9 w r r r r ' B B [ > > . . . $ | | $ E ' ' [ B ' ' k k k k > > . . & & & 5 , , ' ' , , r r r r 9 w r r 9 w k k o t t X v v X X D D u R I I D D I U u u C I U I Y Y  .Q Z Z Q Q Z Y Q Q Y Y Z @.Y Y #.#.#.#.#.#.#.#.#.#.` $.$.` $.$.#.#.$.$.%.&.&.&.#.#.` ` &.&.%.Y @.@.Y Y *.*.;.;.;.@.@.@.Q Q ;.;.*.*.@.@.Q Q U *.D D Q Q U U I I D D U U D D I I q v u D D u u C o o q v t o o o l l ' ' # # p p l l p p # # 8 8 m m W W ! ! ! ! ! ! ! ! b + ) ) * * # # & & ' ' > , B [ > > > > | | ; ; | | = = * * # # # @ & & 5 5 & & + # $ $ # @ . $ # @ . . @ @ . . @ @           . .   & & ",
"& &     5 5 $ . .   . . .   $ $ $ . @ @ $ $ @ @ @ @ @ # $ $     & &   $ 5 5 * *     6 6 | ; ; | | ; ; ; , , , , ' ' & & # # * 1 1 1 # # ! ! ! ! ! ! ! 4 ! ! m m 8 8 # # p p o t o o # # ' ' w w w w w w w w X X v v R v u u q v D D R R u u D D U U D D U U D D U *.Q Q Z Y @.@.@.@.*.*.@.@.#.#.#.#.@.@.@.;.;.;.` ` ` $.` ` Y  .%.%.%.%.` ` %.%.` ` %.%.%.%.Y Y #.#.#.#.#.#.#.#.` ` #.#.;.;.Y Y Z @.@.@.` ` @.@.Y Y Q Q Z Q D D D D u u C C u q u u o o D D p p o t t t o o w w w w 9 9 k 9 r r A A A [ [ - - 0 + + ' ' r r ' ' k k k k ' ' . . [ [ B B r r r r r r 9 w w k K K w w X X o o o t o o o o C D u u Q Q U U Q Q u D ;.;.).).*.*.@.@.@.@.@.@.&.Y @.@.` ` $.$.$.` #.#.$.$.` ` $.$.#.#.` $.` ` %.%.%.%.$.$.` $.$.` ` $.$.$.Y Y Y Y  .Y ` $.Y Y ;.;.Q Q #.#.*.*.Y Y  .Q Q Q Z Q Z Y D D I I D D C I D u U U D D D D D u u C v v D u v v v v T T X X [ [ l l B B + + l l p p o o . . 8 8 m m W W ! ! 4 ! ! ! ! 4 # # 2 2 # @ @ % = = , , , , > , [ [ | | ; | ; | ; ; & & # @ % @ @ @     5 5   . @ @ # # $ $ @ @ . . @ @ . . # @ . .   . .   . .     $ . ",
"& &     5 5 $ .     . .   . $ $ $ . @ @ $ . @ @ @ @ # @ $ $ .   & & $ . & 5 * *     6 6 ; ; | | ; ; ; ; , , , , ' ' & & # # * 1 1 1 # # ! ! ! ! ! ! ! 4 ! ! m m 8 8 # # p p t t o o # # ' ' w w w w w w w 9 t X v v v v D D v v D D R R D D D D I I D D I I D D *.*.Q Q Y Y Z @.@.@.*.*.@.@.#.#.#.#.@.@.@.;.;.@.` ` $.` ` ` Y  .%.%.%.%.` ` %.%.` ` %.%.%.%.Y Y #.#.#.#.#.#.#.#.` ` #.#.;.;.Y Y @.@.@.@.` ` ;.@.Y Y Q Q Z Q D D D D D C I D u u u q o o u u q p o o o t o o w w w 9 9 k 9 9 r r A A A [ [ - - 0 + + ' ' r r ' ' k k k k ' ' . . [ [ B B r r r r r r 9 w k w K K w w X X o t o o o t o o u u q u Q Q U U Q Q u D ;.;.).).*.*.@.@.@.@.@.@.&.Y @.@.` ` $.$.` ` #.#.` $.` ` ` $.#.#.` $.` ` %.%.%.%.` $.$.` ` $.$.` $.` Y &.Y Y Y Y ` ` Y Y ;.;.Q Q #.#.*.*.Y Y Q Q Q Q Z Q Z Y D D I I D D U U D D U U D D D D u u C u v v u u v v v v [ [ t t [ [ l l B B # # l l p p o t . . 8 8 m m W W ! ! ! 4 ! ! 4 4 # # 2 2 # @ % % = = , , , , > , [ [ | | ; | ; | ; ; & & @ @ @ % @ @     5 5     @ @ # # $ $ @ @ . . @ @ . . # @ $ . .   .   . . .   . . ",
"    5 &     5 5 . $       .     @ @ . $ @ @ . $ # # $ $ # # & & & & .   $ . @ @ . $ ; ; | | ; ; ; | > , > > ' ' , , = & % % s % ) ) + + ! ! ! ! ! ! ! ! ! ! n n 8 8 # # o t p p l l b b B B l l S S u u ....v v v v u u v v D D v v D u u D D u u C D D D *.*.*.u D Q Q Z Q Q Q ;.;.#.#.@.@.#.#.@.@.;.;.@.@.#.#.Z Y ` ` Y  .%.%.Y &.` ` ` ` ` ` ` ` %.%.$.` %.%.#.#.#.#.#.#.` ` ` $.` ` ` ` $.$.@.@.#.#.` ` $.$.&.&.Y Y Q Q Z Q Z Y Z Z I I Q  .I I U I p p I I q p p p o t u q o o o t w w t t r r 9 k ' ' ' P . . k k k k k k k k l l k r } } A A k k w w o t w w o t w X o o t t u u u C I U u u q u u u I I U I Y Y Q Q Q Z Y Y #.#.;.@.#.#.@.@.#.#.Y Y ` $.#.#.` $.` ` ` ` $.` ` ` $.$.` $.$.$.$.` &.%.` $.$.` ` $.` ` ` $.Y Y Y  .Q Y Y Y @.;.;.@.;.;.Y Y @.@.Q Q Q Q Z Q D U Y Y  .Q Q Q u D U U D D U *.D D u u C D D D v v R v o o v v w w w w r r b + 9 9 A ' # # p p o t p p # # 8 8 n n 4 4 4 ! ! ! ! 4 ! ! @ + ) ) 1 1 # @ & & [ [ > > [ [ > > - - } } | ; ; | = & * * @ @ # # & &     5 5 % % $ $ # @ $ $ @ @ . . @ @ . . . .     . .   . . .     ",
"    & &     5 5 . $     . .     @ @ . . @ @ $ $ # # $ $ # # 5 & & &   .   $ @ @ $ . ; ; | | ; ; ; | > > > > ' ' , , = = % % s % ) ) + + ! ! ! ! ! ! ! ! ! ! n n 8 8 # # t t p p l l b b B B l l S S u u ....v v v v u u v v D D v v D D D D D D D D D D D D *.*.D D Q Q Q Q Q Q ;.;.#.#.@.@.&.#.@.@.@.;.;.@.#.#.Y Y ` `  . .%.%.%.Y ` ` ` ` ` ` ` ` %.%.` ` %.%.#.#.#.#.#.#.` ` ` ` ` ` ` ` ` $.@.@.#.#.` ` ` $.&.&.&.Y Q Q Q Q Y Y Z Z I I  . .I I I I p p I I p p p p o o q q o o o o w w t t r r 9 9 ' ' ' ' . . k k k k k k k k l l k k } } A A k k w w t t w w t o X X o o o t u u u u I I u u u u u u I I I I  .Y Q Q Y Z Z Y #.#.@.@.#.#.@.@.#.#.Y Y ` ` #.#.` ` ` ` ` $.` ` ` ` $.` $.$.$.$.$.` %.%.$.$.` ` ` ` $.` $.`  .Y Y Z Q Q Y Y ;.;.@.;.;.@.Y Y ;.@.Q Q Q Q Q Q U U Y Y Z Q Q Q D D *.U D D *.U D D D D D u u u v v v v o o v v w w w w r r + + 9 9 ' ' # # p p o o p p # # 8 8 n n 4 4 ! 4 ! ! 4 4 ! ! @ + ) ) 1 1 # @ & & [ [ > > [ [ > > - - } } | ; | | = = * * # # # # & &     5 5 % % $ $ @ @ $ $ @ @ . . @ @ . .   .       . .   . .     ",
"& &     5 5 . .     . . .   $ $ . . @ @ $ $ @ # # @ @ # . $     = = . . 5 5 * * 5 5 6 6 ; ; ; | | ; ; ; , , , , ' ' & & # # * 1 1 1 # # ! ! ! ! ! ! ! ! ! 4 m m 8 8 # # p p l l o o # # [ [ k k W W + + S S w w v v o o R R R v D D R R D D D D D u D D D D D u @.@.;.@.@.;.Q Q @.@.@.@.@.@.*.*.@.@.Z @.#.#.@.@.#.#.Y Y Y Y Y Y ` ` %.%.` ` Y &.` ` ` ` $.` ` ` &.#.#.#.!.!.#.#.` $.$.` $.$.#.#.` $.&.&.$.$.#.#.` $.$.` $.$.&.&.@.@.Y Y ` `  .Y &.&.Y Z Z Y U U Z Z I I u D D D D D u D u u o o o t t t w w r r & & 9 9 X X w w w w w 9 9 w & & w w w w o o o t v v v v D D D D D D u D Q Q Q Q Q Q Q Q ;.@.@.;.@.@.Q Q Y Z &.&.$.$.$.` $.` &.&.#.#.#.#.$.$.#.#.!.!.$.` ` ` ` ` $.$.$.` ` ` ` ` $.` $.` ` ` ` ` $.` $.` ` $.$.` %.%.Q Q @.@.Y Y ;.;.Y Y Z Y ;.@.@.;.*.*.*.*.Q Q Q Q ;.;.@.Y U U Z Q D D D D D u D u u u u u u u u u v v v v v v o o - - + + [ [ l l B B . . p p p q o o . . 8 8 m m W W ! ! 4 ! ! 4 ! 4 # # 2 2 @ @ % % = = , , [ [ > > > , ; ; | ; ; | ; ; & & @ @ @ % % @     5 5 .   # @ @ # $ $ @ @ . . @ @ . . @ @ .   . .     . .   .   . ",
"& & .   5 5 . . .   .       $ $ $ . @ @ $ $ @ @ # @ @ @ $ $ .   = = . $ 5 5 * * 5 5 6 6 ; ; ; | ; ; ; ; , , , , ' ' & & @ # 1 1 1 1 # # ! ! ! ! ! ! ! ! ! 4 m m 8 8 # # p p l l o o # # [ [ k k W W + + + S w w v v o o v R R v D D R R D D D D D u D u D D D D @.@.;.@.@.@.Q Q @.@.@.@.@.@.*.*.@.@.@.@.#.#.@.@.#.#.Y Y Y Y Y Y ` ` %.%.` ` Y &.` ` ` ` ` $.` ` &.#.#.#.!.!.#.#.` $.$.$.` $.#.#.` $.&.&.` $.&.#.` $.$.$.` $.#.&.@.@.Y Y ` ` Y Y &.&.Y Z Y Y U U Z Q I I u D D D D D D u D u o o o t t t w w r r & & w 9 X X w w w w w 9 9 w & & w 9 w w t o o o v R v v D D D D D D D u Q Q Q Q Q Q Q Q @.@.@.;.@.@.Q Q Y Y Y &.$.$.` $.` ` &.&.&.#.#.#.` $.#.#.!.!.` ` ` ` ` ` ` $.$.` ` ` ` ` ` $.` $.` ` $.` ` ` ` $.` $.` ` %.%.Q Q @.@.Y Y ;.;.Y Y Y Z Y @.@.;.*.*.*.*.Q Q Q Q ;.;.Z Z I U Q Q D D D D D D u D u u D D D D u u v v v v v v o o - - + + [ [ l l B B . . p p p q o o . . 8 8 m m W W ! ! 4 ! ! ! 4 4 # # 2 2 @ @ @ % = = , , [ [ > > , , ; ; | ; ; | | ; & & @ @ % @ % @     5 5 .   @ @ # # $ $ @ @ . . @ @ . . @ @ .     . .     . .   . . ",
"    5 &   . 5 5 . .     . .     @ @ $ . @ @ $ $ @ # . $ # # & & = &       . @ @ . . ; ; | ; ; ; | | , > > > ' ' , , = = % % s % ) ) + + ! ! ! ! ! ! ! ! ! ! n n 8 8 # # l l p p l l b b > > 9 9 w w o o X X v v o o R R v v D D v v D D R R D D D D D D u D *.*.*.*.@.@.*.*.Q Q U *.@.;.*.*.@.@.@.@.#.#.#.#.&.#.Y Y &.#.Y Y ` ` ` ` %.%.` ` ` ` ` $.` $.` ` $.` #.#.` $.!.!.$.$.#.#.$.$.` $.$.$.$.` $.` ` ` ` $.$.` !.!.$.` ` $.Y Y &.#.Y Y &.#.Y &.&.Y Y Y Z Y I I Z Z I U Y Y C C Q Q D D D D q q u u o t t t } } o o o t v q l l p p o t - - t t t o q v D D v v I I u D Q Q U *.Z Z Q Q Y Y Z Z Y &.&.#.$.$.;.;.@.;.#.#.` ` ` ` ` ` $.` $.` ` $.!.!.$.` $.$.` $.$.$.$.$.!.!.#.#.` $.$.$.$.` $.` ` ` $.$.` $.` ` ` $.` ` ` $.%.%.Y Y Z Y ;.;.@.;.@.@.;.@.@.@.*.*.Q Q D D @.@.Q Q Y Y Z Q U U I I Z Q D D D D D D D u D u u D D D I I u D D D o o v R X X X X w w ' ' # # p p o o q p # # 8 8 n n 4 4 ! ! 4 ! 4 ! ! ! @ + 1 1 1 1 # @ & & [ [ > , [ [ - - > > | | ; ; | | = = * * % # # # & & . . 5 5 % % $ $ @ @ . . @ @ $ . @ @ . . .       . . .     . .   ",
"    5 &     5 5 . .     . .     @ @   . @ % $ $ @ # . $ # # 5 & & &       . @ @   . ; ; | ; ; ; | | > > > > ' ' , , = = % % % s ) ) + + ! ! ! ! ! ! ! ! ! ! n n 8 8 # # l l p p l l b b B > 9 9 w w o o X X v v o o R R R v D u v v D D R R D D D D D D u D *.*.*.*.@.@.*.*.Q Q U *.;.;.*.*.@.@.@.@.#.#.#.#.#.#.Y Y &.#.Y &.` ` ` $.%.%.` ` ` ` ` ` $.` $.` ` $.#.#.` $.!.!.$.$.#.#.$.$.$.` $.` ` ` $.` ` ` ` $.$.$.!.!.$.` ` $.Y Y #.#.Y Y Y &.#.Y &.&.&.Y Z Y I I Z Q I I Z Y C C Q Q D D D D v q q u t t t o } } o o o o q q l l p p o t - - t t t o v v D D R v I I D D Q Q U U Y Z Z Q Y Y Z Y @.&.&.#.$.$.@.;.;.@.#.#.` ` ` ` ` ` ` $.` $.` $.!.!.$.` $.$.$.` $.$.$.$.!.!.#.#.$.$.` $.$.$.$.$.$.` $.` ` ` $.` ` $.$.` $.$.%.%.Y Y Y Z ;.;.@.;.@.@.@.;.@.@.*.*.Q Q D D @.@.Q Q Y Z Q Q U *.I I Z Q D D D D D u D u u D D D D D I I u D D D o o v R X X X X w w ' ' # # p p o t p p # # 8 8 n n 4 4 ! ! ! 4 4 ! ! ! @ + 1 1 1 1 # @ & & [ [ > , [ [ - - > > | | | ; ; | = = * * % # # # & & . . 5 5 % % $ $ @ @ . . @ @ $ . @ @ . . . .     . . .     .     ",
"& &     5 5 . .     . .     $ $ . . @ @ $ $ @ @ # @ @ @ $ $ .   = = $ . & 5 * * 5 5 6 6 ; ; | ; ; ; | ; , , > > ' ' & & # # 1 1 1 1 # # ! ! ! ! ! ! ! ! ! 4 m m 8 8 # # o o o t t t # # [ [ l l X X X X o o o o q v v v v R R v D *.R R D D *.*.D D D D D u D *.*.*.D D Q Q U *.Z Z Z Y U Z Z Y &.&.&.Y ` ` Y &.&.&.Y Y ` $.` ` ` ` $.$.` $.` ` ` $.#.#.` $.$.` ` $.$.$.` $.$.$.$.$.$.$.` $.` ` ` $.` ` !.!.$.` $.$.$.$.` $.` ` ` $.` $.$.` %.&.` $.` ` ` $.%.&.&.Y Z Y Y Y U *.*.*.*.*.Y Y U *.D D q v I I K K W W q q u D v q C C C C C D - - v v D D U U D D Q Q Q Q Y Y Z Y Y Z Y @.@.@.;.@.#.#.@.@.#.#.#.#.$.$.#.#.$.$.$.$.` $.` ` #.#.#.#.!.!.$.` $.$.!.!.` ` ` ` !.!.$.` ` $.$.$.!.!.` ` ` $.$.` ` $.$.` ` $.$.` $.$.` $.` ` Y Y Z Y @.@.@.@.Q Q Y Y Z Q Q Y Q Q @.@.).).Q Q U *.D D D D Q Q D D Q Q D D D D v v D D R v D D q v u u v v v v o o o t w w t o > > # # l l p p t t . . 8 8 m m W W ! ! 4 ! ! ! ! 4 # # ) ) @ @ s % = = > , [ [ > , , , ; ; | ; ; | ; ; & & % @ @ % % @     5 5 . . @ @ # # $ $ $ $ $ . . .   . . .       .     . .     . . ",
"& &     5 5 . .     . .     $ $ $ . @ @ $ $ @ @ # @ @ @ $ $     = = . $ 5 5 * * 5 5 6 6 ; ; | | ; ; | ; > , > > ' ' & & # # 1 1 1 1 # # ! ! ! ! ! ! ! ! ! 4 m m 8 8 + # t o X t t t # # [ [ l l X X X X o o o t v q v v v R R v D *.R R D D *.*.D D D D D D D u *.*.D D Q Q U U Z Z Y U Z Z Z Y &.&.&.Y ` ` #.&.&.&.Y Y ` $.` ` ` ` $.$.` $.` ` ` $.#.#.` $.$.$.$.$.` $.$.$.$.$.$.$.$.` $.` ` ` $.` ` $.!.!.$.` $.$.$.$.$.` $.` ` ` $.$.$.` %.&.$.$.` $.` ` #.&.&.Y Z Y Y Y *.*.*.*.*.*.Y Y *.U D D v q I I K K W W q q D D q v u C C C D D - - v v D D U U D D Q Q Q Q Y Y Z Y Y Y ;.@.@.@.;.@.#.#.@.@.#.#.#.#.` $.#.#.` $.$.$.$.$.$.` #.#.#.#.!.!.$.` $.$.!.!.` $.` ` !.!.$.` ` $.` $.!.!.$.` $.$.$.` $.` ` ` $.` ` $.$.$.` $.` ` Y Y Y Z Y @.@.@.Q Q Y Y Z Q Y Y Z Q Q @.).).Q Q U *.D D D D Q Q D D Q Q D D D D v q D D q v u C v v D D R v v v o o o o w w t t > > # # l l p p t t . . 8 8 m m W W ! ! ! 4 ! ! ! 4 # # ) ) @ @ % >.= = > , [ [ > > , , | ; ; | ; | | ; & = @ @ % % % @     5 5 . . @ @ # # $ $ $ $ $ . . . .   . .     . .     . .     . . ",
"    & & .   5 5 . . .   . .   . @ @ . . @ @ $ $ # # $ $ # # 5 & & & .     . @ @ . . ; ; ; | ; ; | | > , ; ; > , , , = & % % % s ) ) + + ! ! ! ! ! ! ! ! ! ! n n 8 8 # # l l p p l l b + > > w w w w o o X t v v o o R R v v D D R v D D *.U D D *.*.D D *.*.*.*.D D *.U D D *.*.*.*.Z Z I U @.@.;.@.#.#.%.&.` ` Z Y #.&.$.` ` $.$.` %.%.$.$.` $.#.#.$.$.$.$.$.$.#.#.$.$.#.&.$.$.#.#.` $.$.` ` ` ` $.` $.` ` $.` #.#.` $.` ` !.!.$.` $.$.$.$.$.$.` $.$.$.#.#.#.#.&.&.Y &.@.Z Z Y @.@.Y Y ;.@.@.Y D D D D D u v v 0 0 C C C I  .Q D C Q Q q q B B v v  . .Q Q Y Y *.*.Y Y ;.@.` ` Y Y &.#.@.@.#.#.Y Y #.#.#.#.` $.#.#.$.$.#.#.$.$.$.$.$.` #.#.` $.#.#.#.#.&.&.` $.` ` ` ` $.$.` $.$.$.` $.` ` ` $.` ` $.$.` ` $.$.` $.!.!.$.` $.$.Y Y Z Y @.@.Y Y ;.@.Y Y ;.@.@.@.Q Q @.@.;.@.*.*.D D Q Q D D *.*.D D Q Q Q Q U U v v D D R v D D o o R R R v D u o o v R X X X X w w ' ' # # p p t t t o # # 8 8 n n 4 4 ! ! 4 ! ! ! 4 ! @ + ) ) 1 1 # @ & & [ [ , > [ [ - - - - | | ; ; | | = = * * # # # # & & . . 5 5 % % $ $ @ @ . . @ @       .     . .       . .     . .   ",
"    & & .   5 5 . .     . .     @ @ . . @ # $ $ # # $ $ # # 5 & = & .     . @ @ . . ; ; ; | ; ; | | > > ; ; > , , , = = % % % s ) ) + + ! ! ! ! ! ! ! ! ! ! n n 8 8 # @ l l p p l l b + > > 9 w w w o o X X v v o o R R v v D D v v D D *.*.D D *.*.D D *.*.*.*.D D *.U D D *.*.*.*.Q Z I U @.@.;.@.#.#.&.Y ` ` Y Y Y &.$.` ` $.$.` %.%.` $.` ` #.#.` $.` $.` ` #.#.$.$.#.#.$.$.#.#.$.` ` ` ` ` $.` $.` ` $.$.$.#.#.` $.` ` !.!.$.` $.$.$.$.$.$.$.` $.$.#.#.#.#.&.&.&.&.Y Z Y Y @.@.Y Y ;.@.Z Z D D D D D u v v 0 0 C C C I Q Q D C Q Q q q B B v v  . . .Q Y Y U *.Y Y ;.@.` `  .Y #.#.@.@.#.#.Y Y #.#.#.#.` $.#.#.` $.#.#.$.$.` $.$.$.#.#.` $.#.#.#.#.Y &.` $.` $.` ` $.$.` $.$.$.$.` $.` ` ` $.` $.$.$.` $.$.$.$.!.!.$.` $.$.Y Y Z Y @.@.Y Y ;.@.Y Y ;.@.@.@.Q Q @.@.;.;.*.*.D D Q Q D D *.*.D D Q Q Q Q U U v v D D R v D D o o v R v v D D o o v R X X X X w w ' ' # # p p t t t o # # 8 8 n n 4 4 ! ! 4 ! ! ! 4 ! @ + ) ) 1 1 # @ & & [ [ > , [ [ - - - - ; | ; ; | | = = * * # # # # & & . . 5 5 % % $ $ @ @ . . @ @ .   . .     $ .       . .   . .     ",
"& &     5 5 . .     . .     $ $ . . @ @ $ $ @ @ # @ @ @ . $     = = . $ 5 5 * * 5 5 6 6 ; ; ; | ; ; ; | > > , > ' ' & & # # 1 1 1 1 + + ! ! ! ! ! ! ! ! ! 4 m m 8 8 # # o o X t v t # # ' ' w w t X X X o o o t v q v v v R R v D u R R D D *.*.D D *.U D D *.D *.U Q Q Q Q D D @.@.@.Y Y Y Q Q Y Y Z Y #.#.Y Y ` ` Y &.` ` Y Y ` $.$.` $.$.$.$.$.$.$.` ` $.$.` $.` ` ` $.$.` $.!.!.$.` !.!.$.` !.!.$.` #.#.#.#.$.$.#.&.!.!.$.` $.$.$.$.$.$.` ` ` ` $.` $.` &.&.$.`  .Y &.Y ;.@.Y &.&.Y &.Y C D D D ....D D D D - - C C Q Q D D D D D D D D - - v v K K R R *.*.Y Z Z Y &.&.#.#.#.#.&.#.` $.&.&.$.` Y Y &.#.#.#.#.#.&.#.$.$.#.#.$.$.#.#.` $.$.` #.#.#.#.$.$.&.#.$.$.` $.$.$.#.#.` ` ` ` $.` &.&.$.$.$.$.` $.` ` ` $.` ` $.$.&.&.Y Z Y Y Y Y Y Z Y Y @.@.Y Y ;.@.*.*.*.*.Z Y *.U Q Q D D Q Q D D *.U D D Z Z D D D D v v D D R v D D v v v v X X v v o o o t w w l l B [ . . l l p p l l # # 8 8 m m W W ! ! ! ! ! ! ! 4 # # 2 2 @ @ s % = = , , [ [ > > , , | ; ; ; | ; ; ; & & % @ % % @ +     5 5 $ . @ @ @ # . . $ $ $ . . .       . .     .     . .     . . ",
"& &     5 5 . .     .       $ $ . . @ @ $ . @ @ # @ @ @ $ $ .   = = . $ 5 5 * * 5 5 6 6 ; ; | | ; ; | ; > > , > ' ' & & # # 1 1 1 1 + + ! ! ! ! ! ! ! ! ! 4 m m 8 8 # # o o t t t o # # ' ' w w t t X X o o o t v q v v R R v v D D R R D D *.U D D *.*.D D D D U U Z Q Q Q D D @.@.Y Z Z Y Q Q Y Y Z Y #.#.Y Y ` ` &.&.` ` Y &.$.$.` $.$.$.$.$.$.$.` ` ` $.$.` $.` ` ` ` $.$.` !.!.$.` !.!.$.` !.!.$.$.#.#.#.#.` $.#.#.!.!.$.$.` $.$.$.$.$.$.` ` ` ` $.` $.&.&.$.` Y Y Y Z Y @.&.&.&.Y &.Y D D D D ....D D D R - - C C Q Q D D D D D u D u - - v v K K R R *.*.Y Z Z Y &.&.#.#.#.#.#.&.` ` Y &.$.`  .Y #.#.#.#.#.&.#.#.` $.#.#.$.$.&.#.$.$.$.` #.#.#.#.` $.#.#.$.$.$.` $.$.#.#.` $.` ` ` $.%.&.$.$.` $.$.$.$.` ` ` ` $.` $.&.&.&.Y Z Y Y Y Y Z Z Y @.@.Y Y ;.@.*.*.*.*.Z Y *.*.Q Q D D Q Q D D *.U D D Z Z D D D D v v D D R v D D v v v v X X v v o o o o w w l l B [ . . l l p p l l # # 8 8 m m W W ! ! ! ! ! ! ! 4 # # 2 2 @ @ s % = = , , [ [ > , , , ; | ; ; | ; ; ; & & @ @ % % @ @ .   5 5 . . @ @ # # . . $ $ $ . . .       .     . .     . .     . . ",
"    & & .   5 5 . .       .     @ @ . . @ # $ $ # # $ $ # # & = & & .   . . @ @ .   ; ; | ; ; ; | | > > ; ; , , , , = = % % % % ) ) # # < < ! ! ! ! ! ! 4 4 m m 8 8 # # l l o o l l b + B B l l w w t o o X v v v v v R v v D D R v D D v R D D *.*.D D *.*.*.*.*.U Q Q U U Q Q Q Q Y Z I U Z Z Y U Y Y Z Y #.#.Q Q Y &.&.#.$.$.` ` ` ` $.` $.` &.&.` $.` ` ` $.$.$.` $.$.$.` ` ` ` $.$.` $.` ` ` $.$.` $.$.$.$.$.` !.!.$.` $.$.$.$.` $.$.$.$.$.$.$.` ` $.$.` $.#.&.#.#.@.@.$.$.` $.` ` Y Y @.@.Q Q - - W W - - 0 0 C C C I D D D D Q Q D D ....~.~.....W W @.@.;.@.&.&.@.@.$.$.#.#.$.$.$.` ` ` ` $.` $.&.#.#.#.#.&.` $.&.#.$.$.$.$.!.!.` $.!.!.#.#.` $.#.#.$.$.$.$.` $.` ` ` $.` ` $.` ` ` ` $.Y #.$.$.Y Y &.#.` ` ` ` Y Y ` ` Y Z Y &.Y Z Y &.@.@.#.Y Y @.Y Y D D Q Q @.@.Q Q Q Q U *.*.*.Q Q *.*.D D D D Q Q v v D D R v D D v v v v v v v v o o v R X X X X w w ' ' # # p p t t t o # # 8 8 m m ! ! ! ! ! ! ! ! ! ! @ + ) ) x 1 # @ & & [ [ > , , , - - - - } } | ; ; | = = * * # # # @ & & . . 5 5 # # $ $ @ @ . . @ @   . . .   . .       . .     . .     ",
"    & &   . 5 5 . . .   . .     @ @ . . @ # $ $ # # . $ # # & = & &     . . @ @ .   ; ; ; | ; ; | | > > ; ; , , , , = = % % s % ) ) # # < < ! ! ! ! ! ! 4 4 m m 8 8 # # l l o o l l b + B B l l w w t o o X v v v v R v v v D D R v D D v R D D *.U D D *.*.*.*.*.U Q Q *.U Q Q Q Q Q Y U U Z Q Z Z Y &.Y Y &.#.Q Q Y &.#.#.` $.$.` ` ` ` ` $.` &.&.` $.` ` $.$.$.$.$.` $.$.$.` ` ` ` $.` $.` ` $.` $.$.` $.$.$.$.$.!.!.$.` $.$.$.$.$.$.` ` ` $.$.` $.$.$.$.$.$.#.&.&.#.@.@.$.$.$.` $.` Y Y ;.@.Q Q - - W W - - 0 0 C C C I D D D D Q Q D D ....~.~.....W W @.@.;.@.&.&.@.@.$.$.#.#.$.$.$.` ` ` ` ` $.` #.#.#.#.&.#.$.$.&.#.$.$.$.$.!.!.$.$.!.!.#.#.` $.#.#.$.$.$.$.$.` $.` ` ` $.` ` $.` ` ` $.Y #.$.$.Y Y Y &.$.` ` $.Y Y ` ` Z Y &.&.Z Z Y Y @.@.Y Y ;.@.Y Y D D Q Q @.@.Q Q Q Q *.*.*.*.Z Q U *.D D D D Q Q v v D D R v D D v v v v v v v v o o v R X X X X w w ' ' # # p p o t o o # # 8 8 m m ! ! ! ! ! ! ! ! ! ! + + ) ) 1 1 @ @ & & [ [ > , , , - - - - } } | ; | | = = * * # # # # & &   . 5 5 # # $ $ @ @ . . @ @     .   .     . .     . .     .     ",
"5 5     5 5     5 5 . $ .   $ $ .   $ $ $ E @ @ $ $ @ @ $ $ .   = = $ . 5 5 * * 5 5 6 6 ; ; | ; ; ; | ; > > , > ' ' & & # # * * 1 1 @ # 4 4 < < ! ! ! ! W W +.+.8 8 1 1 t t t o o o # # ' ' w w v v o t t t X X v v X X v v o o *.*.{.{.D D R R *.*.*.*.*.*.*.*.Q Q *.*.Q Q Q Q Q Y U Q @.@.*.U Y Z Z Z Y &.Y Y #.#.Y Y &.#.Y &.!.!.$.` $.` ` $.$.` $.` ` `  .Y ` ` $.$.$.$.&.Y ` ` ` $.$.` $.` ` ` $.$.` $.` ` ` $.` ` $.` ` $.$.` $.$.$.$.` ` ` $.$.` $.` ` ` $.$.&.#.$.` &.&.&.&.Y &.` ` Y &.` ` - - 0 - t X - - C C Q Q D D *.U Q Q D D - - v v - - Q Q Y Y &.&.Y &.` `  .Y ` ` Y &.$.` ` ` ` ` #.#.` $.#.#.#.#.#.#.$.` ` $.$.` $.$.$.$.$.$.$.` $.` $.$.$.$.` ` ` ` $.$.` ` $.$.` $.` $.` ` ` ` ` ` $.` &.&.` ` ` ` $.` &.&.` ` Z Z Y U Z Z &.&.Y Z @.@.Y Z *.*.U *.@.@.Q Q @.@.Q Q Q Q U *.Q Q D D D D v v D D v v D D q v u v o o t t v v D D o o o t o o o t [ [ b b l l p p l l # # 8 8 m m ! ! ! ! ! ! ! ! < < # # ) ) @ @ s % = = , , [ [ - - , , ; ; | ; ; | | ; & & @ @ @ @ @ @ $ . & & .   @ @ @ @ . . $ $ $ . . .     . .       . .     . .     . ",
"5 5     5 5     5 5 . $ .   $ $     $ $ $ E @ @ $ $ @ @ $ .     = = $ . 5 5 * * & 5 6 6 | ; ; | ; ; ; ; > > , , ' ' & & # # * * 1 1 @ # 4 4 < < ! ! ! ! W W +.+.8 8 1 1 t t t o o o # # ' ' w w v v o t t t X X v v X X v v o o *.*.{.{.D D R R *.*.*.*.*.*.*.*.Q Q U *.Q Q Q Q Y U Q Q @.@.U U Z Y Y Z Y #.Y Y &.#.Y &.#.#.Y Y !.!.$.` $.` $.$.` $.` ` ` $.Y Y ` ` $.$.$.$.Y Y ` ` ` $.$.` $.` ` ` $.$.` ` ` ` $.` $.` ` $.` $.$.$.` $.$.$.$.` ` $.$.` $.` ` ` $.$.#.#.` $.&.&.&.&.Y &.` ` Y Y ` ` - - 0 - X X - - C C Q Q D D U U Z Q D D - - v v - - Q Q Y Z &.&.&.Y ` ` Y &.` ` &.&.` ` ` ` ` $.#.#.` $.#.#.#.#.#.#.$.` ` $.$.` $.$.$.$.$.$.` ` $.$.$.$.$.` ` ` ` ` $.$.` ` ` $.$.` $.` ` ` ` ` ` ` $.` &.&.` ` ` ` ` $.%.&.$.` Z Z Z Y U Z &.&.Y Z @.@.@.Y *.*.*.U @.@.Q Q @.@.Q Q Q Q *.*.Q Q D D D D v v D D v v D D v q v v o o o t v v D D o o o o t o t t [ [ b b l l p p l l # # 8 8 m m ! ! ! ! ! ! ! ! < < # # ) ) @ @ s % = = > , [ [ - - , , ; ; ; | ; | ; ; & & % @ @ @ @ @ . . & & .   @ @ @ @ $ . $ $ $ . . . .     .     . .       . .   . . ",
"    5 5     5 5 . . .   $ $ . . . $ . . # @ . $ # @ . $ # # 5 5 = &     . . @ @   . ; ; | ; ; ; | | > > ; ; ' ' > , = = % % % % ) ) # # < < ! ! ! ! ! ! W W m m 8 8 + + 9 w t o l l # # > > l l X t t o v v v v R v v v o o q q o o v R v v R R v v U U *.*.*.*.*.*.*.*.*.U Q Q Q Q Y Y Z Q Y Y Y Z Y Y Y Y &.#.Y &.#.#.Y Y #.#.Y &.` ` ` ` $.` $.` ` $.$.$.` ` $.` !.!.$.` $.$.$.$.` $.$.` ` ` ` ` ` ` ` $.$.` $.$.$.$.$.$.` ` ` $.$.` $.$.$.$.!.!.$.` #.#.` $.$.` $.$.#.#.$.` ` ` ` $.Y Y &.#.` `  .Y C C C D 0 0 C I I I Q Q D D Q Z D D T T D D Q Q D D ` ` Y &.&.&.Y &.` ` ` ` ` ` $.` $.` #.#.` $.$.` $.$.&.#.$.$.$.` ` ` #.#.` $.$.` $.$.$.$.` $.#.#.` $.` ` $.$.$.` $.$.&.Y $.$.` ` $.` Y &.` $.%.&.&.&.$.` ` $.Y &.$.` &.Y Y Y Z Y @.&.&.@.@.;.Q Q @.@.*.*.@.@.*.*.@.@.@.@.;.@.Q Q Y Z D D D D q v u R R v v v v v v v X X v v o o u u o t X X X X o o w w [ [ # # l l l l X t # # 8 8 m m 4 4 4 ! ! ! ! ! ! ! + + 1 1 * * # # & & ' ' , , > , > > > > | | | ; ; | = = * * % % % #     5 5 & & # # $ $ @ @ . . @ @ .   @ @ .   . . .     . .   . . .   ",
"    5 5 .   5 5 . . .   $ $ $ . $ $   . # @ $ $ % # $ $ # # 5 5 & &     . . @ @ . . ; ; | | ; ; | | > > ; ; ' ' > , & = % % % % ) ) # # < < ! ! ! ! ! ! W W m m 8 8 + + 9 w o o l l # # > > l l X t t o v v v v v R v v o o v q o o R R v v v R R v D *.*.*.*.*.*.*.*.*.U U Z Q Q Q Y Z &.Z Z Y Q Z Z Y &.Y Y &.&.Y &.#.Y Y #.#.#.Y ` ` ` ` $.` $.` ` $.$.$.$.` ` $.!.!.$.` $.$.$.$.` $.$.$.` ` ` ` ` ` $.` $.` $.$.$.` $.` ` ` $.` $.$.$.$.` $.!.!.$.` #.#.` $.$.$.$.$.#.#.` ` ` ` ` ` Y &.&.#.` $.Y Y C C C D - 0 C I I I Q Q D D Z Z D D T T D D Q Q D D ` ` Y &.&.&.&.Y ` $.$.` $.` ` ` $.$.#.#.` $.$.$.$.$.#.#.` $.$.$.` ` #.#.` $.$.$.$.$.$.$.` $.#.#.$.$.` ` $.$.` ` $.$.&.&.` $.` $.$.` %.&.#.$.%.&.&.&.$.` $.$.Y &.` ` &.Y Y Y Y Z Y #.Y @.@.;.Q Q @.@.U *.@.;.*.*.@.@.@.@.@.;.Q Q Z Z D D D D q v u R v v v v R v v v X X v v o o u u o o X X X X o o w w [ [ # # l l l l X t # # 8 8 m m 4 4 ! ! ! ! ! ! ! ! + + 1 1 * * # # & & ' ' , , > , > > > > | | ; ; | ; = = * * % % % #     5 5 & & # # $ $ @ @ . . @ @     @ @ .   . .     . .   . . . .   ",
"5 5     5 5           .     $ $     @ @ $ . @ @ $ $ @ @ . $     = = $ . 5 5 * * & 5 6 6 ; ; | ; ; ; | ; > > , , ' ' & & # # * 1 1 1 + + ! ! ! 4 4 ! ! ! ! 4 +.+.8 8 1 1 t o l l t t + + ' ' k k B B w w t X X X v v v v v v o o {.{.X X v R X X *.*.R R D D D D @.@.D D *.U D *.*.*.Q Z Q Q Q Q Y Z @.@.Y &.&.Y &.Y Y Y &.#.Y &.&.&.&.Y ` $.&.&.$.$.$.` ` $.$.` !.!.$.` !.!.$.` ` $.Y &.$.$.` $.` ` $.$.` $.#.#.` $.$.` $.$.$.$.$.` $.$.$.$.$.$.$.` #.#.` $.$.` $.$.$.` ` $.$.` $.` ` ` #.#.Y Y ` ` Y Y  . .D D - B I I  . .Q Q Q Q Q Q I I - - C u u u ` ` Y &.&.Y Y  .` ` ` ` $.` $.` ` $.` $.` ` $.$.` $.#.#.` $.#.#.!.!.$.` $.` $.$.!.!.$.$.$.` $.$.$.$.` ` $.` ` ` $.$.` ` $.$.` ` ` $.Y &.` ` Y &.#.&.Y Y $.` &.&.Y &.Y Y &.&.Y Z Y Y @.@.Y &.Q Q Q Q Q Q @.@.*.*.@.@.*.*.*.*.*.U Z Z *.*.*.*.*.*.D D q v v v o o R v o t o o o t D D q v u v [ [ k K - - l l B B b b l l X t l l # # 8 8 m n ! ! ! ! ! ! ! ! < < @ + ) ) @ @ % s = = > , [ [ - - , , ; ; ; | ; | ; ;     @ @ @ @ @ @ . . = =     .   @ @ $ . . .     . .   . . .   . . .     . .     . . ",
"5 5 .   5 5           .     $ $     @ @ $ $ % # . $ @ @ $ .     = = . . 5 5 * * 5 5 6 6 ; ; | ; ; ; ; ; > > , , ' ' & & # # * 1 1 1 + + ! ! ! 4 ! ! ! ! ! 4 +.+.8 8 1 1 t o l l t t # + ' ' k k B B w w t t X X v v v v v v o o {.{.X X v R X X *.*.R R D D D D @.@.D D *.U *.*.*.*.Z Q Q Q Q Q Y Z @.@.Y &.Y Y &.#.Y &.#.#.Y Y &.#.Y &.` ` &.&.` $.$.` $.` ` ` !.!.$.` !.!.$.` ` ` Y &.` ` ` $.$.` $.$.` $.#.#.$.` ` $.$.` $.$.$.$.$.$.` $.$.` $.$.#.#.$.$.` $.` ` ` $.` ` $.` ` $.` ` #.#.Y Y ` ` Y Y Y  .D D - B I I  . . .Q Q Q Q Q U U - - C u D D ` ` &.&.&.Y Y  .` ` ` ` ` $.` $.` ` $.` ` ` $.$.` $.#.#.$.$.#.#.!.!.$.` $.` ` $.!.!.$.` $.$.$.$.$.$.` ` $.$.$.` $.$.` ` ` $.` ` ` $.&.&.$.` Y &.#.&.Y Y ` ` &.&.&.Y Y Y &.#.Y &.Y Y ;.@.Y &.Q Q Q Q Q Q @.@.*.*.@.@.*.U *.*.*.U Z Z *.*.*.*.*.*.D D v q v v o o q v o t o o X t D D q v u v [ [ k K - - l l B B b b l l X t l l # # 8 8 m n ! ! ! ! ! ! ! ! < < @ + ].) @ @ % % = = , , [ [ - - , , ; ; ; ; | ; ; ;     @ @ @ @ @ @ . . & =     . . @ @ $ . . .     . . . . . .   . . .     . .     . . ",
".   5 5   . 5 5 . . .     $       . . . # @ . $ $ . $ $ @ @ 5 5 = &     . . @ @   . ; ; ; | ; ; | | > > ; ; , , , , = = % % % # ) ) @ @ 4 4 ! ! ! ! ! ! ! ! m m 8 8 # # l l o o w w # # > > l l b + o o ....t t t X v v o o q q X X {.{.o o v R X o D D q v *.*.*.U D D q v *.*.*.U @.@.Q Q Y Z Z Q Y Y Y  .&.&.Y &.Y Y Z Y #.#.Y &.Y Y Z Y ` ` &.&.$.` ` ` $.` ` ` ` $.` ` ` ` $.` $.` ` $.` $.$.$.` ` #.#.` $.$.` $.` ` ` $.` ` $.` ` $.$.$.` $.$.!.!.$.` $.$.Y &.` $.&.&.$.` ` ` ` ` Y Z Z Y &.Y Q Q D C C C - - Q  . .Q Q Q I I Z Y D D ....v v  .Q Q Y Y Z Q Y Y Y Y &.$.` ` ` $.$.#.#.` $.#.#.$.$.$.` ` $.$.` $.$.$.$.$.$.` $.` ` $.$.` $.` ` ` $.#.#.` $.$.` ` $.$.$.` $.$.` $.$.Y &.` ` Y &.&.&.Y Y ` ` &.Y $.$.Y Y %.@.Y Y Y  .Y Y #.#.@.@.@.@.Z Z @.@.*.*.Q Q U *.U U v R *.*.*.*.Z Y D D *.U v v v v R v v v X o q v v v v q q v o o t X K K A A b b w w ' ' # + l l l l X t # # 8 8 m m ! 4 ! ! ! ! ! ! ! ! # # 1 1 * * # # & & ' ' , , , , > > > > = = | ; | | & & * * % % % #     5 5 & & @ @ . . @ @ .   $ . .   @ @     . .   .     .     . .   ",
"    5 5 . . 5 5 . . .   . .       . $ . % @ . $ $ . $ $ @ @ 5 5 & &     . . @ @ . . ; ; | | ; ; | | > > ; ; , , > , = = % % % # ) ) @ @ 4 4 ! ! ! ! ! ! ! ! m m 8 8 # # l l o o w w # # > > l l b + o o ....t t t X v v o o q v X X {.{.o o v R X o D D q v *.*.U U D D v q *.*.*.U Z @.Q Q @.Z Z Q Y Y Y Y &.#.Y &.&.&.Y Y #.#.Y &.Y Y Y Z $.` #.&.` ` ` ` ` ` ` ` ` $.` ` ` ` ` $.` $.` ` $.` $.$.$.$.#.#.$.$.` $.$.` $.$.$.$.` ` $.$.$.` $.$.$.$.!.!.$.$.` $.&.&.$.$.&.&.$.` ` ` ` $.Y Z Z Y &.Y Q Q D C C C - -  . .Q Q Q Q U U Y Y C D T ..v v Q Q Y Z Y Y Z Q Q Y &.&.$.` ` ` $.$.#.#.$.` #.#.` $.$.` $.$.$.$.$.$.` $.$.$.$.` ` $.$.$.$.` $.` ` ` #.#.$.$.$.` $.` $.$.` ` ` ` $.$.Y &.` ` Y Y Y &.Y Y ` ` Y &.` $.&.Y Y %.&.Y Y Y Y Y #.#.@.@.@.@.Y Z @.@.*.*.Q Q *.*.*.U R R *.*.*.*.Y Z D D *.U v v v v v R v v o o q v v v v q q v o o X X K K A A b b w w ' ' # # l l l l X t # # 8 8 m n ! 4 ! ! ! ! ! ! ! ! # # 1 1 * * # # & & ' ' , , , , > > > > = = ; ; ; | & & * * % % % #     5 5 & & @ @ . . @ @ .   . $     @ @     . .   .       . .   .   ",
"5 & .         .     . .   .   .     $ . $ $ $ . . . @ @ . $   . & = . . & 5 * * 5 & 6 6 ; ; | ; | | ; ; , , > > ' ' & & % # 1 1 1 1 + + ! ! 4 ! ! ! 4 ! ! 4 +.+.8 8 # # o o t t t t # # ' ' 9 9 3 3 + + S + w w t o o o D u o o q v {.{.*.*.{.{.R R o o u u u u Q Q U *.I U U *.Q Q U *.;.@.*.U Y Y Z Y @.&.&.Y Y &.Y Q Y Z Q Z Z Y Q Z &.&.Y Z Y Y #.Y ` ` Y Z $.$.&.&.Y &.#.&.` $.$.$.` $.&.&.$.` Y &.$.$.` $.$.$.$.` $.$.` $.$.$.$.` $.` ` ` ` ` $.` ` ` #.#.$.` &.&.$.` ` ` $.` &.&.&.#.Q Q Y Z Q Z I I u D - - C C Q Q Q Q Y Y Z Q Y Z [ [ D D Q Z Z Y Q Z Q Q Q Q Y &.&.Y ` $.` ` ` ` #.#.` $.$.$.$.$.$.$.$.` $.$.$.$.` ` $.$.$.$.$.` $.` ` ` #.#.` $.#.#.$.` ` ` ` $.` ` $.$.&.&.#.Y &.Y &.&.&.Y Y Z Z Z Y &.Y Y &.&.@.Z Q Q Q Q ;.@.@.Y &.#.@.@.@.@.Q Q *.*.*.*.*.*.D D *.*.R v *.*.U *.*.U R R R v X X v v v v v v X X v v v v v v q q q u 0 0 x x r r l l B B # # l l o t l l # # 8 8 n n 4 4 ! ! ! ! ! ! ! ! + + ) ) @ @ % % = = , , [ [ - - , , ; ; | | = = | ;     @ @ # @ % @     & = 5 5 $ $ @ @ . . . $ . . # @ . . . .     . . & & . . .     . ",
"& &           .     . . .   .       $ . $ $ . $ .   @ @ $ .   . = = . $ 5 5 * * & 5 6 6 ; ; ; | | | ; ; , , > > ' ' & & @ # 1 1 1 1 + + ! ! ! 4 ! ! ! 4 ! 4 +.+.8 8 + # o o o t t t # # ' ' 9 9 3 3 + + + S w w t o o o u u o o v v {.{.*.*.{.{.R R o o u u u u Q Q U *.I U *.*.Q Q *.*.@.@.*.*.Y Y Z Y @.&.&.Y &.&.Q Q Y Z Z Z Y &.Z Z Y &.Z Z Z Y #.Y ` ` Y Z ` ` &.&.Y &.&.Y $.$.$.` $.$.&.#.$.` &.&.$.` ` ` $.` ` ` $.$.` $.$.$.` ` ` $.$.` $.` ` ` ` ` &.#.$.` &.&.` $.` ` $.` &.&.&.#.Q Q Y Y Z Q I I u D - - C C Q Q Q Q Y Y Z Q Y Z [ [ D D Q Z Z Y Q Z Q Q Q Q &.&.Y &.` ` ` ` ` ` #.#.` $.$.$.$.$.$.$.$.$.` $.$.$.$.` ` $.$.$.$.$.$.` $.` #.#.` $.#.#.$.` ` ` ` ` ` ` ` $.Y &.#.&.Y #.#.&.Y &.&.Y Y Z &.&.Y &.Y Y &.Z Z Q Q Q @.@.Q Z &.#.@.@.@.@.Q Q *.*.*.*.*.*.D D *.*.R v *.*.U *.U U R R R v X X v v v v v v X X v v v v v v v q u u 0 0 x x r r l l B B # # l l o t l l # # 8 8 n n 4 4 ! ! ! ! ! ! ! ! + + ) ) @ @ % s = = , , [ [ - - , , ; ; | | = = ; ;     @ @ @ @ @ +     & = 5 5 $ $ + @ . . . $ . . % @ . . .     . . . & & . .     . . ",
"  . & & . . .   . .       $ .     . .     $ $ . . E $ $ # # 5 5 = &     . . @ @ .   ; ; | | ; ; = = > > > > > , , , = = @ % % % ) ) @ @ ! ! 4 ! ! ! 4 ! W W n n 8 8 + + l l o o l l # # [ B l l t t t o o o q q X t v q o o o o {.{.{.{.{.{.*.*.{.{.R R v v D D *.*.Z Z I U Q Q *.U U U I U U *.Q Q Y Z Q Z Y Y Z Y Z Z I U @.Z I U &.&.Y &.Y Y Y Z #.&.Y Z &.&.&.Y &.Y &.&.` ` $.` ` $.Y &.` ` #.#.` ` #.#.` $.$.` $.` ` ` $.` ` ` $.` ` ` ` $.$.` ` ` ` ` #.#.` ` ` $.%.&.#.#.Y Y Y Y Z Q Q Q Q Q &.Y Q Q D D - B I I  .Q Y Y Z Q Q Y Q Q ....D D Y Y Z Q &.&.Q Q Y Z Q Z ` ` Y &.` ` Y Y ` $.$.$.` $.#.&.#.#.#.#.$.` $.$.` $.$.$.$.` ` $.$.$.#.#.` $.#.#.$.$.$.` ` ` &.&.` $.` ` ` $.Z Y $.` #.&.&.Y Z Y &.Y Y Z Z Y Q Z Q Q D D *.U Q Q @.@.Q Q @.@.Y Z Z Z *.*.*.*.U U U *.*.*.*.U U *.*.*.R R *.*.v v v v R v v u o t t t X X t t v v D D v v D u u v q q k k ' ' # # t t l l o o # # 8 8 n m ! ! ! ! ! 4 ! ! ! ! # # 1 1 * * # # & & ' ' , , > , > > > > | | | | = = & & * * @ % # # & & 5 5 & & # # . $ @ @ . $ @ @ . . @ %     . .   . . .     . .   . ",
"    & &   . .   . . .   . . .     .     . $ $ . . E $ $ # # 5 5 = &     . . @ @   . ; ; | | ; ; = = , > > > > , , , = = @ % % % ) ) @ @ ! ! 4 ! ! ! 4 ! W W n n 8 8 + # l l o o l l # # [ B l l t t t o v t v q t t v q o o o o {.{.{.{.{.{.*.*.{.{.R R v v D D *.*.Y Z U U Q Q U U U U U I U U Q Q Q Z Z Q Y Y Y Z Z Y U U Y Z U U &.&.Y &.Y Y Z Y &.&.Z Z &.&.Y Y #.&.&.&.` ` ` ` ` ` Y &.` ` #.#.` $.#.#.$.$.$.` ` $.$.` $.$.` ` ` $.` ` ` $.$.` ` ` ` ` #.#.` ` ` $.%.&.#.#.Y Y Y Y Z Q Q Q Q Q Y Y Z Q D D - B I I Q Q Y Y Z Q Y Y Q Q ....D D Y Y Z Q &.&.Q Q Y Y Z Q ` ` Y &.` ` Y Y ` $.$.` $.$.%.&.&.#.#.#.` $.$.$.$.$.$.$.$.` ` $.$.` #.#.` $.#.#.$.$.$.` ` $.&.&.` $.` ` ` ` &.Y ` ` &.Y #.Y Y Z Z Y Y Z Z Y Q Z Q Q D D *.U Q Q @.@.Q Q @.@.@.Y Z Z *.*.*.U U *.*.*.*.U U *.*.*.*.*.R R *.*.R v v v v v R u o t t t t X X t v v D D R v v u u v q q k k ' ' # # t t l l o o # # 8 8 m m ! ! ! ! ! ! ! ! ! ! @ # 1 1 * * # # & & ' ' , , > , > > > > | | | | = = & & * * # % # # & & 5 5 & & # # . $ @ @ . . # @ . . @ @       . .   . . .   . .     ",
"& &       . . . .   . .     . .     . . . . $ $ $ $ % # @ @ $ . = = . . 5 5 * * & 5 6 6 ; ; | | | | | ; , , > > ' ' & & @ % 1 1 1 1 + + ! ! 4 ! ! ! 4 ! 4 4 +.+.8 8 # # o t l l p p # # ' ' 9 9 o o o t v q o o v q q q u t o o v R X X *.*.R v D D q v u R v R D D D D *.*.*.U U *.*.*.*.*.*.*.Z Y *.*.Y Z Q Q Y Y Z @.Y Y Q Q Z @.Z Z &.Y Y Z Y Y Z Y Z Z Y Y Y &.Z Z ` ` Y Z ` $.` $.$.` ` ` $.$.#.&.$.` Y &.` ` ` ` $.` $.` $.$.` $.$.$.` $.$.$.#.#.` $.&.#.$.` &.Y Y Z Y Z Z Z Z Q Y Y Y Q Y Z ` ` Y Z D D - B I C Q Q Q Q Q Q Q Q Q Q - - C u D D Y Y ` ` Y &.&.Y Z Y #.#.Y Y #.#.` ` ` ` ` $.&.#.$.` #.#.` $.$.` $.$.$.` ` ` ` $.$.$.$.` ` $.$.` ` $.` ` ` $.#.&.` $.` ` $.` &.&.Y &.Y Y &.&.&.Y Y %.@.Z Z Y Q Q Q Q *.U Q Q Q Z Y Y Z Y Z Z Z Q Z @.Q Q Y Z *.*.*.*.D D Z Q D U U U D D D D R R D D v v D D q q u t t t v v v v v q q q D D X X u u o t l l B [ # # l l o o l l # # 8 8 n n ! ! ! ! ! 4 ! ! ! ! # + 2 2 @ @ % s = = , , [ [ - - , , | | ; ; & = | ; & & 1 1 @ @ @ @ .   5 & 5 5 $ $ @ @ . $ @ @ . . @ @ . . . .     . . .     . .   . . ",
"& 5     .     $       $     . .       . . . $ $ $ $ % # @ @ . $ = & . . 5 5 * * 5 5 6 6 ; ; | | | | ; ; > , > > ' ' & & @ % 1 1 1 1 + + ! ! 4 ! ! ! 4 ! 4 4 +.+.8 8 # # t o l l p p # # ' ' 9 9 o o X t v q o o q q u t q q o o q v X X *.*.R v D D q v u R R R D D D D *.U D *.*.*.*.*.*.*.*.*.Z Z *.*.Z Z Q Q Y Y ;.@.Y &.Q Q @.Z Z Y &.Y Y Z Y Y Y Z Q Z Y Y &.&.@.Z ` $.Z Z $.$.$.$.` $.$.` ` ` #.&.$.` Y &.` ` ` ` ` $.$.` $.$.` ` $.$.` $.$.$.#.#.` $.#.#.` $.&.Y Y Z Y Z Z Z Q Z Z Y Q Z Y Y ` ` Y Y D D - B I C Q Q Q Q Q Q Q Q Q Q - - C D D D Y Y ` ` Y &.Y Y Z Y #.#.Y Y &.#.` ` ` ` $.$.#.#.` $.#.#.$.$.$.$.` $.` ` ` $.` $.$.$.$.` ` $.` ` $.$.` ` $.$.Y &.` ` ` ` $.` &.&.&.&.Y &.Y Y Y Y &.Y Z Y &.Y Q Q Q Q *.U Q Q Y Z Y Y Y Z Q Z Q Q Z @.Q Q Y Z *.*.*.*.D D Z Q I U U U D D u u u v D D R v D D q q q u t t v v v v R v v u D D X X u u o o l l B [ # # l l o o l l # # 8 8 n n ! ! ! ! ! ! ! ! ! ! # + 2 2 @ @ % % = = , , [ [ - - , , | | | ; = = | | = & 1 1 @ @ @ @     & & 5 5 $ $ @ @ . $ @ @ . $ @ @ . . . . .     . .     . .   . . ",
".   & & . .     . . .     . .     . .   @ @ $ $ % # $ $ # %     = &     . . @ @ . . ; ; | | ; ; | | > > > > > , , , = = % % % # ) ) @ @ ! ! 4 ! ! ! 4 ! W W n n 8 8 # # w w t o l l # # > > w w w w o o t t v q t t v q t o q v o o v R X X v v v R D D q v u C D D *.U U U *.*.D D *.U *.*.Y Z @.@.;.@.Q Q Y Z @.@.#.#.Y Y Z Z Q Q Q Q Q Q Y Z Q Q ` `  .Y &.Y U U ` ` ` $.%.&.Y Y ` $.` ` $.$.$.` $.$.#.&.#.#.&.Y $.$.&.#.` $.#.#.$.$.#.#.` $.$.` $.$.$.$.$.$.&.#.$.` Z Z @.@.Y &.Y &.&.Y ` $.Y Y X X u u u u 0 - C I  .Q Y Y *.U Q Q D D ..T v v r r R R ` ` ` ` $.` &.Y #.#.@.@.$.` ` $.$.` $.` ` ` #.#.` $.` ` ` ` ` $.` $.` $.$.$.#.#.$.` #.#.` $.#.#.$.$.&.&.$.` Y Y ` ` Y &.&.&.Y Y Y &.Y Z Y Y Y Y Y Z Z Z Q Q U U Q Z Q Q &.&.Y &.Y Y *.*.@.@.@.Z Z @.*.*.*.U D D Q Q D D D D D D u D u R R D D u u u D D D D v v u u v q q v v v v v o o q q 9 9 X t w w [ [ # # l l l l o o # # 8 8 n m ! 4 ! ! ! 4 ! ! ! ! # + ) ) * * # # 5 & , , - - , , ; ; ; ; | | ; | = = = = * * % % # # & & 5 5 & 3 # # $ $ # @ $ $ @ @ . . @ @ .   . . .     . .   . . & & ",
".   & & . .     . . .   . . .   . .     @ @ . $ @ @ . $ % %     & &     .   @ @   . ; ; | | ; ; | | > > > > > , , > = = % % % # ) ) @ @ ! ! ! 4 ! ! ! 4 W W n n 8 8 # # w w o o l l # # > > w w w w o o X t v q t t v q t o q q o o v v X X v v v R D D v v D D D D *.U U U *.*.D D *.U *.*.Y Y @.@.;.@.Q Q Z Z @.@.#.#.Y Y Y Z Z Q Q Q Z Q Q Y Z Q ` ` Y Y Z Y I U ` ` ` $.%.&.Y Y ` $.` ` $.` $.` $.$.&.&.#.#.&.&.` ` #.&.$.$.#.#.$.$.#.#.` $.$.$.$.$.$.$.$.` #.#.` ` Z Z @.@.Y Y &.#.Y &.` ` Y Y X X u u u u - - C I  .Q Y Y U U Z Q D D T ..v v r r R R ` ` ` ` ` $.Y Y #.#.@.@.` ` ` ` $.` $.` ` $.#.#.` $.` ` ` ` ` ` $.` $.` $.$.#.#.$.` #.#.$.$.#.#.$.$.#.&.` ` Y Y ` ` Y &.&.&.Y Y &.&.Y Z Y Y Y Y Y Y Q Z Q Q U U Z Z Q Q Y &.#.&.&.Q Q *.@.;.Z Z @.@.*.*.*.U D D Q Q D D D D D D D D R R R D D u D D D D D u v v u u v q q v v v v v o o q v 9 9 X t w w [ [ # # l l l l o o # # 8 8 n m 4 4 ! ! ! ! 4 ! ! ! # # ) ) * * # # & & , , - - , , ; ; ; ; ; | | | = = & = * * % % # # & & 5 5 & & # # $ $ % # $ $ @ @ . $ @ @ .   . .     . .   . . . & & ",
"      .     . .     @ @       .   . @ @ $ $ @ @ . $ @ # @ @ . $ & & . .     * * 5 5 6 6 | ; ; | ; ; ; ; , , > > ' ' 5 & # # 1 1 # @ + + 4 4 4 ! ! ! ! ! W W n n 8 8 # # l l l l p p # # ' ' 9 w o o X X o o w w o o o t t t o o v q w w v v u u u v R R D D v v U U D D Q Q D D U *.*.U Z Z Y U Z Z *.*.Y Z U *.Y Y @.Z Z Y Q Z Q Q Q Q Y Z Y Y ` ` Y &.` ` Y Z Q Y Z Z $.$.&.Y ` $.` ` ` ` $.` &.&.&.#.` $.#.#.Y &.Y Y ` ` #.#.#.#.&.#.$.$.#.#.` $.&.&.` ` #.#.` $.#.#.` $.&.&.` ` &.&.` ` Y Y  .&.- - [ [ W W - - C D Q Q Q Q Y U Q Q Q Q ..T T [ [ ..W W @.Z ` $.&.&.$.` #.#.` ` Z Y ` ` ` ` #.#.#.#.` $.#.#.$.$.$.` ` $.$.$.` $.&.&.&.#.#.#.` ` #.#.` $.#.#.` $.&.&.` $.&.&.&.Y &.Y &.Y #.Y Y Z *.Q #.&.Q Q Y Z Q Q Y Z Q Z Y Z Z Y &.Z Z Z Z Y U Z @.@.Q Q Y Z *.U Q Q *.U U U D D U U D D U U v v D D v v D u v v v q q q u u o t q q X t q u t t X X o t w w [ B # # l l l l l l # # 8 8 n n 4 4 ! ! ! ! ! ! ! ! @ @ c c % % % % = = > > , , - - > > ; ; | ; & = | | = & 1 1 # @ @ @     & & 5 5 $ $ @ @ . $ @ @ . . @ @       .       .     . .     .   ",
"      .       .     @ @     . . . . @ @ $ $ # @ . $ # # @ @ . $ & & . . .   * * 5 5 6 6 ; ; | ; ; ; ; ; , , > > ' ' 5 & + + 1 1 # @ + @ 4 4 ! ! ! ! ! ! W W n n 8 8 # # l l l l p p # # ' ' 9 w o o X X o t w w t o o X t t t o v v w w v v u u u v R R D D v v I I D D Q Q D D U *.U U Z Q Z Z Z @.*.*.Y Z *.*.Y Z @.Z Z Y Q Z Q Q Q Q Y Z &.Z ` ` Y &.` ` Y Z Q Y Z Z $.$.&.Y $.` ` ` ` ` ` $.%.&.#.#.#.$.#.#.Y &.Y Y ` ` #.#.#.#.#.Y $.$.#.#.$.` &.&.$.` #.#.` $.#.#.$.` &.&.` ` Y &.` ` Y Y Y Y - - [ [ W W - - C C Q Q Q Q Y Z Q Z Q Q ..T [ [ ....W W @.Z ` $.&.&.` $.&.#.` $.Y Y ` ` ` ` &.#.#.#.$.` #.#.` $.$.` $.$.$.` ` ` &.&.&.#.#.#.` $.#.#.$.$.&.#.` $.&.&.` ` Y &.&.&.Y Y &.&.Y Z Y Z *.Q &.Y Z Q Y Y Q Q Z Z Y U Z Z Z Z Y &.Z Z Z Z Z Y @.@.Q Q Y Z *.*.Q Q *.U U U D D U U D D U U v v D D R v D D v v v q q v u u o t q q o t q u t t X X o t w w [ B # # l l l l l l # # 8 8 n n 4 4 ! ! ! ! ! ! ! ! @ @ c c % % % % = = > > , , - - > > ; ; | ; = = | | = & 1 1 # @ @ @     & & 5 5 $ $ @ @ . $ @ @ . . @ @ .   $ . .     $     . . .   .   ",
"  . .   . . .     . . $ @ @ . $ @ @ . . @ @ . . @ @ . $ @ % 5 5     .   $ $ @ @ . . ; ; | | ; ; | | > > > > , , , , = = % % # % ) ) @ @ ! ! ! ! ! ! ! ! ! ! n m 8 8 + # w w t X l l # # > > l l 9 9 o o o t o t t t t o w w v q o o o o o o u u v v D D R v D D D D *.U U U U I U U Q Q *.*.@.@.*.*.Y Z U Q @.@.Q Z Z Y &.Z Z @.@.Y &.&.Y Y #.&.Y Y &.&.&.Y Y Y Z Y &.&.Y &.` $.` ` $.` ` ` ` $.%.&.$.` $.$.` $.&.Y Y &.#.Y ` ` Y &.$.` ` ` ` $.#.#.` $.&.&.&.#.#.#.#.&.&.&.` ` ` ` $.` &.Y Y Y C D ....x x Q Q - - I I Z Q Y Y Z Q Q Q D D ....W W - - 0 - Y Y  .&.` ` #.#.` $.#.#.` ` ` ` $.` $.` #.#.#.Y $.$.$.` $.$.#.#.$.$.&.#.#.#.Y &.#.#.#.#.$.$.#.#.` $.&.&.` $.$.` $.$.Y Y &.Y Z Y &.&.Z Z Y Y Z Q Y Z Z @.Y Y Z Z Y &.Y Z Z Y Z Z Y U U *.Y Z @.@.;.@.Q Q Z Z *.*.Q Q D D U U D D U U D D D D v v u D v q v v v v u v X X o t t t t o w w t o o t w w k k B [ 1 1 l l k 9 l l 1 1 8 8 m m ! ! ! ! ! ! ! ! ! ! @ + ) ) 1 1 @ @     , , > > , > ; ; ; ; | | | | = = = & * * % # # # & & 5 5 & & # # $ $ % @ $ $ % # . . @ @ . . . .   . . .     . .     ",
". . .   . . .     . $ . @ @ . $ @ @ . . @ @ . . # @ . $ @ % 5 5       .   $ @ @ .   ; ; | | ; ; | | > > > > , , , , = = % % # % ) ) @ @ ! ! ! ! ! ! ! ! ! ! n m 8 8 # # w w t X l l # # > > l l 9 9 o o o o t o t t o o w w q q o o o o o t D u v v D D v v D D D D *.U U U U U I U Q Q *.*.@.@.*.*.Y Z U Q @.@.Y Z Z Y Y Z @.@.Y Z Z &.&.Y #.&.Y Y &.&.&.Y Y Y Y Z Y &.&.&.` ` ` ` $.` $.` ` $.#.&.` $.` $.$.` Y Y &.#.Y &.` ` Y &.` $.` ` $.` #.#.` $.&.&.&.#.#.#.#.#.&.#.$.` ` ` ` $.Y Y Y Y C D ....x x Q Q - - C I Q Q Y Y Z Q Q Q D D ....W W - - 0 - Y Y Y  .` ` #.#.` $.#.#.$.` ` ` ` ` ` $.#.#.#.Y $.$.` ` $.$.#.#.$.$.#.&.#.#.#.Y &.#.#.#.` $.#.#.$.$.&.#.$.$.` $.$.$.Y Y &.&.Y Z &.&.Q Z &.Y Q Q Y Z Y Z Z Y Z Y &.&.Z Z Y Y Z Z Y U U *.Z Z @.@.@.@.Q Q Y Z *.*.Q Q D D U U D D U U D D D D v v D D q v v v v v v u t t t o o o o o w w o o o X X w r k B [ 1 1 l l k 9 l l 1 1 8 8 n m ! ! ! ! ! ! ! ! ! ! @ + ) ) 1 1 @ @     , , > > , > ; ; ; ; ; | | | = = & = * * # % # # & & 5 5 & & @ # $ $ % @ $ $ # @ . . @ @ . .   .     . . .     .     ",
".     $       .     @ @ $ . @ @ . . @ @ $ $ $ $ $ $ @ # # @ .   5 & . .     * * & 5 6 6 ; ; | ; ; ; ; ; , , > > , ,   . % % * * 1 1 + @ ! ! ! ! ! ! ! ! W W m m 8 8 1 1 t o w w t X + + ' ' 9 9 o o w w o o t t t o w w o o o t v q o o q v o o D u R R D D v ).D D D D Q Q D D Q Q U U Z Q Q Q *.*.*.*.Z @.@.Y Z Z Y Z Z Y Q Z Y Y Y  .&.&.&.Y &.Y Y &.&.&.Z Z Y &.Z Y &.Y Y Y $.` &.&.$.$.` $.` $.Y &.` $.$.` $.$.%.&.#.#.Y &.` ` &.#.$.$.#.#.$.$.#.#.` ` #.#.#.#.&.&.$.` Y &.$.` &.&.&.Y Q Q Q Q Q Q Y Y v v 0 - C D Q Q Q Q Q Y U Q Q Q T T D D Q Q Y Y Z Q Q Y &.&.` $.&.#.#.#.Y &.` ` #.#.#.#.&.#.$.$.` ` $.$.` $.$.$.$.` ` $.$.` $.` ` ` $.` ` $.$.` $.$.$.$.$.$.!.!.#.&.` $.Q Q Y &.Y Y Z Y Y Y Z Z Q Y Y Y Z Y Y Z Y Y Y Z Z Z Y &.Y Q Q Y Q Q Y Y Q Q Q Q U *.Q Q U U Z Q D D *.U D D D D v R D D R R D D v q v v o o o t o t t o t t t o o o o o X t l l B > # # l l l l l l # # 8 8 n n 4 4 ! ! 4 ! ! ! ! ! @ @ 2 2 % % # % & & , > [ [ - - > > ; | | ; = = | ; & & 1 1 # @ @ @     & & & 5 $ $ @ # $ $ @ @ $ . @ @ . . @ @ .     .     . .     . . ",
"      .       .   . @ @ . $ @ @ . . @ @ $ $ $ $ $ $ @ % @ @ .   5 & . .     * * & 5 6 6 ; ; ; | ; | ; ; , , , > > , .   % % * * 1 1 + + ! ! ! ! ! ! ! ! W W m m 8 8 1 1 t o w w t t + + ' ' 9 9 o o w w t o o X t t w w o o o t v q o o v v o o D D R R D D ).).D D D D Q Q D D Q Q U U Z Q Q Q *.*.*.*.@.@.@.Y Z Z Y Z Y Y Z Q Q Y &.Y Y &.Y Z &.&.Y &.Y Y Y Z #.&.Y Y &.#.Y &.$.` &.&.$.$.$.` $.$.Y &.$.$.` $.` ` #.&.#.#.Y &.` ` #.#.` $.#.#.$.$.#.#.` $.#.#.#.#.#.Y $.$.&.&.$.` Y &.Y Y Z Q Q Q Q Q Y Z v v 0 - C C Q Q Q Q Z Z Q Q Q Q T T D D Q Q Y Y Z Q Y Y Y &.` $.&.#.#.#.#.Y $.$.&.#.#.#.#.&.` $.` ` $.$.` $.$.$.$.` $.$.` $.` ` ` $.` ` $.$.` $.$.` $.$.$.$.!.!.&.&.$.` Y Q Y &.&.Y Z Y Y Y Y Z Z Z Y &.Y Y &.Y Y Z Y Y Y Z &.&.Q Q Y Y Z Q Q Y Q Q Q Q U U Q Q U *.Q Q D D *.U D D D D v R D D R R D D ).v v q o o o t o t t o t t t o v t o o o t t l > > # # l l l l l l # # 8 -.n n 4 4 ! ! ! ! ! 4 ! ! @ @ 2 2 % % @ % & & , > [ [ - - > > ; | ; ; = = | | = & 1 1 # @ @ +     & & & 5 $ $ @ % $ $ @ @ . $ @ @ . . @ @     . .     . .       . ",
"  . .   . .     @ @ . $ @ @ . . @ @ . . @ @ $ . @ @ . $ % % 5 5         . $ @ @ .   ; ; | | > > | | > > > > ' ' > > & & 1 1 @ @ ) ) @ # ! ! ! ! ! ! 4 ! 4 4 n m 8 8 # @ w w t X l w b b > B l l w w p p o t o o o t o t o o o t o t u u v v v v v R D D v q ).).D D *.U U U U I U U Q Q U U Z Q D D Q Q U *.@.;.Z Z @.@.Q Q Z Z Y Z #.&.Y Z Y Y #.Y Y &.Z Z Z Z Q Y Y &.@.Z Y Y &.#.` ` &.&.$.` #.#.#.#.#.#.$.` #.#.` $.&.&.` ` #.#.` $.$.` $.$.$.` ` ` @.@.Y &.&.&.&.#.#.&.` $.&.&.&.&.Y Z Y Y Q Q Y Y D D q v - - C I Q Q Y Y Z Q Q Q D D ....v v  .Y Y Z Q Z Q Q ` ` ` ` $.` &.Y #.#.#.#.$.` &.&.$.$.$.` $.$.#.#.$.` #.#.#.#.&.#.$.$.` $.$.` $.$.$.$.` ` $.$.$.` ` $.$.` %.&.&.Y Z Y Y Y Y Z Z U Y Z Z Z Y &.Y Z Z Y Q Q Y Y Q Q Y Z Y Y Y Y Z Y Z Z Z Q Z Z I U Q Z Z Q Q Y U U U U R R D D v v D D R R D D q q u D o o v R X X q q X t o o w w o o w w w w 9 9 ' ' # # p p l l o o # # 8 8 n m ! ! ! ! ! 4 ! ! ! ! @ + ) ) 1 1 # @     ' ' - - , , ; ; | ; ; | | | = & = = * * % # # # & & 5 5 & & @ # E $ @ @ . $ % @ . . @ @ . . . . .   $ . .     .     ",
". . .   . .     @ @ . $ @ @ . . @ @   . @ @ . . @ # $ $ @ % 5 5     .   $ $ @ @ .   ; ; | | > > | | > > > > ' ' > > & & 1 1 @ @ ) ) @ # ! ! ! ! ! ! ! ! ! 4 n m 8 8 # # w w t X l w b b > B l l w w p p o t o o o o t o t o o o o t D u v v v v R u D D q v ).).D D U U I U U U U *.Q Q U U Z Q D D Q Q U *.;.@.Z Z @.@.Q Q Z Z Y Z Y &.Y Z Y Y Y Z &.&.Z Z Q Z Z Z Y &.Z Z Z Y Y &.$.` &.&.$.` #.#.#.#.#.#.$.` #.#.` $.&.&.` ` &.#.$.$.$.` $.` ` ` $.` @.@.Y &.&.&.#.#.Y &.` ` #.&.&.Y Z Y Y Y Q Q Y Y D D v q - - C I Q Q Y Z Q Z Q Q D D ....v v Y Y Z Y Z Z Z Q ` ` ` ` $.` &.Y #.#.#.#.$.` &.&.$.$.$.` $.$.#.#.$.` #.#.#.#.#.&.` $.` $.$.` $.$.$.$.` ` $.$.$.` $.$.` $.&.&.&.&.Y Z Y Y Y Y U U Z Y Z Z Y #.Z @.Y Y Q Q Y Y Q Q Y Z &.Y Y Z Y Z Z Z Q Z Z Z I U Q Z Q Q Q Y U U U U R R D D v v D D v R D D v q D D o o v R X X q q o t o o w w o o w w w w w 9 ' ' # # p p l l o o # # 8 8 m m ! ! ! ! ! ! 4 ! ! ! @ + ) ) 1 1 # @ .   ' ' - - , , ; ; | ; | | | | = = = = * * # % % @ & & 5 & & & # # E $ @ @ $ $ @ @ . . @ @ . . . .     $ . .     .     ",
"      . .     . . . @ @ . . @ @ . . @ @ $ $ $ $ $ $ # # @ @ .   & & . .     * * 5 5 | | > > ; ; ; ; ; ; , , , , , ,     % % * 1 # @ + + ! ! ! ! ! ! ! ! W W n m 8 8 1 1 l l w w l l # # ' ' k k r r [ [ w w w w o t t o v q o t v v o o D D v q D D v q D D v v v R D *.*.*.D D Q Q U *.Q Q Q Q Y Z U U *.*.*.*.@.@.@.Z @.@.Q Q Y Z *.Q &.Z Z Z Y &.Y Z Y &.Z Z Y Z Z Y Y Y Z Z Y &.#.&.$.` &.&.` ` &.&.#.&.Y &.` $.$.$.` $.&.&.$.$.#.#.$.$.#.#.` ` &.&.&.#.@.@.$.` Y Y &.#.Y &.&.&.Z Z @.@.Q Q Y Y Z Q I I v v B B v q Y Y Z Q Q Q D I D D - - C u D I Z Z Y U Z Z Z Q #.#.#.#.$.` Y Y ` ` Y &.#.#.@.@.#.#.#.#.$.` #.#.#.#.Y &.` ` #.#.$.$.` $.$.$.#.#.` $.#.#.` $.&.&.&.&.Y Z Y Y Y Q Z Z Q Y Y Y Q Q Y Z Q Z Y Z U U Y Z Z Q Q Y Z Z Y Y Y Y Z Y Q Q Q Z D U Q Q Q Q Y Y Z Q Q Q D D D D R R v R R v D u R v v R o o v R X o R R o o o o w w t o [ [ ....B B l l > > # # l l o o l l # # 8 8 n n 4 4 ! ! ! ! ! ! ! ! @ @ 2 2 % % # % & & , , , , - - M > | | ; ; & = | ; & & 1 1 # @ @ @     & & 5 & $ $ @ @ $ $ # @ . . @ @ . . @ @ .     .     . .     . . ",
"    . .     . .   . @ @ . . @ @ . . @ @ $ $   $ $ $ # # # @     5 & . . .   * * 5 5 | | > > ; ; ; ; ; ; , , , , , ,     % % * 1 # @ + + ! ! ! ! ! 4 ! ! W W m m 8 8 1 1 l l w w l l # # ' ' k k r r [ [ w w w w o t t o v q t t v q t o D D q v u C v v D D v v v v U *.*.*.D D Q Q U U Z Q Q Q Y Z U U U *.*.*.@.@.Y Z @.@.Q Q @.Z Q Q Z Y Z Z Y &.Y Z Y &.Z Z Y Z Z Z Y Y Y U &.Y #.Y $.` &.&.` ` &.&.&.#.Y Y ` $.$.$.$.` %.&.$.$.&.#.$.` #.#.` $.&.&.&.#.@.@.` ` Y &.&.&.Y Y &.&.@.Z Y @.Q Q Y Y Z Q I I v v B B v q Y Y Q Q Q Q U U D D - - D D I I Z Z Z Y U Z Z Q #.#.#.#.$.` Y Y $.` Y &.#.#.@.@.#.#.#.#.$.$.#.#.#.#.#.&.` $.#.#.` $.$.` $.$.#.#.` $.#.#.$.` &.&.Y &.Y Y &.Z Z Z Y U Z Z &.Y Q Q Y Y Q Z Z Y U U Q Z Z Q Q Z Z Z Y Z Y Y Z Y Q Q Z Q U U Q Q Q Q Y Y Z Q Z Q D D D D v R R R v R u u v v v R o o q v o o R R o o o o w w o o [ [ ....B B l l > > # # l l o o l l # # 8 8 n n 4 4 ! ! ! ! ! ! ! ! @ @ 2 2 % % % % & & > , , , - - M > | | ; ; & = | | = & 1 1 # @ @ @ .   & & 5 & $ $ @ @ $ $ # @ . . @ @ . . @ @       .       . .     . ",
". .   . . .   . @ @ . . @ @ . . @ @ . . @ @ $ $ @ # $ $ % % 5 5       .   $ @ @     O O ; ; > > | | > > > > ' ' > , & & # @ s % ) ) @ @ ! ! 4 4 ! ! ! ! 4 4 n n 8 8 # # w w t t l l # # > B l l b b t t 0 0 w w t o o X t t o o X X o o v q q u v v u u u u v v v q u D v q *.*.D D Q Q U U Z Q Q Q Z Z *.*.Z Q Y Z @.@.Q Q @.Z Q Q Y Z Q Z Q Z Z Y &.Y Y &.&.&.Q Q Y Z Z Q Y Y &.&.` $.` ` $.` Y Y &.#.@.@.Y &.Y &.$.$.#.&.$.$.#.&.#.#.@.@.Y &.Y Y #.#.#.#.&.#.Y Y ` ` Y &.Y Y Q Q Y Y Q Q @.@.Q Q Q Q D C q q B - C D Q Q Q Q D D Q Q D u ..[ u u Q Q Q Q &.Y Q Q Y Z U Q #.#.Y Y &.#.Y &.#.#.Y Y #.#.Y &.&.#.#.#.#.#.@.Z Y &.#.#.$.$.` $.!.!.#.#.` $.` ` ` $.&.&.#.&.@.Z ` ` Y Z &.&.Z Q Y Y Y Y Y Y Z Z Q Z Z Q Q Z Z Z Z Z Q Q &.Y Y Z Y Y Q Q Z Y U U U U Z Q Z Y Q Q U U v R D D q v v v v v v R o o v R v v R v X X o o o o q v o o o t w 9 9 w [ [ x x k k B [ # # p p l l X t # # 8 8 m m ! ! ! ! ! 4 ! ! ! ! + + ) ) @ @ @ @ .   ' ' - - > > ; | ; ; ; | | | = = = = * * # % % @ & & 5 5 & = # # $ $ @ @ $ $ @ @ $ . @ @ . . . . .   . .     . .     ",
". .   . . . .   @ @ . . @ @ . . @ @ . . @ @ $ $ @ # $ $ @ % 5 5         $ $ @ @     O O ; ; > > | | > > > > ' ' , > & & # @ % >.) ) @ @ ! ! 4 4 ! ! ! ! 4 4 n n 8 8 # # w w t t l l # # > B l l b b t t 0 0 w w t o o X t t o o X t o o v q q u v v D D D D v v v R D D v v U *.D D Q Q U *.Z Z Q Q Y Z *.*.Q Q Y Z @.@.Q Q Y Z *.Q Z Z Q Q Y Z Z Z Y &.Y Y &.&.Q Q Y Z Z Z Z Y &.&.` ` ` ` $.` &.Y Y &.@.@.&.&.Y &.` ` &.&.$.$.&.&.#.#.@.@.Y &.&.Y &.#.#.#.#.#.&.Y ` ` Y Y &.Y Q Q Y Z Q Z @.@.Q Q Q Q C C q q B - u u Q Q Q Q D D Q Q D u [ [ D D Q Q Q Q Y &.Q Q Y Z U Q #.#.Y Y Y &.&.Y &.#.Y Y &.#.Y &.#.#.#.#.#.#.@.@.&.&.#.#.$.$.` $.!.!.#.#.` ` ` ` ` $.&.&.Y &.Y Z ` $.Z Z &.#.Z Q Y Y Y Y &.Y Z Z Z Q Q Z Q Z Z Z Z Z Z Q Y Y Z Y Y Y Z Q Z Q U U U U Z Q Z Y Q Q U *.R R D D v v v v v v R u o o v R v v R v X X o o o o v R X o o o w 9 9 w [ [ 1 x r r B B # # p p l l X t # # 8 8 m m ! ! ! ! ! 4 ! ! ! ! + + ) ) @ @ @ @     ' ' - - > > | ; ; | ; | | | = = = & * * # % # # & & 5 5 & = % # E $ @ @ $ $ @ @ $ . @ @ . . . . .   . .     . .     ",
"    . .   . . .   . @ @ . . @ @ . . @ @ $ $ # @ $ . # # @ @     & & . $ .   * * 5 5 | | > > | ; ; | ; ; , , , , , ,     % % 1 1 1 1 + + ! ! ! ! ! ! ! ! W W +.+.8 8 x x l l w w l l # % ' ' k k 3 3 x x x x w w t o o X t o o o q v o o q v v v u u v q q u v v u D v q D D v v D D D D *.U U U Q Q Q Q Y Z *.*.@.@.Y Z Z @.Q Q Y Y Z Q Q Y Q Q Y Y Z Y Y Y Z Z @.Z Z Q Z Y Y Z Z Y Y Z Y #.Q Z Y Y Y Z Z &.@.@.#.&.&.&.Y Y &.&.#.#.@.@.#.&.&.Y &.#.Y Y ;.@.Q Q Y &.Y Y Y &.Y Z &.Y Q Q Q Q Q Q Q Q D D Q Q q q B - u q Y Y Q Q Q Q I I u D - - D D I I Z Z Q Y Y Y Q Q @.@.Q Q Y Z @.@.Y Y Y Y Y  .&.&.` ` Y &.&.#.&.&.#.#.&.&.&.#.#.#.` $.$.` $.` Y Y &.#.Y Y ` ` Y &.Y Y Z Y Y %.Y Z Z Y Q Q &.&.Z Z Y Z Y Y Z Z Q Z Y Y Q Q Y Z Z Z Z Y U U Q Q Q Q Y Z *.U Q Q U U I U v v v R R R D D u R R v o o v R R R D D o o o t w w o o o t D u v v o t & & ) ) [ [ k K > > # # l l t t l l # # 8 8 n n 4 4 4 ! ! ! ! ! ! ! @ @ ) ) # % % % & & , , , , - - > , | | | | = = | | .   1 1 @ @ + @ .   & & 5 5 @ @ @ @ $ $ @ @ . . # @ . . @ @ . . @ @     . .   . . . ",
".   . .     . .   . @ @ . . @ @ . . @ @ $ $ # @ $ . # # # @     & & $ . .   * * 5 5 | | > > | ; ; ; ; ; , , , , , ,     % % 1 1 1 1 @ + ! ! ! ! ! ! ! ! W W +.+.8 8 1 x l l w w l l # % ' ' 9 9 3 3 x x x x w w t o o X t o o o v R X o R v v v R D v v D D R v D D v v D D q v u C D D *.U U U Q Q Q Q Y Z *.U @.@.Y Z @.Z Q Q Y Y Q Q Z Z Z Q Y Y Y Y Y Y Z Z Z Z Q Q Z Y Q Z Z Y Y Z &.&.Z Z Y Y Z Z Y &.@.@.#.&.&.&.Z Y &.&.#.#.@.@.&.&.Y Y #.#.Y Y Z @.Q Q &.&.Y Y Y #.Y Y Y Y Q Q Q Z Q Q Q Q D D Z Q q q B B q q Y Y Z Q Q Z I I D D - - D D I I Z Z Y Z Z Y Z Q @.@.Q Q &.Y @.@.&.Y Y Y Y Y Y #.` ` Y Y #.#.#.Y #.#.Y #.#.#.#.#.$.$.$.` ` ` Y Y #.#.Y Y ` ` Y Y Y Y &.Y Z &.Z Y Y Z Q Q &.&.Z Z Y Z Y Y Q Z Z Z &.Y Q Q Z Z Z Y Z Q U U Q Q Z Q Z Z U U Q Q U U U U v v v R R R D D R R R R o o R R R R R D o o o o w w o o o o R u v v t t & & ) ) [ [ k k > > # # l l t t l l # # 8 8 n n 4 4 ! ! ! ! ! ! ! ! @ @ ) ) @ % % # & & , , , , - - > > | | | | = = | |     1 1 @ @ + @ .   & & 5 5 @ @ @ @ $ $ @ @ $ . @ @ . . @ @ . . @ @ .     . .   . . ",
". .     . . .   @ @ . . @ @ . . @ @ $ . # # $ $ # # $ $ @ % 5 5         $ $ 1 1 . . > O ; ; > > | | > > > > ' ' > > & & @ @ @ % 2 2 @ # 4 4 ! ! ! 4 ! ! ! ! m m 8 8 # # 9 9 t t k k # # > > k k A A w w w w t t u q u u w w v v t o R v X X R R R v u u t t D D R v u D *.*.).).).v *.*.R R D D D D Q Q U *.Z Z Y Z @.@.Q Q @.@.Q Q Q Z Q Z Y Y Z Z Z &.Z Z Y &.Q Q Z Q Z Z Z Y &.Q Y Y Y Y Y &.@.Z Z Y @.@.&.Y Y Y #.#.Z Z Y &.Y Y #.Y @.@.&.Y @.@.#.#.@.@.@.@.Z @.&.&.Y &.&.Y Y Z Z Y *.*.Q Q D D Q Q U I D D - - D u Q Q Z Q D D Q Q q u [ [ u u Q Q Z Q Z Y Y Z @.Y Q Q @.@.Q Q Z Y Z @.Y Y #.#.#.#.Y Z #.#.&.&.#.#.Y Y #.#.Z @.#.#.#.#.#.#.Y Y #.Y *.*.&.&.Y Y Z Y Q Q &.&.Q Q &.Y Q Q Z Q Z Z Y Y Z @.Y &.Q Q &.Y Q Q Z Z Q Q Z Z Q Q Q Z Q Q Q Z U U D D D D D D R R R R v v D D R v D D R v R R o o R u R R R R o o v v t X o o o o q q l l o o r r 9 9 9 9 ' ' # # p p l l o t # # -.8 n m ! 4 ! ! ! ! 4 ! ! ! + + 1 1 @ @ @ @     , , - - > > ; ; ; ; & = | | = = & & * * % # # # & & 5 5 & & % % $ $ @ @ $ $ # @ . $ @ @ . . @ @ . . .       . .   . ",
". .       . .   @ @ . . @ @ . $ @ @ $ . # # $ $ # # $ $ % % 5 5         $ $ 1 1 . . O L ; ; > > ; | > > > > ' ' > > & & @ @ % % 2 2 % # 4 4 ! ! ! 4 ! ! ! ! m m 8 8 # # 9 9 t t k k # # > > k k A A w w w w o t u q u u w w v v t o v v t X R R R v u u t t D D v v D D *.*.).).).v *.*.R R D D D D Q Q U *.Z Z Y Z @.@.Q Q @.@.Q Q Q Q Z Q Y Y Z Z Y Y Z Z &.&.Q Q Q Z Z Z Y &.Q Y Y Y Y Y Y &.Z Z Y Z @.@.Y Y Y Y #.#.Y Z &.&.Y Y #.Y @.@.Y Y @.@.#.#.@.@.@.@.Z @.&.&.Y &.&.&.Y Z Z Y *.*.Z Q D D Q Q I I D D - - u u Q Q Q Z D D Q Q u u [ [ u u Q Q Q Z Q Y Y Z @.Y Q Q Z @.Q Q Y Y Z @.Y Y #.#.#.#.Y Y #.#.&.&.&.#.Z Y #.#.Z @.#.#.#.#.#.#.Y Y #.Y *.*.&.&.Y Y Z Y Q Q &.Y Q Q &.&.Q Q Q Z Z Z Z Y &.Q Y &.Q Q Y Y Z Q Z Z Z Q Z Y Q Q Z Q Q Q Z Q U U D D D D D D R v R R R v u D R R D D R R R R o o R u R R R R o o v v X X o o o o q q l l t o r r 9 9 9 9 ' ' # # p p l l o t # # 8 -.m m ! 4 ! ! ! ! ! 4 ! ! + + 1 1 @ @ @ @     , , - - > > ; ; | ; = = | | = = & & * * # % # # & & 5 5 & & % % E $ @ @ $ $ @ @ . $ @ @ . . @ @ . . . .   . . .     ",
"    . . .   . . . . @ @ . . @ @ $ . # @ $ $ # # @ @ % % # # . . 5 &   . & 5 * * 5 5 6 6 > > | ; ; ; > > ' ' > , ' ' & & % % * * ) ) + + ! ! ! ! ! ! ! ! 4 4 7 7 8 8 # # t t l l t o # # > B 9 9 9 w K K t t v v t o X X o o o o o o o o u u o o v v u u u u t o R u R v u D R u u u v v R v o o D D D D Q Q Q Z Q Y Q Q &.Y Q Y Q Q D D Q Q Q Q Y Y Q Q Z Z Q Q Z Y Z Q Y Y Z Q Z Y Y Z  . . .Y ` ` Y &.` ` Y &.&.Y %.%.Y Y Z @.Y #.@.@.Y Y @.@.&.#.#.Y #.#.@.@.&.Y Y Z &.&.Y Y Y #.Y &.&.Q Q *.Z Q K K D D q q - - v v Q Q D D I I U U D D - - v v t X R R U U Q Q Z Q Q Y Q Q Y Y @.@.Z Y Q Q ` ` Y &.` ` Y &.Y Y Y Y ` ` Y &.Y Y Y Y #.#.Y Y ` ` Y &.` ` Q Y Y Y Z Q @.Z Z Z Q Q Q Q Z Q Q Q Q Q Z Q Q Q Q Q Q Z D U Q Q Q Q Z Y Q Q &.Y I I D D D D I I D D u u v v D D u u D D u u u u u u u u v v u D R v u D R v u u v v D D w w t t t o q q o o o t k 9 t t B B . . l l o t l l # # 8 8 n n ! ! 4 ! ! 4 ! ! < < # # ) ) % % % % = = > > , , , > > > | ; | | = = | |     @ @ @ @ % @     & &     @ @ # # $ $ @ @ . . @ @ . . @ @   .   .     . .     . . ",
"    . .     . . . . @ @   . @ @ . . @ @ $ $ # # @ @ @ % % # . . & 5 . . & 5 * * 5 5 6 6 > > | ; ; ; > > ' ' , , ' ' & & % % * * ) ) + + ! ! ! ! ! ! ! ! 4 4 7 7 8 8 # # t t l l o o # # > B 9 9 9 w K K t t v v o o X X o o o o o o o o u u o o R v u u u u o o D u v v u D R u u u v v v R o o D u D D Q Q Q Q &.Y Q Q &.Y Y Z Q Q D D Q Q Q Q Y Y Q Q Z Z Q Q Y Y Z Q Y Y Q Q Z Y Y Y  . .Y Y ` ` &.&.` ` Y &.&.&.%.%.Y Y Z @.Y #.@.@.&.Y @.@.&.#.&.&.#.#.@.@.&.Y Y Z &.&.Y &.&.&.&.Y &.&.*.*.Q Q K K D D v q B - v v Q Q D D I I U U D D - - v v t X R R U U Q Q Z Q Q Y Y Q Y Y @.@.Y Y Z Q ` ` Y &.` ` Y Y Y Y Y &.` ` Y &.Y Y Y Y #.#.Z Y ` ` &.Y ` ` Q Y Y Y Q Q @.Z Z Z Q Q Q Q Q Z Q Q Q Q Q Q Q Z Q Q Q Q U U Q Q Z Q Y Y Q Q Y Y I I D D u D I I D D u u v v u u u u D D D u u u u u u u v v u u v v u u v v u D v v u D w w t t o o v q o o o t 9 9 t t B B . . l l o t l l # # 8 8 n n ! ! ! ! ! ! ! ! < < # # ) ) % % % % = = > > , , , > > > | | ; | = = | |     @ @ @ @ % @     & &     @ @ # # $ $ @ @ . . @ @ . . @ @   .   .     . .     . . ",
". .       . . . @ @ . . @ @ . . @ @ $ . # # $ $ % % % @ % %             . . 1 1 . . O O | ; > > | ; ' ' > , ' ' , , = = @ @ @ @ 2 2 @ @ ! ! ! ! ! ! ! ! ! ! m m 8 8 # # 9 w o t l l b b - - w w K K t X w w v v w w t t X X v v w w v v q q u u t o u u u u u u v v u R R D U U D D I I u u u u v v D D u D Z Q Q Q Z Y Z Z Y Y U U Q Q Q Q &.Y Q Q Q Q U *.Z Q Q Z Z Y Z Q Y Y Y Y ` ` Y Y Y Z Y Y $.$.Y Y Y Y Y Z &.&.Y Z #.&.Y Y #.&.Z @.Y Y Z @.Y #.@.@.#.#.Y Z Q Z Q Q Z Y Q Z Z Y &.Q Y Y D D K K ....- - W W q q I I Z Q D D Q Q q v - - W W X X ~.~.U U Y Y Y Y Z Q Z Y Y Y #.#.Y Y Y Y Y Y &.&.&.Y &.#.Y Y #.#.Y #.` ` Y Y #.&.@.@.&.Y @.@.Y Y @.@.Y Y @.@.&.&.@.@.&.Y @.@.Q Q Z Q Q Q Q Q Q Q Q Z Q Y Q Q Q Q *.*.Q Z U U Q Q I I I I u u D D D D D D o o D u D D Z Q U I D u o o v v o o v v o o q q q v u D o o X X o o o o w w o t o o o o w w w w w w B B # # l l l l l l # + e e m m 4 4 ] ] ! ! ! ! ! ! @ + 1 1 @ @ @ @ & & , , > > , , | ; ; ; & = ; ; = = & = * * % # # % & & 5 5 5 5 % % $ $ @ @ . $ # @ $ . @ @ $ . @ @     $ .     . .     ",
". .     . . . . @ @   . @ @ $ . @ @ $ . # # $ $ % % @ @ @ %         .   . . 1 1 . . O O | ; > > ; ; ' ' > , ' ' , , = = @ @ @ @ 2 2 @ @ ! ! 4 ! ! ! ! ! ! ! m m 8 8 % # w w t t l l b b - - w w K K t X w w v v w w o t X X v v w w v v q q u u t o R u u u u u v v v R u u U U D D U U D D D D R v D D D D Q Q Q Z Y Y Z Z Y Y U U Q Q Q Q Y Y Q Q Z Q D U Q Q Q Q Z Y Z Q Y Y Y Y ` ` Y Y Z Y  .Y ` $.Y Y Y Y Y Z Y #.&.Y #.&.Y Z &.&.Z @.Y Y Z @.Y #.@.@.#.#.Y Z Q Z Q Q Z Y Z Z Y &.Q Y Y Y D D K K ....- - W W q q I I Q Q D D Q Q v v - - W W X X ~.~.U U Y Y Y Y Z Q Z Y Y Y #.#.Y Y Y Y Y &.&.&.&.Y &.#.Y Y #.#.&.&.` ` Y Y #.&.@.@.Y Y @.@.&.Y @.@.Y Y @.@.&.Y @.@.&.Y @.@.Q Q Q Z Q Q Q Z Q Q Q Z Q Y Q Q Q Q *.*.Z Q U U Q Q I I I I u D D D D D D D o o D u D D Q Q I I D D o o v v o o v v t o v q q v u u t o X X o o o o w w t o o o o o w w w w w w B B # # l l l l l l # + e e m m 4 4 ] ] ! ! ! ! ! ! + + 1 1 @ @ @ @ & & , , > > , > | ; ; | = = ; ; = = & & * * % # # % & & & 5 5 5 % % $ $ @ @ . $ # @ . . @ @ $ . @ @       . .   . .   . ",
"    . .   .   . .     $ . . @ @ . . # @ $ $ # # @ @ % % @ # $ $ & 5 . . 5 5 * * & 5 6 6 > > | ; > , > , ' ' > , ' ' & & % % * * ) ) + + ! ! ! ! ! ! ! ! W W +.+.8 8 # # l l w w t t + + B B r r 9 w w w t t X X o o w w t o t t w w w w u u u u u u v v q q o o R v v v u D u D I I D D U U D D U U D D I I u u I I Q Q %.%.Y Y Y Z Q Q Y Y Y Y Z Y Z Q Q Q D D Q Q Z Q Y Y Z Q Y Y Y Y Y &.Z Y Y Y Y Y &.&.Q Q Z Q Q Q Y Y Z @.Y #.&.Z &.&.Z @.#.&.@.Z @.@.@.@.&.#.@.@.&.Y @.@.@.@.Q Q Y Y Y Y Y Y - - ^.^.X X - - v v Q Q D D I I U U D D - - W W - - ~.~.D D Y Y Z Q Q Q Q Z Q Y Z Z Y &.Q Y &.` Y Z Z Y &.Q Y Y Y Y ` ` &.Y Y Y Z @.Y &.Q Q &.Y Q Q Y Y Z Q Z @.Z Z Y Y Z @.#.#.Q Q &.Y U *.Q Q u u Y Y Z Q Y Y Q Q Z Y Q Q Y Y Z Q Y Y D D D D D D U U D D u u u u u u u u I I D D u D o o o o o o R u u u u u o o v q t t o o o o o o o t q q o t t X r r 9 w - - b b 9 9 t t w w # # 8 8 m m ! ! ! 4 ! ! ! ! < < # # ) ) % % % % = = > > , , , > > > | ; | | | | | ;     @ @ @ @ % @     & &     # # # # E $ @ @ . . @ @ . . @ @ . . . .   . . .   . . . ",
"    . .   . $ .   . . . . . @ @ . . @ @ $ . # # @ @ % % % @ $ $ 5 &   . & 5 * * & 5 | | > > | ; > , > , ' ' , > ' ' & & @ % * * ) ) + + ! ! ! ! ! ! ! ! W W +.+.8 8 # # l l w w t t + + B B r r 9 w w w t t X X o o w w t o t t w w w w u u u u u u v v v q o o v v v v D D D D I I D D U U D D U U D u U I u u I I Q Q %.%.Y Y Z Z Q Q Y Y Y Y Z Y Q Q Q Q u u Q Q Z Q Y Y Q Z Y Y Y Y Y &.Z Y Y Y Y Y Y &.Z Q Q Z Q Z Z Y Z Z #.#.&.Z &.&.Z @.Y &.@.Z @.@.@.@.#.#.@.@.&.Y @.@.@.@.Z Q Y Y Z Y Y Y - - ^.^.X X - - v v Q Q D D I I I U D D - - W W - - ~.~.D D Y Y Q Q Q Q Z Q Y Z Z Z Y &.Q Y &.` Z Z Y &.Q Y Y Y Y Y ` ` &.Y Y Y Y Z @.Y Q Q Y Y Q Q Y Y Q Q @.@.Z Y Y Y @.@.&.#.Q Q &.Y *.*.Q Q D D Y Y Q Q Y Y Q Q Z Z Q Q Z Y Z Q Y Y D D D D D D U U D D u u u u u u u u I I D D u D o o o o o o u u u u u u o o v q t t t o o o o o t t q q o t t X r r 9 9 - - b b 9 9 t t w w # # 8 8 m m ! ! ! 4 ! ! ! ! < < # # ) ) @ % % % = = > > > , , > > > | | ; | | | ; |     @ @ @ @ @ %     & &     @ # # # E $ @ @ $ . @ @ . . @ @ . . . .     . .     . . ",
". .     . .     . .     @ @ . . @ @ $ . # @ $ $ # % % @ % %             $ . 1 1 . . O O | ; > > | ; ' ' > , ' ' , , = = # @ @ @ 2 2 @ @ ! ! ! ! ! 4 ! ! ! 4 n n 8 8 # # 9 9 l l w w b b 0 0 r r 9 K t X X X w w w w w w w w t t X X X X w w o t o o R v o o u u v v u u u v D D u u u u v v D D R v D D D D D D D D Q Q Z Q Z Z Q Q Z Q Z Z Y Z Q Q Z Q D D D D D D Q Q Z Q Y Z Z Q Y Y Y Y Y Y Y Z &.&.Y Y Z Y Q Q Q Z I U Y Z Z @.Y Y @.@.&.Y @.@.Y &.@.Z @.@.Q Q &.Y Q Y @.@.Q Z Z Y Q Q Y Y Z Y D D R v D D W W q q I I Q Q D D Q Q q v - - u D I I u D Y Y Z Q Q Q Q Q Z Q Q Q Q Q Q Q Y Y Z Y Y Y Y Y Y &.Z Y Y &.&.Y Z Y Q Q Z Y Q Z Y Y Z @.Y &.Q Z Z Y &.Q Y Y Q Q &.Y Q Q @.@.D D D D R R U U D D Q Q Z Q Q Q Q Q Q Z Z Q Q Q I I Z Q D D Q Q u D D D D D D D D D D D v v R v v v I I o o v v o o o o o o q q o o t t w w o t o o t t X t t X w w w w r r - - # # l l l l l l # # d d m m ! ! ! ! ! ! 4 ! ! ! # + 1 1 + @ @ @ & & , , > > , , | ; | ; = = | ; = = & & 1 * # % % % & & & 5 5 5 % % @ @ # # $ $ @ @ . . @ @ . . @ @       . .   . .     ",
". .     . .     . .     + @ . . @ @ $ . # @ $ $ % % @ # @ %           . $ . 1 1 . . O O | ; > > ; ; ' ' > , ' ' , , = = @ % @ @ 2 2 @ @ ! ! ! ! ! 4 ! ! 4 4 m n 8 8 # # 9 9 l l w w b b - 0 r r 9 9 t t X t w w w w w w w w o t X X X X w w o o o o q v o o u D v v u u u R D D u u u u v v D D v q D D D D D D D u Q Q Q Q Z Q Q Q Q Q Z Z Y Z Q Q Q Z D D D D D D Q Q Q Z Z Y Q Q &.Y Y Y Y Y Z Z &.&.Y Y Y Y Z Q Q Y U U Y Z Z @.Y Y Z @.Y #.@.@.&.&.Y Z @.@.Q Q Y Y Z @.Y @.Y Z Z Y Z Q Y Y Z Y D D R v D D W W q q I I Z Q D D Q Q v v - - D u I I D D Y Y Z Q Q Q Q Q Q Z Q Q Q Q Q Y Y Z Z Y Y Y Y Y Y Y &.Z Y &.&.Y Z Y Q Q Z Y Z Q Y Y Y Z Z Y &.Q Y Y Y Z Z Y Z Q Y Y Z Q Q @.D D D D R R U U D D Q Q Q Q Z Q Q Q Q Z Z Q Q Q I I Q Q D D Q Q D D D D D D D D D u D D R v v v R v I I o o R v o o o o o o u q o o t t w w o o o t t t t X t t w w w w r r - - # # l l l l l l # # d d m m ! ! ! ! ! ! ! 4 ! ! + + 1 1 + @ @ @ & & , , > > , > | ; | ; = = ; ; = = = & 1 * % % % % & & 5 5 5 5 % % % @ # # $ $ @ @ . . @ @ . . @ @ .   . .   . .       ",
"    . .     . .     @ @ . . # @ . . @ @ $ $ # # # @ @ % % # $ $ & = . . 5 5 * * & 5 6 | > > | ; > , > , ' ' , , ' ' & & % % * * ) ) + + ! ! ! ! ! ! ! ! W W +.+.8 8 # # l l w w l l # # - - ' ' 9 9 9 w K w w w w w w 9 9 w w w t t w w o o o X o o o o q q o o D u v v D D D u D D D u u u v v D D D D U U v R D D D D Z Z Q Q Q Q U U Z Q I I Q Q D D D D D D U U D D Y Y Y Y Y Y &.Z Y  .Y Y Z Y Y Y Y Y Z Q ` ` Y &.Y Y Q Q Z @.Q Q Z @.@.@.&.#.@.@.@.@.*.*.Q Z Q Q Z @.#.#.@.@.Y Z Y Y Z Q Q Y Z Z U U v v - - v v Q Q q v I I D D u D T T u u U U Q Q I I Z Q Q Q &.Y Q Q Q Q Q Z Q Z Z Q Y Y Y Y Y &.Z Y Y Y Q Q Z Y Q Q @.Z Z Q Q Y Z Z Y Z Q Q Z Y Y Z Z Y Q Z Z Z Q Q Q Q Q Q U I D D D D D D D u D D *.*.U U Y Z *.*.Q Z D D I I D D u D D D I I D D u u D D I I D D u D v v R u v v R u v o o o t t t o o o o o w w o o o t o o w w w w w w t t w w w k 0 0 # # 9 9 l l w w # # 8 8 m m ! ! ! ! ! ! ! ! < < # # ) ) @ % % % = = > > , > , > > > | | | ; | | | |     @ @ @ @ @ @     & &     # # # % $ $ @ # . $ @ @ $ $ @ @ . . . $ .     . .   . . ",
"      .     . .     @ @ . . # @ . . @ @ $ $ # # # @ @ % % # $ $ 5 &   . 5 5 * * 5 5 6 6 > > | ; > > , > ' ' , , ' ' & & % % * * ) ) + + ! ! ! ! ! ! ! ! W W +.+.8 8 # # l l w w l l # + - - ' ' 9 9 9 w K w w w w w w 9 9 w w w t t w w t o t t o o o o q q o o D D R v D D D u D D D u D D R v D D D D I I R R D D D D Y Z Q Z Z Q U U Q Q I I Z Q D D D D D D U U u u Y Y Y Y Y Y &.Z Y  .Y Y Z Y Y Y Y Y Q Q ` ` Y Z Y Y Z Q Q @.Q Q Z @.@.@.#.#.@.@.@.@.*.*.Q Z Q Q @.@.#.#.@.@.Z Z Y Z Q Q Y Y Z Q U U v R - - v v Q Q q v I I D D u D T T u u U U Q Q U I Q Q Z Q Y Z Q Q Z Q Q Q Q Z Q Q &.Y Q Y &.&.Z Y Y Y Q Q Y Y Z Q @.Z Z Q Q Y Z Z Z Q Q Q Y Y Z Z Z Y Q Z Z Z Z Q Q Q Q Q U U D D D D D D D D D D *.*.U U Y Z *.*.Z Q U D I I u D D D D D U I D D D D D u I I D D u D v v u D R v u u t o o o o t t t o o o o w w o o X t t o w w w w w w t t w w w k 0 0 # # k k l l w w # # 8 8 m m ! ! ! ! ! ! ! ! < < # # ) ) @ % % % = = > > , , , > > > | | | | ; | | |     @ @ # @ @ @     & &     # # % % $ $ @ # $ $ @ @ $ $ @ @ . . $ $       .     . . ",
"  . .     . .   . $ . . @ @ $ . # @ $ . # @ $ $ # % % @ % @ $           . $ 1 1 . . O O ; | > > ; ; ' ' , > [ ' , , = = @ @ @ @ 2 2 @ @ ! ! ! ! ! ! 4 ! ! ! m m 8 8 # # 9 9 l l w 9 # # | | r r A A w 9 9 9 X X K K t X w w w w X X X t t X t o X X o o o o D u v v u D R v u D D D D D D D I I R R D D R v u D R v u D D D I I D U Q Q u u Q I D D u D R R D D D u u u D D Z Z Q Q Y Y &.Y Z Y Q Q Y &.Z Y Z Z Q Z &.&.Y &.&.Y Z Q Q Z *.*.Z @.@.@.&.Y @.@.@.@.Q Q Z Z U U @.@.Q Z @.@.Q Q Y Y Q Q Q Z D D R v W W q u u C D D R v D D v v - - u u Y Z Z Q Q Y Z Q Y Y Q Q Z Z Q Q Y Z Q Q Q Z Q Y Y Y Y Y Y &.Z Q Z Z Q Q Y Z Q Q Z Z Q Q Z Y Q Q Q Z Q Z Z Y Z Y Y Y @.@.Q Z @.Q Q Z *.*.D D D u U U D D D D *.*.Q Z D D Q Q D D D D D D R u v v u D v q D u u u u u u u I I D D u D o o v v t o u u t o u q o o t o o X q q o t o o w w w w w w w 9 r r 9 w A A - - # # l l w w l l x x e e ].].4 4 ! ! ! ! ! ! ! ! # + 1 1 @ @ @ @ & & , , > > , > | ; ; ; | | ; ; | = = & * * % # @ % 5 5 & 5 5 5 % % @ @ # # $ $ @ # $ $ @ @ . $ $ $ .   . $     . .     ",
". .     . . .   . $ . . @ @ $ . # @ $ . # @ $ $ # % % @ % %             $ . 1 1 . . O O ; ; > > | ; ' ' > , ' ' , , = = @ @ @ @ 2 2 @ @ ! ! ! ! ! ! ! 4 ! ! m m 8 8 # # 9 9 l l w 9 # # | | r r A A w 9 9 9 X X K K t X w w w w t t t t X t o o X X o o o o D D R v D D v v D D u D D D D D U I R R D D R v u u v v u u D D I I I I Q Q D D I I u D D D v R D D u u u D D D Z Z Q Q Z Y Y Y Y &.Q Q Y &.Q Z Z Y Z Z &.&.Y &.&.Y Z Q Q Z *.*.Z @.@.@.Y Y Z @.@.@.Q Q Y Z U U @.@.Q Z @.@.Q Q Y Y Z Q Q Y U D v q W W q u C D D D R v D D v v - - D D Z Z Q Q Y Z Q Q Y Y Z Q Q Y U Q Y Y Q Q Z Q Y Y Y Z Y Y Y #.Q Q Z Q Q Q Y Z Q Q Z Z Z Q Z Y Q Z Q Q Q Q Y Z Z Z Z Y @.@.Y Z Q Q Z Q *.*.D D D u U U D D D D *.*.Q Z D D Z Q D D u u u u u u v v u u v v D D u D D D D D I I D D D D o o v v o o u u t o u q o o o t t t q q o t o o w w w w w w w 9 r r 9 w A A - - # # l l w w l l x x e e ].].4 4 ! ! ! ! ! ! ! ! # + 1 1 + @ @ @ & & , , > > , , | ; ; ; | | ; ; | = = & * * # % @ % 5 5 5 5 5 5 % % @ @ @ # $ $ @ # $ $ @ @ . $ $ $     . .   . . .     ",
"    . .     . .     @ @ . . @ @ . . @ @ $ $ % # @ @ % % # # $ $ & = . . 5 5 * *     6 | ; ; | ; > > , > ' ' , , ' ' & & % % * * ) ) # # ! ! ! ! ! ! ! ! 4 4 +.+.8 8 1 1 l l w 9 l l # # > > ' ' } } A A K K K K t X t t o o o t w w w w v v o o o o o o q v q q u u R R D D D u D D R v U U U U Q Q u u u v v v u D R v u D D U Q Q D D I I D D Q Q U I Q Q Q Z I U u u Q Z Q Q Q Z Z Q Z Y Z Z Q Q Q Q Z Q Q Q Y Z Y Y Y #.Z Q Z Y Q Q Z @.@.@.&.Y Y Z @.@.Q Z Z Z @.@.@.@.@.@.&.Y Y Z Y Y Z Q Q Q D D Q Q o o - - v v Q Q R R D D D u D u ~.~.D D Q Q Q Q Q Z Q Z Z Q Q Q U I Q Q I I Z Q Q Q Y Y Q Q Z Y Y Y Y Y Z Q Q Z I U Q Q Z Q Z Z Q Q Q Q Z Q Z Z Q Q Z Y Z Q Y Y *.*.Z Z U *.*.U D D Q Q I U U U D D *.*.Z Q U *.D D Q Q D C D D R v v v v v D D u D D D u u U U D D D D o o R u R v o o X X o o o o q q o o o o w w v q o o o o w w w k - - r r - - [ [ 0 0 # # k k l l w 9 # # 8 8 m m ! ! ! ! ! ! ! ! < < @ # ) ) % % % % = = > > , , > > > > | | | ; ; | ; ;     * * * 1 # #     & &     # # % % $ $ @ # $ $ @ # $ $ @ @ . . . $     $ $     $ $ ",
"  . .       . .     @ @ . . @ @ . . @ @ $ $ # # @ @ % % # # $ $ & &   . 5 5 * *     6 6 | ; | ; > > , > ' ' , , ' ' & & % % * * ) ) # + ! ! ! ! ! ! ! ! 4 4 +.+.8 8 1 1 l l w 9 l l # # > > ' ' } } A A K K K K X X X t o o o t 9 w w w v v o o o o o o v v u q D D R v D D D D D D R v U U U U Q Q D D R R R v u u v v u D U U Q Q D D I I D D Q Q U I Q Q Q Q U I D u Q Q Q Q Z Z Z Q Y Y Z Z Z Q Q Q Z Q Q Q Y Z Y Y Y #.&.Z Z Q Q Z Z @.@.@.Y &.Z Z @.@.Z Z Y Z @.@.@.@.@.@.Y Y Z @.Y &.Q Q Q Z D D Q Q o o - - v v Q Q v R R D D D u D ~.~.D D Q Q Z Q Q Q Q Z Q Q Q Z I U Q Q I I Z Q Q Q Y Y Z Q Q Y Y Y Y Y Q Q Z Z U U Q Q Q Q Q Z Q Q Q Q Q Q Z Z Z Q Y &.Q Q Z Y *.*.Z Z *.*.U *.D D Q Q U U U U D D *.*.Q Q U *.D D Q Q D D D u R v v v R v v u u u u u u u I I D D u D o o u u v v o o X X o o o o q q o o o o w w q q o t o o w 9 w 9 - - r r - - [ [ 0 0 # # 9 9 l l w 9 # # 8 8 m m ! ! ! ! ! ! ! ! < < @ # ) ) % % % % = = > > > , , > > > | | ; ; ; | | ;     * * 1 1 # #     & &     # # % % $ $ @ # $ $ @ # . $ @ @ . . $ $     $ $     $ $ ",
".       $ .     @ @ . . @ @ . . @ @ $ . # @ $ $ # % % @ % %             . . 1 1 $ $ | | | | > > ; ; ' ' , , ' ' > , = = @ @ @ @ ) ) # # < < ! ! ! ! 4 ! 4 ! n m 8 8 # # w w l l k k b b 0 - r k + + r r W W A A K K X X w w t t w w o o o o q v o o u u v v v v D D u D v v D D v v R u v R U U u u u u v v D D D u D D v v u D D D D D D D D u U U Q Q D D Y Z Q Q Z Q Q Q Y Z Q Q Z Q Q Q Q Q D D Q Q D D Q Q Z Q Q Z Z Z Z &.Q Q @.@.@.@.Y &.@.Z @.@.*.*.@.@.Q Z &.&.U U U *.Z Q Y Y Z Q Z Y Q U D D U U v R W W q u U U D D R R Q Q D D - - v v Q Q D u Q Q Z Q Y Y Q Q Q Q D D D D I I Y Y Z @.Y Z Z Q Q Y Z Q Y Y Z Q Q Q D U Q Q Z Q Q Q D D Q Q Q Q @.Z Q Q Z Y *.*.Z @.D *.Q Q u u D D Q Q Q Q D D I I Z Q Q Q *.*.D D D D D D D u D D u u u u u u U U D u u u v v D D v v u D R v o o X X o o o o D u o o o o w w t o w w t t w w w w r r A [ - - # # [ [ 0 - # # l l k k l l 1 1 8 8 m m 4 4 4 ! ! ! ! ! ! ! + + 1 1 + @ $ $ 5 & , , , > , , ; ; ; | ; | ; | ; | 5 5 * F # % # @ & & 5 5 5 5 % % @ @ @ # $ $ @ # $ $ @ @ $ $ $ $ $ . . $ .   $ $     ",
"$ .     . .     + @ . . @ @ . . @ @ . . @ @ $ $ % % % @ % %             . . 1 1 $ $ | | | | > > ; ; ' ' , , ' ' , , = = % @ @ @ ) ) # # < < ! ! ! ! 4 ! ! ! n m 8 8 # + w w l l k k + b - - k k # # r r W W A A K K X X w w t t w w o o o o q v o o u u v v v v D D u D v v u D R v u D R R U U D D u u v v u D D D u D v v D D D D D D D u D D U U Q Q D D Y Z Z Q Q Q Q Q Y Y Z Q Q Y U Q Q Q D D Q Z D D Q Q Z Q Q Z Z Z Y Y Z Q @.@.@.@.Y &.@.@.@.@.*.*.@.@.Y Z Y &.U U U *.Z Z Y Y Z Q Y Y U U D D U U v v W W q u U U D D u R Q Q D D - - v v Q Q D D Q Q Q Q Y Y Z Q Q Z D D D D U U Y Z Z Z Y Z Q Q Y Y Q Q &.Y Q Q Z Q D U Q Q Z Q Q Q D D Q Q Z Q Z Q Q Q Z Y *.*.Z @.D *.Q Q D D D D Q Q Q Q C D I I Q Q Q Q U *.D D D D D D D D u D D u D D D R U U D u u u v v u D R v u D v v t o X X o o o o u u o o o o w w o t w w t t w w w w r r A [ - - # # [ [ - - # # l l k k l l 1 1 8 8 m m 4 4 ! ! ! ! ! ! ! ! + + 1 1 + @ $ $ 5 & , , , > , , ; ; | ; ; | | ; 6 6 5 5 * * % % @ @ & & 5 5 5 5 % % @ @ # # $ $ @ # $ $ @ @ $ $ $ $ $ . $ $     $ $     ",
"    .       . . . . @ @   . @ @   . # # $ $ # # $ $ # % % @ $ $ & & . . .   * F     6 6 ; ; | ; > > > O , , , , ' ' & & @ # 1 1 1 1 + + ! ! ! ! 4 ! ! ! 4 4 +.+.8 8 1 1 l l w w l l + + > > k k a a ) ) ) ) w w w w w w t o o X o o o o o o o t D D R v v q o o v v t o v q v v D D v v u u u v D D D D D D o v u D R u u D D D D D *.*.D D *.*.Q Q D D Q Z D U Q Q U U Z Q Q Q Z Y Q Q Z Q U U Z Q Q Q Z Q Q Q &.Y D D Y Y Q Z Z Y *.U Y Z Q Q Z @.Q Q Y Y @.@.@.@.Q Q Z Z U *.Z Q Q Q &.Y Q Q Q Z D D D D R v - - v v I I D D u D u u u u - - v v I I U U D D Q Q U I Q Q I I Z Q D U Q Q D D Q Q Z Q Y Y U I Q Q Q Q Q Z I U Q Q I I Z Y Q Q Q Z U U Q Q Q Q Q Q Z Q Z Y Z Q Z Y Q Q Q Q D D I U U U D D I I u D D D D D R v D D D D I I D D u D u u u u v v v v o o u u v v v v R v v u v v D D v v u u v v u q X X w w w w t o w 9 9 w w w r r 3 3 1 1 A A K k | | + + r k l l k k # # 8 8 m m ! ! ! ! ! ! ! ! < < + @ ) ) % % # # = = , , , , , > > > O | | ; | ; | |     @ @ 1 1 # #     & &     # # @ % $ $ @ # $ $ @ @ $ $ @ @ $ . @ @ $ $ $ $     . $ ",
"    . .     . . . . @ @ .   1 @ . . # # $ $ # # $ $ # % % @ $ $ & = . .     * F     6 6 ; ; ; | > > O > , , , , ' ' & & % @ 1 1 1 1 + + ! ! ! ! 4 ! ! ! 4 4 +.+.8 8 1 1 l l w w l l # # > > r r 3 a ) ) ) ) w w w w w w t o t t o o o t o o o o D D v q q q o t v v t o v q v v u D R v u D v q D D D D D D v v u D R u u D u u D D *.*.D D U *.Q Q D D Q Q U U Z Q U I Z Q Q Q Y Y Q Q Q Q U U Z Q Q Q Z Q Q Q &.Y D D Y Y Z Z Y Z Q U Z Z Q Q @.@.Q Q Y Y @.@.@.@.Q Q Q Z *.*.Q Z Q Q Y Y Z Q Q Y U D D D R v - - v v I I D D u D R u u u - - v v I I I I D D Q Q I I Q Q I I Q Q I I Q Q u D Q Q Z Q Y Y U I Q Q Z Q Q Q U U Q Q I I Z Y Q Q Z Q D U Q Q Q Z Q Q Q Q Y Z Z Q Z Y Q Q Z Q D D U U U U D D I I u D D D D D v q D u D D I I u u u u u u u u v v v v t o u u v v v v v R u v R v u D R v u D v q q q X X w w w w o t w 9 9 w w w r r 3 a 1 1 A A k k | | + + k k l l k k # # 8 8 m m ! ! ! ! ! ! ! ! < < + @ ) ) % % % # = = > , , , > > > > O | | ; | | ; |     @ @ 1 1 # #     & &     # # % % $ $ @ # $ $ @ @ $ $ @ @ $ . @ @ $ $ . $     . $ ",
".       . .     @ @ . . @ @ .   @ @ @ @ % @ . $ # % @ @ @ % $ . .       $ $ @ @ $ $ | ; | | > > ; ; > , , , ' ' , > = = % % % % ) ) @ @ 4 4 ! ! ! ! ! ! ! ! m m 8 8 # # 9 9 l l k k # # 0 0 k k 9 9 9 9 r r t t k r 9 w w K X X w w o o X X o o u u u u o o q q o t q u u v D D v v R v v v D D D u D D v v D u R v u u v v u D *.*.u u *.*.D D D D U U R R u D D D Q Q Q Z Q Q Q Q Q Z U U Q Q U U Q Q Z Q Q Q Q Y Z Y Y Z Q Z Z Q Q Y Q Q Z Q Q Q Z @.*.*.Q Z D *.Z Q U *.Q Q Z Q Z Z Q Q Q Q Q Z w w t t X X W W q u U D I I u D D u t o [ [ o o r r 9 w D D D D Q Q D D Q Q I U Q Q D D I I I I Z Q Q Q Q Q U I Q Q I I Q Q U U Z Q I I Z Q D D Q Q U I Q Q Q Q Q Z Q Q Q Y Q Q Q Q D D D D u u u u u u I I D D U *.R R U *.o o v v v v D D u D D D v v u u v v v v R v v u v v u D R v u D v q v v t o v q o o o o w w t t w w w w r r 9 w A A r r 9 k k r A A - - # # 9 9 9 9 l l x x 8 8 m m 4 4 ! ! ! ! ! ! ! ! + # 1 1 @ @ $ $ & & ' ' , > > , ; ; ; ; | ; | ; = = 5 5 * * % % # @ & & 5 5 5 5 % % @ @ @ # . $ @ @ $ . @ @ $ $ $ $ . $ $ $     $ $ .   ",
". . .   . .     + @ . . @ @ .   @ @ # @ # # $ $ # # + @ @ % . .         $ $ @ @ $ $ ; | ; | > > ; ; > , , , ' ' , , = = % % % % ) ) @ @ 4 4 ! ! ! ! ! ! ! ! m m 8 8 # # k 9 l l k k + # 0 0 k k k 9 9 9 r r t t k r 9 w 9 9 t t w w o t X X o o D u D u t o q q o t u u u q u u v v v v R v D D D D u D v v D D R v D D v v D D *.*.D D *.*.D D D D U U R R u D D D Q Q Q Q Z Q Q Q Q Q U U Q Q U U Q Q Q Q Z Q Q Y Z Y Q Z Z Z Q Q Z Q Q Q Z Q Q Q Z @.*.*.Q Z D *.Q Q U *.Q Q Z Q Z Z Q Q Q Q Q Q w w t t X X W W q u u C I I D D u D o o [ [ o o r r 9 w D D D D Z Q D D Q Q I I Q Q D D I I I I Q Q Q Q Q Q U I Q Q I I Q Z U U Z Q I I Q Q D D Q Q I U Q Q Q Z Q Q Q Q Q Z Z Q Q Z D D D u u u u u u u I I D D U *.R R U *.o o v v v v u D R u D D v v u D v v v v v R u v R v u u v v u u v v v q o o R v o o o o w w t t w w w w r r 9 w A A k r r 9 k r A A - - # # 9 9 9 r l l x x 8 8 m m 4 4 ! ! ! ! ! ! ! ! # # 1 1 @ @ . $ 5 & ' ' , > > , ; ; ; ; | | ; ; = = & 5 * * % % # @ & & 5 5 5 5 % % @ @ # # . $ @ @ $ . @ @ $ $ $ $ . . . $     $ $     ",
"    @ @ . . @ @ . $ @ @ . . @ @ . . @ @ $ $ # # $ $ # % @ @ . $ & = . .     * F     6 6 ; ; | ; > > > > ' ' , , ' ' & & @ @ 1 1 # @ # # ! ! ! ! ! ! ! ! 4 4 +.+.8 8 1 1 l l w 9 l l % % > > k k r r A A w w K K w w r r w w w w X X w w o o X X u u t o u v o o u q q v u u v v u q v v q q v v D D v v u D R R u u v v u u v v *.*.U *.D D *.D Q Q D u D D v v D D D D Q Q Z Q Y Z U I Q Q Z Q U U Q Q Y Y Z Q Y Z Q Q Y  .I I Z Q Q Q Q Q D D Q Q Q Q Z Z U *.Q Q U I Q Q I I Z Z Q Q Q Q U U U U K K r r } } - - o o D u D u D D R v v q - - - - K K - - u D I I D D Q Q D D Q Q D D I I D D Q Q I U Q Q I I Z Q D D Q Q I I I I D u Q Q I U I I D D Q Q I I Z Q Q Q Q Q Q Q Z Q D U I I R R u D R R U U D D I I u D *.*.q v D D v v D u v v D D v v u u v v R u v o v v t o u u u u u u v v v v t o o o o t t t o o o o w w t t k 9 w w K K w w w w r k A [ k k | 0 # # k 9 w w r r # # 8 8 m m ! ! ! ! ! ! ! ! ! ! + + ) ) % % # # = = > , , , > > , , ; ; ; | | ; 6 |     @ @ @ @ # #     & &     # # @ % $ $ @ % $ $ @ @ $ $ # @ $ $ $ $ . . $ .     . $ ",
"    @ @ . . @ @ . $ @ @ . . @ @ . $ # @ $ $ # # $ $ # % @ @ $ $ & &   . .   * F     6 6 ; ; | ; > > > > ' ' , , ' ' & & @ @ 1 1 # @ + + ! ! ! ! ! ! ! ! 4 4 +.+.8 8 1 1 l l w 9 l l # % > > k k r r A A w w K K w w r r 9 w w w X X w w o o X X u u t o q v o o u q v v D D v v u q q v u q q v u u v v R u u R D D v v u D R v u *.*.U *.D D D Q Q D D u D v q D D D D Q Q Z Q Z Z U U Q Q Q Q U U Q Q Y Y Q Q Y Y Q Q  . .I I Z Q Q Q Q Q D D Q Q Q Q Q Z *.*.Z Q U *.Q Q I I Q Z Z Q Q Q I I I I K K r r } } - - o o D u D u D D v q v v - - - - K K - - u D I I D D Q Q D D Q Q D D I I D D Q Q I I Q Q I I Q Q D D Q Q U U U U D D Q Q I U I I D D Q Q I I Z Q Q Q Q Q Q Q Q Z I U I I R R u D R R U U D u U U D D U *.v v D D v v D u v v u D R v u D v q v u t o q v o o D u D u D u v v v v o o o o o o t t t o o o w w t t w 9 9 w w 9 9 w w w r k A [ k k | 0 # # k k 9 w r r # # 8 8 m m ! ! ! ! ! ! ! ! ! ! + + ) ) % % # # = = > , , , > > , , ; ; ; ; | | ; 6 3   @ @ @ @ # #     & &     # # @ % $ $ @ % $ $ % @ . $ @ @ $ $ $ $ . . $ $ .   . $ ",
"$ . . $ @ @ $ . # @ .   1 @ . . @ @ @ @ @ % $ $ # % % @ % %             $ $ @ @ $ $ ; | ; | ; ; ; ; > , , , ' ' , , = = @ % % % ) ) @ @ ! ! 4 4 ! ! ! ! ! ! n m 8 8 # # 9 9 w w r r # # 0 - w 9 ' ' 9 9 9 9 X X r r 9 K K K t X w 9 o o X X X t o o o o t t v v R v v u v v u u v v u u v v q q v u D D v v u u v v u u v v v v ).).D D D D U *.u D U U R R D D D u Q Q Z Q Q Q Q Q Z Q Q Q Z Q Q Q Q Q Z Q Q Q C D Q Q D D D D U U U U U U U U U U Y Z *.*.U *.D U Q Q *.U Q Q I U Q Q I U Q Q I U S S ^.^.w w } } v v D D u D v v D D v v - - W W + + ^.^.D D D D U I D D I I u D I I D D U I I U Q Q D D Q Q I I U U D D Q Q D D I I I U Q Q u D Q Q Q Q Q Q U I Q Q I I Q Q U I Q Q D D D D D D D u D D U U D D D D v v u R u C D D v v v v v R u v R v v v t o o o o o q v o o u q v v v q o o X X X t X X w w o t t o w w w w w w 9 9 9 w r r 9 w w k w w r r > > # # 9 9 k k l l 1 x 8 8 m m 4 4 ! ! ! ! ! ! ! ! # # 1 1 + @ $ $ & & ' ' , > > , > > > > | O ; ; = = & & * F # % @ @ 5 5 5 5 5 5 % % @ @ # # $ $ @ % $ $ @ @ . $ @ @ . . $ $ .   $ $ .   ",
".   . . @ @ . . # @ .   1 @ . . @ @ @ @ @ % $ $ # % @ @ @ %         .   $ $ @ @ $ $ ; | | O ; ; ; ; , , , , ' ' , > & = % % % % ) ) @ @ ! ! ! 4 ! ! ! ! ! ! n m 8 8 % # k 9 w w r r # # 0 - 9 9 ' ' 9 9 9 9 t t r r 9 K K K t X w 9 o o X X X X t o o o X X v v R v v u v v u u v v u q v v v q q R D D R v D D v v u D R v v v ).).D D D D *.*.D D U U R R D D D u Q Q Q Q Z Q Q Q Q Q Z Q Q Q Q Q Z Q Q Q Q Q C D Q Q D D D D I I I I U U U U U *.Z Z U *.*.*.U *.Q Q *.U Q Q U U Q Q I U Q Q I U S S ^.^.w w } } v v D D u D v v D D v v - - W W + + ^.^.D D D D I I D D I I u D I I D D U I I I Z Q D D Q Q I I U U D D Q Q D D I U U U Q Q D D Q Q Q Q Q Z I U Q Q I U Q Q I U Q Q D D D D u u u D D D I I D D D D R v v R u C D D v v R v v v u u v v v v o o o o o o q v o o D u v v v v t o X X X X X t w w t o t t w w w w w w 9 9 w w r r w w r r w w r r > > # # k 9 k k l l 1 x 8 8 m m 4 4 ! ! ! ! ! ! ! ! # # 1 1 + @ $ $ & & ' ' , > , , , > > > | ; | ; = = & & * * % % @ @ 5 5 5 5 5 5 % % @ @ @ # $ $ @ % $ $ @ @ . $ @ @ . . . $   . $ $     ",
"  . @ @ . . @ @ . . @ @ . . @ @ . . # # $ $ # % @ @ % % @ @ . $ & & . .     * *     6 6 ; ; | ; > > > > ' ' , , ' ' & & @ @ 1 1 @ @ @ + ! ! ! ! ! ! ! ! 4 4 +.+.8 8 1 1 l l k k 9 9 1 1 > > ' ' k k r r 9 w A A r r A [ r r 9 K o o w w t o w 9 t t w w t o t o q q v v D D v v u q v v q q v v u D u u D D v v R v u R D D R v *.*.v ).D D *.*.I I D D Q Q D u U I Q Q Z Q Q Q Q Q Z Q Q Q U U Y Y Z Q Q Y U U Q Q I U Q Q D C Z Z D D Q Q I U Q Q I U U *.u D Q Q I U Q Q U I Q Q I I Q Q D D Q Q D D D D o o W W q v u D R u u D v v R v - - v v u u U U D u u u D D D D D D I I D D I I D D Q Q u D I I I I I I D D U I D D I I u u Q Q D D I U U I Y Y U I Q Q I I Q Q Q Q Q Q C D U U u u u D D D I I D D U I v v *.*.R v v R v v v v o o v v R v v u o o D u o o v v o o v v v R v v o o o t t t X X X t w w X X o o w w w w r r r r r r r r r r 9 w r r 9 k | | + + k k r r k k # # 8 8 m m ! ! ! ! ! ! ! ! ! ! # # ) ) % % # # = = > , , , ; ; > > | | ; ; ; | | |     @ @ # @ # # .   & &     # # @ % @ @ @ % $ $ # @ $ $ @ @ $ . . $ . . $ $     . $ ",
"    @ @ .   1 @ .   1 @ . . @ @ . . # # $ $ # @ @ @ @ % @ @ . $ & & . . .   * *     6 6 ; ; | ; > > > > ' ' , , ' ' & & @ @ 1 1 @ @ + + ! ! ! ! ! ! ! ! 4 4 +.+.8 8 1 1 l l k k k r 1 1 > > ' ' 9 9 r r 9 w A A r r A [ r r 9 9 t o w w o o w 9 t t w w o t o o q q v v u D R v v q q v u q v v u D u u D D R v q v v R D D v v *.*.v ).D D *.*.U U D D Q Q D D U I Q Q Z Q Q Q Q Q Z Q Q Q U U Y Y Z Q Q Y U U Q Q U I Q Q D C Z Z D D Q Q U I Q Q I I *.*.u D Q Q I I Q Q U I Q Q I I Q Q D D Q Q u D D D o o W W q v u u u u u u v v v v - - v v u D I I D D u D u u D D D D U I D D I I u D Q Q u D I I U I I U D D I I u D I I D D Z Q D u U I U I Z Y I I Q Q U U Q Q Q Q Q Z D D U I u u u D D D I I D D U *.R v *.*.R v v R v v v v o o v v v v u u t o u q o o R v o o v v R v v v o o o t t t X X X X w w X X o t w w w w r r r r r r r r r r w w r r k k | 0 # # 9 9 k k k r # # 8 8 m m ! ! ! ! ! ! ! ! ! ! # # ) ) % % # # = = , , , > ; ; > > | | | ; | | | O     # @ % # # #     & &     # # # % @ @ # # $ $ # @ $ $ @ @ $ . . $ . . $ $ .   . $ ",
". . $ . @ @ . . @ @ . . @ @ + @ # # @ @ # # $ $ @ % % @ % % . .         $ $ @ @ . $ | | | | | ; ; ; , , , , ' ' , , & = % @ % % ) ) # # 4 4 ! 4 ! ! ! ! ! ! m m 8 8 # # 9 9 k k k k # # 0 | r k k 9 w w w K K 9 r r 9 K r r 9 w w w X X X t X X X X t o o o q q v v q q o t v v v q q v v v R v v v u u v v v v ).v u D R v u D v ).D D U *.D D D D U U Q Q Z Q D I Z Z Q Q Z Q Q Q Q Q Z Q Q Q Q Q Z Q D D Z Q U U Q Q I U Q Q Z Q Q Q U U Q Q I U U U D D Q Q D D Z Q I I Q Q U I Q Q D D I I D u D D D R v v } } u u v v u u v o R u o o - - o o D u D u D D u u u u u u D D u u I I D D I I D D I I u D I I D u D u D u I U D u Q U I U U U D D Z Y Z Q Q Q I I Q Q Q Q Q Q D D Q Q U I I I u D Q Q D D I U D D *.*.*.*.R v o o D u v v v v v v u u u D D D v v D D v v u u o o v v o o v v X X o o X X X t w w X X X t X X 9 9 w w r r w 9 r r r r A A w 9 ' A | | + + k k k r r k 1 1 8 8 m m ! ! ! 4 ! ! ! ! ! ! + + 1 1 @ @ $ $ 5 & ' ' > > O > ; | ; ; = = ; ; = = = & * F # % @ @ 5 5 5 5 5 5 % % # @ % % $ $ @ # $ $ @ @ . $ $ $ $ . . $ .   $ $ .   ",
"  . . . @ @ . . @ @ .   1 @ @ @ # # @ @ @ # $ $ % % @ # % % . .     .   $ $ @ @ $ $ | | | | ; ; ; ; , , , , ' ' , , = = % @ % % ) ) @ # 4 4 ! 4 ! ! ! ! 4 ! m m 8 8 # # 9 9 k k k k + # | | r k k 9 w w 9 9 9 9 r r 9 9 r r 9 w w w X X X X t X X X o o o o q q v v q q o o v v v q q v v v v R v v u v v u v v R v D D R v D D ).).D D U *.D D D D U U Q Q Z Q D I Z Z Z Q Q Q Q Q Z Q Q Q Q Q Q Q Q Q D D Z Q U U Q Q I U Q Q Q Q Z Q D U Q Q U U U U D D Q Q D D Z Q I I Q Q I I Q Z D D I U D u D D u u v v } } u u v v u D o o D u o o - - o o R u u u D D D D D D D u D D D D I U D D I I D D I I D C D I D D D q u u I U D D U U I U I I D D Z Y Q Z Q Q I I Q Z Q Q Q Q D D Q Q I I I I D D Q Q D D U U D D *.*.*.*.R v o o D u v v v v v v u u u u D u v v u u v v u u o o v v o o v v X X o o X X X t w w X X X X t X 9 9 w w r r w w r r r r A A w 9 ' A | | + + k k k k 9 9 1 1 8 8 m m ! ! ! 4 ! ! ! ! ! ! + + 1 1 + @ . $ & & ' ' > > O > ; | ; ; = = ; ; = = & & * * % % @ @ 5 5 5 5 5 5 % % @ @ % % $ $ # # $ $ @ @ . $ $ $ $ . . $ .   $ $     ",
"    @ @   . @ @ . . @ @ . . + @ @ @ % # @ @ @ % # # # % # # . $ & & . .     * * . . 6 6 ; ; ; | > > > O ' ' , , ' ' & & @ @ 1 1 1 1 @ + ! ! 4 4 ! ! ! ! ! 4 +.+.8 8 1 1 w w r r l l x 1 | | r k r r r r w w K K 9 K K K w w w 9 o o w w t o w w o t X X v v o o u u o o o t t t v u v v v v X X v v o o v v o o v v v v D D u u D D D *.*.*.v v D D I I Q Q Q Z Q Q Q Q Z Q Q Q Q Q Z Q Q Q D D Q Z Q Q Q Z Q Q Q Q D D Q Q D D D D D D Q Q I U Q Z U U U U D D U U D D Q Q I U I I D D U I D D u D D D D D X X W W o o v v o o v v o o o o - - o o v v D D u D D D u u u u D D D D u u U U D u I I D D U I D D D D D D D D D u U I D D Q Q D D I I I U Y Y u u U U D u Q Q U I I I D D Q Q I I I U D D Q Q R R u D v v D D v v u u v v u D R v u D R v u D v v D D o o D u o o o o X X v v t o v q o o o o t t o o X X X X w w w w w 9 w w K K w w w w w w r r 9 k | | # # 9 9 k k k k % % 8 8 m n 4 4 ! ! ! ! ! ! < < # # ) ) % % # # = = , , , , ; ; > > | | | ; | | | O     @ % @ @ # #     & &     # # @ % @ @ # # $ $ # @ $ $ @ @ . . $ . . . $ $ .   . $ ",
"    @ @ .   1 @ . . @ @ . . # # @ @ @ # % @ @ % # # @ % @ # . $ & & $ .     * * . . 6 6 ; ; | O > > > > ' ' , , ' ' & & @ @ 1 1 1 1 + + ! ! 4 4 ! ! ! ! 4 4 +.+.8 8 1 1 w w r r l l x 1 | | r k r r r r w w K K 9 K K K w w w 9 o o w w t o w w o o X X v v o o u u o o o o t t q q v v v R X X v v o o R v o o v v R v v D D D D u *.*.*.*.v v u D U U Q Q Z Q Q Q Q Q Z Q Q Q Q Q Z Q Q Q D D Q Q Q Q Z Q Q Q Q Q D u Q Z D D u u D D Q Q U I Z Z U U U U D D U U D D Q Q U I I I D D U I D D u D D D u u X X W W o o v v o o v v o o o o - - o o v v u D R u u D u u u u D D D D u u I I D D U I D D U I u u u D D D D u u u I I D D Q Q D D I I I I Y Y u u I I D D Q Q U I I I D D Q Q I I I I D D Q Q R R D D v v u D R v u D v q v u v v R u v v u u v v D u o o D u o o o o X X v v o o v v o o o o X X o o X X X X w w w w w 9 9 w w 9 w w w w w 9 r r r 9 | | + + k k k k k r # % 8 8 m n 4 4 ! ! ! ! ! ! < < # # ) ) # % % # = = > , > , ; ; > > | | | | | O | |     @ % @ @ # #   . & &     # # # % @ @ @ % $ $ # @ $ $ @ @ . . $ . . . $ $ .   $ $ ",
". . $ . @ @ .   1 @ . . @ # @ @ # # @ @ # % % @ % % % @ @ @ . $     .   $ $ @ @ $ $ | 6 = = ; ; ; ; , , > > ' ' , , = = % % % % ) ) # + < < ! ! ! ! ! ! ! ! m m h h 1 1 k k r r ' ' # % | | r k r r 9 9 w k 9 o r r 9 w w K w w t o t o o o o t t t o o o o o o o o v v t X o o o t t v X X o o o o v v o o v v t o v q v v C D *.*.*.*.R v u D u R Q Q D D Q Q D D Q Z D U Q Q C D Q Q U *.U U U U Y Z *.Q Q Z D D Q Q D D D D D D Z Q Q Q Z Q D D U U D D D D D D u U D D Q Q D D I U D u D D u u u u u R o o } } v v X X v v t X R v X X - - X X u u u D D D D u u u u u u D D D D u u u I I D D U I D D D D D D D D D u u u D D I I D D u D u u Q Q U I D u D D Q Z u u Q Q U D Q Q I I Q Q D D D D D D D u v v D D v v *.*.R R v v t o u u o o o o o o u u t X o o X X X X w w o t X X v v t o v q X X o o o o o o w w t t 9 9 w w r r 9 w w w w w r r k 9 r r > > # # k 9 k k k r 1 1 8 8 m m ! ! ! ! ! ! ! ! ! ! + + 1 1 1 1 $ $ & & , , , > > , ; ; > > 6 6 ; ; = = & & * * % % @ @ 5 5 5 5 5 5 % % @ @ # % $ $ # @ $ $ @ @ $ $ $ $ . . $ $     . $ .   ",
"  . . . @ @ $ . @ @ . . # # @ @ # # @ @ @ % % @ % % # # + @ $ $         $ $ @ @ $ $ 6 6 = = ; ; ; ; , , > > ' ' , , = = % % % % ) ) # + < < 4 ! ! ! ! ! ! ! m m h h 1 1 k k k r ' ' # % | | r k r r 9 9 w k 9 o r r 9 w 9 K w w o t o o t o o o t t t o o o o o o o q v X X o o X t q v X X o o o o q v o o v v o o v v v v u D *.*.U *.v v u D R R Q Q D D Q Q D D Q Q I I Q Z D D Q Q I I I U U U Y Z *.Q Q Q D D Q Q D D D D D D Q Q Q Z Q Q D D I I u D D D D D U U D D Z Q D D I I D D u D u u u u u R o o } } v v X X v v X X v v X X - - X X u u u u D D D D u u u u D D D D D D D u U I u u U U D u D D D D D D D u D D u D I I D D u D u u Q Q I I D D D D Q Q D D Q Q D D Q Z I I Q Q D D D D u D D D v v D D v v *.*.R R v v o o u q o o o o o o u u t X o o X X X X w w o o X X v v o o v v t X o o o o o o w w t t k 9 9 w r r 9 w w w w w r r 9 9 r r > > # # k k r r k k 1 1 8 8 m m ! ! ! ! ! ! ! ! ! ! + + 1 1 1 1 $ $ 5 & , , > > > > ; ; > > | | | ; = = & & * F # % @ @ 5 5 5 5 5 5 % % @ @ # % $ $ # @ $ $ @ @ $ $ $ $   . . $     $ $     ",
".   $ $ . . @ @   . # @ $ $ # # @ @ % % % @ # % @ @ % % % % $ $ & & . .     * F   . & = ; | ; | > > > > , , , , ' ' & & % % 1 1 # @ @ + ! ! < < ! ! ! ! ! 4 +.+.8 8 s s l l k k l l # # > > [ [ + + r k w w K K 9 K [ [ w w K K w w t t o o o t v v t X o o o o q v o o o o w w t o t t o t X t t v o o v q t X o o o o u D u u u u u q D D D D D C D D I I D D I I I I Z Q D U Q Q I U Q Q D D Z Q I I I I D D D D R R D D I I u D D D D D D D D D u R D D v v I I I U U U R R U U D D I I u D D D C D p p l l | | t t D D o o v q t o o o - - X t q u u u o o R u R v D D D D D D v v D D v q u u R v u D R v u D v q v u u u u u D u D u u D D D D u U I u D I I I I Q Q I I Z Q D D I I u D I U D D D D D D R u o o D u X X C D o o o o X X o o X t o o o o o o t t o o w w t o t t o o X X o o X t v v t X v v X X o o X X w w K K K w r r 9 w B B r k | 0 k k | 0 # # k 9 k k k k # # 8 8 m m W W ! ! ! ! ! ! < < # # 1 1 % % # % & = > > > , ; ; > > | ; ; ; | | ; 6 5 5 % % % % % % $ . 5 5 . . @ # # % @ # @ # $ $ @ + . . # # . . $ $ . . $ .   . . . ",
"    $ $ . . @ @ . . @ @ $ $ # # @ @ % % % @ # % # @ % % @ % $ $ & 5 . . .   * F . . = = | ; | | > > > > , , , , ' ' & & % % 1 1 # @ b + ! ! < < ! ! ! ! 4 4 +.+.8 8 s s l l k k l l # # > > [ [ + + r k w w w K K 9 [ [ w w K K w w t t o o o t v v X X o o o o v v o o o o w w o t X X o t o X t v o o v q t X o o o o u D D D D D v q D u D D D C D D I I D D U U I I Z Q D U Q Q I I Q Q D u Z Q I I I I D D D D R u D D I I u D D D C D D D D D R R u C v v U U I I I U R R U U D D I I u D D D D C p p l l | | t t q u o o v q t o o o - - o t q u u u t o u q v v D D u D D D v v u u v v u D v v D D R v D D v v u D R u u D u D u C D D u D D D U I D D I I I I Q Q I U Z Q D D I U u u U U D u D D D D R u o o R u X X D u o o o o X X o o X t o o o o o o o t t o w w t o t t o t X X o o X t v v X X v v X X o o X X w w K K K w r r 9 w B B r k | | r k | | + + k k k k k k # # 8 8 m m W W ! ! ! ! ! ! < < # # 1 1 % % # % & = > > , > ; ; > > | ; ; ; ; | | | 5 5 % % % % % % $ . 5 5 . . @ # # % @ # @ # $ $ % # $ . # # .   $ $ . . $ . . $   . ",
"$ $ .   $ $   . @ @ . $ @ @ @ @ % % @ % % % $ $ % % # @ @ % . $         . $ @ @ $ $ 6 | & = | ; ; ; > , , > ' ' , , = = @ @ @ % ) ) @ @ < < ! ! 4 4 ! ! W W +.+.h h # # 9 9 w w r k # @ | | > > b b r r } } r r r r r r r r 9 K r r 9 w w w o t X X o t w w t o t o v v t X o o w w t t w w o o o o o o X X o o w w o t o o q u u v u u v u C D D u u u D C D C D D u D D D I I D D D D u u U U D D U U D D U U D D D D D D U I D D I I D D u D u R D D v v D D D D Z Q D D D D D D u D D D I U D u u C p p l l } } o o o o o o t o R u X t - - w w v v u u U U D u u u v v u u v R D D D D D D o o R u u u D u u u D D v v D D v v u u u u u u u u I I D D D D D D I I I I Q Q D D D D D D u u D u u u v v D D D D R u D D C u v v R v X X t o t t o o o o v q o o o o w w t o t t o t X X o o o o v v o o R v t t X t w w w w K K K w r r K K r r [ [ > > 1 1 A ' } 0 # # k k k r l l x 1 8 8 +.+.! ! ! ! ! 4 4 4 ! ! # # 1 1 * * @ @ & & , , > > > > | ; > > | | ; | | 6 & & * * % % @ @ 5 5 . . 5 5 % % # # % % % @ # # $ $ # # $ $ # @   . $ $ . . # @ $ . ",
"$ $ .   $ $ . . @ @ . $ @ @ @ @ % % @ @ @ % . $ # % % # % % $ $         . $ @ @ $ $ 6 | & = ; ; ; ; > , > > ' ' , , = = @ @ @ % ) ) @ @ < < ! ! 4 4 4 ! W W +.+.8 h # # k 9 w w r k # @ | | > > b b r r } } r r r r r r r r 9 9 r r w w w w o o X X o o w w t o t o v v X X o o w w t t w w o o o o o t t t o o w w t o t o u u u v D u u v C D D u D D D C C D D u D D D D I I u D D D D D I U D D I I D D I I u D D D D D I I D D U I D D D D R R D D v v D D C D Z Q D D D D D D D D D u I U D u C D p p l l } } o o o o o o o t D u t X - - w w v v R u I I D D v u u q v D v R D D D D R u o o u u u u u u u u D D R v D D v v D D D D D D D u I I D D D D D D I I I I Q Q D D D D u D D D D u D u v v u D U u u u D D D D v v v R X t o t t t t o o o q q o o o o w w o t o o t o X X o o o o q v o o v v t o X X w w w w 9 K K K r r 9 K r r [ [ > > 1 1 A ' 0 0 # # k k k r l l 1 1 8 8 +.+.! ! ! ! ! ! 4 4 ! ! # # 1 1 1 * @ @ & & , , > > > > ; ; > > | O ; ; | 6 & & * F # % @ @ 5 5 . . 5 5 % % # # % % % # # % $ $ # # $ $ @ @ . . . $ . . @ @ . $ ",
"    $ $ .   @ @ . $ @ @ . $ @ # @ % % % @ % % # @ % # % @ % $ $ & & . $     * *   . & = | ; | | > , > > , , , , ' ' & & % % 1 1 @ @ + + ! ! < < ! ! 4 4 W W +.+.8 8 1 1 k k k k 9 9 1 1 > > ' ' + + 3 3 & & [ [ w 9 9 9 w K K K K w r r t t w w X X w w o t w w t o t o o o X X o o X X o o t t v q o o t o t t t o X X o o o o u u v v D D u u D D D D Q Q D D I I u u D D D D D D D D Q Q I I D D D D I I D u D D v v D D u D Q Q U I I I D D u D u u D D u u U U D u I U D D U I D D u D D D C C u u w w l l & & w w v v o o o o o o o t } } o o X X w w D D D D R v q u v v u u D D D D u v u u o o D u D u u u u D u u u u u u v v D D v v I I D D I I D D I I D D U I D D I I D D u D v q q u u v D u v q u u o o u D v q u q t o o o o o o o o o v q o o v q o t t t t t v v o o v v X X o o o t t t X X t t X t t X 9 9 w w K K K w K K r r & & c c > > k k | | + + k k k k k k + # h h m m W W ! ! ! ! ! ! < < # # 1 1 # @ @ % = = > > , , ; ; > > | ; ; ; | ; | | 5 5 % % # % % # . . 5 5   . # # # % % # @ % $ $ $ $ $ $ # # . . $ $ . . $ $ . $ . . ",
"    $ $     @ @ $ $ @ @ $ $ # # @ @ % % @ % % # @ % # % @ % $ $ & & $ . .   * F   . = = ; | | O > > > > , , , , ' ' & & % % 1 1 @ @ # + ! ! < < ! ! 4 4 W W +.+.8 8 1 1 k k k k k r 1 1 > > ' ' + + 3 3 & & [ [ w 9 9 9 9 w K K 9 9 r r t t w w X X w w o t w w o o o o o t t t o o X X o o t t q u o o o o t t o o X X o o o o u u v v D D u u D u u u Q Q D D I I u u D D D D D D D D Q Q I I D D D u I U D u D D R v D D D D Q Q U I I I D D D D D u D D u u U U D u I U D D I I u D D D C D C D D u w w l l & & w w v v o o o o o o t o } } o o t t w w D D D D R v q u u v u u D u D D u v u u o o u D D u u u u u u D u u q u v R D D v v I I D D I I D D U I D D U I u D I I u D D D u v q u u v D u q q u u o o D D v q u q o o o o o o o o o o u q o o v q t t X t t t v v o o v v X X o o X X t t X t t X X X X t K 9 9 w K K K K w K k k & & c c > > k k | 0 # # k k r r k k # # h h m m W W ! ! ! ! ! ! < < # # 1 1 % # % % = = > > , , ; ; > > ; ; | ; | | | | 5 5 % % # % % % . . 5 5   . # # # % # # @ # $ $ $ $ $ $ # # . $ $ $ . . $ $ $ . . . ",
"$ $     . $ . . @ @ . $ @ @ @ % # % @ @ % % . $ # % @ @ % # . $       . $ $ 1 1 $ $ 6 | & = ; ; ; ; > , > > ' ' , , = = @ @ @ % ) ) # @ < < ! 4 < < ! ! W W +.+.8 8 s s k k r r k k # # 0 | r k [ [ 9 9 A A K K w 9 t t K K X X K K w w w w t t K K w w 9 w o t o t v v o o v v t t v v o t q q o t v v o o v v o o o o X X v v v v D u o o u D q q I C D C I I u u I I I I I I D D I I I I Q Q D D D D D D D D v v R v v v u u D D I I u D D D u u v u v v q u u D D u D R D D u D D D D D D D o o w w r r - - & & o o X X o t w w o o w w 0 0 } } o o - - o o v v u u v v u u o o v v v v D u v v u u u u u u R v u D R v u D v q u D t v D D D u I I u D D D D D Q Q D D u D u u D D u u u u o o D D D R u D v v R v v u u u t o o o o o o o o o q q o o q q o o o o t t t o o o v v t o X X w w o t 9 9 t o w w o o w w X t w 9 9 w w 9 9 9 ' A l l k k 9 k ' ' 0 0 1 1 k k k k k k 1 1 8 8 +.+.! ! ! ! ! ! < < 4 4 # % 1 1 * 1 @ @ & & , , > > O > ; | > > | ; ; ; 6 6 & & * F # % # @ 5 5 . . 5 5 % % # % # % $ $ # # $ . # # $ $ . $ . . $ $ . . @ @ . . ",
"$ $ .   $ $ . . @ @ $ $ # @ @ @ @ % # @ % % $ $ # % % # % % . $         . $ 1 1 $ $ 6 | & = ; ; ; ; , , > > ' ' , , = = @ @ % % ) ) % # < < ! 4 < < 4 ! W W +.+.8 8 s s k k k r r k # # | | k k A [ k 9 A A K K w 9 t t K K t X K K w w w w t t K K w w 9 w t o t t v v o o q v t t v v t t q q o o v q t o R v o o o o X X v v v v D u o o u D q q I C C D C I u u I I I I I I D D I I U U Q Q D D D D u D D D R v v q v v D D u D U U D u D D u u D u v v u u D D D D v R D D u D D D D D D D o o w w r r - - & & o o X X o t w w o o w w 0 0 0 } o o - - o t v v D D v v u u o o v v v v D u v v u u u u u u v v D D v v D D v v u D o q u q D u I I u u D D D D Q Q D D u D u u D D u u u u o o D D D D R u v v R v v u u u t o o o o o o o o o q q t o q q o o o t t t o o o o v v t o X X w w t t k 9 o o w w o o w w X t w 9 w w K K 9 K [ A l l k k k k ' ' 0 0 1 1 k k k k k k 1 1 8 8 +.+.! ! ! ! 4 ! < < 4 ! # % 1 1 1 * @ @ & & , , > > > , ; ; > > | ; ; ; 6 6 & & * * % % # @ 5 5 . . 5 5 % % # # % % $ $ # # $ . # # $ $ . $ . . $ $ . . @ @ . . ",
"    $ $ . . @ @ $ $ @ @ $ $ # # @ @ % % % @ @ % @ % # % % % $ $ = & . .     * F   . = = 6 | | | > > > > , , > , ' ' & & % % 1 1 @ @ + + 4 4 < < 4 4 4 4 W W ].].8 8 1 1 k k k k k k 1 1 > > ' ' r r A [ r r k r t t A A r r 9 K t X /./.X X w w w w K K o o X X o o X X o o X X q v o o v v o o o o w w o o w w o o X X o o o o v v R v v v X X v v u u u D u u D D u D I I u u D D u u I I D u D D v v D D v v R R R v u u u D D D D u u D u u D u R u u D D u u u q q u u v v u u v q u u o o q q + + + + r r } } w w o o o o o o X X t t 0 0 0 } + + ^.^.w w v v v v u u q v u u v v v v v v u u q v u u q v u u v v u u u D D u v v u u v v u u v v D D R v D u D D U I D D D D D u u D u u q D q q u R v o o o t o R v o o q v o t o o X X t o o o o o o o o o t t o o o o o t t t o o w w t t X X o t t X X X X X X X X X K K K K K 9 w w w 9 r r 9 w A A r r | | # # k k k k k k % % j j m m W W 4 ! < < ! ! < < # # 1 1 % % % % = = > > > , ; ; > > | ; ; | | ; 6 | 5 5 % % % # % % . . 5 5   . # # # % # % # # $ $ . $ $ $ # # . . @ @ . . @ @   .   . ",
"    $ $ . . @ @ $ $ @ @ $ $ # # @ % % % @ @ @ % @ @ % # % % $ $ & 5 . .     * F . . & = | | | | > > > > , , , > ' ' & & % % 1 1 @ @ + + ! 4 < < 4 4 4 4 W W ].].8 8 1 1 9 w A k k k 1 1 > > ' ' r r A A r r k r t t A A r r K K X X /./.X X w w w 9 K K o o X X t o X X o o X X q v o o v v o o o o w w o o w w o o X X o o o o v v R v v v X X v v u u D u D D D u D D I I D u u D D u I I D u D u v v D D v v R R v v u u D D D D D D u u D u u D u u D D u u u u q v u u v q u u q v u u o o q q + + + + r r } } w w o o o o o o t t t t 0 0 } } + + ^.^.w w v v v v u u v v u u v v v v v v u u v v u u q v u u v v u u u u D D v v u u v v u u v v u u v v D D D D U I u u D u u u u u u u D u q q u u o t o o o o v v o o v v o t o o X X t o o o o o o t o o X X t o o o o o o t o o w w t t t X X t t X X t X X X X X X K K K 9 9 w w w w 9 r r 9 9 A A r r | | # # k k k k k k % % j j m m W W ! ! < < ! ! < < # # 1 1 % % # % = = > > , , ; ; > > | ; ; ; | ; | | 5 5 % % % % # % . . 5 5   . # # # % % # # # $ $ $ $ $ $ # # . . @ @ . . @ @   . . . ",
"$ $     @ @ $ $ + @ $ $ @ @ @ @ % % @ @ % % $ . % % # @ % % $ $     . . $ $ 1 1 . $ 6 | | | > > | | , , > > ' ' , , = = @ @ % % ) ) # # < < ! 4 < < 4 4 W W +.+.h h # # k k k k k k # # | | A A A A r r A A r r A A A [ - - r r 9 9 X X K K X X K K X X w w o o w w o o X X o o o o v v o o o o o X o o w w o o w w o t w w o o o o q v t t X X t X D u v q q u u D D u D D u u v q D D D u I I v v v u v v u u v v R R v v D u u u D D u u D u D D D D u D D u v v D u D D D D v v u u u u u D o o X X k k k k & & l l w w t o o o o o w w - - 9 w w w o o u u o o u u o o D D u u D D t o v v v v v v v v u u v v q u o o u u o o u u o o D u v v u q v v u u D D u D u D D D D q D D D u u D v v q u o o o o o o q q o o v v o o o o w w o o o o q v o o o o o t t t o o o o o t t t o X X X w w X X w w X X K K X X X X X X r r 9 9 ....K K A A r r A ' ' ' ' ' | | 1 1 k k k k k k 1 1 8 8 +.+.! ! ! ! ! ! < < < < # # 1 1 @ @ # # & & ' ' > > > , ; ; > > | ; | ; 6 6 & & * * % % + @ 5 5 . . 5 5 % % # # % % $ $ # # $ . # # @ @ # @ . . $ $ . . @ @ . . ",
"$ $     % @ $ $ + @ $ $ @ @ @ @ @ % @ @ % % $ $ % % % # % % $ $     . . $ $ 1 1 $ $ 6 | | | > > | | , , > > ' ' , , = = @ @ % % ) ) # # < < ! 4 < < 4 4 W W +.+.h h # # k k k k k k # # | | A A A A r r A A r r A A [ [ - - r r K K X X K K X X K K X X w w o o w w o o X X o o o o v v o o o o t t o o w w o o w w o t w w o o o o q v t t t X X t D u v q u u D D u u D D u u v v D D D D I I v v v u v v u u v v u R R v D u q u D D D u D u D D D D u u D D v v u u D D D u v q u D u D D u o o X X k k k k & & l l w w t o o o o o w w - - 9 9 w w o o q u o o u u o o D D u u u D o o v v v v v v v v u u v v u u o o u D o o u u o o D u v v u q v v u u u D D D u u D u D q D D D D u u R v q u o o o o o o q q o o v v o o o o w w o o o o q q o o o o o t t t o o o o o t o o X X t X w w X X w w X X K K X X X X X X r r 9 9 ....K K A A r r A ' ' ' ' ' | | 1 1 9 k k k k k 1 1 8 8 +.+.! ! ! ! ! ! < < < < # # 1 1 @ @ # @ & & ' ' , > > > ; ; > > | | ; | 6 6 & & * F # % + @ 5 5 . . 5 5 % % # # % % $ $ # # $ . # # @ @ # @ . . $ $ . . @ @ $ . ",
"    $ $ . . @ @ $ $ # # $ $ + @ @ @ % % @ @ % % # @ % # % % $ $ & & % @     * *   . & = ; ; ; | ; ; > > , , , , ' ' & & % % 1 1 1 1 + + 4 4 < < 4 4 < < W W ].].8 8 1 1 k 9 r k k k 1 1 > > ' ' ' ' ' ' r r A A r r A A K K A A K K K 9 9 K K K X X K K w w w w t X X X o o t o R v o o R v t t o o o X o o w w o t w w o o K X v v o t v v t X v v q q u u v v R v v v u D D D u u u D D u v q u D v v u u u u u D o o R u u u I I D u u D u u D D u u D u u q v u u v U U D u D D v v u u v v q q o o o o k k } } w w o o o o o o X X t o 0 0 w w w 9 u u q v u q o o v v o o D u v v v v o o q v v v u u o o u u R v o o u u D u t o u u v v u u v v u u D u u u u u u C u u u D D D u u v q q u o o u u o o o o o o v q o o o o o t t t w w v q o o v q t o o o o t o o w w o o o o v v w w X X K 9 w w K K w w K K X X K K K 9 ....K K A A r r A A A A [ B A A | | # # k k k k k k s s 8 8 m m W W 4 ! < < 4 4 < < # # 1 1 % % % % = = > , , , ; ; > > | ; ; | | ; 6 | 5 5 % % % % % # . . 5 5 .   # # % % % # @ % $ $ $ $ . $ @ # . . @ @ . . @ @   . . . ",
"  . $ $ . . @ @ $ $ # # $ $ @ # @ @ % % % @ @ % # @ % # % % $ $ & & @ @     * F   . = = ; ; | ; ; ; > > , , , , ' ' & & % % 1 1 1 1 + + 4 4 < < 4 4 < < W W ].].8 8 1 1 k 9 k k k k 1 1 > > ' ' ' ' ' ' r r A A r r A A K K A A K K K 9 9 K K K X X K K w w o w X X t X o o t o R v o o v v t t o o t t o o w w o t w w X o K X v v t t q v X X v v v q q u u v v v v v D D D u u D D D D D v v u u v v D u D D u u o o R u u u I I D D u u D u D D u u D u q q u u u q U U D u D D v v u u v v u q o o o o k k } } w w o o o o o t t t o X 0 0 w w w w u u q v u q o o v v o o D D v v R v o o q v R v u u o o q u R v o o u u D D o o u u v v u u q v u u D D D D u D u u u u u D D D u u q q u q o o u u o o o o o t q q o o o o o t t t w w q q o o q u o o o o t t o o w w o o o o q v w w X X 9 w w w K K w w K K X X K 9 K K A A K K A ..r r A A A A B B A A | | # # k k k k k k s s 8 8 m m W W 4 ! < < 4 4 < < # # 1 1 % % # % & = > , , , ; ; > > | ; ; ; | | ; 6 5 5 % % % % % % . . 5 5 . . # # % % # # @ # $ $ $ $ $ $ # # . . @ @ . . @ @ . . . . ",
"$ $     # @ $ $ # # # @ @ % @ @ % % # @ % % $ $ # % # # % % $ $       $ $ $ 1 1 $ $ 6 | | O ; ; | | > , > > ' ' , > = = @ @ % % ) ) # # < < 4 4 < < 4 4 W W +.+.8 8 % % k k k k ' ' # # | | ' ' B B ' ' B [ [ A A [ 9 w A k r r A A K K r r 9 9 K K w w 9 w t t w w t o o o q v o o q v o o o o o o t o t t o o w w o t w w o o X t v v o o v v t t u D v v u u o o v v D u I I u u D D v v u u D D u u v q u u o o q v v v I I u u D u u u u u t o q v o o q v v v o o v v u u v v v v o o o o o o u u o o w w & & l l w w o o t t X X 9 w - - r r q q o t u u o t u q o o v v o o v v t X v v o t o o v v u u o o q u v v q u u D u u o t q v v v u u v v u u v v u D u u D D u u D u q u u q v u u u v q q u o o o o o o o t t t o o w w o t t t o o o o o o o t t t w w t t X X v v o o X X X X X X K 9 K 9 K K K 9 r r r r 9 9 K K K K A A A A A A [ B A A A ' | | 1 1 k 9 k k k k 1 1 8 8 +.+.! ! < < 4 ! < < < < @ @ 1 1 % @ # # & & ' ' , > > > | ; > > | | ; ; 6 6 5 5 * * % % @ @ 5 5 . . . . % % # % % % $ $ @ # $ $ # # @ @ # @ . . @ @ . . @ # $ . ",
"$ $ .   + @ $ $ @ # % @ # # @ @ % % # @ @ % $ $ % % # # % % $ $     . . $ $ 1 1 . $ 6 | ; | ; ; | ; , , > > ' ' , > = = @ @ % # ) ) # # < < 4 4 < < 4 4 W W +.+.8 8 % % k k k k ' ' # # | | ' ' B B ' ' B [ [ A [ [ 9 w A k r r A ..K K r r 9 9 K K w w w 9 t t w w t o o o q v o o v q o o o o o o o t t t o o w w o t w w o o X t v v o o v v X X u D v v u u o o v q D u I I R u u u v v u u u u D u v v u u o o q v v v I I u u u D u u u u o o v q o o v v v v o o q v D u v v R v o t o o o o q u o o w w & & l l w w o o t t X X 9 9 - - r r q q o t u u o t q q o o v v t o v q X X v v o t o o v q D u o o q u v v u u D u u u X X q v v v u u v v u u v v u u u u u D D u u D D u u u v v u u u q u u o o o o t o o o o t o o w w o t t t o o o o o o o t o o w w o t t X v v o o X X X X X X 9 K 9 K 9 K K K r r r r K K K K 9 9 A A A A A A A [ B A ' ' | | 1 1 k k k k k k 1 1 8 8 +.+.! ! < < ! ! < < < < @ @ 1 1 @ @ # # & & ' ' , > > > | ; > > | | ; ; 6 6 5 5 * * % % @ @ 5 5 . . . . % % # % % % $ $ @ # $ $ # # @ @ # @ . . # @ . . # @ $ . ",
"    $ $ . $ @ @ @ @ # # @ @ @ # @ @ % % @ @ % # % % % @ % % $ $ & 5 . . 5 & * F   . = = ; ; ; | ; ; > > > , , , , , & & % % 1 1 1 1 + + 4 4 < < 4 4 < < W W ].].8 8 1 1 k 9 k r r r 1 1 | | A ' ' A B > 9 w A A r r r r 9 9 ....K K A A K K ^ ^ K K X X X X K 9 t t X X v v t o q v o o q v o t t o o o o o o X X t w w o t t X q q o o v q o o t o o o o o t o u u R v u u q v u C u u D D u u u D u D u D v v u u R u u u v q u u v q D u v q u D t o R v o o v q o o R R v v v v o o v v w w q u w w o o r r } } r r t t w w w w w 9 K 9 & & w w w 9 u v v v o o o o q q o t u u o o o o t X o o o o q v X X u u q v v v o o u q v v v v v v q u v v u u R v u D u D D D D u u D v v R u u u o o o o u u o t q q q u u u w w o o w w l l w w l l l l o o l l o o w w o o o X q q o t v v w w t X w 9 w 9 K K 9 K 9 K K K A A K K K K K K ....A A K K r r r r ' ' | | # # ' ' r k ' ' 1 1 j j m m W W ! ! < < 4 4 < < # # 1 1 @ % % % = = , , , , ; ; > > | ; ; ; ; | ; |     % % % % # @ .   5 5 . . @ # # # $ $ # # $ $ # # $ $ # # . . # # . . @ @ $ .   $ ",
"    $ $ . . # @ @ @ @ # % @ # # @ @ % % @ @ % # % % % % @ % $ $ & & . . & 5 * *   . = = ; ; 6 | ; | > > > , , , , , & & % % 1 1 1 1 + + 4 4 < < 4 4 < < W W ].].8 8 1 1 9 k r r r r 1 1 | | A ' ' A > > 9 w A A r r r r K K A A K K ....K K ^ ^ K K X X X X 9 w t t t X v v o o v q o o v v t t o o o t t o o o t t w w t t X X q q o o v q o o o o o o o t t o u u R v u D v v I C u u u D D u u u D u u D v v u u u D D u q q u u q q D u v q u D o t v v t o q v o o R R R v v v o o q v w w u u w w o o r r } } r r t t w w w w w 9 K 9 & & w w w w v v v v o o o o v q o o u u o o o o X X t o o o v v X X u u v v v v o o u u v v v v v v q u v v q u v v u u u u D D u D D D R v R u u u o o o o q u o o q v u u q U w w t o w w l l w w l l l l o o l l o o w w o o X X q q o t v v w w t X w 9 9 w K K 9 K 9 K K K A ..K K K K K K A ..A A K K r r r r A ' | | # # ' ' r k ' ' 1 1 j j m m W W ! ! < < 4 4 < < # # 1 1 @ % % % = = , , , , ; ; > > ; ; ; ; ; | | O     @ % % # @ % .   5 5 . . @ # % # $ $ # # $ $ # # . $ # # . . # # . . @ @ . .   $ ",
"$ $     @ @ $ $ @ # $ $ @ # # @ # # @ @ # % % # # % @ % s % $ $       . . . 1 1 . $ | 6 6 O | ; ; | , , > > , , > > & & % @ @ % ) ) # # < < ! 4 < < 4 4 W W +.+.8 8 % % A A r r A A # # | | ' A B > ' ' A A r r A A K K K K K 9 9 K K K K K 9 9 K K t X 9 9 X X X X X X X X v v t o v v X t t o w w o t w w t t w 9 l l w w o o o o q q o o u u o o v q o o o o o o u u D D D D u u D C u u D q v v D D D u u u v v D D v q q u o o q u o o o o X X t o v v u u o o o o v q u u o o t o w w w w w w o o X X k k 3 3 9 w w w t t w w w w k r } } r r t o o o o o w w o o o o q v o o q v X X o o v v u u v v D u v v D u o o v v v v u u q v v v v R v u q v u u D D u u u D D u v v q u v v u u X X v v o o q v t t u u o o o o l l l l w w l l l l o o 9 w o o w w o o w w o o o o o o w w X X w w X X K K K 9 r r K K K K K K K K K K A A K K A A A A [ B A A A ' | | 1 1 k 9 ' ' r k 1 1 8 8 +.+.! ! < < ! ! < < < < @ @ 1 1 % @ @ @     , , > > > > ; ; > > ; | | ; = = & 5 * F # % % @     . . & 5 % % $ $ @ # $ $ # # . $ # # $ $ @ @ . $ # # $ . . . $ . ",
"$ $     # @ $ $ # # $ $ # # @ @ # # @ @ % @ # # % % % @ % % $ $   .     . . 1 1 $ $ | 6 6 O | ; | O , , > > , , > > & & @ @ # % ) ) # # < < 4 4 < < 4 4 W W +.+.8 8 % % A A r r A A # # | | ' A B B ' ' A A r r A A K K K 9 9 K K K K K K 9 9 K K K X X 9 9 X X X X X X X X v v o o v v X t o o w w o t w w t t w 9 l l w w o o o o q q o o u u o o v q o o o o o o D u R u D D u u D C u u u D v q D D D u u u o v D u q q u u o o q u o o o o X X o o v v u u o o o o q v u u o o o o w w w w w w o t t X k k 3 3 9 w w w t t w w w w k k } } r r o o o o o t w w o o o o q v o o q v X X o o v v u u v v u R v v u u o o v v v v u u v v v v v R v u q v u u u D D u u u D D o v D u R v u D X X v v o o q q X t u q o o o o l l l l w w l l l l o o 9 w o o w w o o w w o o o o o o w w X X w w X X K K K K r r K K K K K K K K K K A A K K ....A A [ B A A ' ' | | 1 1 k 9 ' ' r k 1 1 8 8 +.+.! ! < < ! ! < < < < @ @ 1 1 @ @ @ @     , , > > > > ; ; > > | | ; ; = = 5 5 * F # % % @     . . & 5 % % $ E # # $ $ # # $ $ # % $ $ @ @ . $ # # $ . . . . $ ",
"    $ $ $ . @ @ $ $ @ @ # @ @ # @ @ % % # # % % @ % @ @ % % @ @ & &   . 5 5 * F . . = = ; ; 6 | ; ; ; ; , , > > , ,     % % 1 1 1 1 + + 4 4 < < 4 4 < < W W ].].8 8 1 1 k r r r r K + + - - > > & 3 r r 9 9 ....K K A ..K K K 9 9 K ....K K K K K 9 9 K K w X X X X X X X t t t o o X X o o X t t X 9 K l l w w w 9 K 9 t t l l o o t t q q u q u u q v u u o o o o o o u u q u u C u u u u o o u u v q u u v v u u q v u u o o R v q q v u o o o o o o u u o o u D o o q u v v v v X X o o w w w 9 w w o o r r } } r r o t w w w w K K 9 K & & A A w w o t w w t X w w o o o o v q o o t o o X v v v v v v v v u u v v u u v v v v v v q u o o v v o o u u u u D u v v u D v v u u o o u u o o v v v v v q o o t o v q q u o o o o w w l l l l o t l l l l w w l l l l w w w w o o w w w w w 9 t X X X X X r r K K r r 9 9 K K K K K 9 9 K r r r r B B k k } } ' ' } } # # ' ' r k ' ' 1 1 8 8 m m W W 4 ! < < 4 4 < < # # 1 1 % @ % % = & > > > , > > > > O | ; ; | | 6 6     @ % % # # % $ $ . . $ $ # # % # $ $ # # $ $ # # . $ # # $ . # # . . $ $ $ . . . ",
"    $ $ $ . @ @ $ $ @ @ # @ @ # @ @ % % @ % @ % % @ @ @ % % % @ & &   . 5 5 * * . . = = | ; ; | ; ; ; ; , , > O > ,     % % 1 1 1 1 + + 4 4 < < 4 4 < < W W ].].8 8 1 1 k r r r r r + + - - > > & 3 r r 9 9 ....K K A A K K K K K 9 ....K K K K K 9 9 K K w X X X X X X o t o t t o o X o o X X t o 9 K l l w w w w 9 K t t l l o o t t q q q u q u q q u u o o o o o o u u u u C u u u u u o o u u v v u u v q u u v q u u o o R v q q q u o o o o o o u q o o u D o o q u v v v v X X o o w w w 9 w w o o r r } } r r o t w w w 9 K 9 9 K & & A A w w o o w w X X w w o o o o v q o o o t X X v v v v v v v v u u v v D u v v v v v v u R v o v v o o u q u u D u q v u D v v u u o o v u o o v v v v v q t o o o v q q u o o o o w w l l l l o o l l l l w w l l l l w w w w o o w w w w w 9 t X X X X X r r K K r r K K K K K 9 9 K K K r r r r B B k k } } ' ' } } # # ' ' r k ' ' 1 1 8 8 m m W W 4 ! < < 4 4 < < # # 1 1 % @ % % & & , > , , , > > > | ; ; ; ; | 6 6     % % % # @ % . $ . . . $ # # % # $ $ # # . $ # # . $ # @ . . # # . . $ $ . . . . ",
"$ $ . . # @ . . # @ $ $ @ # # @ @ # @ @ # % % % % @ @ % @ % . $           $ 1 1 $ $ 6 6 | | | ; ; | > > > > , , , > & & @ @ @ % ) ) # # < < 4 4 < < 4 4 W W +.+.j j s s ' ' r k ' ' # # | | A ' + + - B & & A A A [ 9 K K K 9 9 K K K K K K K 9 9 K K K K K X X t X X X X X t o o X X X w w o t w w o t w w o t w w t o w w t o t t q q o o q v o o u u q v u q o o o o o o u q v v u u v v u u q v D D D u u D o o u u t o q q u q u u v q t o o X q v o o R u u q q v t o v v X t o o o o o o w 9 K 9 K k w w & 3 9 9 w w o t w w w w k r } } [ [ 9 9 K 9 t t w w o o X X t o o o v v o X o o X X v v o t v v t o D u q v u u o o q u v v u u o o u v v v D D v v u u o t v v t o q v o o q v o t q q o o o o w w o o o o o o w w l l l l o o l l t o w 9 l l w w o o w w o t w w t X K K X X w w X X 9 9 K 9 r r 9 9 K K K 9 K 9 K K r r 9 9 ....0 0 } } x x [ [ | | 1 1 k k ' ' r k 1 1 h 8 +.+.! ! < < ! ! < < < < @ @ 1 1 @ @ @ %     , , > > > , ; ; | ; = = | | = = & 5 * * % % % @     $ $ . . % % $ $ # # . $ @ # $ $ # # . $ # # . $ @ @ $ . . . $ . ",
"$ $ $ . # @ . . @ @ $ $ @ # @ @ # # @ @ # % % % @ @ % % % % $ $           . 1 1 $ $ 6 6 | | | ; | O > > > > > , , > 5 & @ @ @ % ) ) # # < < 4 4 < < ! 4 W W +.+.j j s s ' ' r k ' ' # # | | ' ' + + - B & & A A A A K K K K K K 9 9 K K K K K K K K 9 9 K K X X X X X o o t o o t X X X w w t t w w o t w w X t 9 w X t w w o o t t q q o o q v o o u u q v u q t o o o t o u u v v u u v v u u v v D u q u u D o o q u t o q q q v u u v v t o o X q v o t D D q q v v t o v v t t o o o o o t w 9 K 9 K k w w & 3 9 w w w t t w w w w k r } } A [ w 9 9 w t o w w o t t X o o o o v q o X o o t t v v o t v v t o D D v q q u o o u u v q u q o o v q v v D u v q u D o o q v o t R v o o q v o o q q o o o o w w o o o o t o w w l l l l t o l l t o w w l l w w o o w w o o w w X t K K X X w w X X K K w 9 r k K K K 9 9 K K K K K r r 9 9 ....0 0 0 } x x [ [ | | 1 1 9 k ' ' r k 1 1 h 8 +.+.! ! < < ! ! < < < < @ @ 1 1 @ @ @ %     , , > > > , ; ; ; | = = | | = = 5 5 * F % % @ #     $ $ . . % % $ $ # # $ $ # # $ $ # # . $ # # . $ @ @ . $ . . $ . ",
". . # @ $ . % # $ $ # # $ $ # # @ @ % % % % @ % % % @ % % % @ @ & &   . 5 5 * F . . & & ; ; | 6 ; ; | ; , , > > , ,     # % 1 1 1 1 + + 4 4 < < 4 4 < < W W ].].8 8 1 1 ' ' ' ' r r 1 1 | | ' ' a a . . B B ' A r r A A K K A A K K ..A K K A A K K K K 9 K 9 K t t w w X X w w X X w w X X 9 9 t t w w X t w 9 X t w w l l l l t o o o v q o t u q t t q q q q u q o o o o o t v q o t u u o o u D q u u u v q D D o o q u v v u u t o q q o o o o w w o o o o o o w w o o X X t X X X o o X t w w w 9 r k } } & & r r t t w w w 9 K 9 9 9 & & A [ r r r r w w o t w w t o o X q o o X q o X X o o X t v v o o q v o o v v o o D u o o v v X X o o t o v q o o q v v v v v t o R v X X v v o o o o o t o t w w w 9 t o o X t o t o w w o o l l o o l l l l w w l l l l o t t o w w w w 9 w w w X X K 9 w w K K K K A A K K K K K K r r 9 9 k r r r 3 3 & & A [ ' ' & & # # ' ' k k ' ' 1 1 8 8 m m W W 4 ! < < 4 4 < < # # 1 1 @ % @ @ & & > > > , > > O > ; | | O & & 6 6   . % % * * % @ $ $ . . $ $ # # # # $ . # # $ $ # # $ $ # # $ $ # #   . $ $ . . $ . ",
". . @ @ $ . % # $ $ # # $ $ # # @ @ % % % % @ % % % % % @ % @ @ & &   . 5 5 * F   . & & ; ; | ; | ; ; ; , , > > , ,     % % 1 1 1 1 + + 4 4 < < 4 4 < < W W ].].8 8 1 1 ' ' ' ' r r 1 1 | | ' ' a a . . B B A A r r A A K K A A K K A A K K A A K K K K 9 K 9 K t t w w t t w w o t w w t X K 9 X t w w t t w w o t w w l l l l o o o o v q t o v q o t u q q q u q o o o o o o v q o t u u o o u D D u u u v v C u o o u u q v u q o o v v o o o o w w t o o o o o w w o o X X X X X X o o X X w w w 9 r k } } & & r r t t w w w w 9 K 9 9 & & A [ r r r r w w o o w w o o o X q o X t t o o X o o X X v v o o v v o o v v o o u u o o v v X X o o o o v q o o q v v v v v o o R v X X v v o o o o o t o o w w w w t o o X t o o o w w o o l l o o l l l l w w l l l l o t t o w w w w w 9 w w X X K K w 9 K K K 9 ....K K K 9 9 K r r K w r r r r 3 3 3 & [ [ A ' & & # # ' ' k k ' ' 1 1 8 8 m m W W ! ! < < 4 4 < < # # 1 1 @ % % @ & & O > - , > > O > | ; | | 3 = 6 6 . . # % * * % % $ $ . . . $ # # # # $ . # # $ $ # # $ $ # # $ $ # # . . $ $ . . $ . ",
"# # $ $ # # % @ @ % @ @ # # @ @ # # # @ @ % # @ @ % % % % % $ $ . .       $ 1 1 $ $ 6 6 = = | ; | O > > > > > , , > & & @ @ # % ) ) # # < < ! 4 < < 4 4 W W +.+.8 8 1 1 [ [ A [ ' ' # + & & A ' ' A k k k k k k K K K 9 9 K K K r r K K r r K K K K 9 9 K K t t K X o t w w X X 9 9 t X K 9 w w K K w w w 9 l l w 9 o t w w o o X X v q o t t o o o o o o t v q o t v q t o v q o t u u o o q q v v u u q v v v t o v q o o u u o o o o o o q u o o X X k k t t X X t o X X t o t t t o o X o o w w + + + b r r 3 3 k k w w X X 9 w w w k k } } # # + + + b w w w 9 o o X X t o X X o o w w o o X t o o X X q v t o o o q v v v X t o X o o v v o o q v v v u u v v u u o o v v o o o o o t v v o o v v w w o t w w o o o t q q o t t o l l o o l l l l k k w w w w l l w w o o w w t t w w w 9 K 9 9 9 K K w w r r 9 9 ....K K r r 9 9 r r r r A A K K r r r r B B | | 1 1 k k ' ' 9 9 * * h h +.+.! ! < < ! ! < < < < @ @ 1 1 1 1 % %     , , > > , - ; ; | ; = = | O & & 5 5 * F % % 1 1     . $ . . # # # # @ % $ $ # # $ $ # # # @ % % % # # @ $ $ # # $ . ",
"# # $ $ # # # @ @ % @ @ # # # @ @ # @ @ # % @ % % @ @ % # % $ $ . .     . . 1 1 $ $ 6 6 = = | ; | | O > > > > , > > & & @ @ @ % ) ) # # < < 4 4 < < 4 4 W W +.+.8 8 1 1 [ [ [ A ' ' # # & & A ' A A r r r r 9 9 K K K 9 K K K 9 r r K K r r K K K K w 9 9 K X t t X o t w w X X 9 K l X K 9 w w 9 w w w K 9 l l w w o t w w o o X X u q o t t o o o o o o t q u o o q q o o v q o o u u o o q q v v u u v v v v t o v q o o q u o o o o o o u u o o X X K K t t X X t o X X o o X X o o X X t o w w + + + b r r 3 3 k k w w X X 9 w w w r r } } + + + + + b w w w w o o X X o o X t w o w w o o X X o o X X q v o o o o v q v v X t o X t o v v t o v v R v u u v v D D o o q v o o t o o o q v o o q v w w o t w w o o o t q q o t o o l l o o l l l l k k w w w w l l w w o o w w t t w w w w K K 9 9 K 9 K w r r 9 9 ....K K r r K K r r r r A A K K r r r r B B | | 1 1 k k ' A 9 9 * * h h +.+.! ! < < ! ! < < < < @ @ 1 1 1 1 % %     , , > > , - ; ; ; | = = ; | = = 5 5 * * % % * 1     $ . $ . # # # # % % $ $ # # $ $ # # # # % % # # % @ $ $ # # . . ",
"@ @ @ % @ @ % % # % % % # # % % @ # % % % @ % % % % % % @ % # # .   . . 5 5 * * $ $ & = | | ; | ; ; ; ; > > > > > ,     # # 1 1 1 1 + + 4 4 < < 4 4 < < W W ].].8 8 1 1 [ [ A [ ' A 1 1 | | [ [ A ' ' ' 9 k A A r r A A r r A A K K A A K K A A 9 9 K K K 9 9 w o t t X X X w w w w w 9 w w K K w w 9 9 w w 9 9 l l w w l l l l t t o o o o o o u q t o o X o t u q o o o o o o u u o o v q o o u u v v v u o o o o o t v v t o v q o o o o X X o t 9 w X t t X o o w w o o X X t o X X v v X t o t w 9 w w A A & & r r X X w w w w w 9 K 9 & & A [ + + w w w 9 o o w w o o w w o t w w t X w w X X 9 9 X X X X o o X X q u o o o o X t R v o o q v t o u v R v u u o o v v t o v v X X o o o o o o t X o o t t t t w w o t w w o o w w o o w w l l w w w w K k w w k k w w k k t t w w t o w w /.w r r w w K K K K r r 9 9 K K K 9 A A r r A [ r k [ [ A ' ' ' ' ' & & # # ' ' r k ' ' 1 1 8 8 m m W W ! 4 < < 4 4 < < # # 1 1 % @ @ @ & & , > , , > > > , | ; | | 3 = 6 6 . . * * * * % % $ $ $ . % @ . $ % % # # % % % # % % % # % % % # @ % $ $ # # $ $ @ # ",
"# @ @ % @ @ % % % # % % % # % % @ # % % % @ % % % % % % % @ @ %     . . 5 5 * F $ $ = & | | | 6 | ; ; | > > > > > ,     # # 1 1 1 1 + + 4 4 < < 4 4 < < W W ].].8 8 1 1 [ [ [ [ A [ 1 1 | | [ [ ' ' ' ' k k A A r r A A r r A A K K A A K K A A 9 9 K K K K 9 w o t t X t t w w w w 9 w w w K 9 w w 9 9 w w 9 K l l w w l l l l o t o o o o o t q q X t t o o X q q o o o o o o u D o o q v o o u u q v u q o o o o o t v v o o q u o o o o X X o o 9 w X t t X o o w w o o X X o o X t v v t t o t w 9 w w A A & & r r X X w w w w w 9 K 9 & & [ [ + + w w w w o o w w o t w w t o w w o t w w t X 9 9 X X X X o o X t v u o o o o t X R v X o q v o o q v v q u u o t q v t o v v X X o o o o o o X X X o t t t t w w t t w w o o w w o o w w l l w w w w K k w w K k w w r r t t w w t o w w w w r r 9 w K K 9 9 r r 9 9 K K K 9 A A r r A [ r k [ [ A ' ' ' ' ' & & # # ' ' k k ' ' 1 1 8 8 m m W W ! 4 < < 4 4 < < # # 1 1 % @ @ % & & , > , , > > O > | | O & 6 = 6 6   . * * * * % % $ $ . . % @ . $ % % # # @ % % # % % % # % % # # @ % $ $ # # $ $ # # ",
"# % % # % % % # @ @ % @ @ @ @ % % % % # % % % # 1 1 % % 1 1 % % # # . . $ $ 1 1 @ + 6 6 = = ; ; | | > > ; ; > > ; ; & & % % % % ) ) + + < < ! 4 < < 4 4 W W +.+.8 8 1 1 > > ' ' [ [ x x & & A ' ' ' r k ' ' k r ' A 9 r ....A A A A A A A A r r A A A ......w w K k w w 9 K l X r r 9 9 r r r r r r w 9 k 9 l l w w l l w 9 l l 9 w t t o o q v o t t o w w t t X X o o X o o o o o t o o t o o o o D u o o o o o o o o o t o t w X o o w w w w w 9 w w w w o t w w X X w w X X K K X X X X o o w w o o w w ' ' & & k k w w X X w w w w k r } } [ [ 9 w w w o o w w w w 9 w X X w w X X w w X X 9 w K K K 9 X X K K X X w w o o o o q v X t o X t t w o X X o o X X v v o o o o t X o o w w o o w w o o w w t o 9 w t o K 9 9 w r r w w w w l l w w 9 w k k k k ' ' k k k k r r 9 w w w 9 9 w w r r r r A ..r r A ..A A A A r r [ [ A A B B ....r r ' A > > ' A > > | | 1 1 k k ' ' r k F F h h +.+.! ! < < ! ! < < < < % @ 1 1 1 1 % %     , , > O > > ; ; ; ; = = | O = = 5 5 * * % % 1 1 . . # # $ $ % % # # % @ # # # % % # % % # @ % % @ # % @ # # + # $ $ ",
"% % # # % % # # % @ # # % @ # # # % @ # # % % # 1 1 % % 1 1 % % # # . . . $ 1 1 @ + 6 6 = = | ; | | > > | ; > > ; ; & & @ % % % ) ) @ + < < 4 4 < < 4 4 W W +.+.8 8 1 1 > > ' ' [ [ x x & & A ' ' A k r ' ' k r A A r r ....A A A A A A A A r r A ..A ......w w K k w w 9 9 X t r r 9 9 r r r r r r w 9 k 9 l l w w l l 9 K l l w 9 X t o o q v o t t t w w X t t X o t t t o t o o o t o o t o o o D u o o o o o t o t o o o o t X o o w w w w w K k w w w o t w w X X w w t X K K X X X X o o w w o o w w ' ' & & k k w w X X w w w w k r } } [ [ w w w 9 o o w w w 9 w w X X w w X X w w X X K K K 9 9 K X X K K X X w w o o o o v v t X o o X X o o X t w o X X v v o o o o X X t o w w o t w w t o w w o o 9 w o o 9 9 w w r r 9 w w w l l w w w w K k k k ' ' k k k k r r w w w w K 9 w w r r r r ....r r A A A A ....r r [ [ A ..B B ....r r A A > > ' ' > > | | 1 1 k k ' ' r k F F h h +.+.! ! < < ! ! < < < < @ @ 1 1 1 1 % %     , , > O > > ; ; ; ; & = | | = = 5 5 * * % % 1 1 $ . @ # $ $ @ % # # % % # # % % # % % % @ # @ % @ # % % # # # # $ $ ",
"# # @ % @ % @ # # # # % % # # % @ # # % % # 1 1 % % 1 1 # % 1 1 % @ @ % . . * * $ $ = & | ; | | ; ; ; | > > - - > >     @ # 1 1 1 1 @ @ < < < < 4 4 < < W W ].].h h c c ' ' ' ' ' ' c c & & | | > > 0 0 - - > B B B B B B B B > [ [ > > [ [ B > B B B - [ [ > B r r A ' r r r r r r A [ [ A [ [ [ A r r 9 w r r K K r r r r k r w w 9 w t t w w o t w w t X w w l l w w l l w w o o l l o o l l o o o X o o l l o t X X t o w w o t 9 K 9 K k r w w k k k k w w w 9 r A w w k k 9 w w w X X 9 r l l r r 9 9 > > & 3 A A K K r r K K A A A ' & & A ' k k l l k k w w k K t o K 9 9 w o t o t w w w 9 r k 9 K 9 r k w w r w 9 w w o o w w o w w 9 t t w w o o o X o o l l l l k r w w r r r r w w l l w w o o l l w w r r r r r r A A r r w w k k k k k r k k ' ' A ' ' A k r [ [ r r r r r r A ..A [ A B B [ 0 0 - B - - - A - - [ [ - B B [ > B B ..> > > > | | 0 | & & 1 1 ' ' ' A > > s s 8 8 +.+.W W 4 ! < < 4 4 < < # # ) ) % % % % & & , > , , ; ; > > | | | O | | O & & . 1 1 1 1 % @ @ # # # % s s % 1 1 @ % % # # # % @ + @ # % # # s % % # % % @ @ # % ",
"# # % @ @ # # # # # # % s # # % # @ % % @ # 1 1 % @ 1 1 # % 1 1 % @ @ % . . * * $ $ & = | | | ; ; ; | | > > - - > >     @ # 1 1 1 1 @ @ < < < < 4 4 < < W W ].].h h c c ' ' ' ' ' ' c c & & | | > > 0 0 - B B B B B B B B B B > [ [ > > [ ..> > B B B - [ [ > B r r ' A r r r r r r A ..A ..[ [ A ' r r 9 w r r 9 9 r r r r r r w w 9 9 X t w w o t w w t X w w l l w w l l w 9 o o l l o o l l t o t t o o l l o t X X o t w w o t 9 9 K 9 r r w w k k 9 w w w K w A A w w k k w w w w o t r r l l r r K K > > & 3 A A K K r r 9 9 ....' ' & & ' ' r k l l k 9 w 9 /.9 t t k 9 w w o t o o w w w w r r 9 9 r r w w r k 9 w w w o o w w o w w w t t w w t o o X o o l l l l k k /.w r r r r w w l l w w o o l l w w r r r r r r A A r r w w K k k 9 r k k k ' ' A ' ' ' r k ' [ r k r r r r A ..A A B B [ B 0 | B B - - B B - - [ [ - B [ [ > B [ [ > > > > | | | | & & 1 1 ' ' ' A > > s s 8 8 +.+.W W ! ! < < 4 4 < < # # ) ) % % % % & & , > , , ; ; > > | ; | | | O | | . . 1 1 1 1 % @ @ # # # s s % % 1 1 @ % % # # # % @ # # # % # # s % % # % % + @ # % ",
"# # # # # # . $ # # % @ # # @ @ % @ # # @ % # # 1 1 % % * * 1 1 1 1 + @ $ E * * # # | | | ; | ; | | > > - - > > | | & & % % # % 2 2 # # n n 4 4 < < W W 4 4 +.+.8 8 1 1 ' ' ' ' > > # # | | ' ' > > [ [ > B B B B - [ [ > > > > > [ [ [ [ B ' ' > > > > 0 - B [ [ A A [ [ [ A A [ [ A A A [ B A B B ....[ [ A ' [ [ A A [ A B A [ [ r r [ [ A A [ [ r r r r r r ' ' ' ' ' ' k k ' ' k r r r r r r r r r ..A r r ' A 9 9 r r r r [ [ ' A [ [ A A ' A A ' A [ [ A A A r r A [ [ [ ..A r k [ [ [ A [ [ ' ' B > 0 - & & r r k k k k k k K k k k 6 6 6 | > > > > ' ' A A r r r r r r A A r r r r K K r r r r [ [ k r [ [ ' A [ [ k r A [ r k r r r r [ [ r r r r w w r r w 9 r r r r A ' r r [ [ A ' r r r r A ' r k r r r r A ' r r A [ ' A ' ' r r ' A A A [ [ A ' B B ....' ' ' ' [ [ A [ ' A A A [ B B B B - [ [ B B [ [ B B B B B - [ B B > [ [ ' ' ' ' > > > > | | | | 1 1 ' ' ' ' ' ' 1 1 8 8 ].].W W ! ! 4 ! < < < < + + 1 1 1 1 % #     > , , > > > | ; | ; = = ; ; | = = & * * % % 1 1 @ @ # % # # 1 1 @ % 1 1 @ % 1 1 # % # % @ @ @ % # @ @ # $ $ % % @ @ ",
"% @ # # # # $ $ # # # @ # # # @ @ % # # @ % # # 1 1 @ % * * 1 1 1 1 % @ E E * * # # 6 6 6 | ; ; ; | > > - - > > | | & & % % # % 2 2 # # n n 4 4 < < W W 4 4 +.+.8 8 1 1 ' ' ' A > > s # | | A ' > > [ [ > > [ B B - [ [ > > > > B B ....> B ' ' > > > > 0 - [ [ B [ A A [ A B A [ [ A A [ B A B B B ....[ [ [ A [ [ A A [ A B A [ [ r r [ B [ A A [ r r r r r r ' ' ' ' ' ' k k ' ' r r r r r r r r r r ..A r r A A k k r r r r [ [ ' A ..[ ' A ' ' A ' [ [ A A A A r r A [ [ [ [ A r r [ [ [ A [ [ A ' B > 0 - & & r r k k k k k k K k k k 6 6 | | > > > > ' ' A A r r r r r r A A r r r r K K r r r r [ [ r r [ [ ' ' [ B r r A [ r k r r r r [ [ r r k r w w r r k k r r r r ' ' r r [ [ A ' r r r r ' ' r k r r r r ' ' r r A [ A A ' ' r r ' ' ' A [ [ A ' B B A A ' ' ' ' [ [ [ A [ ' A A B B B B B - [ B B B [ [ - [ > B B - B B B > [ [ A ' ' ' > > > > | | | | 1 1 ' ' ' ' ' ' 1 1 8 8 ].].W W ! ! 4 ! < < < < + + 1 1 1 1 # #     , , > > > > ; | ; ; = = ; ; | | & & * * % % 1 1 @ @ % @ % # 1 1 % % 1 1 @ % 1 1 # % % % # @ % @ @ @ @ # $ $ @ % @ @ ",
"1 1 1 1 @ @ 1 1 % % 1 1 @ % 1 1 % % # % @ # # % s # % % # # % % # # 1 1 % % c c $ $ & & 6 | ; | > > | ; > > ; ; > >     % # 1 1 1 1 @ @ < < < < 4 4 < < W W +.+.h h 1 1 ' ' ' ' ' ' 1 1 [ [ ' ' r k ' ' A A r r w 9 A ' r k r r K 9 9 r w w k K w w k k 9 k 9 w w w K k k k r r w w /.w X X K K w w k r w 9 k k w w k K w w k k l l w w w w K k k 9 r r K K r r w 9 r r 9 9 K K K 9 K 9 w w w w X X 9 w K 9 r k K 9 K 9 w w K k k 9 k k w w k k k k ' ' ' ' ' ' k r r r r r ' ' A [ [ [ ' ' > B A ' B [ A ' > > & 3 A A 9 w A k r r k r 9 k 5 5 > > ' ' ' ' > B [ A [ [ k r [ [ A ' ' ' r k ' [ k k k k k k K k r r ' ' w w k r w w K k w w w w l l 9 k w w w w w 9 r k w w r r w w w 9 w 9 r r w w w w w w w 9 o o w w X X 9 w l l w 9 w w w K 9 w 9 w w w r r K K r r w w 9 9 K K r r 9 9 K K w w r r w w w 9 9 9 r r 9 w A k w w w 9 K 9 A A r r r r r r A ' k k > > # # ' ' ' ' ' ' s s j j +.+.< < ! ! < < 4 4 < < # # ) ) @ % # % & & > > > , ; ; > > | ; | 6 | ; | 6 5 5 % @ 1 1 @ % @ @ # # % s # # % s # % 1 1 @ % 1 * # % 1 1 @ % 1 1 % % @ @ % @ @ @ ",
"1 1 1 1 @ @ 1 1 % % 1 1 @ % 1 1 % % # % @ # % % # # # % % # % % # # 1 1 @ % c c $ $ & & 6 6 | ; > > | ; > > ; ; > >     % # 1 1 1 1 @ @ < < < < 4 4 < < W W +.+.h h 1 1 ' ' ' ' ' ' 1 1 [ [ ' ' r k ' ' A A r r w 9 ' ' r k r r k 9 9 k w w k K w w k k 9 9 9 w w w K k k k r k w w /.w X X K K w w k k 9 K k k w w 9 9 w w 9 k l l w w 9 w r r 9 K r r K K r r w 9 r r 9 9 K K K 9 K 9 w w w 9 t X 9 K 9 K k r 9 K 9 K w w r r 9 9 r k w w K k k 9 ' ' ' ' ' ' k k r r 9 k ' ' A A [ A B ' > > A ' [ [ ' ' > > & & A [ 9 w A k r r r r k k 5 5 > > ' ' ' ' B > A [ [ B r r A [ A ' ' ' r k ' [ k k k k k k k K r r A ' w w k r w w r r w w w w l l k k w w w w w w r r 9 w r r 9 w w 9 w w k k 9 w w w w w w 9 o o w w X X w w l l w 9 w w K k w w 9 9 w w r r 9 k r k w w w 9 9 w A k r 9 K 9 w w r r w w 9 9 K 9 r r w 9 r r w w k k 9 9 A ' k k k k r r ' ' r k > > # # ' ' ' ' ' ' s s j j +.+.< < ! ! < < 4 4 < < # # ) ) % @ % % & & , > , , ; ; > > | | ; | 6 | | ; 5 5 % @ 1 1 @ % @ @ @ # % s # # s s s % 1 1 % % 1 * % % 1 1 @ % 1 1 % % @ @ % @ @ @ ",
"# % @ # # @ # # 1 1 % % 1 1 @ % 1 1 1 1 1 * * 1 1 * * 1 * * 1 * * * # % * * * * # % 6 6 6 | ; ; 6 | > > - - > > | ; & & @ % % @ 2 2 # # n n 4 4 S S 4 4 4 4 +.+.8 8 1 1 ' ' ' ' ' ' # # > > ' ' ' ' ' ' ' ' ' A A A A A A A r r k k w w k k 9 w A k r 9 k k w w w w w w k K w w w w X X K K 9 w w w w 9 w w t t w w o t /.w X t w w o t w w w w w 9 w w w w X t w w t t w w X t X t t t k 9 X t w w o t w w X X t t o o o t t o w w l l w w l l l l t t w w l l l l p p l l l l w 9 l l 9 k l l w 9 k k k k w w & & r r k k k k k k k K ' ' & & k k k k k r 9 k A A r r ..[ k r 9 w X X 9 w l l l l t o w w l l k r l l l l o o l l o o l l p p l l p p o o o o w w o t w w /.w 9 w t t w 9 o o /.w o o X X t o w w w w 9 w X t t X t o t t o o w w o t 9 9 l l 9 w k k k k k w r r 9 9 K K w w w w w 9 r A r r r r w w 9 w w w K 9 w 9 r r r r A ..k k ' ' r r ' ' B > # # ' ' ' ' ' ' 1 1 8 8 ].].W W < < 4 ! < < < < @ + ) ) 1 1 @ #     , , > > > > | ; | ; = = | | & & & & * * % % 1 1 % @ 1 * * 1 * F 1 1 * * % % 1 1 % @ @ @ @ % % % # % % # @ @ # # $ $ ",
"# % + @ @ @ % @ 1 1 # % 1 1 % % 1 1 1 1 1 * 1 1 * 1 1 1 * 1 1 1 * * # % * * * * # # 6 6 | ; | ; | | > > - - > > | | & & % % % % 2 2 # # n n 4 4 S S 4 4 4 4 +.+.8 8 1 1 ' ' ' ' ' ' # # > > ' ' ' ' ' ' ' ' A A A A A A A A k k k k w w k k k k k k K k k k w w w w w w k k 9 w w w X t 9 9 w w w w 9 w w w t t w w X t w w t X w w o t w w w w K K w 9 w w t t w 9 X t w w X t t X X X k 9 X t w w o o w w o t t t o o o t t o w w l l w 9 l l l l t t w w l l l l p p l l l l w 9 l l 9 k l l w 9 k k k k w w & 3 9 k k k k k k K k k ' ' & & k k k k k k k k [ A 9 k [ [ k r w w X X 9 w l l l l o o w w l l 9 k l l l l o o l l o o l l p p l l p p o o o o w w o o w 9 w w K K t t w w o o w w o o X X t o w w w w w 9 t X X t o o X X o o w w t t 9 9 l l 9 9 r k K r w w k k 9 9 9 w w w K w w w A A r r r r w w 9 9 w w K k w w 9 r r r ..A r k A ' r r ' ' B > # # ' ' ' ' ' ' 1 1 8 8 ].].W W < < 4 ! < < < < @ + ) ) 1 1 % #     , , > > > > | ; | ; = = ; | & & & & * * % % 1 1 @ @ * * 1 * F F 1 1 * * % @ 1 1 % % # @ @ % % % % # % % # @ # # $ $ ",
"$ $ # # . $ # # . $ # # # % s # % @ @ % % @ 1 1 % % * * 1 1 * * @ % 1 1 x 1 F * 5 5 5 5 6 | & = > > | | > > ; ; > >     @ # 1 1 1 1 @ @ < < < < 4 4 < < W W +.+.h 8 1 1 ' ' ' ' ' ' # # > > > > # # A A A A B B k r A ..k k ' A A A A A A A 0 0 r r 9 w w 9 r k w w w w 9 w r r 9 w r r A ..A ..9 w A k w w r r r r r r r r r r K K - - 9 w K K t t w w l l l l w w l l l l ' ' r k A ' w w r r X X w w o o X X o o w w k r k r w 9 w w l l w 9 l l 9 k l l ' ' k 9 l l l l w 9 l l r r l l r r l l k k k k k k | | A ' k k k k k k r r ' A 5 & k k ' ' A ' ' A k r k k k k k k l l r r w w A A t t X X q q w w o t t X o o w w r r ' ' l l w k t l w w l l l l l l w w w w w K k k 9 w o t w 9 o o w w o t t l l l r r A ' r r l l l l t t l l o t 9 K l l B B w w > > 9 9 K 9 K k r 9 k k k k k k A A > > [ A | 0 k k w w k k 9 9 r k K 9 k k k k ' ' l l & & A ' | | # # > > ' ' > > s s j j +.+.< < 4 ! < < ! 4 < < + + ) ) % @ # % & & > > , , ; ; > > | ; | 6 | | | ; 5 5 1 1 * * 1 1 1 1 1 1 1 1 % % s s % # # # E E # # . . E $ . . $ E $ . $ $     $ $ ",
"$ $ # # . $ # # $ $ # # # % s # % @ @ % @ % 1 1 % % * * 1 * * * + @ 1 1 x 1 * * 5 5 5 5 6 | & = > > | | O > ; ; > >     @ # 1 1 1 1 % @ < < < < 4 4 < < W W +.+.8 8 1 1 ' ' ' ' ' ' # # > > > > + + A A A A B B k r A ..k k [ A A A A A A A 0 0 k r w w k k 9 r w w w w w w r r w w k k [ [ A [ 9 w A k w w r r r r r r r r K r K K - - 9 w 9 K t t w w l l l l w w l l l l ' ' r k ' A w w r r X X w w o o X X o o w w r r r r 9 w w w l l w 9 l l k k l l ' A 9 9 l l l l w 9 l l k k l l r r l l k k k k k k | | A ' k k k k k r r r ' A 5 & r r ' ' ' ' ' ' r r k k k k k k l l k k w w A A t t t X q q w w o t t X t t w w r r ' ' l l 9 9 l l w w l l l l l l w w w w 9 K 9 K w w o o w 9 o o w w X t l l l l r r ' A r r l l l l t o l l o t 9 9 l l B B w w > > 9 9 9 K 9 K k r 9 k r r r r A ..> > [ A 0 0 r k w w k r K K r r 9 w A k r 9 ' ' l l & & A ' | | # # > > ' ' > > s s j j +.+.< < ! ! < < 4 4 < < + + ) ) % @ % % & & > > , , ; ; > > | | ; | 6 | | | 5 5 1 1 * * 1 1 1 1 1 1 1 1 % % s s # # # # E E # # . . E $ . . . $ $ . $ $     $ $ ",
"# # $ $ % # @ # # # # # # # # # % s # % % % # # % % % @ 1 1 @ % 1 1 @ % 1 * 1 1 $ . 6 6 & & 6 6 | ; > > - - > > | | & & % % % # 2 2 # # S S W W S S W W W W +.+.8 h s s ' ' ' ' ' ' # # | | ' ' 1 1 > > # # A B A A ' A A ' ' ' A A A A | 0 b b [ [ | | [ [ 9 w r r 9 9 r r 9 w A k r 9 + + K K } } [ [ 9 K 9 K k A r r r r k k W W - - r r 0 0 r k l l w 9 l l w w o o l l & & o o | | k k l l w w X X w w t o w w } } o o | | A A w w 9 9 9 9 k k r k ' ' - - l l ' ' 9 k t t k k k k k k l l ' ' ' ' ' P | | & & r r k k k k ' A r r > > & 3 ' ' r k r k k k k k l l r r w k k k l l | | q q B B o o X X t o w w t X l l t t > > o o > > o t w w o o 9 K l l w w l l } } w w 0 0 w 9 w w w w w w o o o o K w [ [ o o & & A ' k r K K K 9 l l 9 w w w r r [ [ A ' + + A ' w w k k w w 9 w l l k k - - - - - - . . k k k k 9 w A k w 9 r k r r > > & 3 & & 1 1 ' ' B > # # ' ' ' ' ' ' 1 1 8 8 +.+.W W < < < < < < < < x x ) ) 1 1 @ #     , , > > > > | | | ; 6 | | | 6 6 & & * * % % 1 1 % % 1 1 @ # @ % E E # # E E # # . $ # # $ $ # @ . . . $ . . $ $ . . ",
"# # $ $ # # @ @ # # # # # # # # % s # % % % % # @ % % % * 1 % % 1 1 @ % * * * 1 . . 6 6 & & 6 6 | | > O - - > > | | & & @ % % # 2 2 # # S S W W S S W W W W +.+.8 h s s ' ' ' ' ' ' # # | | ' ' 1 1 > > # # A B A A A A A ' ' A A A A A | 0 b b [ [ | | [ [ w w r r 9 9 r r 9 9 r r 9 K + + K K } } [ [ 9 9 K 9 A A r r r r r k W W - - r r 0 0 r k l l w 9 l l w w o o l l & & o o | | k k l l w w X X w w t o /.w } } o o | | A A w w w 9 k K k r k 9 ' ' 0 - l l ' ' r k t t r k k k k k l l ' ' ' ' ' P | | & & r r 9 9 r r A A r r > > & 3 ' ' r k r r k k k k l l r r w k k k l l | | q q B B o o o X X t w w X t l l t t > > o t > > o t w w o o 9 9 l l w w l l } } w w 0 0 w 9 w w w 9 w w o o o o 9 w [ [ o o & & A ' k r 9 K 9 K l l w w w w r r A [ ' ' # + ' ' w w k k w w w 9 l l k k - - - - - - . . k k k k 9 w A k w 9 r r r r B > & & & & 1 1 ' ' B > # # ' ' ' ' ' ' 1 1 8 8 +.+.W W < < < < < < < < x x ) ) 1 1 % #     , , > > > > ; | ; ; | ; | 6 | 6 & & * * % % 1 1 % % 1 1 # # % % E E # # E E # # $ $ @ # $ $ # @ . . . $ . . $ $ . . ",
"@ # # # # # # # # # # # # # # # # # % s # % % % # # @ % % @ 1 1 # @ 1 1 * 1 1 F 5 5 & & 6 | ; | ; ; | | > > - - > >     # # * * 1 1 # @ < < < < 4 4 < < W W +.+.8 8 F F ' ' ' ' ' ' 1 1 > > ' ' . . + + A [ > > 9 w A k r 9 ' A r r A A r r + + ^.) + + K K r r r r K 9 w w w K w w r r S S ) ) 3 3 [ [ r r r r w w r r w w 9 9 r r ) ) x x [ [ w w w w l l w w l l r r l l & & + + ^.) w w w w w w t t t t K 9 w w } } . . 1 1 k r r r r r r r w w r r A A | | & & c c k k ' ' k k r r 9 w A k r r . . $ . . $ } } [ B k r k k k k ' ' ' ' & & & & & & # # ' ' w 9 K 9 l l w 9 l l r r } } b b & & l l o o w w o t w w X X k k + + ^.x & & w w t t l l w w K k w w r r 3 3 1 1 ) ) r r l l w w o o w w o t w w } } ) ) c c ' ' l l k k w w 9 w w w l l 9 k . . c c - - r r ' ' r k r k 9 w A k w 9 r A a a z z ' ' 9 k 9 k r r r r A ' r k [ A k k # + . . 0 0 ' ' B > # # ' ' ' ' > > s s j j +.+.< < ! ! < < < < n n + + ) ) % % % % & & > > > , ; ; > > | ; | | O | | O & & x 1 1 * # # @ % # # s s % # # # E E # # . . E E . . $ $   . . $   . . $ $ $ @ @ ",
"# # # # # # # # # # # # # # # # # # # % % # @ % # # @ % % % 1 1 @ # 1 1 1 1 F * 5 5 & & 6 | ; | ; ; | | > > - - > >     % # 1 * 1 1 @ # < < < < 4 4 < < W W +.+.8 8 F F ' ' ' ' ' ' 1 1 > > ' ' . . + + [ [ > B 9 w A k r 9 ' A k k [ [ r r + + ^.) + + K K r r r r w 9 w w w K w w r r + S ) ) 3 3 [ [ r r r r 9 w r r w w k k r r ) ) x x [ [ w w w w l l w w l l r r l l & & # # ) ) w w w w w w t t t t K 9 /.w } } . . 1 1 k r r r r r r r w w r r [ A | | & & c c k k ' ' k r r r 9 9 r r r r . . $ . . . } } [ B k k k k k k A ' ' ' & & & & & & # # ' ' 9 K 9 K l l k k l l k k } } b b & & l l o o w w o t w w t X k k + + ^.x & & w w o t t l w w r k w w k r & & 1 1 ) ) r r l l w w o o w w o o w w 0 } ) ) c c ' ' l l r k w 9 9 w w w l l w 9 . . c c - - r r ' ' r k r r 9 w A k w 9 r A a a z z ' ' k k k 9 r r r r A ' r k A A r r + + . . - 0 ' ' B > # # ' ' ' A > > s s j j +.+.< < ! ! < < < < n n + + ) ) % % % % & & , > > , ; ; > > | | | | | O | | 3 & 1 1 * * # # # % # # s s % # # # E E # # . . E E . . $ $ $ . . $   . $ $ $ $ @ @ ",
"# # # # # # # # # # # # % s # @ % % @ # @ % # % % s @ # x 1 % % 1 1 @ % * * * 1 5 5 6 | & = | ; | 6 > > > B > > ; ; 3 & % % 1 1 2 2 # # S S W W S S W W W W +.+.8 8 1 1 > > ' ' > > # # 0 0 ' ' B [ ' ' ' ' [ [ > > [ A [ [ r r A A r r A A r r [ A r r r r 9 9 r r 9 w r r w w r r r r r r r r A A K K r r w 9 w w 9 w r r k k k k r r r r 9 w r k w w 9 w l l l l l l w w k k ' ' w w l l l l w w t t 9 9 k k w w l l r r 9 w l l o t 9 9 r r A [ r k k k ' ' . . r k k k k k k K k k r r r r A ' & & $ $ P P & & A ' k r ' ' r k r r A ' & & r r & & A [ r k k k w w r r l l w 9 k k > > . . k k p p o t t X w w X t w w l l r r A A r r l l r r 9 w w w l l w w w w r r A ..r r l l w w w w w w 9 w w w l l r r w k k r w w k k 9 9 9 k k k 9 9 w w w w r r A ' k k k k k r r r 9 w A k r r K k k k A ' A A k k k k k k k 9 K k r r A A r r A A r r A ..k k ' ' B > 1 1 ' ' ' ' ' ' 1 * h h +.+.W W < < < < < < < < 1 1 1 1 1 1 # @     , , > > > > ; | ; ; | | ; | 6 | & & * * s s 1 1 % # s s % # % % E E # # $ E # # $ $ @ % $ $ # # $ $ @ @ $ $ # @ $ $ ",
"% # # # # # # # # # # # % % @ # % % @ # @ % @ # % @ % @ 1 1 % % * 1 % % * * * 1 5 5 6 | = = | ; | 6 > > > > > > ; ; 3 & # % 1 1 2 2 # # S S W W S S W W W W +.+.8 8 1 1 > > ' ' > > + # | 0 ' ' B [ ' ' ' A > [ > > A A [ B r r A [ r k A A r r A A r r r r 9 9 r r w w r r w w r r r r r r r r A A K K r k w k w w 9 w r r k k k k r r r r K 9 k k w w w w l l l l l l w 9 k k ' ' w w l l l l w w t t 9 9 k k w w l l r r 9 w l l o o w 9 r k A [ r k k k ' ' . . k k k k k k K k k r r r r r A ' & & $ $ P P & & A ' k k ' ' k r r r ' ' 5 & k k 3 & A [ 9 k k k w w k k l l w 9 K 9 > > . . k k p p o t t t w w t t w 9 l l r r A A r r l l k k w 9 w w l l w w w w r r [ [ r r l l w w w w 9 w w w 9 w l l r r w k k r w w r r w 9 r k K 9 k 9 w w w w r r A ' r k r r k k k k k k k K k k 9 K k 9 ' ' A A r r 9 w A k 9 9 k k r r A A r r A A r r A A r r A ' > > 1 1 ' ' ' ' ' ' 1 * h h +.+.W W < < < < < < < < 1 1 1 1 1 1 % #     , , > > > > | | | ; | ; | 6 | 6 & & * * s s 1 1 % # s s # @ % % E E # # E E # # $ $ @ # $ $ % # $ $ @ @ $ $ # @ $ $ ",
"# # # # # # # % % # # % % # # % # # @ % # # @ % % @ 1 1 % % 1 1 @ # 1 1 * * F F 5 5 5 & | ; & & > > | | > > > > > > & & % % 1 1 1 1 + @ S S S S 4 4 S S W W +.+.8 h F F ' ' ' ' ' ' 1 1 > > ' ' ' ' ' ' B > > > ' ' ' ' k k ' ' A ' > > A ' ' ' 9 k A A K K r r k r r r w 9 k r w 9 k r w 9 r r r r r r w w 9 w w w K k k w r k w w 9 k w w k k w w k k w w k k k k k k w w 9 r /.w 9 k l l w w l l w w l l w w l l w 9 o o w w k k k k k k A ' l l r r w k k r k k k k k k K k k k ' ' ' ' A ' r k ' ' ' ' ' ' = & A ' k k ' ' 9 K ' ' ' ' & & r r ' ' r k A ' k k k r 9 9 k k l l l l k k w w l l r k 9 w k k l l w w l l w w w 9 K 9 t t l l p p l l l l w w w w 9 w w w 9 r 9 w k k w w k k w w 9 9 w w r r l l w w w w r k k k ' ' r k A A r r r r l l w 9 k k k k w w k k 9 w r r 9 w k r r r A ' r k r r 9 K k 9 r r ' ' r r A ' k k ' ' 9 k ' ' k k A ' ' ' | | # # ' ' ' ' ' ' s s 8 8 +.+.S S < < < < < < n n + @ 2 2 % # @ % & & > > , > - - > > | | | ; | | ; | & 5 1 * * * @ % 1 1 @ # % # # # % % E E @ # E E # # . . E E . . E E $ $ # # $ $ % @ ",
"# # # # # # % % % # # % # # % s # # @ % # # # % % % 1 1 % % 1 1 @ # 1 1 * * F F & 5 5 & | | & = > > | | > O > > > > & & % % 1 1 1 1 # @ S S S S 4 4 S S W W +.+.h h c F ' ' ' ' ' ' 1 1 > > ' ' ' ' ' A > > > > ' ' ' ' r r ' ' ' ' B > A ' ' ' r r A ' 9 w A k k r r r 9 9 k k w w k k 9 w r r r r r r w w K k w w 9 9 w w r k w w 9 k w w k k 9 w k k w w k k 9 k k k w w k k 9 w k k l l w w l l w w l l 9 w l l 9 w o o w w k k k k k k ' ' l l k k k k k k K k k r r k k k k k ' ' ' ' A ' k k ' A ' ' ' ' = & ' ' r k ' ' 9 K ' ' ' ' & & k k ' ' k r A ' k k k k r 9 9 k l l l l k k w w l l k r 9 9 k k l l w 9 l l w w w w 9 w t t l l p p l l l l w w w w 9 w 9 w k k w w r k w w k k w w k 9 w w k k l l w 9 w w r k k k A ' 9 k [ A k k k k l l k k 9 w A k w w r k w w k r w w k r r r A ' r r r r 9 9 k k r r ' ' r k ' ' A k ' ' k k ' ' r k A ' ' ' | | # # ' ' ' ' ' ' s s 8 8 +.+.S S < < < < < < n n % @ 2 2 % % @ % & & > > > > - - > > | ; | 6 | | | 6 5 5 1 * 1 * @ % 1 1 # # % % # # % % E E # # E E % # $ . E E $ . E E $ $ # # $ $ % @ ",
"# # # # % % @ % @ % # # % s # # # % # # % % @ % 1 1 % % 1 1 % % % @ @ # * * F * 5 5 6 | & = | ; | 6 > > - - B [ , > & & % % % s 2 2 @ @ m m < < S S 4 4 S S +.+.8 h 1 1 > > k k ' ' # # 1 1 # # # # % # # % . . # # % # # # . . + @ . . # # % # # # . . b b + + # + + + # # + b + # + + b b + + b b + + # # . . . . $ . @ @ . . 3 3 & &     3 3 . . & & . . . . + + . . $ . & &     3 3 . . 3 3 . . 3 3 . . 3 3 . . 3 3 . . 3 3 + + . . $ . .     . . $ } & & & & & & & ' ' ' ' ' ' A ' > > ' ' > > ' ' > > ' A a a ' ' A A A ' ' A A A > > & 3 > > ' ' ' ' ' ' > > ' ' > B ' ' ' ' ' ' & & & & a a & & . . & & + + & & 3 3 3 3 3 a & & 3 3 3 3 & & 3 3 . . 3 3 3 a & & & & } } & & & & . . 3 & & 3 3 & . . . . . . & & . . 3 3 # # # + + + a a b b b b b b . . + + a a . . 3 & . . . . . . 3 a + + . . # + a . + + . . b b b + b b . . + + . . + + # # # + # # + # 1 1 1 1 ' ' M M ' ' F F 8 8 +.+.(.(.(.< < < S S < < 1 1 1 1 1 1 # #     > > ; ; > > | ; ; ; = = ; ; 6 6 & & 1 * s s 1 1 # # s s # # s s # # % % E E # # . $ $ E $ $ @ # . . # # $ $ @ @ $ $ ",
"# # # + % % % @ % % % # # % # % % % @ % % % # # 1 1 % % 1 1 % % @ @ @ @ * * * * & 5 6 | = = | | ; | > > - - B [ > > & & % % % s 2 2 @ @ m m < < S S 4 4 S S +.+.8 8 1 1 > > k k ' ' # # 1 1 % # # # # % # # . . # + # # # # . . % @ . . # # % # # # . . b b b + + + + + + # b b + # + + b b b + + b b + # #   . . . . . @ @ . . 3 3 3 3     3 3 . . & & + . . . + + . . . . & & .   3 3 . . 3 3 . . 3 3 . . 3 & . . 3 3 . . & & + + . . . .     . . . . & & 3 3 & & 3 3 ' ' ' ' ' ' ' ' > > ' ' B > ' ' > > ' ' a a ' ' ' A ' ' ' ' A ' > > & & > > ' ' ' ' A ' > > ' ' > > ' ' ' ' ' A & & 3 3 & a & & .   & & + + & & & 3 3 & a a & & 3 3 3 & & & 3 3 . . & & 3 a & & & & } } & & & & . . 3 & & 3 3 3 . . . . . . & & . . 3 3 # # + # + + a a b b b b + b . . + + a a . . a 3 . . . . + . 3 a + + . . + + . . + + . . b b b + b b . . + + . . # # # # + # + # # + 1 1 1 1 ' ' M M ' ' F F 8 8 +.+.(.(.< < < < S S < < 1 1 1 1 1 1 # #   . > > ; ; > > | | ; ; = = ; ; 6 6 & & 1 * s s 1 1 # # s s # # s s # # % % E E # # . $ E E $ $ @ # . . # # $ $ @ @ $ $ ",
"# # + # + # % % # # # % # # % # # # 1 1 % % 1 1 % % 1 1 % # 1 1 @ # 1 1 1 1 * * & & & & 6 6 = = ; ; | | > > > > > > & & # # 1 1 1 1 * 1 n n n n < < S S S S ].].j j F F ' ' ' ' A ' 1 1 . . . . & & & & | | & & | | 3 & | | 3 & | | & & & & 3 3 & & & 3 3 & & & } } 3 & } } & & } } } } - - } } - - } } | | } } 0 - | | - - ; ; > > ; | > > ; | - - | | - - | | - - ; ; - - ; | > > ; | - - ; | - - ; | | | | | - - ; | | ; ; | | | = = | | = = | | = & % % 1 1 # # 1 1 1 1 1 1 E E % % # # 1 1 % # # # + # + # . . > > ' A ' ' [ [ > > > > c c # # 1 1 . . + + # # 1 1 # # 1 1 1 1 1 1 1 1 1 1 1 x x x } } } } | | } } | | = & | | = & | 0 | | | | | | > > ; | > > - - > > > > > > > > > > - - - - ; | - - | | - - | | - - | | | | } } 0 0 | | 0 | | | | 0 | | - 0 | | | | = & | | 0 } | | & & & & & & | | } } | | 3 3 | | & & } } & & | | & & | | & & & & & & | | . . s s M M ' ' > > 1 1 8 8 +.+.+ S < < < < < < S S @ @ * * @ % % % & & , > > > ; | ; ; | | | ; | 6 | | & 5 1 * * * % % 1 1 # % s s % @ s s # # % # $ E # # . . % # E $ % @ $ $ # # . $ % @ ",
"# # # % # # % % # # % % # # % % % # 1 1 % # 1 1 % % 1 1 % # 1 1 # @ 1 1 1 1 * 1 & & & & 6 | & = ; ; | | > O > > > > & & # # 1 1 1 1 * 1 n n n n < < S S S S ].].j j F F ' ' ' ' ' A 1 1 . . . . & & & & | | & & | | & & | | 3 & | 0 & & & & & 3 3 & & & & 3 & & } } 3 & } } & & } } } } - - } } - - } } | | } } - - 0 | - - ; | - > ; | > > ; | - - | | - - | | - - ; ; - - | | > > | | - - | | - - | | | | | | - - | | ; ; | | | | = & | | = & | 0 & & % % 1 1 # # 1 1 1 1 1 1 E E % % # # 1 1 % # # + # + # % . . > > A ' ' ' [ [ > > > > c c # # 1 1 . . # # + # 1 1 % # 1 1 1 1 1 1 1 1 1 1 x x x x } } } } | | } } | | & & | | = & | 0 | | | | | | > > | | > > - - > > > > > > > > > > - - - - | | - - ; | - - | | - - | | | | } } 0 0 | 0 - 0 | | 0 } 0 | - 0 | | | | & & | | 0 } | | & & & & & & | | } } | | & & | | & & 0 } 3 & | | & & | | & & & & & & | | . . s s M M ' ' M M 1 1 8 8 +.+.S S < < < < < < S S @ @ * * % % % % & & > > > > | | ; ; | | | | | ; | | 5 5 1 * 1 * % % 1 1 % % s s # # s s # # # % E E # # . . # # . $ % @ $ $ # # $ $ @ @ ",
"# # # + % % @ % % % % # # % % # 1 1 % % 1 1 % % 1 1 % % 1 1 % % @ @ # % * * * 1 & & & & & = | ; | 6 > > - - [ [ > > & & s % >.% 2 2 % @ m m S S S S < < S S +.+.8 8 1 1 > > A ' ' ' 1 1 & & | | | | | | | | | | | | > > > > > > > > > > > > ' ' > > ' ' > > [ [ - B B [ > > [ [ [ [ A ' [ A A A A B r r [ [ A ' [ [ r r ' ' k k ' ' r r ' ' k k ' ' r r r r r r ' ' r r ' ' r r ' ' r r ' ' r r ' ' ' ' , , ' ' [ [ A ' [ [ ' ' > > > > > > > , > > ' ' ' ' ' ' , > > > ' ' ' ' M M > > > > > > | | > > | | | | . . > B > > > > - 0 > > > > . . | | > > > > > > > > > > > > ' ' ' ' A ' > > ' ' ' ' k k ' ' ' A [ [ B > > > ' ' > > [ [ > B ' ' [ B k k r r r r ' A r r ' ' k k r r r k ' ' k k r r r k A ' r k ' ' ' ' A ' r r ' ' ' ' ' ' k k ' A k k A ' A A [ [ A ' [ ' ' ' [ [ A ' > > [ [ B - - B > > > > - - > > > > [ [ 0 | - - ; | - - | | > > ; | > > > ; | | 1 1 ' ' > > A ' 1 1 8 8 +.+.(.(.< < < < S S < < 1 1 1 1 1 1 # #   . > > ; | - - | ; ; ; = = | 6 & & & & * * s s 1 1 # % 1 * % % s s # # s s + # # @ $ $ # # . $ @ # . $ # # E $ % @ $ $ ",
"# # + # % % # # % % # # % # # % 1 1 % # 1 1 % % 1 1 # % 1 1 % % @ @ # % * * 1 1 & & & 5 3 3 | ; | 6 > > - - [ [ > > & & @ % # % 2 2 % @ m m S S S S < < S S +.+.8 8 1 1 > > ' ' ' ' 1 1 & & | | | | | | | | | | | | > > > > > > > > > > > > ' ' > B ' ' > > [ [ - B [ [ > > [ [ [ [ A ' [ A A A [ [ r r [ [ ' ' [ B r r A ' r k ' ' r r ' A 9 k ' ' r k r r r k ' ' k k ' ' r r ' ' k k ' A r r ' ' ' ' , , ' ' [ B r ' [ [ ' ' > > > > > > , , > > ' ' ' ' ' ' > > > > ' ' ' ' M M > > > > > > | | > > ; | | | . . > B > > > > - 0 > > > > . . | | > > > > > > > > > > > > ' ' ' ' ' A > > ' ' ' ' k k ' ' A ' [ [ B - > > ' ' > > [ [ > B ' ' [ B k k k r r r ' ' r r ' ' k k r r k k ' ' k k r r r r ' ' k k ' ' ' ' A ' r r ' ' ' ' ' ' k k ' A k k A ' A A [ [ A ' [ ' ' ' [ A A ' > > [ [ - - B B > > > > - - > > > > [ [ 0 | - - | | - - | | > > ; | > > > ; | | 1 1 ' ' M M > ' 1 1 h 8 +.+.(.(.< < < < S S < < 1 1 1 1 1 1 # #     > > ; | - - | ; ; ; = = | 6 & & & & * * s s 1 1 # # 1 1 # % s s @ # s s # # @ # $ $ # # . $ @ # $ $ # # . $ % @ $ $ ",
"$ $ # # $ $ # # $ $ # # $ $ # # # + 1 1 % % 1 1 % % 1 1 % % 1 1 # % * * * 1 F F 5 & & 5 = = & & ; ; | 6 > > - - > >     # # 1 1 1 1 * * n n m m < < S S S S ].].h h * * ' ' > > ' ' 1 * & & > > > > > > > > | | | | | | > > > > ' ' ' ' > > > > > [ B > [ [ B - [ [ B [ [ A ' [ r r [ [ r r [ A k k r r k k r r k k r r w w k k w w k r 9 9 r r k k r r 9 w k k l l k k w w r k w w r r r r r r r r k k r r ' ' r k ' ' r r [ A ' ' B > ' ' ' ' r r ' ' ' ' [ B r r r k k k ' ' ' ' > > [ [ [ [ A ' [ ' ' B | | . . 0 | - > > > ' ' M M > M V V > > > > k k ' A B > > > ' ' ' ' A ' ' ' r r ' ' r r [ [ ' ' ' ' r k ' ' ' ' ' A r r k k r w r r k k r r r k k r r k k r r k k r r k k k w w k k l l k k r r k k k k r r k k r r k k A ' k k k k l l k k k k ' A r r ' ' [ A ' ' r r A A r r [ [ B - [ - > B B - > B > > [ [ [ [ B - > > > > | | > > | | > > > > > | . . s s M > > > > > 1 1 8 8 +.+.S S < < S S < < _._.1 1 1 1 % % @ % & & | | - - | | ; ; 6 | | | = = | | & & * * * * % % * 1 % % 1 1 # % # s # # % # # # # # $ $ @ # . $ E E $ $ $ $ $ . . $ ",
"$ $ # # $ $ # # $ $ # # $ $ # # # # 1 1 # % 1 1 % % 1 1 % % 1 1 % # * * 1 1 F F & & & 5 5 = = & ; ; | 6 > > - - > >     + # 1 1 1 1 * * n n m m < < S S S S ].].8 h * * ' ' > > ' ' 1 * & & > > > > > > > > | | | | ; | > > > > ' ' ' ' > > > > B > [ B [ [ B - [ [ [ A ' [ [ [ r r [ [ r r [ A r r k k r r k r k k r k w w k k w w k r 9 9 r r k k r r w 9 r k l l k k w w r r w w r r r r k k r r k k r r ' ' r r ' ' r r [ [ A ' B B ' ' ' ' k k ' ' ' ' A [ r r k k r k ' ' ' ' > > [ [ B [ A ' ' ' B [ | | . . 0 | - > > > ' ' > M M > V V > > > > k k ' ' B > > > ' ' ' ' ' ' ' ' k k ' ' r r [ A ' ' ' ' r k ' ' ' ' ' ' r r k k r w r r k k r r k r r r k k r r k r k k r r k k w w k k l l k k k k r r k k r r k k k r r k A ' k k k k l l 9 9 k r A ' r r ' ' [ A ' ' r r A A r r [ [ [ B - - B > B - B > > > [ [ B [ A B > > > > | | > > | | > > > > > | . . s s M > > > > > 1 1 8 8 +.+.S S < < S S < < _._.1 1 1 1 # % % @ & & | ; > - | | ; ; 6 | | | = = | | & & * * * * % % * 1 % % 1 1 % # s s # # % % # # # # $ $ @ # . $ E E $ $ $ $ . . $ $ ",
"# # $ $ # # $ $ # # $ $ # # $ $ # # # + # % % # @ % @ # % % % # 1 1 % # 1 * * 1 . . 6 6 & & 6 6 = = | | ; | - - | | & & # % % @ * * % @ m m S S S S < < S S +.+.8 8 1 1 M M > M M M 1 1 & & > > > > > > > > > > | | > > | | > > ' ' ' A > > A ' > > ' :.[ B A A ' A r r [ A r r [ [ A ' B [ r r A ' k k r r k k A ' k k ' ' k k r r 9 9 k r w 9 k r w w k k k k r r w w k k 9 9 k k k w 9 9 w w ' ' r r ' ' k k ' ' r r :.' A ' A [ A A ' A r k [ A k k ' ' ' ' A ' r r ' ' ' ' A ' ' ' [ B r A ' ' k r > > - 0 . . > > > > ' ' > > ' ' > > & 5 > > ' ' ' ' k k ' A A ' ' ' r r ' ' r r A ' k k r r r r ' A k r k r r k A ' k k ' ' k k r r k k A A r r ' A k r k k l l k k w w k k 9 k k r r k k k l l k k w w k k 9 w k k 9 w r r w w r r 9 9 k k k k ' ' r r ' ' k k ' ' ' A [ [ r r [ A k k [ [ B [ A B B > > > [ [ > B [ [ - 0 > > - 0 ; | | | > > > > > > > > & & * * ' ' M > ' ' F F 8 8 ].].(.(.(.< < < S S S S 1 1 s % * * # # = = | 6 } } | ; = = 6 | = = | | & & & & 1 1 # % % % # @ @ # E E # # E $ E E . . E E . . $ . V V . . V V $ $ . . $ $     ",
"# # $ $ # # $ $ # # $ $ # # $ $ # # # # @ % % # % % @ # % % # # 1 1 % # * * * 1 . . 6 | & = | 6 = = | | | ; > - | ; & & # % % @ * * % @ m m + S S S < < S S +.+.8 8 1 1 M M M > M M 1 1 & & > > > > > > > > > > | | > > | | > > ' ' ' A > > ' A > > :.:.B B A A A ' r r [ A r r [ [ A ' [ [ r r A ' r r k k r r ' ' r r ' ' k k r r k k r r w 9 k r w w k k r k k r w w k k 9 k k k k w k k w w ' ' k k ' ' k k ' ' r r ' ' ' ' [ A A A ' A r k [ A k k ' ' ' ' ' A r k ' ' A ' ' ' ' A ' [ [ A ' ' k k > > - 0 . . > > > > ' ' M M > ' > > & 5 > > ' ' ' ' k k ' ' A ' ' ' r r ' A r k ' ' r k r k r r ' ' r r r r k k ' ' r r A ' r k k r r k A A r r k A k r k k l l k k w w r k k r r k k k k k l l k k w w k k w w 9 r w 9 k k w w r r k 9 9 k k k ' ' r r ' ' k k ' ' [ A [ [ r r A ' k k [ [ B [ A B B B > > [ [ [ B [ [ - 0 > > - 0 | | | | > > > > > > > > & & * * ' ' M > ' ' F F 8 8 ].].(.(.< < < < S S + S 1 1 s % * * # # = = | 6 } } | | = = 6 | = = | | & & & & 1 1 # % % % % # @ # E E # # E $ E E . . E E . . . . V V . . V V $ $ . . $ $     ",
"$ $ # # @ % % # # + # + # % # # % # # % # # % # # % # % % # # % % # 1 1 % # * * 5 5 6 | 6 | ; | | | | | - - | | ; ; | | # % % % @ @ * * m m S S < < S S W W ].].8 8 * * M M > > ' ' 1 1 | | | | . . k k > > | | > > > > > > > > ' ' > > ' ' > > ' ' > > [ [ [ B [ ..[ [ A ' [ [ r k ..[ r r ' A k k r r 9 9 r r r r k r k w k k w w 9 k w w 9 r l l 9 9 w w r r w w r r 9 w k k w w r k w w k k k r r k k k ' ' r r ' ' k k ' ' k r ' ' r r ' ' r r ' ' r r [ A A ' ' ' ' ' [ > ' ' ' ' k k ' ' k k [ [ A ' . . . . L L ' ' > > > > B > > ; V V | | ' ' r r k k ' A B > [ ' [ [ ' ' A ' k r ' ' k k ' ' r r k k r r ' ' k k r r ' ' ' ' k k [ [ A ' ' ' r r k k w w k k l l k k k k r r r k k k r r k k 9 w k r w w k k k k r r 9 9 k k w 9 9 k k k r r k k ' ' k k ' A A ' A [ [ A [ [ r r A [ A ' B B [ A [ [ A ' > B B [ - - > > - - > > | | > > ' ' r k . . > O 5 5 1 1 > > ' ' > > 1 1 j j +.+.S S < < S S (.(._._.1 1 1 1 % # @ % | | | | | ; | | | | | 6 | | & = | | & = % % s % # # # @ E E % % E E # # . $ # # E $ E E . . E E . . E E . . # # $ . @ @ ",
"$ $ % @ @ @ % # # + # + # % # # # % # # % # % % % # # % % # % % # # 1 1 % % 1 * & 5 6 6 | 6 | 6 | | | | - - | | ; ; | ; # % % % @ @ * * m m S S < < S S W W ].].8 8 * * M M > > ' ' 1 1 | | | | . . k k > > | | > > B > > > > > ' ' > > ' ' > > ' ' > > [ [ [ B ..[ [ [ A ' A [ r r [ A r r [ A r r k k r w r r r k r k w k r k w w k k w w 9 r l l k 9 w 9 k r w w r r 9 w k k w w k r w w r k k r r k k k ' ' r r ' ' r r ' A k r ' ' k k ' ' r r ' ' r r [ A A ' ' ' ' ' - B ' ' A ' r k ' ' r r ' [ ' ' . . . . L L ' ' M M > > > > > O V V | | ' ' r r k k ' A B > [ ' [ [ ' ' ' A k r ' ' k k ' ' r r k k r r ' ' r r k k ' ' ' ' k k [ [ [ A ' ' r r k k w 9 k k l l k k k r r r k k k r w k k k w w k k w w k k r k r r k 9 9 k k 9 9 k k 9 r r k 9 ' ' 9 k ' A A A B r A A [ [ r r [ [ A ' B B [ [ [ [ A ' > B [ [ - 0 > > - - > > ; | > > ' ' k r . . > O 5 5 1 1 > > ' ' M M 1 1 j j +.+.S S < < S S (.(._._.1 1 1 1 % # @ % 0 | | | | ; | | | | | 6 | | & = | | 5 & s % # % # # # # E E s % E E # # $ $ # # E $ E E . . E E . . E E . . # + $ . @ @ ",
"1 1 1 1 1 1 1 1 1 1 1 1 1 * 1 1 * 1 1 1 1 * * 1 1 * * 1 1 * 1 1 1 1 * 1 * * * F % % & & & & = = = & | | 3 & | } & & | | 1 1 @ % * * * 1 m m S S S S 4 4 S S +.+.j j 1 1 > > M M > M 1 1 & & | | 1 1 | | # # ' ' > > > > B > ' ' > > > > ' ' ' ' A ' ' ' ' ' A A [ A A ..[ [ A ' [ [ [ B [ [ A A [ A r r r r 9 k r k k k r r k k k k 9 w k k w w r k l l r k w w r k k k r r r k r r k k r w r w r k k 9 r r k k r r k r ' ' k k A A k k k k k k A ' k k [ A k k [ A k k [ B ' ' ' ' ' A [ ' [ A > > & 5 . . + + E E > > ; | > > > > > > O L V V # # ; | . . ' ' ' ' ' A B [ ' ' [ B ' ' A B ' ' [ [ r r r r k k ' ' k k r r w w r k r r B [ r r B [ r r r r k k k k k k r r k k k k k k r r w w r k k 9 9 r 9 w k k r k k k r r [ A A ' ' ' r r ' ' r r ' ' ' A [ [ ' ' B > [ ' [ [ [ A ' [ [ A A B [ [ > B [ ..A ' A A > B > > - 0 > > > > > > | | = & & & * 1 & & 3 3 * * ' ' M M > > F F 8 8 ].].W W < < < < S S S S 2 2 1 1 1 * 1 1     6 | & & ; | & & & = & & = &     5 5 * * s s 1 1 # @ 1 1 % s 1 1 s s 1 1 # % 1 1 # % 1 1 % # 1 1 % # 1 1 % % @ @ % @ ",
"1 1 1 1 1 1 1 1 1 1 1 1 * * 1 1 * 1 1 1 1 * 1 1 * * * 1 * * 1 1 1 1 1 * 1 * * * % % & & & = = & & = | | 3 & } } 3 3 | | 1 1 % % * * 1 1 m m S S S S 4 4 S S +.+.j j 1 1 > > > > > > 1 1 & & | | 1 1 | | # # ' ' M M > > > > ' ' > M > > ' ' ' ' ' ' ' ' A ' A [ [ [ [ A [ [ A ' [ [ [ [ [ [ A A [ [ r k r r r k k r k k r r r r k r w w k k w w r k l l r k w w k k 9 k r r k k k r A k k r w w r k k 9 r r k k r r k r ' :.k k A A 9 k k k k k A ' k k [ A k k ' A r r [ B ' ' ' ' [ A ' ' ' A [ > & & . . + + E E > > ; | > > > > > > | L V V # # | | . . ' ' ' ' ' A B B ' ' > B ' ' [ [ A ' [ [ r r k k r r ' ' r k k r w w k r r r [ [ r r A [ r r r k k 9 9 k r k k r r k k k k k k k w 9 k k r r w k w w k k r r r k k r A ..A ' ' ' r r ' ' r r ' ' ' A [ [ ' ' [ B ' ' [ B r A [ [ [ A [ [ A [ B [ ..A ' ' A A > B > > - 0 > > > > > O L | & & & 3 1 1 & & & & * * ' ' > > > > F F 8 8 ].].W W < < < < S S S S 2 2 1 1 1 * 1 1     6 | & & | | & & & = & & = &     5 5 * * s s 1 1 # # 1 1 s s 1 1 % s 1 1 % % 1 1 % % 1 1 % # 1 1 % % 1 1 # % @ @ % @ ",
"2 2 2 2 2 2 2 2 2 2 2 2 2 2 i i 2 2 2 2 2 2 2 2 2 2 2 2 2 2 2 2 2 2 G G G 2 g g % % % % $ $ % % E E % % ,.,.# # $ . $ $ * * 2 2 ].].].].S S S S < < < < < < <.<.8 8 * F > > > > > ' * * J J | | . . # # | | > > [ [ 0 | - - > > [ [ [ B ' ' [ B A A B B [ [ B B ' ' [ B ' ' [ B [ ..> > [ [ > B ' ' ' ' r r ' A r r ' ' k k [ A k k k r k k r r k r r r r k r r 9 k r r r k k r r k k r k k k r k k k r r k A ' k k [ ' k k ' A [ A ' ' r k ' ' k r ' ' r r ' ' ' A [ [ ' ' ' ' A [ > > > [ B > > > . . . $ O O $ $ L L > > > > ' ' > > | | . . | | # # | | > > ' ' > B ' ' ' ' A ' ' ' ' A [ [ ' ' ' ' k k ' ' ' ' A ' ' A ' ' ' A A ' A A [ [ k r A ' k k r k A k r k k k r r 9 r k k k k r r r k ' ' k r r k k r r k r k r k k r ' ' r k ' ' r k ' ' r r ' A r k ' ' ' A [ > ' ' ' ' ' A > > B > > > [ ' [ A ' A [ [ [ [ B - - - | | - 0 | - - B + + + + & & | | = & 1 1 > > ' ' > > 1 * j j +.+.S S 4 4 < < < < n m ) ) y z F F c F $ $ # % $ $ >.>.$ $ s % % >.% % % % F * 2 2 2 2 F F [.2 2 2 2 2 2 [.2 2 [.[.2 2 2 c 2 2 2 c 2 c * * c 2 * * c 2 * * c 2 ",
"2 2 2 2 2 2 2 G 2 2 2 2 2 2 i i 2 2 2 2 2 2 2 2 G 2 2 2 2 2 2 2 2 G 2 G G 2 g g % % % % $ $ % % E E % % ,.,.# # $ $ $ . * * 2 2 ].].].].S S S S < < < < < < <.<.8 8 F F > > > > > ' * * J J | | . . # # | | > > [ [ | | - - > > [ [ [ B ' ' [ [ A A B B A ..> B ' ' [ B ' ' [ B [ [ > > [ [ > B ' ' ' ' r r ' A r r ' ' k k [ A k k k r k k r r k k r r k r r r 9 k r r r k k k k k k k k k k r k k k k k k ' A r r ' ' r r ' A [ A ' ' r r ' ' k k ' ' r r ' ' ' A [ [ A ' ' ' [ A > > > [ B > > > . . . $ O O $ $ L L > > > > ' ' > > | | . . | | # # | | > > ' ' > > ' ' ' ' ' A ' ' ' A [ [ ' ' ' ' r k ' ' A ' ' ' [ A A ' ' A ' ' ' A A B r r ' ' k k r r r r r k k k r r r k k k k r r r r k ' ' r k r r r k k r r k k k k k ' A k k ' ' k k ' ' 9 k ' ' r k ' ' ' ' B > [ ' ' ' A ' > > > B > > ' ' [ [ A ' [ [ [ [ - - - - | | - 0 | - - B + + + + & & | | & & * 1 > > ' ' > M * * j j +.+.S S 4 4 < < < < m m ^.) y y F F c F $ $ % % ,.,.>.>.$ $ % % >.>.% % % % }.* 2 2 2 2 F F 2 [.2 2 2 c [.[.2 2 [.[.2 2 2 2 c [.c 2 2 c * * c 2 * * c 2 * * c c ",
"g g 2 2 g g 2 2 2 2 2 2 i g 2 2 =.=.2 2 =.=.2 [.g g 2 G g g [.2 g g 2 G g g g g F F * * * * * * * * % % 1 1 # % 1 1 1 F 2 2 F c 1 x + + + S (.(.(.< 4 4 < < m m 8 8 1 1 M M B > > > s s & & | | | | - - | | - 0 | | > > | | > > [ [ [ A ' ' ' ' B > [ ' [ B > [ B > [ [ [ B ' ' [ B ' ' [ [ [ A ' ' r r ' ' ' ' A ' ' A ' ' k k k k k k k r r k ' A r r r r k 9 ' ' r r ' ' k k r r r k k r r k A ' k k [ ' r r ' ' ' ' ' ' r r ' [ ' ' ' ' k k ' ' [ A ' A ' ' A B ' ' [ [ A ' ' ' [ [ > > ' ' > > ' ' > O 0 | E E > O O > > > | L > > ; | . . | | ' ' ' ' ' ' > M > > B > ' ' > B ' ' A ..A A ' ' r k ' ' r k A ' r k A ' k r ' ' ' A ' ' r r ' ' k k r r k k ' ' r r ' ' r r k k r r ' ' r r K k k k k k r k ' ' r k A ' r k ' ' ' A A ' r r ' ' w k ' ' ' ' ' ' ' ' > B A ' > B [ ..> > > > - 0 > > > > [ [ [ B ' ' B B > B 0 0 0 | } } | | } } - - ; | | | | | = & 1 1 > > M > A ' F F 8 h <.<.W W < < < < < < < < + + ) ) 2 2 2 2 [.2 s s F * s s F * 1 * * * }.}.F F * 1 2 2 [.2 2 G 2 2 g g G G =.=.2 2 g g G 2 i i 2 2 i i c 2 2 2 2 c 2 2 2 2 c 2 2 2 ",
"g g 2 2 g g 2 2 2 2 2 2 i g 2 2 =.=.2 2 =.=.2 2 g g 2 2 g g 2 2 g g 2 G g g g g F F F * * * * * * * % % 1 1 s % * 1 * * 2 G 2 c x x + + S S (.(.< < 4 4 < < m m 8 8 1 1 M M B B > > s s & & | | | | - - | | 0 | | | > > | | > > [ [ [ A ' ' ' A [ > ' ' [ B B [ > > [ [ [ B ' ' [ B A ' ' [ [ A ' ' r k ' ' ' ' A ' ' A ' ' k k k r r r k r k r A A r r r r r r ' ' r r ' ' k k r r k k r r k k A ' k k [ ' r r ' ' ' ' ' ' r r ' [ ' ' ' ' r k ' ' ' A [ ' A ' ' [ ' ' [ [ ' ' ' ' [ B > > ' ' > > ' ' > O ; | E E > O > > > > O L > M | | . . | L ' ' ' ' ' ' > > > > B > ' ' > B ' ' [ [ A ' ' ' r r ' ' r k ' ' r k A ' k r ' ' A A ' A r k ' ' k k r r k k ' ' r r ' ' k k r r r r ' ' r r k k k k k k r k ' ' r r ' ' r k ' ' ' A A ' r r ' ' w k ' ' A ' ' ' ' ' B B A ' B [ ..> > > > > - 0 > > > > [ [ B [ ' ' B B B B 0 0 0 0 } } | | } } - - | | ; | | | = & 1 1 > > > > ' ' F F 8 h <.<.W W < < < < < < < < S + ) ) 2 2 2 2 2 [.s s F * s s F * 1 1 F * }.}.F F * * 2 2 2 2 G G [.2 g g 2 G =.=.2 2 g g G 2 i i 2 2 i i c 2 2 2 c c 2 2 2 2 2 c 2 2 ",
"1 1 1 * @ @ * * 1 * * 1 * * 1 * * * 2 2 * * 2 2 * * c c * * c c 1 * 2 2 2 2 F F . . $ . 5 5 $ . & & & 5 6 J 5 & & & 1 1 1 1 2 c _._.m m < < S S < < < < W W +.+.h h F F > > > > > > F F & & | | | > ; | | | | | | | | 0 > > > > [ B > B [ ..A [ [ B [ B > [ B B > > > > ' ' ' ' ' ' ' ' ' ' A ' k r ' ' r r ' ' ' ' ' ' k k A ' k k k r A k r k r r [ A r k k k r r ' ' r r ' ' r r ' ' r r r r k k ' ' k k ' A ' ' ' ' k k ' A [ A [ B ' ' ' ' r k ' ' ' ' M > A [ > B ' ' > > [ [ > > > > > > > > ' ' > > > > $ $ L L > > > > O L | | | | . . > B > > > > O > ' ' L L > > > ; M M M > ' ' [ A ' ' ' ' r k ' ' ' ' ' A r k ' ' ' ' [ [ A ' ' ' A A ' A r k ' A k k ' ' k r ' ' r k ' ' r r r r r k A ' k k ' ' k r ' ' k k k k r k P ' A ' ' ' ' ' ' ' ' ' > > ' ' ' ' k k ' ' ' ' ' ' A ' > > > > - 0 B > > > [ ' B [ [ [ B > B > 0 | - - } } > > ; | | 0 > > | | = & 1 1 > > ' ' > > 1 1 f 8 m m < < 4 4 S S 4 4 n m S S ^.^.c c c c * * 5 5 & & & 5 5 5 . . 5 5 $ . $ $ E E * * 2 2 F * * * * * c c * 1 1 * 1 1 1 * * 1 * * s s 1 * s % 1 1 % % 1 * s % * * ",
"1 * * * @ @ 1 * * 1 * * * * * * * * 2 2 * * 2 2 * * c c * * 2 2 * * 2 2 2 2 F F . . . $ 5 5 . . & 5 5 5 J 6 & & & & 1 1 1 1 c c _._.m m < < S S < < < < W W +.+.h h F F > > > > > > F F & & | | | > | | | | | | | | 0 | - > > > > [ B B [ ..A [ [ [ B [ B B > [ B > > > ' ' ' ' ' ' ' ' ' A A ' r r P ' r k ' ' ' ' A ' r r A ' k k r r r r k k r r ' A k k k r r r ' ' r r ' ' r r ' ' r k r r k k ' ' r r ' ' ' ' A ' r r A [ A A [ B ' ' ' ' r r ' ' ' ' , > [ [ [ B ' ' > > B [ > > > > > > > > ' ' > > > > $ $ O L > > > > | L | | | | . . > > > > > > > > ' ' | | > > > | M M > > ' ' A ..' ' ' ' k k ' ' ' ' ' ' k k ' ' A ' A [ ' ' ' A ' A ' ' r r A [ r r A ' k r ' ' r r ' ' k r r r r k P ' r k ' ' k k ' ' k k k k r k ' ' [ A ' ' ' ' ' ' ' ' M > M ' ' A k r ' ' ' ' ' ' ' A > > > > - 0 B B > > ' ' [ B [ B > > B > 0 0 - - } } > > ; | | 0 > > ; | & & * 1 > > A ' > > 1 * f 8 m m < < 4 4 S S 4 4 m m S S ^.^.c c c c * * 5 5 5 & & 5 5 5 .   & 5 $ $ $ $ . E * * 2 2 F * * * * * 2 c 1 1 * * 1 1 1 * 1 1 * * s s 1 * s % * 1 % % 1 * % % 1 * ",
"@ @ % % 1 * % % 1 * 1 * * * % % * * @ @ 1 * * 1 2 2 * * 2 2 * * * 1 * * 2 2 * * . $ 5 5 5 5 5 5 & & 6 6 & & 6 6 5 5 % % 1 * * * m m S S m m W W n n < < S S +.+.j j 1 1 > > ' ' > > * * . . | | | | > > | | - - | 0 ' ' [ B r ' B > [ B B B [ ..[ [ A ' [ B B B > > > > B > ' ' ' ' ' ' ' ' ' ' ' ' ' A [ > [ [ B > > [ [ [ A k k r r r k r r r ' ' k r r r k k ' ' r r [ A ' ' [ [ r r ' ' r r ' ' k r ' ' A ' [ ' ' ' ' ' 9 k ' ' ' ' [ [ [ A ' ' ' ' > > ' ' > > [ B | | } } & & | | | | > > | | > > > > > > # # O O | | > B > > > > - 0 a a | | ' ' > O O > | | | > & & . . 6 6 > > > > ' ' ' ' ' ' M M ' ' ' ' ' ' ' ' A ' ' ' ' ' A [ r r ' ' r r ' ' k k k r k k k r r r ' ' k k ' ' k k k r k r ' ' k r P ' r k ' ' k k ' A ' ' M M > ' > > ' A ' ' ' ' ' ' ' ' ' ' ' ' > > M > - 0 > > > > [ [ > > [ B > > [ [ B > [ [ B - > > 0 | - - } 0 | - | | [ [ 0 | & & c c > > > > ' ' F F 8 h <.].4 4 < < < < n n m n S S S S 2 2 * * F * J J 5 5 & & 5 5 5 5 V V & 5 . $ $ $ * * F F c F % % * * 1 1 1 * s % 1 1 s % 1 1 s % * * s % 1 1 % % s s # % % s % % ",
"# @ # % 1 1 @ % * * 1 * * * % % * * @ @ * * 1 1 2 2 * * 2 2 * * }.* * * [.2 * * . $ 5 5 5 5 & 5 5 & | | & & 6 6 & 5 % % 1 * * * m m S S m m W W n n < < S S +.+.j j 1 1 > > ' ' > > * * . . 6 | | | > > | | - - | 0 ' ' [ B r ' B B [ ..> B [ ..[ [ [ A ' B B B [ > > > > > ' ' ' ' ' ' ' ' ' ' ' ' A ' > B [ ..> > B [ ..[ k k k k r k k k r r ' ' k k k k k k ' ' k k [ [ A ' [ [ r r ' ' r r ' ' k k A ' ' A ' ' ' ' ' ' r r ' ' ' ' [ [ [ A ' ' A ' > > ' ' > > [ B | | } } & & | | | | > > ; | > > > > > > # # O O | | > B > > M M 0 - a a | L ' ' > O O > | | | > & & . . 6 6 > > > > ' ' ' ' ' ' M > ' ' ' ' ' ' ' ' ' A ' ' ' ' [ [ r r A ' r r A ' r r k r r r r r r k ' ' k k ' ' k k k r r k ' ' k k ' ' k k ' ' k k ' ' A ' > > ' ' > M ' ' ' ' ' ' ' ' ' ' ' ' ' ' > > > > - - > > > > [ [ > > [ [ B > [ [ > > [ [ - - > > - 0 - - - | 0 | | | [ [ 0 | & & c c > > > > ' ' F F 8 h <.].4 4 < < < < n n m n S S S S 2 2 * * 1 F J J 5 5 & & & 5 5 5 V V & 5 $ $ $ $ 1 * * F c F % % * * 1 1 1 * s % 1 1 s % 1 1 s % * * s % * 1 % % s % % % s % % % ",
"% # @ # s % * * # @ * * % % * * * * * 1 * * 1 * * * * * * * * * % # 1 * 2 2 * * . . $ . 5 5 5 5 5 & & 5 6 6 = & & & 1 1 1 1 c c m m _.m < < < < < < < < (.(.+.+.h h F * B > > > [ ' F F & & | | > > | | > > | 0 > > B > ' ' > B > B | 0 > > > > A ' > B > [ B - > > > > ' ' B > > > > > ' A > > ' ' > > ' ' > > [ B > > [ B ' ' r r k k r r [ [ ' ' [ B r r ' ' k k ' ' k k ' ' r r ' ' k k r r A ' ' ' r r ' ' [ A ' A A ' ' ' ' ' [ [ ' ' A ' ' ' > > [ [ B [ B > ; | | | . . # # # + & & 3 3 | | 6 | > > | | # # 6 6 > > ; | > > > > | | # # 6 6 6 > O O 6 6 | | 5 5 # + 1 1 5 5 6 6 > > - - [ A [ B ' ' ' ' ' ' ' ' A ' ' A ' ' ' ' k 9 ' ' ' ' ' ' r k ' ' k k > ' k k A ' r r r r r k ' ' k k ' ' r k ' ' k r ' ' r r ' ' A ' > > > > > > ' ' > > ' ' ' ' ' A > > > > > B ' ' M > > > > > [ B > > > > - - > > - 0 > > - 0 B [ > > B B > > > , | 0 - - } } | L V V 1 1 > > M > > > 1 * h 8 m m < < W W S S < < m m S S n m * * * }.s s 5 5 5 & & 5 5 5 V V & 5 $ . . $ $   1 1 2 2 * * 1 1 * * * * % % 1 1 s % 1 1 % # % % s s 1 * % % 1 * % % 1 * % % 1 1 ",
"% % % # s % * * # @ * * % % * * * * 1 * * * * 1 * * * * * * }.* @ @ 1 * 2 2 * * . . . $ 5 5 5 5 & & 5 5 6 6 & & & & 1 1 1 1 c c m m m m < < < < < < < < (.(.+.+.h h F * B > > > [ ' F F & & | | > > | | > > | 0 > > B > ' ' > > [ B | 0 > > > > ' ' [ B B [ | - > > > > ' ' M > > O > > A ' M > ' ' > > ' ' > > B B > > > [ ' ' k k r r r r [ [ ' ' [ B r r ' ' k r ' ' r k ' ' r r ' ' k k r r A A ' ' r k ' ' ' A [ ' A ' ' ' ' ' [ [ ' ' ' ' ' ' > > [ [ [ B > > ; | | | . . + + # # = & & 3 | | | | > > | | # # | | > > ; | > > > > | | # # 6 6 | | | > 6 6 | | 5 5 + # 1 1 & 5 6 6 > > - - A ..B > [ ' ' ' ' ' A ' ' A ' ' ' ' ' ' k k ' ' ' ' ' ' r r ' ' r k ' ' k k ' ' r r r r k k ' ' r r A ' r r ' :.k k ' ' r k ' ' ' ' > > > > > > ' ' > > ' ' ' ' ' ' > > > > B > ' ' > > > > > > [ B > > > > - - > > | 0 > > - - B B > > [ > > > > > - 0 - - } } | L V V 1 1 > > M > > > * 1 h 8 m m < < W W S S < < _.m S S m m * * * * s s 5 5 & & 5 5 5 & V V & 5 . $ . . $ $ 1 1 c 2 * * 1 1 * * * * % % 1 1 s % 1 1 % # % % s s 1 * % % 1 * % % 1 1 # % 1 1 ",
"% # % % # @ # % * * s % * * @ % * * * * 1 * * * 1 * * 1 * * * F * * * }.2 c 1 1 $ . 5 5 $ $ 5 5     & & & 5 = = & 5 % % }.* 1 * m m S S n m < < < < < < S S +.+.j j 1 1 > > M > > > 1 1 & 5 L L | | | | | | | 0 0 | - - B > > > > > - - - | [ [ B [ ' ' [ B B [ > > ' ' > > ' ' > > > > > > ' ' [ B ' ' > > B [ | - > > > > ' ' A ' k r ' ' r k [ [ ' ' B [ r k [ [ r r A ' r r ' A r r k k r r ' [ ' ' ' ' [ A ' A A A ' ' ' ' > > ' ' :.' [ A [ B > > > > > > ; | > > % % . . c c V V . . . . & & | | | | | | % % | | | | > > > > > > & & . . & & | | | | 6 6 2 2 & & . . G G * * 5 5 6 | | | > > A ..> > ' ' A ' ' ' ' ' [ A ' ' r r ' :.' ' ' ' ' A ' ' A A ' ' r r [ [ ' ' ' ' k k k k r r [ [ ' A [ [ r r ' :.k k ' ' r r [ B > > 0 | - > > > ' ' > > ' ' > > ' ' > > ' ' ' ' ' ' > > > B > > [ [ B > > B > > B B - - > > - - > > - 0 > > - 0 > > | | - - | | & & c c > > > > > > F F 8 8 +.+.W W S S < < S S S S m m m m 2 2 1 * * * 5 5 5 5 & & $ $ & 5 . . 5 5 . $ $ $ * * 2 2 c c % % * * % % * 1 s % 1 1 % % }.* # % * 1 % % 1 1 % % % # @ % % # @ % ",
"@ @ # % % # @ % * * s % * * % # * * * * * * * * * 1 * * * * * F * * * * 2 2 * 1 $ $ 5 5 $ $ 5 5     & & & 5 = = 5 5 s % }.* * * m m S S n m < < < < < < S S +.+.j j 1 1 > > > > > > 1 1 & 5 L L | | | | | | | 0 | - - - > > > > > > - 0 B 0 [ [ B [ A ' > B B B > > ' ' > > ' ' > > > > > B ' ' > B ' ' > > B [ | - B > > > ' ' ' ' k r ' ' r r [ [ ' ' [ B r r [ [ r r A ' r r ' A r r r r k k [ [ A ' ' ' [ A ' ' ' A ' ' ' ' > M ' ' ' A ' A B > > > > > > > ; | > > % % . . c c V V . . . . & & | | | | | 5 % % | | | | > > > > > > & & . . & & | | | | 6 6 2 2 & & . . G G * * & 5 L | | | > > [ [ > > ' ' ' ' A ' ' ' [ A ' ' k k ' :.' ' ' ' A ' ' ' ' A A ' r r B [ ' ' ' ' k r r r r r [ [ ' ' [ [ r k ' ' k r ' ' r k B > > > 0 | - > > > ' ' M M > ' > > ' ' > > ' ' ' ' ' ' > > > > > > [ [ > > > [ > > [ > - 0 > > - - > > - 0 > > - - > > | | - - | | & & c c > > > > > > F F 8 h +.+.W W S S < < S S S S m m m m 2 2 * * * * 5 5 5 5 5 & $ $ 5 5 .   & 5 $ $ $ . * * 2 2 c c % % * * % % 1 1 s % 1 1 % % * * s % 1 1 # % 1 1 % % # @ % @ @ @ # % ",
"% % # @ % @ @ @ @ % * * 1 * * * 1 * 2 2 2 2 c 2 1 1 1 * * 1 2 2 @ @ 2 2 [.2 F * $ . $ $         & 5 . . & & & 5 5 & 1 1 1 1 c c m m m m m m m _.< < n n S S ].].h h F F > > > > > ' * * V V | | > > ; | - - ; | - - | | > > | | - - - 0 0 - - | - 0 - 0 [ B > B > > > > > > > > > > > > > > > > ' ' > > > > - 0 > > | | > > ' ' k r r r k k ' A ' ' [ [ r r A ' k k ' ' k k ' ' r k ' ' r r ' ' ' ' B B A ' [ [ A ' ' ' ' A ' ' ' [ > > A ' A [ ' ' B > [ [ - - > > | | . . c c 1 1 > > k k 1 1 J J 5 & O O V V # # | | 0 | - - B > > > L | # # J J | 6 6 | 5 5 $ $ k k | | i i F F . . | | & & > > > > ' ' ' ' ' ' B [ ' ' A ' ' ' [ B ' ' > > > > ' ' ' A [ [ ' ' ' ' k k [ [ r r r r k k ' ' ' ' B [ r r ' ' r r [ [ ' ' [ [ > B 0 | - > > 0 > > > > ' ' > M > > > > > > > > > > > > > > > > > > > > > > | | - - | | > > - 0 - - | | ; | } } - - | | > > | | | | . . 1 1 > > M > > > 1 1 j j +.+.S S S S _._.< < m m S S ^.^.F F c c * * V V & 5 .   . $ $ $ 5 5 $ $ $ $ # # s s 2 2 F * * * 1 * 1 * * 1 1 1 1 1 1 1 1 1 1 * % % @ # % % % % % % % @ s % # % ",
"% % @ @ # % % @ @ % * * 1 1 * * * 1 2 2 2 2 c 2 1 1 * * 1 1 2 2 @ @ 2 2 [.2 F * $ $ $ .         & 5 . . & & & 5 & & 1 1 1 * c c m m m m m m _._.< < n n S S ].].h h F F > > > > > > 1 * V V | | > > ; | - - ; | - - | | > > ; | - - 0 0 - - 0 | | 0 - 0 [ B > B > > > > > > > > > > > > > > > > ' ' B > > > 0 | > > ; | > > ' ' r r r r k k ' A ' ' [ [ r r A ' k k ' ' k r P ' r r ' ' r r ' ' ' ' B B A ' [ [ A ' ' ' ' ' ' A [ ' > > A ' A [ ' ' > > [ [ - - > > | | . . c c 1 1 > > k k 1 1 J J & & O O V V # # | | 0 0 - - > > > > | | # # J J | 6 | | 5 5 $ $ k k | | i i F F . . | | & & > > > > ' ' A ' ' ' [ B ' ' ' ' A ' > B ' ' B > > > ' A ' A [ [ ' ' ' ' k k [ [ r r r r r k A ' ' ' B [ k r ' A r r [ [ ' ' [ [ > B 0 0 > > - 0 > > > B ' ' > > > B > > > > > > > > > > > > > > > > > > > > O L - - ; | > > - 0 - - | | ; | } } - - | | > > ; | | | . . 1 1 > > M > > > 1 1 j j +.+.S S S S _._.< < m m S S ^.^.F F c c * * V V & 5 . $ . . $ $ 5 5 $ $ $ $ # # s s 2 2 1 * * * * 1 * * * 1 1 1 1 1 1 * 1 1 * * % % # @ % % % % % % @ s % % # % ",
"* * s % * * % % 1 * % @ * }.* * 2 2 % % # # $ $ # % # @ 2 2 1 1 * * * }.2 c 1 1 # @ . . $ . 5 5 $ $ 5 &     & & & 5 >.>.* * * }.^.^.S S m m S S m m S S S S ].].8 8 * * - - > > > O * * . . | | = & | | } } } 0 & & | | } } - - } } - - } 0 | - 0 | - > B > > B > > > > > > M > > > > > > > > > > > > > - - > > > > ' ' > > ' ' [ [ r r A ' ' ' > B [ [ [ [ r r ' ' r r ' ' ' ' [ B r ' B B ' ' [ B ' ' > > B [ > > ' ' ' ' ' ' > > [ [ B > [ [ [ [ ' ' > > , > 0 | | | . . + + 2 2 k k l l # # V V | | L L & & % s L L | | > B > > > > & & + + & & > > 6 6 5 5 $ . p p > > G G E E & & | | > > | | > > B > ' ' > > [ [ > > A ' > > ' ' > > B > - - ' ' A ' ' ' [ [ r r A ' > ' ' ' k r ' ' k k [ [ ' ' [ [ A ' [ B ' ' ' ' k k [ [ [ [ B > > > ; | > > > > A ' B > ' ' > > ' ' B > ' ' > > B > > > > > > > > > | 0 > > | | | - } } | | } } | | } } - 0 | | | 0 | | 5 5 c c > > > > > > F F 8 h ].].S S _._.S S _.m m m m m m _.c 2 1 * F F 5 5 .   & 5 $ $ $ . $ $ . . $ E $ . * * c F F F s % * * * * * 1 @ # . . . . 1 1 s s * * % s 1 * s % 1 * s % * * % % ",
"* * s % * * % % 1 * @ @ * }.* * 2 2 % % # # $ $ # % @ @ 2 2 1 1 1 * * * 2 2 * 1 @ @ . . $ $ 5 5 $ $ 5 &     & & & 5 % % }.* 1 * ^.^.S S n m S S m m S S S S ].].8 8 * * - - > > > O * * . . | | & & L | } } 0 | & & | | } } - - } } - - } 0 0 | - 0 > > B > > B > > > > > > > B > > M > > > > > > > > > - - > > , > ' ' > > ' ' [ [ r r ' ' ' ' [ B [ B [ [ r r [ ' k r A ' ' ' A [ [ ' ' [ ' ' A B ' ' > > [ A > > ' ' A ' [ ' - > [ A > > [ [ [ B A ' > > > > 0 | | | . . + + 2 2 k k l l # # V V 6 6 | | & & % s L L L | > B > > > > & & % # = & > > 6 6 5 5 $ . p p > > G G E E & & | | > > 0 | > > > > ' ' > > [ [ > > ' ' > > ' ' > O > > 0 - ' ' ' A ' ' B [ r r A ' ' ' ' ' r r ' A k k [ [ ' ' [ [ A ' [ [ ' ' ' ' k k [ [ [ [ > > > > ; | > > > > ' ' > > ' ' > > ' ' > > ' ' > > > > O > > > > > > > - 0 > > | | 0 | } } | | } } | | } } 0 | | | 0 0 | | 5 5 c c > > > > > > F F 8 h ].].S S _._.S S m m m m m m m _.c 2 1 * F F 5 5 . . & 5 $ $ . $ $ . . . E E $ . * * c F F c s % * * 1 * * 1 # @ . . . . 1 1 s s * * % s * * s % * * s % * * % % ",
"@ @ 1 * s % * * % % * * ^.^.+ S 4 4 4 4 4 ! W W S S ) ) ) ) y y c c 2 2 2 2 F * # % % % # @ # @ . . $ $ .   . . . . * * * 1 2 2 ^.^.^.^.m m m m _._._._.S S ].].8 8 2 2 > > > > O L F F & & 6 6 . . k k ' ' 0 | | | 0 | | | | | - - - - > B - - > > - 0 B [ | - > > > > > > > > ' ' > > ' ' > > > > > > > O L | ' ' > > ' ' > > ' ' [ [ ' ' A [ ' ' [ [ r k [ B ' ' ' ' r r ' ' ' ' ' [ ' ' [ A ' ' B [ A [ > > ' ' > > ' ' > > ' ' > M [ [ > > ' ' B > , > 0 | 0 | & & 3 3 $ $ c c > > k k 1 1 . . . .   . # # % % J J > > ; | | O O > | | % % . $ & 5 % % . $ $ . ' ' | | 1 1 V V & & | | 6 > > > > > [ B > > ' ' M M > ' [ [ B > > > ' ' > > [ [ B [ A B ' ' r r ' ' k k :.' k r ' ' A ' [ [ ' ' [ B r [ B [ ' ' ..[ ' ' [ [ ' ' > > > > > > > > | | > > > > ' ' > > ' A > > ' ' B > B > > > B > > > > > > > > > B > > > | | | | | | > > L L > > > > k k & & | | . . 1 1 > > M > > > 1 * j j +.+.S S S S n m S S ^.^.S S ^.^.2 2 2 2 F * $ $ + + @ @ $ $ + @ . . . $ $ $ >.>.}.}.c F 1 * 2 2 ) ) y y + + + S W W W W ~ ~ ! ! S S ) ) @ @ 1 1 % % @ @ % % F * ",
"@ @ * * s % * * % % * * ^.^.+ S 4 4 4 ! ! ! W W S S ) ) ) ) y y c c 2 2 2 2 * * % % @ % # @ # @ . . $ $ .   . . . . F * * * 2 2 ^.^.^.^.m m m m _._._._.S S ].].8 8 2 2 > > > > O L F F & & 6 6 . . k k ' ' 0 0 | | | 0 | | | | - - - 0 B > - - > > - 0 B B | 0 > > > > > > > > ' ' > > ' ' > > > > > > > O L | ' ' > > ' ' > > ' ' [ [ ' ' A [ ' ' [ [ r r [ [ ' ' ' ' r r ' ' ' ' [ B A ' A ..' ' [ B B [ > B ' ' > > ' ' > > ' ' > > [ A > > A ' > > > > 0 | | 0 & & 3 3 $ $ c c > > k k 1 1 . . . . .   # # % # J J > > ; | | O O > | | % % $ $ & 5 % % . $ $ . ' ' | | 1 1 V V & & | | | | > > > > [ B > > ' ' > > ' ' [ [ B > > > [ ' > > [ [ [ B ..A ' ' r k ' ' k k ' A r r A ' ' ' [ [ A ' [ [ B [ B [ ' ' [ [ ' ' [ [ A ' > > > > > > > > | | > > > > ' ' > > ' ' > B ' ' > > B > > > > B > > > > > > > > B > > > | | | 0 | | > > | L > > > > k k & & | | . . 1 1 > > > > > > 1 * j j +.+.S S S S m m S S ^.^.S S ^.^.2 2 2 2 * * E $ # # @ @ $ $ # @ . . . $ $ $ % >.* * c F 1 * 2 2 ) ) y y + + + S W W W W ~ ~ ! ! S S ) ) @ @ 1 1 % % @ @ % % 1 * ",
"* * 1 1 1 * * }.}.* * * S S W W ~.~.~.~.W W m m y y y y y y y y 2 2 2 2 [.2 * * % % $ $ # @     # # $ $ # # . . s % 1 1 [.[.* * +.+.m m _._.S S m m S S _._.].<.j j F F | | > > | | 1 1 . . L L 1 1 & & # # > > > > > > | 0 - - - - - B > > B B - 0 > > - 0 > B | | > > > B ' ' M M > ' > > ' ' M > > > | 0 > > B > ' ' > > ' ' B > ' ' > > [ [ > > A ' ' [ ' ' [ [ A ' A [ ' ' [ B ' ' [ [ A ' ' ' ' ' [ [ A ' B > [ B > > B > > > > [ > > ' ' > > > B > > > > } } | | V V $ . i i M M ' ' 1 1 . . # # % # & & % s | | | | > > | 6 L L | | . . 5 5 % # 1 * & 5 . . k k & & % s . . | | | | > > > > O > > > ' ' > > [ B > > > > > > [ [ B > ' ' - > ' ' [ [ [ A [ [ A ' ' [ ' ' ' ' r r [ A ' ' [ [ ' ' B > [ [ B > A [ > > [ [ [ B ..[ > > > B > > M > > > > > M > ' ' > O > > > > B > | | B > > > A ' M M > > > > > > | L > > | | 0 | | | > > | | & & . . 1 1 & & . . c c > > > > > > c c h h <.<.S S S S S S m m m m ^.^.^.^.2 2 * * 2 2 $ $ # # @ + s % # # # @ $ $ % % s % * * 1 * c c 2 2 z z z y y z z y ) ) S S ! ! ^ ^ W W W W @ @ 1 1 * 1 % % F * % % ",
"* * * 1 1 * * }.* * * * S S W W ~.~.~.~.W W m m y y y y y y y y 2 2 2 2 2 2 * * % % $ $ @ #     # # $ $ # + . . % % 1 1 [.[.* * +.+.m m _._.S S m m S S _._.].<.j j F F | | > > | | 1 1 . . L L 1 1 & & % # > > > > > > | 0 - - - - - B > > B B 0 0 > > 0 0 > > 0 | > > > B ' ' > > ' ' > M ' ' M > > > | 0 > > > B ' ' > O ' ' > > ' ' > > A [ > > ' ' [ [ A ' [ B :.' A [ ' ' A [ ' ' [ [ ' ' ' ' ' ' A B ' ' B > > B > > [ > > > [ B > > ' ' > > B B > > > > } } | | V V $ . i i M M ' ' 1 1 . . # # # % & & % s | | | | > > | 6 L L L L . . & 5 % # * * 5 5 $ . k k & & % s . . 6 | | | > > B > > > > > ' ' > > [ B > > > > > > [ [ > > ' ' > > ' ' [ [ A ' [ [ A ' ' [ ' ' ' ' k k [ [ [ ' [ [ ' ' B > [ [ > B > [ > > [ [ B [ [ [ > > > > > > > > > > > > > > ' ' > > > > M > > > | | > > > > ' ' M M > > > > > > ; | > > | | | L | | > > | | & & .   1 1 & & . . c c > > > > > > c c h h <.<.S S S S S S m m m m ^.^.^.^.2 2 * F 2 2 $ $ # # @ + % s # # # @ $ $ % @ s % 1 * * * 2 c c 2 z z y y y z y y ) ) S S ! ! ^ ^ W W W W @ @ 1 1 * 1 % % 1 * # % ",
"* * }.* * 1 * }.) ].+ # ! ! ^ ^ ^ ^ ~.~.) ) y y y y y y y y d d c c 2 2 * * 1 * % % # # + + ) ].4 4 ! 4 4 ! 4 4 W W m m ) ) y y ^.^.^.^.m m m m _._._._.S S ].].8 8 c c > > > > > > 1 * V V | | E E % % | | | | | | | | > > > > > B > > > > - 0 > > |.|.> > - 0 > > | | > > > > ' ' ' ' ' ' > > > > ; | > > > > ' ' > > ' ' > > B > > > A [ > > [ [ B > ' ' A B ' ' [ [ ' ' [ B ' ' [ [ A ' B > A ' ' ' ' ' M > [ [ B > > > > > > > > > > > > B > [ > > [ B - - B > | | | | . . c c | | ' ' 1 1 V V & & | | . . E E J J > > | | | | | | | L # # 6 6 5 5 J J $ $ . . ' ' & & * 1 5 5 & & > > 6 | ' ' M M > B - - > > > O B > > > [ [ > > ' ' > B ' ' > > A ' > B ' ' A ..' ' [ A [ ' [ A r r ' ' ' ' B [ ' ' > > [ [ > > [ B > > [ [ > > ' A > > > > > > > > M > > > > > ' ' > O > > 0 | > > | | > > > > > O L | > > > > > > > > > > | | > > | | > > # + % # & & | | . $ 1 1 > > M > > O * F j j +.+.S S S S _.m S S ^.^.S S ^.^.2 2 y y m m < < ! ! ! ! 4 ! 4 4 # + S + # @ 1 1 * * c c }.* 2 2 i i 2 2 y y i i y y y y W W ~.~.^ ^ ! ! S S ) ) * * * * % % 1 * ",
"* * }.* * * * * ) ].+ + ! ! ^ ^ ^ ^ ~.~.) ) y y y y y y y y d d c c 2 2 * * * F % % # # # + ) ].4 4 ! 4 ! ! 4 4 W W m m ) ) y y ^.^.^.^.m m m m _._._._.S S ].].8 8 c c > > > > > > * 1 V V | | E E % % | | | | | | | | > > > > > B > > > > - - > > |.|.> > - 0 B > | | > > > > ' ' ' ' ' ' > > > > ; | > > > > ' ' > > ' ' > > > > > > A [ > > [ [ > > ' ' A B ' ' [ [ ' ' B [ ' ' [ [ A ' > > A ' ' ' ' ' , > [ [ > > > > > > > > > > > > > B > [ > > [ B - - B > | | | | . . c c | | ' ' 1 1 V V & & | | . . E E J J > > | | | | | | | | # # 6 6 5 5 6 J $ $ . . ' ' & & * 1 5 5 5 & > > ; | ' ' > > [ B - - > > > O B > > > [ [ B > ' ' > B ' ' > > A ' > B ' ' [ [ ' ' [ [ ' ' [ [ r r ' ' ' ' [ [ A ' > > [ [ > > A [ > > A [ > > ' A > > > > > > > > > M > > > > ' ' > O > > | | > > | | > > > > > O L | > > > > > > > > > > | | > > ; | B > # + # # = & | | . $ 1 1 > > > > > O * F j j +.+.S S S S m m S S ^.^.S S ^.^.2 2 y y m m < < ! ! ! ! 4 ! 4 4 + + S + # @ 1 1 1 * 2 2 }.* 2 2 i i 2 2 y y i i y y y y W W ~.~.^ ^ ! ! S S ) ) * * * * % % 1 * ",
"1 * }.* * * F % y y 3 3 ~ ~ ^ ^ ~.~.< < y y ].y y y y y d d y y 2 2 c c 2 2 * * 1 1 2 2 + + 3 3 ! ! ^ ^ ^ ^ ^ ^ ~.~.W W S S ) ) +.+.m m ^.^.S S m m S S S S <.<.j j F * | | > > | | 1 1 . . | | | | | | | | > > | | > > B > > > - 0 > > - - > > > > :.:.> > [ > | | > > > > A ' > > ' ' > > > > 0 | | | > > > > > > ' ' > > > > M > [ B > > ' ' [ B ' ' [ [ ' ' [ [ ' ' [ > ' ' [ [ ' ' B [ [ [ > B ' ' B B ' ' > > > > - 0 > > - - > > > O ' ' > > [ B > > O > 0 | - 0 & & 3 3 i i M M > > 1 * 5 5 6 | & & | | % % 6 6 | O 0 | | 6 L O O 6 $ . 5 5 6 6 V V & 5 % # ' ' & & % # . . | | | | | | | | > > > > B [ > > ' ' > M > O > > [ [ > > ' ' > B ' ' > > [ [ > > A [ B [ ' ' [ [ A ' [ [ ' ' [ [ ' ' ..[ ' ' > > A [ > > [ B > > ' ' > > ' ' B > > B > > B > > > ' ' B > ' ' > > > > | | > > | | > > > > > > > > ' ' B > ' ' > > > > > > > > > > | | | | | | & & . . c c > > L L > > 2 2 h h ].].S S _.m m m m m m m ^.^.^.^.c 2 . . 4 4 ~.~.^ ^ ^ ^ ~.~.~ ~ 3 3 S S 2 c c c 2 2 c c c 2 2 2 i i y y i i 2 2 d d y y m m ~.~.^ ^ ~.~.3 3 S S 2 2 # % * 1 @ % ",
"* * 1 * * * * F y y 3 3 ~ ~ ^ ^ ~.~.< < y y y y y y y y d d y y 2 2 c c 2 2 * * 1 1 2 G + + 3 3 ! ! ^ ^ ^ ^ ^ ^ ~.~.W W S S ) ) +.+.m m ^.^.S S m m S S S S <.<.j j 1 * | | > > | | 1 1 . . 6 6 | | | | | | > > 6 > | > > > > > 0 - > > - - > > > > ' :.> > > [ | 0 > > > > ' A > > ' ' B > > > ; | | 0 > > > > > > ' ' > > > > M > [ [ > > ' ' [ [ ' ' [ B ' A [ B ' ' > > ' ' B [ ' ' [ B [ [ B [ ' ' > B ' A > > , > - - > > - 0 B > > > ' ' M > > [ > > > > 0 | - - & & 3 3 i i > > > > 1 1 & 5 6 6 5 & | | % % 6 6 6 | | L 6 6 > O | | . . 5 5 6 6 V V & 5 # # ' ' & & + + . . | | | | | | | | > > > > > [ > > :.' > > > > > > [ B > > ' ' B > ' ' > > [ [ > > A [ B [ ' ' [ [ ' ' [ [ ' ' [ [ A ' [ [ A ' > > [ B [ > A [ > > ' ' > > ' ' > > > > > > > > > > ' ' B > ' ' > > > > | | > > | | > > > > > > > > ' ' > B ' ' > > > > > > > > > > ; | | | | | = & . . c c > > L L > > 2 2 h h ].].S S _.m m m m m m m ^.^.^.^.c 2 . . 4 4 ~.~.^ ^ ^ ^ ~.~.~ ~ 3 3 S S 2 c c c c 2 c c c 2 c c i i y y i i 2 2 d d y y m m ~.~.^ ^ ~.~.3 3 S S 2 2 # % * * % % ",
"* * * F * * 2 2 S S W W ~.~.~.~.- - ].].].y i i y y y y ].].y y ) ].) ) ].) ) ) z y ) ) S S 4 4 ^ ^ ^ ^ _ _ _ _ 1.1.~ ~ 4 4 n n ].].].].+.+.^.^._._.m m S S ].].8 8 c c > > | | | > F F . . & & L L | | | | | | | | | | > > | L B > | | - 0 | | > > M > B B > > > > | | > > > > ' ' > M > > > > > > > > > > > > ' ' > > ' ' > > [ B B > ' ' [ [ ' ' [ [ ' ' [ B ' ' > > ' ' [ [ ' ' > > ' ' A [ ' ' [ B ' ' B > :.' B > > > 0 - > > > O B > > > > > > > > > | | | | & & & & . . c c | | ' ' 1 1 & 5 & & J J & & E E & 5 L | & & 3 3 | | & & # # | | 5 5 & & V V . . ' ' | | # # V V 5 & | | & & | | | | > > > > > B > > ' ' > > > > , > B > > > A [ > > [ [ [ B A ' [ [ ' ' [ [ [ [ B > ' ' [ B r [ > > ' ' [ [ B [ > > [ [ > > ' ' [ B ' ' > > > > > > > > > > > > > > > > > > > O L | > > | | > > > > ' ' > > > > | | | | | | B > > > > > 6 6 O | & & | | | L 6 6 E E 1 1 | | > > > | F F j j +.+.S S S S m m S S +.+.) ) ) ) n n 4 4 ^ ^ ^ ^ _ _ _ _ 1.1.~.~.W W n n ) ) ].].y y z y y y ].y ].].y y y y d d ].y i d ].].+ + ^ ^ ~.~.W W + S * 1 * * @ % * * ",
"* * * * * * 2 2 S S W W ~.~.~.~.- - ].].y y i i y y y y y ].y y ].) ) ) ].) ) ) y y ) ) S S 4 4 ^ ^ ^ ^ _ _ _ _ 1.1.~ ~ 4 4 n n ].].].].+.+.^.^.m _.m m S S ].].8 8 c c > > | | | > F F . . & & | | | | 6 | | 0 | | | | > > | L B > | | - 0 O | > > > > B B B > > > | | > > > > ' ' > > > > B > > > > > > > > > ' ' B > ' ' > > [ A > > ' ' [ B ' ' [ [ ' ' [ [ A ' > > ' ' [ [ A ' > > ' ' A [ ' ' B > ' ' B > ' ' > > B > - - > > > O B > > > > > > > > > | | 0 | & & & & . . c c | | ' ' 1 1 & 5 5 & & J & & E E & 5 L | & & & 3 | | & & # # | | 5 5 & & V V . . ' ' | | # # V V 5 & | | & & | | L L > > > > > B > > ' ' > > > > > > [ B > > A [ - > [ [ [ B A ' [ B ' ' [ B r [ > > A ' ' [ [ B > > ' ' [ B B [ > > [ [ B > ' ' [ B ' ' > > > B > > M > > > > > > > > > > > > > | | > > | | > > > > A ' > > > > | L | | | | > > > B > O | | | | & & | | 0 | | 6 E E 1 1 | | > > > O * F j j +.+.S S S S m m S S +.+.) ) ) ) n n 4 4 ^ ^ ^ ^ _ _ _ _ 1.1.~.~.W W n n ) ) ].].].y y y z y ].y ].].].y y y d d z ].d d ].].+ + ^ ^ ~.~.W W + S * 1 * * % @ * * ",
"* * * * * * * F S S W W ~.~.~.~.m m ].].i i 2 2 ) ) + + + # S + ) ) S + # + + + + S W W S S W W ! ! ^ ^ _ _ 2.2.( ( ^ ^ 4 4 n n z z ^.^.^.^.m m _._.m _.S S ].<.j j F * L | > > | | * * # # J J & & | | & & | | | | > > | 0 > > } } | | } } > > > > > O 0 | - > > > > > > > > > > > > > > > > > > > > > > > ' ' > > ' ' > > ' ' > B [ B [ [ ' ' [ [ ' ' [ [ ' ' [ [ [ [ B [ ' ' > > [ B B > [ A B B ' ' > > ' ' [ B [ ..- - > > > O B > - - > > - - > > | | | | & & | | & & 3 3 i i O O > > # #   . & & 3 3 & & s s & 5 6 J | | & & | | 3 3 # # V V & 5 5 5 & & # # ' ' & & % # . . & & | | | | | | > > > > B > - - > > > > ' ' > > [ B > > [ [ > > ' ' [ B ' ' > > [ [ [ B ..[ > > ' ' [ [ ' ' > > ' ' [ B r ' B B [ [ B > ' ' [ B ' ' > > ' ' > > > > - > > > > > > > > > > > > > > > | | > > ; | > > > > > > O L | | & & | | O | > > | | 0 | & & | | & & | | & & E E 1 1 > > ; | > > 2 2 h h <.].S S m m m m m m _.m ^.^.z z n m W W ~ ~ ( ( _ _ : : ).).! ! W W 4 4 S S S S S S S + S + + + S S S + + + + + y y ].y y z + S ~ ~ ^ ^ W W W W * * @ @ * * * * ",
"* * * * * * * F S S W W ~.~.~.~.m m ].].i i 2 2 ) ) + + + # S + ) ) S S S + + + + S W W S S W W ! ! ^ ^ _ _ 2.2.( ( ^ ^ 4 4 n n z z ^.^.^.^._.m _._._._.S S ].<.j j * * L | > > | L * * # # J J & & | | & & | | | | > > | | > > } } O | } } > > > > > > 0 - > > > > > > > > > > > > > > > > > > > > > > > > ' ' > > ' ' > > ' ' > B [ [ [ [ A ' [ [ ' ' B [ ' ' [ [ [ [ [ B ' ' B > [ [ > > A [ B - ' ' > > ' ' [ B B [ - - > > > > > > - 0 > > - - > O | | | | & & | | & 5 & & i i O O > > # #   . & & & 3 3 & s s & 5 J J | 6 & & | | & 3 # # V V & 5 5 5 5 & # # ' ' & & # # . . & & | 0 | | | | > > > > B > - - > > M > M ' > B > B > > [ [ > > ' ' [ B ' ' M M [ [ B [ A B B > ' ' [ [ ' ' > > ' ' [ [ ' ' [ [ [ [ > > ' ' B B ' ' > O ' ' > > > B - > > > > > > > > > > > > > > > | | > > | | > > > > > > O L | | & & | | | | > > | | | | & & | | & & | | & & E E 1 1 > > ; | > > 2 2 h h <.].S S m m m m m m _.m ^.^.z z n m W W ~ ~ ( ( _ _ : : ).).! ! W W 4 4 S S S S S S + + + + # + S S S + + + + + y y y ) y z S S ~ ~ ^ ^ W W W W * * @ @ * * * * ",
") ) ) ].) ) z y m m S S W W S S S S S S 4 4 n n W W 4 4 ! ! ! 4 W W 4 4 4 4 W W W W W W W W 4 4 W W S S ^ ^ 1.1.^ ^ ~ ~ W W m m z z +.+.^.^.+.+.m m m m _._.) ].8 8 c c > > L L L > c c $ $ & 5 6 6 L L | | & & O | & & | | & & 0 | | } | | O | > > 0 - > > } 0 B > > > B > O > ' ' > > > > > > > > > > ' ' > > ' ' > > ' ' > > [ B > > [ B > > [ [ [ B [ [ > > ' ' [ [ [ [ > > A [ > > A [ > > ' ' > > ' ' > > ' ' > > > > > > > > - - > B > > > > | | > > | | | | & & | | = & c c J J > > 1 1 & 5 5 5 & & 5 5 % % V V | | 6 6 | | | | & & 1 1 & & 3 3 J J $ $ $ . > > & 5 1 1 5 & & 3 | | | | | L L | > > > > ' ' > B > > > > > > > > ' ' M M > ' > > [ [ > > [ [ > > B [ [ [ A ' [ [ ' ' [ B ' ' [ [ ' ' [ [ ' ' B > B [ > > [ [ > > ' ' > > > > > > > > > > > > > > ' ' > > ' ' > > > > | L | | | | > > | 6 M > | | | | | | | | | | | | = & | | | | | | & & & & # # 1 1 | | | > | | F F j j +.+.m m m m _.m m m +.+.^.^.z z + S W W ^ ^ ^ ^ 1.1.^ ^ 4 4 < < W W S S W W W W ! ! 4 ! W W 4 4 ! ! W W ! ! 4 4 < < 4 4 S S m m W W W W 4 4 m m ^.^.) ) ) ) ) ) ",
") ) ) z ) ) z y m m S S W W S S S S S S 4 4 n n W W 4 4 ! ! 4 4 W W 4 4 4 4 W W W W W W W W 4 4 W W S S ^ ^ 1.1.^ ^ ~ ~ W W m m z z +.+.^.^.+.+.m m m m _._.) ].8 8 c c > > L L O O c c $ $ 5 5 | | L L | | & & | | & & | | & & | L } } | | O | > > 0 | > > 0 0 B > > > B > O > ' ' > > > > > > > > > > ' ' > > ' ' > > ' ' B > [ [ > > [ B > > [ [ [ [ [ B > > :.' A [ [ [ > > [ [ > > [ B B > ' ' > > ' ' > > ' ' > > > > > B > > - - > > > > > > | | > > | | | | & & | | = & c c J J > > 1 1 & 5 5 5 & & 5 5 % % V V | | 6 6 6 | | | & & 1 1 3 & & & J J $ $ $ . > > & & 1 1 & & 3 & | | | L | L L | > > > > ' ' > > > > > > > > > > ' ' > > ' ' > > [ [ > > [ [ > > B [ [ [ ' ' B [ ' ' [ [ ' ' [ [ ' ' [ [ ' ' B > [ B > > [ [ > > ' ' > > > > > > > > > > > > > > ' ' > > ' ' > > > > | L | | | | > > | 6 > M | | | | | | | | | | | | = & | | | | | | & & & & # # 1 1 | | > O O 6 F F j j +.+.m m m m _.m m m +.+.^.^.y z + S W W ^ ^ ^ ^ 1.1.^ ^ 4 4 < < W W S S W W W W ! 4 ! ! W W 4 4 ! ! W W ! ! ! 4 < < 4 4 S S m m W W W W 4 4 m m ^.^.) ) ) ) ) ) ",
"+ + S S S + 3 3 W W W W W W W W W W W W ! 4 4 4 W W W W 4 ! 4 4 W W W W W W W W S S S S m m S S ) ) n n 4 ! ^ ^ ~ ~ ! ! S S m m z z ) ) +.+.m m _._.m _.S S <.<.j j F * | | > > 6 6 * * # # J J & & | | 3 & | | & & | | & & 0 | | | ; | | | | | | | | 0 & & | | | | > > > > ' ' > > ' ' > > > > > > > > > > > > > > > > > > ' ' B > ' [ > O [ [ > > ' ' [ [ [ B [ [ ' ' [ [ [ [ B > > > B > B [ > > ' ' > O ' ' B > B B > > > > L | > > | 0 > > - - > > } 0 | | & & } } V V & & G G > > > > 1 1 . . & & 3 3 & & s s 5 5 & & | | = & | 0 . . # # 3 & J J & 5 V V # # > > V V # # 5 5 & & 3 & | | L L > O | | > > > > > > - 0 > > - - > B > > ' ' > > ' ' > > ' ' > > ' ' [ [ ' ' [ [ ' ' > > [ B [ [ A ' [ [ [ [ > > [ B > > [ [ > > A [ > > ' ' > > > > B > > > > > > > > > ' ' > > :.' B > > > | | > > | | | | | | | | & & | | | | 6 | & & | | & & 0 | & & & & & & . . c c | | | | > | 2 2 h h ].].S S _.m m m m m m _.^.^.].].^.^.W W ] ] ^ ^ ^ ^ 4 ! m m m n m m S S S S W W 4 4 4 4 4 4 W W W W W W ! ! 4 4 W W W W W W W W W W W W ! ! 4 4 W W W W + + 3 3 ",
"+ + S S + + 3 3 W W W W W W W W W W W W ! 4 4 4 W W W W 4 ! ! 4 W W W W W W W W S S S S m m S S ) ) n n ! ! ^ ^ ~ ~ ! ! S S m m z z ) ) +.+._.m _._.m _.S S <.<.j j * * | | > > | 6 * * # # J J & & | | 3 & L L & & | | & & | | | | | | | | | | | | 0 0 & & | | | | > > > > ' ' > > ' ' > > > > > > > > > > > > > > > > > > ' ' B > ' [ > > B [ > > ' ' [ [ [ B [ [ ' ' [ [ [ [ B > > > > B [ [ > > ' ' > > ' ' B > B B > > > B | | > > - 0 > > - - > > - 0 | | & & 0 } V V & & G G > > > > 1 1 . . 3 3 & & 3 3 s s & 5 J & | | & & | | . . # # & & J J 5 5 V V # # > > V V # # 5 5 & & & & | | L L > O O | > > > > > > - 0 > > - - B [ > > ' ' > > ' ' > > ' ' > > ' ' [ [ ' ' B [ ' ' > > [ [ A [ ' ' B [ [ [ B > [ [ > > [ B > > [ [ > > ' ' > > > > B > > > > > > > > > ' ' > > ' ' > O > > | | > > | | | | | L | | = & | 0 | | | | = & | | & & | | & & & 5 & & . . c c | | | | | > 2 2 h h ].].S S m m m m m m _._.^.^.].].^.^.W W ] ] ^ ^ ^ ^ ! ! m m m n m m S S S S W W 4 4 4 4 4 4 W W W W W W 4 ! ! 4 W W W W W W W W W W W W ! 4 4 4 W W W W + + 3 3 ",
"~ ~ ! ! ~ ~ ! ! ~ ~ 4 4 W W ! 4 W W 4 4 W W W W W W 4 4 W W S S 4 4 S S S S S S S + ) ) ^.) y y ) ) c c ^.^.W W W W S S + S ) ) e e ^.^._.m +.+.m m n m m _.].].8 8 2 c > > | | > > c c 5 5 & & J J | | | | & & | | & & | | | | > > | | > > |.|.| |.|.| | | | | - - - - > > > > ' ' > > ' ' > > > B B > > > - - > > > > [ [ > > > > > > > > > > ' ' > > ' ' > > ' ' [ B ' ' > > [ B > > ' ' > > ' ' > > ' ' > > ' ' > > ' ' > > > > > > > > | | , > 0 | | | | | | | = & & 5 $ . c c | | > > F F . . V V > > . . s % V V | | & & J J 5 & J J % % & & 3 3 | | . . . $ O O J J % s 5 5 V V & & & & | | | | | | | | > > > > > > > > > > > > ' ' > > ' ' > > > B B > [ ' [ B B > > > [ ' ' [ ' ' B > A ' ' ' ' ' > > ' ' > > > > > > [ [ > > B B > > > > > > > > > > [ B > > [ [ > > B [ > > > > | L | | | | | | | | O O L L > > | 0 0 | J J | 6 & & | | & J | | 3 & 6 6 # # 1 1 | | | > O O c F 8 h +.+._._.S S m m S S ) ) ^.^.d d ) ) x x W W W W ~.~.+ S x x x x ) ) ) ) ^.^.^.^.S S S S S S + S S S S S W W W W W W ! ! W W ! 4 ! ! ! ! ! ! ! ! ! ! ! ! ! ! ! ! ",
"~ ~ ! ! ~ ~ ! ! ~ ~ 4 4 W W 4 4 W W 4 4 W W W W W W 4 4 W W S S 4 4 S S S S + S + # ) ) ].) y y ) ) c c ^.^.W W W W S S S S ) ) e e ^.^._.m +.+.m m m n m _.].].8 8 c c > > | | > > c c 5 5 & & J J | | | | & & | | & & | | | | > > | | > > |.|.| |.|.| | | | | - - - - > > > > ' ' > > ' ' B > > B > > > > - - > > > > [ [ > > > > > > > > > > ' ' > > ' ' > B ' ' B > [ ' > > [ B > > ' ' > > ' ' > > ' ' > > ' ' > > ' ' > B > > > > > > | | > > | | | | | | | | = & & 5 $ $ c c | | > > F F . . V V > > . . s % V V | | & & J J & & J J % s & & 3 3 | | . . . E O O 6 J s s 5 5 V V 3 & & & | | | | | | | | > > > > > > > > B > > > ' ' > > ' ' > > > B B B ' ' > B > [ B > ' ' [ B ' ' > > ' ' ' ' ' ' > > ' ' > > > > > > [ [ > > B B > > > > > > > > > > [ B > > [ [ > > > B > O > > 0 | | 0 | | | | | | | O O L > > | | | | J J | 6 & & 6 6 J J | | & & | | * # 1 1 | | | > O O c F h h +.+._._.S S m m S S ) ) ) ^.d d ) ) x x W W W W ~.~.S S x x x x ) ) ) ) ^.^.^.^.S S S S S S S + + S S S W W W W W W ! ! W W ! ! ! ! ! ! ! ! ! ! ! ! ! ! ! ! ! ! ",
"! ! ~ ~ ! ! ! ! ! ! 4 4 4 4 4 4 S S 4 4 S S S S S S S S +.+.) ) ^.) +.+.) ].].) y y y y d d z z d d i i S S W W S S S + ].].y y 8 8 ^.^.+.+.m m _._._._._.m +.+.j j F F | | > > | | * 1 E E J J J | 6 | & & | | & & & & & & | | 0 | | | | | | |.|.| | | | | | |.|.| - - ; | > > > > > [ > > > > - - > > | | B > 0 0 > > > > [ [ O > > B | | > > > O ' ' > B ' ' > > A [ > > ' ' B > > > > B ' ' > > ' ' > > ' ' B > > > > > > > > > > > > > B > | | 0 | | | | L & & 3 & V V V V G G L L | | 1 1 % # V V & 5 # # s s & 5 J & & & 5 5 6 J 5 5 $ E E E L L # # $ $ # # M M 5 5 % # $ . 5 5 5 5 J J & & | | | | > > 0 | > B 0 0 > > > > [ B > > > [ > > > > > > [ [ B > [ B - - > > > O ' ' [ B ' ' ' ' A ' ' ' > > > > > > > > > > > > > B > > > > } 0 > > | | > > - - > > > > > > - 0 > B | | 0 - | | | | | | | | O | O > 0 | |.L | 6 6 6 & & | 6 6 J 6 6 J 6 | | & & % # 1 1 > > | | > > 2 2 h h ].].S S _.m S S ^.^.^.) ) ].y y d d ) ) ) ) S + W W + S d d d d d d y y y y y y ) ) ) ) ) ) ^.^.+.+.m m m n S S S S < < S S < < < < ! ! 4 ! ! ! ! ! ! ! ! ! ! ! ",
"! ! ~ ~ ! ! ! ! ! ! 4 4 4 4 4 4 S S 4 4 + S S S S S S S +.+.) ].) ) +.+.) ].) ) y y y y d d z z d d i i S S W W + S S S ].].y y 8 8 ^.^.+.+.m m _._._._._.m +.+.j j F * | | > > | L * 1 E E J J | 6 | L & & | | & & & & & & 0 | | | | | | | | |.| | | | | |.| |.|.| - - | | > > > > [ B > > > > 0 - > B | | B > | 0 > > > > [ [ > > > > | | > > > > ' ' B > ' ' > > A [ > > ' ' B > > > > B ' ' > > ' ' > > ' ' B > > > > > > > > > , > B > > > | | | |.| | | | & & 3 & V V V V G G L L | | 1 1 % % V V & 5 # # s s & 5 J & & & & 5 J J & 5 E E E E L L # # $ $ # # M M 5 5 % # . . 5 5 5 5 J J & & | | | | > > | | > > 0 0 > > > > [ B > > > [ > > > > > > [ [ [ B [ B B - > > > O ' ' B > [ ' ' ' ' ' ' A > > > > > > > > > > > > > B > > > > } 0 > > | | > > - - > > > > > > - 0 B > | > - - ; | | | | | | | | | > > | | |.L | | 6 | & & 6 6 J 6 6 6 J 6 | | & & % # 1 1 > > | | > > 2 2 h h ].].S S m m S S ^.^.^.^.].].y y d d ) ) ) ) S S W W + S d d d d d d y y y y y y ) ) ) ) ) ) ^.^.+.+.m m m m S S S S < < S S < < < < ! 4 ! ! ! ! ! ! ! ! ! ! ! ! ",
"W W W W W W S S S S S S S S ) ) + + ^.^.+ + ) ) ) ) c c ) ) y y 2 2 -.-.2 2 g g f f h h 8 h 8 8 8 8 8 8 + # + S + # x x i i 8 8 + + ^.^._.m ^.^.m m m m S S ].].8 8 c c > O O 6 O O c F . . 3 3 & & k k ' A & & 3 3 & & | | 3 & | | | | | |.| |.| | | | | | | | O | | | | | | | > > 0 0 > > | | | 0 | | | 0 0 | > > - - > > > > > > | |.O O 6 J O O > | M M ' ' ' ' > > A ' > O > > > > ' ' > > ' ' > > ' ' > > > > > > > > > > > > | | > > > > > > | | | | & & J J & & & & . . 2 2 6 6 > > * * E E 1 1 c c . . % % V V 6 6 & & J J & & J J % % % % 1 1 2 2 E E E E O O J J s s V V V V & & & & | | | | | | | | - - | | > > 0 0 > > > > > > > > > > - - - B > > [ [ > > > > > > > > > > ' ' ' ' ' ' > > ' ' | | > > | | > > L L > > > > > > 0 0 > > | | - - | | > > - 0 > > | | | 0 0 | | 0 0 | > > L | | | | | | | | | | | & & J J 5 5 5 & & 5 | | > > k k V V J J # # 1 1 | | | | | | F F j j +.+.S S S S m m m m +.+.) ) ].].h h g g c c 1 1 @ @ 1 1 2 2 8 8 j j h h f f h h f g h 8 2 2 i i c c i i 1 1 c c ) ) ) ) + + ^.^.S S S S S S S S W W S S W W W W ",
"W W W W W W S S S S S S S S ^.) S + ^.^.+ + ) ) ) ) c c ) ) z y c 2 -.-.2 G g g f f h h 8 h 8 8 8 8 h 8 + + + # @ @ x x i i 8 8 + # ^.^.m m ^.^.m m m m S S ].].8 8 c c O O | | > O c c . . & & & & k k ' ' & & & & 3 & | | & & | | | | | |.| | | | | | | | | | | | | | | | | | O > 0 0 > > | | 0 0 | | | 0 | | > > - - > > > > > O > L O O | 6 > O O | M M ' ' ' ' > > ' ' > > > > > > ' ' > > ' ' > > ' ' > > > > > > > > > > > > | | > > B > > > | | | | & & J J & & & & . . 2 2 6 6 > > * * E E 1 1 2 c . . % % V V J 6 & & J J 5 & J J s % % % 1 1 2 c E E E E O O J J s % V V V V & & & & | | | | | | | | - - | | > > 0 0 > > > > > > > > > > - - B B > > [ [ > > > > > > > > > > ' ' ' ' A ' > > ' ' L L > > 0 | > > L | > > > > > > 0 0 > O | | - - | | > > - 0 > > | | | 0 | | 0 0 0 | > > | | | | | | | | | | | | & & J J & 5 5 & 5 5 | | > > k k V V 6 J % # 1 1 | | | | | | F F j j +.+.S S S S m m m m +.+.) ) ].].h h g g c c 1 1 @ @ 1 1 2 2 8 8 j j h h f f h h f g 8 8 2 2 i i c c i i 1 1 c c ) ) ) ) + + ^.^.S S S S S S S S W W S S W W W W ",
"m m S S m m m m +.+.) ^.^.) ) ^.y y ) ^.y y y y d d d d 8 8 8 8 8 -.-.h h h h h h h j h 8 8 h h i i 2 2 c c ].z z z d d h 8 c c ].].^.^.^.) m m n m S S S S +.+.j j * * | | | | | | F * E $ | | F F & & # # & & & & | | | | | | | | | | | | | | | | | | | | | | L | > > O | > > 0 0 - - | | - - L | - - | | > > | | > > > > > > L L > > O | L L | | ' ' > > ' ' B > > > > > > > > > O > > > ' ' > > O > > > > > B > L > > B > > > > > > > > > > | | | |.& & & & & & 5 & V V V V G G | | | | 1 1 E E V V & & & & s s 5 5 & 5 & & 5 5 J J & 5 E E V V & & V V $ $ # # > > 5 5 % % . . 5 5 5 5 J J J J O | | | O O | | > > | | > > > > > > > > > > > > > > - - > > > > [ [ > > > [ > > > B B > ' ' ' ' ' ' > > > O O | 6 O L L > > > > > > > > > > | | > > 0 | > > | | B > | | - - 0 | | | | | | 0 0 | | | | | | | | | | | | | | | | | | | J J J J & 5 . . . . * * & & . . 2 c > > L | > O c 2 j j ].].S S m m m m ^.^.^.^.^.^.+.+.8 h h j 8 8 i i y y c c c c c 2 h h 8 8 h j 8 h h f 8 8 8 8 8 8 8 8 d d h 8 i i z z z y y ].) ) ].].) ) ) ) ) ) m m m m m m S S ",
"m m S S m m m m +.+.^.^.) ) ) ^.y y ) ) y y y y d d d d 8 8 8 8 8 -.-.h j j h h h h j j 8 8 h h i i 2 2 c c ].z z z d d 8 8 c c ].].^.^.) ^.m m n m S S S S +.+.j j * * | | | | | | * * E $ | | F F & & # # & & & & | | | | | | | | | | | | | | | | | | | | | | L | > > O | > > 0 0 0 - | | - - | | - - | | > > L | > > > > > > |.L > > O | L L | | ' ' > > ' ' B > > > > > > > > > > O > > ' ' > > > > O > > > B > > > > > > > > > > > > > > > | | | | & & & & & & & & V V V V G G | | | | 1 1 E E V V & & & & s s 5 5 5 & & & 5 5 J J & 5 E E V V & & V V $ $ # # > > 5 5 % % $ . 5 5 5 5 J J J J | | | | O O | | > > | | > > > > > > > > > > > > > > - - > > > B [ [ > > > [ > > > B > > ' ' ' ' ' ' > > > O | | > O L L > > > > > > > > > > | | > > 0 | > > | | B > | | - - | | | | | | | 0 | | | | | | | | | | | | | | | | | | | | J J J J 5 5 . . . . * * & & . . 2 c > > | | | > 2 2 j j ].].S S m m m m ^.^.^.^.^.^.+.+.h h j 8 8 8 i i y y c c c c c 2 h h 8 8 h j 8 h h f 8 8 8 8 8 8 8 8 d d h 8 i i z z z y y y ) ) ].) ) ) ) ) ) ) m m m m m m S S ",
"1 1 ) ) * 1 c 2 c c i i i i 8 8 g g h h h h h j j h 3.3.j j h h h j 8 h g g h h s s G 2 8 8 8 8 d i g g f i 8 8 h h j j * * 2 2 ) ].) ) m m ^.^.m m _.m S S ].].8 8 c c > O O | 6 O F F . . J J # # s s J J | | | | & & | | | | | | | | | | | | | | | | | | | | | 0 0 | > - - | > > L | > > | L - - 0 0 > > | | > > - - > > B > > > O | > O O | M > > > ' ' > > ' ' B > > > > > B > > > ' ' B > > O > > > > O > ' ' > > ' ' > O > > > > > > 0 | > > | | 0 | & & | | 5 5 & 5 $ $ 2 2 6 6 > O c c . . . . & & . . % % V V & & 5 5 & 5 & 5 5 & s s V V V V V V E E E E L L & & s s V V V V & & & & | | | | | | | | > > - - > > 0 | > > O > > [ > > B > > > > > - - > O > > > > > > > > > > ' ' > > ' ' > > ' ' L L L O O | > > L L > > > > > > - - > > 0 | > > | | | 0 0 | > > 0 0 - - | | 0 - | | 0 0 0 | | | | | | | | | | | | 6 6 > 6 6 | | | | | | . . % # . . J J % # * * | | O O | L F F 8 8 +.+.m m S S +.+.m m +.+.) ^.].].c c 8 8 2 2 -.-.g g 8 8 i i g g g f 8 h 8 h g g =.=.h h =.=.3.3.8 h h j h 8 8 8 h j j h h -.f 8 i i g g c c 2 2 ) ) ) ^.) ) ) ) ",
"1 1 ) ) * 1 c c c c i i i i 8 8 g g h h h j j j h h 3.3.3.j h h h h 8 h g g h h s s G 2 8 8 8 8 d i g g g i 8 8 h h j j * * 2 2 ) ].) ) m m ^.^.m m m m S S ].].8 8 c c O O O | 6 O F F . . J J # # s s J J | | | | & & | | | | | | | | | | | | | | | | | | | | 0 | | | 0 - - | > > | | > > | | - - 0 - > > | | > > - - > > > > > > O | > O | | > > > > ' ' > > ' ' > > > > B > > > > > ' ' B > > > > > > > > O ' ' > > ' ' > > > > > > > > 0 | > > | 0 | | & & | | 5 5 5 & $ $ 2 2 6 6 > O c c . . . . & & . . % % V V & & 5 5 5 & 5 & 5 & s s V V V V V V E E E E L L & & s s V V V V & & & & | | 6 6 | | | | > > - - > > 0 | > > > > [ > > B B > > > > > - - > > > > > > > > > > > > ' ' > > ' ' > > ' ' L L L O | | > > L L > > > > > > - - > > | | > > | | | 0 0 | > > 0 0 0 - | | - - | | 0 0 | | | | | | | | | | | | | 6 | | | | | | | 6 L L . . % # . . J J # # 1 * 6 6 > 6 L L F F 8 8 +.+.m m S S +.+.m m +.+.) ^.].].c c 8 8 2 2 -.-.g g 8 8 i i g g g g h h 8 h g g g f 8 h =.=.3.3.8 h h h j h 8 8 h h j h 8 -.f 8 i i g g c c 2 2 ) ) ) ) ^.) ) ) ",
"i i G 2 -.-.-.-.h h 8 8 8 8 -.-.8 8 8 h h h h j j h f f h h h h G G G 2 g g c c * * * * * 1 c 2 c c * * h h 2 c % % * * [.[.2 2 ].].].) +.+.^.^.m _._._._.m +.+.j j * F | | | | | | F * . . J 6 V V J 6 | | | | & & | | & & | | | | | | | | | | & & | | & & | | | | | 0 0 | > > - - - - | | - - | 0 0 - L | - - | | > > - - > > | | | | | | | L L | M M > > ' ' > > ' ' > > > O > > ' ' > > > > > > > > > > > > > > > > > > ' ' > > > > > > > > | | > > | | | 0 & & 5 & . . . . G G | L L | * * E $ . . V V & & s s 5 5 & & & & V V J 6 V V # # $ $ 5 5 . . . $ # % O O V V # % $ $ 5 5 5 5 J J J 6 | | | | O > 0 0 > > - 0 > > > > > > > > > > > > > > > > > > > > > > > > > O > O > > > > ' ' > > ' ' > > > > | | | | | L O O | L > > - 0 > > | | > > 0 | - - | | > > - - B > | | 0 - | | | 0 & & } } & & | | | 6 6 | | | > O J 6 6 | J J | | | | | | & & | | & & $ $ 2 [.O O | L > L 2 2 h h ].].S S m m m _.+.+.) ^.].].].].i i 2 2 2 2 2 c c 2 c c c c 2 2 G G % s * * * * c c 2 2 2 G 2 c h h j j j h g g 4.8 h h f 8 h -.8 8 8 h 8 8 -.-.i d d d i d y y ",
"i i 2 2 -.-.-.-.h h 8 8 8 8 -.-.8 8 8 h h h h j j h f f h h h h G G G 2 g =.2 2 * F * * * 1 c c c c * * h h c c % % * * 2 [.2 2 ].].].) +.+.^.^.m _._._.m m +.+.j j * F | | | | | | F * . . 6 6 V V J 6 | | | | & & | | & & | | | | | | | | | | & & | | & & | | | | | 0 | | O > 0 - - - | | - - | 0 - - L | - - | L > > - - > > | | | | | | | L L L M M > > ' ' M > ' ' > > > > > > ' ' > > > > > > > > > > > > > > > > > > ' ' > > > > > > > > 0 | > > | | L | & & & 5 . . . . G G | L L | * * E $ . . V V & & s s 5 5 & & & & V V J 6 V V # # $ $ 5 5 . . $ $ # % O O V V # % $ $ & 5 5 5 J J 6 6 | | | | > > - 0 > > - 0 > > > > > > > > > > > > > > > > > > > > > > > > > > > > > > > > ' ' > > ' ' > > > > | | | | 0 | O O | L > > - 0 > > | | O > | | 0 - | | > > - - B > | | 0 - 0 | 0 0 & & } } & & | | | 6 | | | | | O J 6 | | J J | | | | | | & & | | & & $ $ [.[.O O O | L L 2 2 h h ].].S S m _._._.+.+.^.^.].].].].i i 2 2 2 2 c c c 2 c c 2 2 c F G G s s * * * * 2 c 2 2 2 G 2 c h h j j h h i g 8 8 h h 8 8 h -.8 8 8 h 8 8 -.-.i d d d d d y y ",
"h h 8 8 h h j j h h j h h h h h f g h h g g h h f f h h h h =.=.[.[.g g =.=.=.=.* * * * % % * 1 # # 1 1 E E # % E E 2 2 c c G G y y y y +.+.].]._._._._.S S ].].8 8 c c O | | | | | * F V V 5 & | | J J | | & & & & & 5 | | | O | | | L | | | | | | | | | | | | | | | | - - | 0 > > | | > > | | - - | | | 0 | | - - - 0 > > L L | | | | | O O | L > > > > > > > > > > > > > > > > > > > > > > > > > > > O > O > > > > > > > > > > > > > > > > > > > | | 0 | & & 6 6 V V 5 5 $ $ 2 2 6 6 > 6 c c . . . . & & . . % # V V & & 5 5 & 5 & 5 & & s s V V V V V V E E # # | | 5 5 1 1 V V V V & & & & | | | 6 O | | | O > > O > > > > > [ > > B B > > ' ' > > > > > > > > > > ' ' > > > > > > > > > > > > > > ' ' L L M > | | | | 6 6 > > | | > > | L > > | | - - | | | | | | O > > > > > | | - - | | | 0 0 } | | 0 } | | | | | | | | | J J J J | & & | | 6 6 | L L | J J # # * * | | O O J 6 c c j j <.<.m m m _.].].) ^.].].].) ].y G G g g 2 2 % % @ % s s % % * * @ @ 1 1 * 1 c 2 2 c g g c c 2 2 G 2 j h j h h h i g h h -.f h h h j h h h j h h h h h h h h h h ",
"h h -.8 8 h j j h h h j j j h h 8 g h h g g h h f f h h h j =.=.[.[.g g =.=.=.=.F * * * % % * 1 # # 1 1 E E # % $ E 2 2 c c G G y y y y +.+.].]._._._._.S S ].].8 8 c c O | | | | | F F V V 5 & | | J J | | & & & & 5 & | | | O | | | | | | | | L | | | | | | | | | | | - - | 0 > > L | > > O | - - | | | 0 | | - - - 0 > > | | | | | | O > | | > > > > > > > > > > > > > > > > > > > > > > > > > > > > > O > > > > > > > > > > > > > > > > > > > > | | | | & & 6 6 V V 5 5 $ $ 2 2 6 6 > O c c . . . . & & . . % % V V & & 5 5 & & 5 5 & & s s V V V V V V E E # # | | 5 5 1 1 V V V V & & 5 & | | | 6 O | | | > > > O > > O > B > > > [ [ > > ' ' > > > > > > > > > > ' ' > > > > > > > > > > > > > > ' ' L L > > | | | | 6 6 > > 6 | > > O | > > | | - - | | | 0 | | > > > > > > L | - - | | | 0 } } | | 0 } | | | | | | | | | | 6 J J | & & | 6 6 | L L L | J J % # * * 6 6 > O 6 6 c c j j <.<.m m m _.].].^.^.].].].) y y G G g g 2 2 % % % % s s % % * * @ @ 1 1 * 1 2 2 G 2 =.f 2 2 G 2 c c h h h h h h i g h h h f h h 8 h j h h h -.h h h h h h h h h ",
"h h h h 8 f g g 2 2 2 2 h h h h h h h h h h h j h h 4.4.=.=.2 2 g g 2 2 =.=.2 2 2 2 F F * * s % x 1 % % * 1 s s * * 2 2 g g 2 2 z z y y ].].].].+.+.m m n m <.<.h h F F 6 6 | L L 6 * * # # & & & & & & & & | | & & | 6 & & | | & & | | | | | | | | | | | | > B | | > > | | > > | | - - | 0 > > 0 0 - - L | > > - - > B - 0 0 0 | | L L | 6 O | L L > > > > ' ' > > > > > > > > | | > > > > > > > > > > > > > O > > > > > > > > > > > > > > > > | | > > | L | | 5 & & & V V V V i i 6 6 | L 1 1 E $ $ . V V & & s s 5 5 & 5 & & V V J J V V # % $ $ 5 5 . . $ $ s s O O V V # % $ $ 5 5 5 5 | 6 6 J | | | | > > 0 0 > > - - B > > > > > > > > B > > > > > > > > > > ' ' > > > > > > > > > > > > > > > > > > > > O | > > L | | | | | O > | | > > | | > > | | - - | | 0 0 | | > > - - > > 0 | > > | | | 0 | | | | | | | | | | | | | | | | 6 6 | L & & | | & & & & 5 5 $ $ 2 [.L L | | L L 2 2 h h ].].S S ) ^.].].y y ].].].y y ].g g i i =.G % % s s % % F F * * * * 1 1 c 2 2 c g g G G g g c c g g 2 2 h h f g 8 h 8 h h h h f h h G G 2 G g g f f G G =.g h 8 ",
"h h h 8 f f g g 2 2 2 2 h h h h h 8 h h h h h j h h 4.4.g f 2 2 g g 2 2 =.=.2 2 2 2 * F * * s % 1 1 % % * 1 s s * * 2 2 g g 2 2 z z y y ].].].].+.+.m m m _.<.<.h h F F | 6 L L 6 6 * * # # & & & & & & & & | | & & | 6 & & | | & & | | | | | | | | | | L | > > | 0 > > L | > > 0 | 0 - - | > > - 0 - - L | > > - - > B | 0 0 - | | L L | 6 O | | L > > > > ' ' > > > > > > > > | | > > > > > > > > > > > > > > > O > > > > > > > > > > > > - > | | > > | L | 6 & & 5 & V V V V i i 6 6 | L 1 1 E $ $ . V V & & s s 5 5 & 5 & & V V J 6 V V # # $ $ 5 5 . . $ $ s s O O V V % % $ $ 5 5 5 & 6 6 J J | | | | > O O 0 > > - - B > > > > > > > > B > > > > > > > > > > ' ' > > > > > > > > > > > > > > > > > > > > > O O > | | | | | | O > | | > > L | > > | L - - | | | 0 0 | > > - - > > - 0 > > | | - 0 0 | | | | | | | | | | | | | | 6 | 6 6 | J & | 6 & & & & & 5 E $ [.[.O L L | | L 2 2 h h ].].S S ) ^.].].y y ].].y y ].].g g i i =.G % % s s % % F F * * * 1 1 1 c 2 2 c g g G G g =.2 2 g g G 2 h h f g h h h h h h h f h h G G G 2 =.=.f f G G =.=.h h ",
"* }.[.[.}.* 2 2 [.[.G G 2 [.g g =.=.4.4.4.4.4.4.=.=.=.=.=.=.=.g g g f f =.g g f d d i i 2 2 c 2 c c 2 2 * F 2 2 [.2 g g 2 c g g i i i i c c 2 2 * * c c S S ].].8 8 2 2 O O | 6 O L 2 2 . . & & 5 5 & 5 J J & 5 | | J J | | & & | | | | | | | | > > | | > > | | > > | | > > | | > > | | > > | L > > L | > > > > > > > > > O | 6 L L L L M > | | L L L | > > > > ' ' > > > > > > O > > > M M > > > M B > > > > > > > > > > > > > > > > > > > | | > > | | | L & & & & V V & 5 E $ 2 2 V V J 6 F F . . % # . . . . s s $ $ 5 & . . 5 5 . . V V s s V V V V V V E $ # % | | 5 & s s $ . . . J J & 5 | 6 6 6 6 | | | > > - - > > > > > > > > [ [ > > ' ' > > > > > > > > > > > > | | > > > > > > > > ' ' > > > O > | | > 6 L > O | | O > | | > > 0 0 > > | | > > L | > > | | > > L L > > - 0 > > O | > > | L > > | L | | J J | | 5 5 & & | 6 | | & & | | & & 5 & V V & & E E F F 6 6 L L 6 6 * F h h ].].m _.* * c c * * 2 2 F F G G 2 2 g g c c 2 2 F F 2 c c c 2 2 G 2 c c G G g =.=.g f f f g g =.G G =.g c 2 g g h h h h g g g g G G g g 2 2 2 2 * * 2 2 }.* 2 2 ",
"F * [.[.}.* 2 2 [.[.G G 2 2 g g =.=.4.4.4.4.4.4.=.=.f g g =.=.=.g g f f =.g g f i i i i 2 2 c c c c 2 c c F 2 2 G 2 g g 2 c g g i i i i c c 2 2 F * c c S S ].].8 8 2 2 O O J 6 | L 2 2 . . & & 5 5 & 5 J J & 5 | | J J | L & & | | | | | | > | | > | | > > | | > > | | > > L | > > | | > > 0 | > > | 6 > > > > > > > > > | | 6 L L L L > > | | L | | | > > > > ' ' > > > > > > > > > > M M > > > > B > > > > > > > > > > > > > > > > > > > 0 | > > | | | | & & & & V V 5 5 E E 2 2 V V 6 J F F . . # # $ . . . s s $ $ 5 & . . & 5 . . V V s s V V V V V V $ $ # % | | 5 & s s $ . . . J J 5 5 | 6 6 6 6 | | | > > 0 - > > > > > > > > [ [ > > ' ' > > > | > > > > > > > > | | > > > > > > > > ' ' > > > > L L O O | | L O L O > O O | > > - 0 > > | | > > | | > > | | > > L L > > - 0 > > | | > O | L > > L | | | J J | | 5 5 5 & 6 6 | | & & | 0 & & & & V V & & E E F F | 6 L L | | F F 8 h ].].m _.* * c c * * 2 2 F F G G G 2 g g c c 2 2 F F G 2 c c c 2 2 2 G 2 c =.=.g g =.f f g g g =.G G g g c c g g h h h h g g g =.G G g g 2 2 2 2 * * 2 2 F }.2 2 ",
"2 2 F F 2 2 [.[.G 2 2 c g g =.=.g g =.=.g g g g 4.4.g g 4.4.g g h h g g g =.2 2 i i c c * * % % * * % % % s % % % @ % % s % % % c c 1 1 1 1 1 1 c c 1 1 _._.].].j j c c O | | O J 6 * * . . & & 5 & | | & & | | J J | | | | | | & & | | & & | | | | > > | | > B L | > > | | | | | | > > > > > > > > > > L | > > > > > > L | | | | O > | | L > O L L | L L L > > O > > > > > > > O | > > > > ' ' > > > M M > > > > > > > > > > > | | > > > > > > | | 0 | | | | | & & & & V V . . 2 G & & & & 1 1 E $ 5 5 J J . . * * V V . . & 5 V V V V E $ % % $ $ 5 & & 5 E E s s O L V V # % . $ 5 5 & 5 J J & & 6 | | | | O L L | | | | > > - - > > > > > > > > > > > > > M > > ' ' > > > > > > > > > > > > > > > > L L O O | | > > | | L L O | > > | | > > | | > > 0 | > > - 0 > > | | - - | | - - | 0 > > - | B > | 0 | O | | | | & & & & & & | | J J | | 5 J J J 5 5 & & & 5 E E [.[.6 6 | J L L 2 2 j j <.<.S S c c c c 2 2 * * }.}.F * * * E E % % % @ s % % % * * % s * * % % * * c c g g =.g f f =.g f f g g f f g g g f G G g g c c g g 2 2 2 G G 2 2 2 * F 2 2 * F ",
"2 2 F F 2 2 2 [.[.2 2 c g g g =.g g =.g g g g g 4.4.=.=.4.4.g g h h g g g =.2 2 i i c c * * % % * * % % % s s % % % % @ s % % % c c 1 1 1 1 1 1 c c 1 1 _._.].].j j c c O | | O 6 6 * F . . & & 5 & | | & & | | J J | | | | | | & & 0 | & & | | 0 | > > | | > B |.L > > | | | | 0 | > > > > > > > > > > O | > > > > > > | | | | | | O > | | > O | | | L | | > > > > O > > > > > > O | > > > ' ' > > > > > > > > > > > > > > > > | | > > > > > > | | | 0 | | | | & & & & V V . . 2 G & & & & 1 1 E $ 5 5 J J . . * * V V . $ & 5 V V V V E $ % % $ $ & & 5 5 $ E s s O L V V # % $ $ 5 5 & 5 J J & 5 | | | | | O L | | | | | > > 0 - > > > > > > > > > > > > > > M > ' ' > > B > > B > > M > > > > > > > | | | > | 0 > > | | | L | | > > | | > > L | > > | | > > - 0 O > | L - - | | - - | 0 > > 0 0 > > | | | | | | 6 | & & & & & & | | & J J | & J J J 5 5 & & & & E E 2 [.6 6 | J L L 2 2 j j <.<.+ S c c c c 2 2 * * }.* * * * * E E % % % % s % % % * 1 % % * * % % * * 2 2 =.=.g g f f =.g f f g g f f g g f g G G g g c c g g 2 2 2 G 2 2 c c F F 2 2 * * ",
"[.[.G 2 2 2 =.=.G G g g =.=.g g g g f f g g h h g g g f g g f g 2 2 c c * * c c * * * ^.5 5 V V 5 5 . . 5 & 5 5 6 J & & & & E $ 1 1 * * 1 1 c c x x ) ) S S ].].8 8 c c L L | | L L 2 2 . . . . | 6 & & | | & & | 6 | | | | L 6 | | | | | | & & | | | | | | | L | | | | | | | | | | | | > > > > > > L | > | | | > > | | | O L | O L O | | > L | | | | | > > > > > > > > > > > O > > | |.> > > > > M M > > > > > > > > > > > > > > > | | > > | | > > | | 6 6 0 | 6 6 & & 5 5 $ $ 2 2 5 5 | 6 F F # # $ . J J 1 1 s s $ . & & . . 5 5 . . V V s s # # | | . . % # % % 6 6 V V s s V V V V J J J J | | | | | L L L 0 0 | | | | | | > > > > > > > > > > > > > > > > > > > > > > > | > > | | > > > O > > L | > O | | > > L L L O | | | O | | > > | | > > | | 0 0 0 0 > > | | - - | | 0 | | | 0 0 | | | | | | | | & & | | & & J J & 5 | | J J | | J J J J & 5 J J J J 6 6 # # * * | | O L 6 6 * F h 8 ].].m m 1 1 y y 2 2 i i * * F F V V 5 5 6 | 5 5 5 5 V V 5 5 $ $ . $ V V % % * * * * 2 2 F F 2 2 2 2 =.=.f g h h f =.g g G G =.g 2 2 g g [.2 G G [.2 2 2 F F 2 2 ",
"[.[.G 2 2 2 =.=.G G g g =.=.=.g g g f f f g h h g g g f g g g g 2 2 c c * * c c * * * 1 5 5 V V 5 5 . . 5 & 5 5 6 J & & & & E $ 1 1 * * 1 1 c c x x ) ) S S ].].8 8 c c L L | | L L 2 2 . . . . 6 6 & & | | & & | | | | | | L O | | 6 | | | & & | | L | | | | | O | | | | | | | | | | | > > > > > > L L > > | | B > | | > O | | L L L | | > L | | | | | > > > > > > > > > > > | | > L L > > > > > > > > > > > > > > > > > > > > > > L | > > | | > > | | 6 6 | O 6 6 & & & 5 $ $ 2 2 5 5 | 6 * F # # $ . J J 1 1 s s $ . & & . . 5 5 . . V V s s # # | | . . % # % % 6 6 V V s s V V V V J 6 J J | | | | | L | | 0 0 0 | | | | | > > > > > > > > > > > > > > > > > > > > > > O | > > O | | > > O > > | | O O | L > > L L L O L | | O | | > > | L > > | | | 0 0 0 > > L | - - | | L | | | 0 0 | | | | - | | | & & | | & & J J & 5 | | J J | | J J J J & 5 J J J J J 6 # # * * 6 6 L L | | F F h 8 ].].m m 1 1 y y 2 2 i i * * F F V V 5 5 J 6 5 5 5 5 V V 5 5 $ $ . $ V V # % * * * * 2 2 F F 2 2 2 2 g g =.=.h h =.g g g G G =.g 2 2 i g [.2 G G [.2 2 2 F F 2 2 ",
"=.=.G 2 =.f =.=.=.=.=.=.=.g =.=.f f g g g g G 2 2 2 * * * 1 s s * * 1 1 * * 1 * F F % % $ $ 5 5 $ $ .   5 5 5 & 5 5 5 & 5 5 . . c c 2 2 i i 2 2 y y b b m m ].].j j F F 6 6 | | | | F F # # & 5 V V 6 J J J | | J J L | | | | | | | | | & & | | | | | | | L | L | | O | | | | | | | > > | | > > | | > > | | > > O | > > L | | | | | > O L L > > | | | L > O > > L | > > | | O > L L O > > > > > > > > > > > > > > > ' ' > > > M > > > O | 6 > > | | > > 6 | 0 | 5 & & & V V . . 2 G & & & & 1 1 # # c c 2 2 . . * * V V . . & 5 V V V V E $ % % % s 1 1 2 G # # * 1 | 6 $ $ s s $ . & & & & | | & & | | | | | > L | - - | | > > - - > > > > > > > > > > - - > > | | > > > > L > L L | O O | > > O O > > L | > > | | > > L | | L L | | L | | > O | | | | | | - - | | | | | | | | | | | | | | | | | 6 | | 5 & | | 5 & | | 5 & 6 6 | J L | 5 & 6 | 5 & J J & & J J & & . . F F L L | | L L 2 2 h 8 ].]._._.1 1 1 1 i i i i G G 2 2 % % 5 5 & 5 5 5 $ $ 5 5 $ $ V V . $ $ $ }.}.* * F F * * F * * F % @ s s * F * * G G 2 c g g g g g g g g =.=.g g =.g G 2 G G 2 2 ",
"=.=.2 2 g g =.=.=.=.=.=.g g =.=.f f g g g g G 2 2 2 * * * 1 s s * * * 1 * * * 1 F F % % $ $ 5 5 $ $ .   5 5 & & 5 5 & & & 5 . . c c 2 2 i i 2 2 y y b b m m ].].h h F F 6 6 | | | 5 F F # # & 5 V V 6 6 J J 6 6 |.J O L | | | | | | | L & & | | | | | | | | | | | | | | | | | | | | > > | | > > | | > > | | > > O | > > | | L L | | > O O L L > | | | | O > > > L | B > | | > > L L > > > O O > > > > > > > > > > > ' ' > > > > > > > > O | > > | | > > | | 0 | & & 5 & V V . . 2 G & & & & 1 1 # # c c c 2 . . * * V V . . & 5 V V V V . $ s % % s 1 1 G G # # * 1 6 6 $ $ s s $ . & & & & | | & & | | | 6 O | | | - - | | > > - - > > > > B > > > > > - 0 > > | L > > > > O > L L | O O | | > > O > > | | M > | | > > | | | | | | | L | | > O | | | | | | - - | | | 0 | | | | | | | | | | | | | | | | & & | | & & | | & & | | 6 6 6 | J & | | 5 & J J & & 6 J & & . . F F L L L | | L 2 2 h 8 ].]._._.1 1 1 1 i i i i G G 2 2 % % 5 5 5 & 5 5 $ $ 5 5 $ $ V V . $ $ $ }.}.* * F F * * * F * * % % s s * F * * G G 2 2 =.=.f g g g g g g =.=.g =.g 2 c G G 2 2 ",
"2 2 g g G G =.=.2 2 G G G 2 G 2 F F * F s s * * # % F * % % * 1 % % * * 1 * 2 2 2 G 2 c * * * * * * }.}.}.}.}.}.s s * * * F g g f i -.-.z y x x n m m m S S ) ].8 8 c c L | 5 & 6 | 2 2 E $ V V V V P P > > & & | | 6 J O L 6 6 | | & & | | | | O & | > 0 | | | | | | 0 | | } } | | & & | | & & | 6 | | | | | 0 | | | | - 0 | O > O L | > > L | | L | | > > > > > > O | > > L L O > O O > > > O > > | O O > O > > > > > ' ' > > > > > > > > | | | O | | 6 6 J & | 0 & & 5 5 . $ 2 2 V V J 6 c c E E E $ $ . V $ s s E E . . . . V V $ $ . . % s V V V V & 5 E $ s s 5 & . $ 1 1 V V V V J 6 J J | | | | L L | 6 > > O | > > - 0 > > > > > > > > > > - - > > | | > > > O > > > O > > | | > > L L > O > O O > > | | > O L > O | | | | | | | > | L - 0 0 | | 0 0 } | | & & | | & & | | | | | | | | | | | | | | | 6 | | 5 & | L 6 6 | | & & 6 6 J J 6 6 > O ' ' $ $ 5 & # # * F | 6 L | J J F F 8 8 ].]._.m S S ^.^.) ) z z G G i g * * * * s s * * s s * * * * * F * * * * * * 2 [.F F 2 2 * * }.}.* * * }.% % * * % % * * * * F F F F 2 2 G 2 g =.G G g =.2 2 g g ",
"c c =.g G G =.=.2 2 G G G 2 2 2 F F F * s s * * % % 1 * % % 1 1 % % * * * 1 c 2 2 2 c 2 * * * * * * }.}.}.}.}.}.s s * * * * g g f i -.-.y y x x _.m m m S S ) ].8 8 c c | | 5 & | | 2 2 E $ V V V V P P > > & & | | 6 J | | 6 6 | | & & | | | O & > L L | | | | | | | | | 0 } } O | & & | | & & | 6 | | | | | | 0 } | | - 0 | O > O L | > > | | | | | | > > > > > > O | > > L L > > > O > > O | M > | O > > > > > > > > ' ' > > > > > > > > | | | | O | | | & & | | & & 5 5 E $ 2 2 V V J J c c E E E . . . $ $ s s $ E . . . . V V $ $ $ . s s V V V V & 5 E $ s s 5 & . $ 1 1 V V V V 6 J J J | | | | L L | 6 > > | 0 L > - 0 > > > > > > > > > > - - > > | | > > O | > > O O > > | | > > 6 L > > O O > > | | | > O L O O | 6 O L | | > O | | | 0 | | 0 | } } | | & & | | & & | | | | | | | | | | | | | | | | | | & & | L 6 6 6 | & 5 6 6 J J 6 6 O O ' ' $ $ 5 & # # * F 6 6 | L & J F F 8 8 ].].m m S S ^.^.) ) z z G G g g * * * F s s * * s s * * * * * * * * F * * * c c F F 2 2 * * * }.* * * }.% % * * % % * * * * * F F F c c 2 2 g =.G G g =.2 2 g g ",
"g g G 2 2 2 * F * * s s s % % % 1 1 s % 1 1 s % F * 1 1 F F c c 2 2 G 2 =.f 2 G G 2 F }.}.}.* }.* * % % }.}.% % * * % s [.[.=.=.i i i i y y ^.^.^.) m _.) ) ) ].h 8 c c J J | | & & F F # # 5 5 F F . . * * | | & & J J & & | | & & | | & & | | | | | | | O | 6 | | | | | | | | & & | | 5 & 0 | & & | | } } 0 | | | 0 0 | | > > 0 | > > | | O O | | > O O L > > > > > O L | > > O O > > > O > > > O > > | | > > > > > > > > > > | | > > | L > > L | | 0 & & & & & & & & V V $ . 2 G 5 5 & 5 * * # # . $ . . . . * * E $ . . & 5 E $ . . . $ s % $ $ 5 5 V V $ $ 1 1 J J # # s s $ E 5 5 & 5 6 6 5 & | | | | > > O | - - O | > > - 0 > > > > > > - - > > 0 | > O L L M > | O O > > | > > > O > > > > > > L L L O | | > > | | | L L 6 L L | | | L O | | | & & | | & & 0 } & & | | & & | | } } | | & & | | | | | | & & | | & & | | J J | | J J | | 5 5 # # $ . F F . . # # 2 2 L L J J | | c c h h ].].S S ].) S S ) ) ].].g g =.=.2 2 * * * * s % s s s % * * % % * * % s F F F * g g g g g g 2 2 [.2 * * * * >.% s s s % s s % s * * s s * * * * c c 2 2 G G 2 2 ",
"g g 2 2 2 2 * F * * s s s % % % 1 1 s % 1 1 % % F * 1 1 F F F c 2 2 2 c g g G G 2 G }.}.}.}.* }.* * % % }.}.% % * * % s [.[.=.=.i i i i y y ^.^.^.) m m ].) ) ].8 8 c c J J J | & & F F # # 5 5 F F . . * * 6 6 & & J J & & | | & & | | & & | | 6 | | | | | 6 | | | | | | | L | & & | | & & | | & & 0 | | } } | | | 0 0 | | > > | | > > | | > O | | O O O L > > > > O > | 0 > > O O O > > O O > > | > > | | > > > > > > > > > > | 0 > > | | > > | L | | & & & & & & & & V V . . 2 G & 5 5 & * * # # . $ . . . . * * E $ . . 5 5 E $ . $ $ $ s % $ $ 5 5 V V $ $ 1 1 J J # # s s $ . 5 5 & 5 6 6 & & | | L | > > | L - 0 | | O > - 0 > > > > > > - 0 > > | | > O L L M > | O > > > O | > > > > > > > > > L L L O | | > > | | O L | | | | | 0 | | O | | | & & | 6 & & } } & & 6 6 & 5 | | 0 } | | 5 & 6 | | | | | & & | | & & | | J J | | J J | | 5 5 # # . . F F . . # # 2 2 L L 6 J | | c c h h ].].S S ) ) S S ^.) ].].g g =.=.2 2 F * * * % % % s % % * * % % * * % s F F * * g g g g g g G 2 [.2 * * * * >.% s s s % s s % s 1 * % s * * * * 2 [.2 2 2 G 2 2 ",
"1 1 * * % s 1 1 % % % % # # % % % s * * * * 2 2 G 2 =.=.=.=.g g 2 2 =.g 2 G g g [.[.F % % % * * # # % s E E % % $ $ # % 2 2 i i 2 2 2 G ^.^.^.^._.m ^.^.m m ].].j j 2 2 L L J J | | 2 2 E $ . . & 5 1 1 & & V V & & 5 5 5 & & & | | 5 & O & 6 & | | & & | | | | | 0 0 | | | & & | | & & | | & & } } & & | | & & | | | | - 0 | | > > | L > > | 0 > O | L > O L L > > L | | > L L M > | L > > O | M M O O O > > O > > > > > > 0 | > > | | 6 | | | | | | | | | 5 & | | & & 5 5 $ E G G . . & & c c E E $ $ . . . $ s s $ E . . . . V V $ $ . . s s . . $ $ V V # % s s V V E E 1 * . . . . & 5 5 & & & 5 & | | | | | | | | | 0 | | O > | | > > 0 0 > > | | > > L L > > > O > > > O O > > | > > | | > > | | | O | | | O L L M > | L | | | | | | | | | | & & | | & & } } & & } } & & | | } } | | | | | | | L | | 5 & & & & 5 J J & & | | & & & & V V V V # % # # $ . V V s s * F J J | | J J F F h 8 ].]._._._._._.m + + ) ].2 2 =.g 2 2 G G % % % % E E % % % s % # % % s % s s }.}.g g g g g g g =.G G g g [.2 2 2 * * * * % s * * % % s s % % >.>.% % }.* 1 * * F ",
"1 1 * * % s 1 1 % % # % # # # % % % * * * * 2 2 [.2 =.=.=.=.=.g 2 2 g g G G g g 2 [.* * % % * * # # # % E E % % $ $ # % 2 2 i i c 2 2 G ^.^.^.^._.m ^.^._.m ].].h j c 2 6 6 J J | | 2 2 E E . . 5 5 1 1 & & V V & & 5 & & & & & | | 5 & | O & & | | & & | | | | | 0 | | | | & & | | & & | | & & } } & & 6 | & & | | | | - 0 | | > > L L > > | | > O | 0 L O O | > > | | > O | L > > | L > > > O > M O O > O | O > > > > > > | | > > | L | | | | | | | | | | 5 & | | & & 5 5 $ E G G . . & & c c E E E $ . . $ $ s s $ E . . . . V V $ $ $ . % s . . $ $ V V # % s s V V E E 1 * . . . . & 5 5 & & & 5 & | | 6 | | | | | - 0 | | O > | | > > - 0 > > | | > > L | > > > O > > | O O > > | > > L L > > O | | O | | O O | L > > | | | | | | | | | | | | & 5 | | & & } } & & } } & & | | 0 } | | | | | | | | | | & & & & & & J J & 5 | | & & & & V V V V # # # # $ . V V s s F F 6 J | | J J F F 8 8 ].]._._._.m m m + + ) ) 2 2 g g [.2 G G % % % % E E % % % s % % % % s s % s * * g g g g g g g g G G g g [.2 [.2 F * * * % % * * s % s s % % >.>.% % * }.1 * * F ",
"1 1 # # # % # # s s s % * * * * [.2 c 2 2 2 c c =.=.[.2 =.=.2 2 g g G G =.=.f =.* * % % s % E E # # E $ $ E E $ $ $ $ $ 2 2 c c g g c c +.+.m m m m S S _.m +.+.8 8 c c J 6 6 | J J F c % % V V & & & & V V & & 5 & & & & & | | & & & & & & & & & & | | & & | | | | | | & & | 6 & & | | & & | | & & | | & & | | & & | | | 0 0 0 | | > > L | L O | | | | | | O O O | > O > | > > > O | > > L > > > > M M > > > > > > O > 6 | | | | | > > | 6 | | | L 0 | & 5 | | & & & & . . . $ g g V V V V c c # # . $ . . . . * * E $ . . & 5 $ $ . . $ . % % $ E . . $ $ # % * * & 5 % % 1 * E E V V . . & & & & O L & & O | & & | | } } | | | | 0 - | | - - | L > > 0 - > > O O > > | > > O > O > > | L > O O | L L 6 6 | L L 6 O O O | > O | | 6 O J J | | & & L L 5 & | | & & L | & & } } & & | 6 | | | | 5 & | | & & | | & & & & 5 & J J V V & 5 . . & & 5 5 J J V V & & . $ % # 2 2 L L J J | | c c j j ].].S S m m S S ^.^.) ^.2 2 2 2 2 c * * * * $ $ % @ E $ # % E E # % % % * * s s g =.g g g g G G g g 2 [.g g 2 2 g g 2 2 2 G 2 2 F F * * }.* % % >.>.% % % % >.>.",
"1 1 # # % % # # s s % s * * * * 2 2 2 2 2 c c 2 =.=.2 2 g =.2 2 g g 2 G g g =.=.F * % s % % E E # # E $ E E $ $ $ $ $ $ 2 2 c c g g c c +.+.m m m m S S m m +.+.8 8 c c J 6 | | J J c c % % V V & & & & V V & & & & & & & & | | & & & & & & & & & & | | & & | | L | | | & & | | & & | | & & O L & & | | & & | | & & | | | 0 0 0 | | > > | | > | L | | | | | O O L | > O > | > O > > > > | | > > > > > > > > > > > > > > | | | | | | > > | | | | | L 0 | & 5 | | 5 & & & . . $ $ g g V V V V c c # # . $ . . . . * * E $ . . 5 5 E $ $ . . $ s % $ E . . $ $ # % * * & 5 % % 1 * E E V V . . & & & & | | & & | | & & | | } } | | | | - - | 0 - - | | > > - 0 O > O O > > | > | > O O O > O L > O O | L L 6 6 L L L L O O | | > O O | | | J J 6 | & & | | & & | | & & | | & & } } & & | | | | | | & & | | & & | | & & & & & & J J V V & 5 . . & 5 5 5 J J V V & & $ $ % # 2 2 L L J J | | c c j j ].].S S m m S S ^.^.) ^.2 2 2 2 c 2 * * * F $ $ % @ E $ # % E E % @ % % * * s s g =.g g g g G G g g 2 [.i g G 2 g g 2 2 2 2 G 2 F F F * * }.% % >.>.% % % % % >.",
"% % s s % s 2 2 2 c c 2 2 c [.2 F F G 2 2 2 G G 2 G G G 2 2 G G 2 c g g i g g f s s % % E $ % % E $ E E . $ V $ @ $ $ $ * * [.2 2 2 G G ^.^.m _.m m _._._._.<.<.h h 2 2 L L & & | | 2 2 E $ . $ 5 & 5 5 & 5 & 5 J J & 5 J & & & & & & & J J & 5 J J & & | | J J | | L | | | & & & 5 & & | | & & | | & & | | & & L | & & | | | L L L | 0 | L L 6 L O | 6 L | | | > O O | L > | L > > | L O O | L > > | | > > | | > > L | | L & & | | | | > > | | 0 | & & | | 5 & & & . . $ $ s s g g E E V V 2 2 # # s % $ $ E E 1 * E E . . E E V V $ $ . $ s s E E E E $ . s s % s $ E % % F F E E E $ V V $ $ & & & 5 | | J J L | } } | | } } | | | | - - | 0 0 0 | | > > > > > > L | | O | | O > L L > > L | | L | 6 | | | | > O | | | | J J | | & & 6 6 & & & & & & | | & & L L & & | 6 5 & | | & & | | | | & & & & J J & 5 J J & & J J & & J J & & J J & & | | & & J J & 5 V V # % * * J J | | J J F F j j <.<.m m _._._.m m m +.+.c c i i 2 2 [.2 $ $ . $ . . $ $ E $ $ E $ $ % @ % % s s =.=.g =.2 2 =.=.G G g g 2 2 2 G 2 2 2 [.2 2 2 2 G 2 G G 2 2 [.2 * * }.}.# % % % ",
"% % s s % s 2 2 c c 2 2 2 c 2 2 F F G 2 2 2 G G 2 2 G G 2 2 G G 2 2 =.=.g g g f s s @ % >.$ % % E $ E E $ . $ V $ @ $ E * * [.2 2 c G G ^.^._._.m m _._._._.<.<.h h 2 2 L L & & | 6 2 2 E $ . $ & & 5 5 & & 5 5 J J 5 5 & 5 & & & & & & J J & 5 J J & & | | J J | | | | | | & & & 5 & & | 6 & & | 6 & & | | & & L | & & | | | | L L | | | L | | | L | | | | 6 6 O O | L > > | L | > | L O O O | L > > | | > | | > > | | | | & & | | | | > > | O | | & & | | 5 & & & . . $ $ s s g g E E V V 2 2 # # % % $ $ E E 1 * E E . . E E V V $ . $ $ s s E E E $ . $ s s s s $ E % % F F E E E $ V V $ . & & & 5 | | J J O L & } | | } } | | | | - - | | | 0 | | > > > > > > | | > O L | > > L L > > L | | L J | L | | | | O L | | | J J | | & & 6 6 & & & & & & | | & & | | & & | | 5 & | | & & | | | | & & & & J J & 5 J J & & J J & & J J & & J J & & | | & & J J 5 5 V V # % * * 6 J | | J J F F j j <.<.m m m _.m m _.m +.+.c c i i 2 2 [.2 $ $ . $ . . $ $ E $ $ E $ $ % % # % % s =.=.g =.2 2 =.=.G G g g 2 2 2 G 2 2 2 2 [.2 2 2 2 2 G G 2 2 [.2 * * * }.% % # % ",
"2 2 F F G 2 F F 2 2 F F 2 2 c F 2 2 F F c 2 c F [.2 2 2 2 G G 2 g g G G g g g g * * % % % % $ $ $ $ E $ $ $ V V $ $ s % [.2 2 2 i i 2 2 y ].S S m _._._._.m <.<.8 8 c c 6 6 J 6 J J F F # # V V V V & & & & J J & 5 | | & & J J 5 & J J & 5 J J & & & & & & | | & & | | & & | | 5 & & & & & & & & & | | & & 0 | & & & & & & | | J J | | | 0 | O | | L | 6 6 | L L 6 O O L L > > | L > > | 6 O O | | L | | | > > L L O O L L | | | O O > | | | | & & | | & & & & . . $ . E E 2 [.f f $ $ . . F F # % $ . . $ $ V [.[.,.,.E E V V $ E . . $ E s % % % E E s % % % F F V V $ E F F c 2 % % $ E J J & & | | 6 J O L | | | 0 0 | 6 0 | | | - | | | - | | > > L | | | L L > > | L L L | | > > L | O > | | | 6 O | 0 | | | | | 6 6 | | & & J J 5 & J J & & | | & & & & & & & & & & & & & & | | & & | 6 & & & & & & & & & & J J & & J J & & J J 5 & | | & & & 5 5 & & 5 . . % # c c J 6 & & | | 2 2 h h ].]._._.m m _.m m m +.+.i i i i i g 2 2 % % $ $ $ $ $ $ $ E $ $ # # E E % % % % f f =.=.=.=.2 2 g g 2 2 g g G 2 2 2 * F G 2 2 2 2 2 2 2 [.2 2 2 2 2 2 2 2 2 * * ",
"2 2 F F G 2 F F 2 2 F F 2 2 F F 2 2 F F c 2 F F [.2 2 2 2 G 2 2 g g G G g g g g * * % % % % $ $ $ $ E $ $ $ V V $ $ % % 2 2 [.2 i i 2 2 y ].S S m _._._._.m <.<.8 8 c c 6 6 J 6 J J F F # # V V V V & & & & J J & 5 | | & & J J & & J J 5 & J J & 5 & & & & | | & & | | & 5 | | & & & & & & & 5 & & | | & & | | & & & & 5 & | | J J | | | 0 | > | | L L | | | | | | O O | | > > L L > > | | L O O | L | | | > > O L L O O L L | | | > > | | | | & & | | & & & 5 . . . . E E 2 [.f f $ $ . . F F s % $ . . . $ $ [.[.,.,.E E V V E E . . E E % % % >.E E s % % % F F V V $ E F F G 2 % % $ E J J & & | | 6 J | | | | 0 | | | | | | 0 | | | | 0 0 | | O > | | | | L L M > | L | L L | O > | | | O L | | | 6 6 | | | | L L 6 6 | | & & 6 J 5 & J J & & | | & & & & & & & & & & & & & & | | & & | | & & & & & & & & & & J J & & J J & & J J 5 & | | & & & 5 5 & & 5 . . % # c c J 6 & & | 6 2 2 h h ].]._._.m m m _.m m +.+.i i i g g g 2 2 % % $ $ $ $ $ $ $ E E $ # # E E % % % % f f =.=.=.=.2 2 g g 2 2 g g G 2 2 [.F F 2 2 G 2 2 2 2 2 [.2 2 2 2 2 2 2 2 2 F * ",
"F F G 2 2 2 [.2 F F 2 2 F F 2 2 F F 2 2 F F G 2 F F 2 G G G g g 2 G g g g g f f 2 2 G 2 * * F F * * F F F % * * s s G G [.2 i g c c i i ^.^.m _._.m m _.m m ].].8 8 c c 6 | 5 & 6 | 2 2 E E . . 5 5 V V J J & 5 6 6 & & | 6 & & J J & & J J & & & & 5 5 & & & & | | & & & & & & & & & & & & & & & & & & | 6 & & & & & & & & & & | | & J O L | | O O | O | | J 6 O L | L > > | L | O L | | O | | | | | 6 > O O | > > O L L O 6 6 O | | L | | | | | | J J | | & & & & . . 2 c c c g =.E E 5 5 2 2 # % % % V V $ E }.}.$ $ V V $ $ 5 5 E $ V V s s $ ,.E E E E s % * * E $ . E G G 2 2 F F 5 5 V V J J & & | | 6 | | | | | > O 0 | | | | | > > | L > > 6 | > > | | | | | L O O L L > > L L O O | | > O 6 6 | L L 6 O O 6 6 6 J 5 & J 6 & & J J & 5 & & & & | | & & } | & & & 5 & & & & & & 6 6 & & & & & & J J & 5 J J 5 & & J 5 & & J 5 & 6 6 & & J J 5 5 5 5 . . V V # % * * & & J J J J c F h j <.<.m m m _._.m m m +.+.2 2 i i [.2 i g * * s s s s * * * 1 * * 1 * 2 2 F * 2 2 g g g f =.=.=.=.G G g g 2 2 2 G G 2 2 2 F F [.2 F F 2 2 * F 2 2 F F 2 2 2 2 2 2 ",
"F F G 2 2 2 [.2 F F 2 2 F F 2 2 c F 2 2 F F G 2 F F 2 G G G i g G G =.=.g g g f 2 2 G 2 * * * F F * F F F % * * % s G 2 2 2 i g c c i i ^.^.m _.m m _.m m _.].].h 8 c c O | & & | | 2 2 E E . . 5 5 V V J J & 5 6 6 & & | | & & & J & & J J 5 & & & 5 5 & & & & L L & & & & & & & & & & & & & & & & & & | 6 & & & & & & & & & & | 6 6 J | L | | O O O | | | | | | L | | M > | L | > L L | O L 6 | L | | > O | L > > | | > O 6 6 O | O L | | | | | 6 J J 0 | & & & & . . c c 2 2 =.=.E E 5 5 2 2 # % % % V V E E }.}.$ $ V V $ E 5 5 E $ V V s s ,.,.E E E E s s * * $ $ E E 2 G G 2 F F & 5 V V J J & & | | 6 | | | | | > > | | | | | | > > | | > > O | > > | L | | O L O O | | > > O | > > | O > O 6 6 | L L 6 O O 6 6 6 6 & & | | & & J J & 5 & & & & | | & & | | & & & & & & & & & & 6 6 & & & & & & J J & & J J & & J J 5 & & J & & 6 6 & & J J 5 5 5 5 . . V V # % * * & & J J J J F F j j <.<.m m m _.m m m m +.+.2 2 i i [.2 g g F * s s s s * * * 1 * * * 1 2 2 F * 2 2 g g g f =.=.=.=.G G g g 2 2 G G 2 2 [.2 F F 2 2 F F 2 2 * F 2 2 F F 2 2 2 2 2 2 ",
"2 2 }.}.2 2 F * 2 2 * * c 2 }.* F F * F 2 2 F F G G 2 2 =.g G G =.=.g g f i g g 2 2 % % % % $ $ $ . . . $ $ 5 5 $ . . . c c * * c c 2 c +.+.S S m m _._.m m ].].j j F F 6 6 J J J J F F E E 5 5 . . & & & & | | & & J J 5 & J J & & & & & & & & V V & & 5 5 6 J & & & & & & & & & & & & & & & & & & | | & 5 & & & & & & & & & & & & | | | | L | | L L | J J 6 | | | O O L | | O | | > O O | | | | | O O | | > > | L > > | | | | | | | | | | L | J J | | & & J J . . . . * 1 c c g g $ $ E E [.2 % s J J & 5 E # 2 [.V V $ $ 5 & . . 5 5 V V * * s s J 6 $ E s % * F $ $ s % g g f i % % $ $ J J 5 & | | J J O | L | | | | | > > O | | | | | > O 0 | > > | | | | 6 | O O | | > > L L > O | | | | | | | | | | > O O | | | 5 & & & & & J J & & J J & & | | & 5 | | 5 & | | & & & & & & & & & & & & & 5 5 & 5 & 5 & & 5 J J 5 & & J & & J J & 5 J J & 5 & & V V 5 5 E $ E E 2 c 6 6 & & 6 6 c 2 j h ].].S S m m _._.m m _._.2 2 2 2 2 2 F F $ $ V V E E $ $ # @ $ $ # % # # s s s % f f =.g 4.4.g g f f =.=.=.=.2 2 2 G F F 2 2 F c 2 2 F F [.2 F F 2 2 2 2 2 2 * F ",
"2 2 }.}.2 2 * * 2 2 * * c 2 }.}.F F F F 2 2 F F G G 2 2 =.g G 2 g =.i g g f g g 2 2 % % % % $ $ $ $ . . . $ 5 5 $ . . . c c * * c c 2 c +.+.S S m m _._.m m ].].j j F F | 6 J J J J F F E E 5 5 . . & & 5 & | 6 & & J J & 5 J J & & & & & & & & V V & & & 5 J J & & & & & & & & & & & & & & & & & & | | & & & & & & & & & & & & & & | 6 | | O | 6 | | | J J | L | | O O L L > | O L O O | L | | | | O O | | > > L | > > | | | | | | | | | | L | J J | | & & J J . . . . * 1 c c g g E $ $ E 2 2 s s J J 5 5 % # 2 [.V V $ $ 5 & . . & 5 V V * * s s J 6 $ E s s * F $ $ s % g g f i % % $ $ J J 5 & | | J J O | L | | | | | > > | L | | | | > > O | > > | | | | | 6 O O | O > O > | > O | | | | | L | | O L > O | | | | & & & & & & J J & & J J & & | | & 5 | | 5 & | | & & & 5 & & & & & & & & 5 5 5 & 5 & 5 & & 5 J J & & J J & 5 J J & & J J & & & & V V & 5 E $ E E F c 6 6 & & | | 2 2 h h ].].S S m m _._._.m _._.2 2 2 2 2 2 F F $ $ V V E E $ $ # # E $ % % % # s s s % f f f =.4.4.g g f f =.=.g g 2 2 2 2 F F [.2 F F G 2 F F 2 2 F F 2 2 2 2 2 2 F F ",
"* * 2 2 * * F F * F F F * }.F F F F 2 2 F F G G G G g g G G 2 G 2 2 2 G 2 2 g g % % % % $ $ $ $ . . . $ V V $ . & & $ $ 2 2 c c c c F c _._.+ S m _.m m S S ].].8 8 c c 6 | J 6 J | 2 2 $ $ V V 5 5 . . J J . . & 5 & 5 5 & & 5 5 & 5 & J J & 5 5 5 . . 5 & 5 5 6 J & & J 6 & & J J & & 6 | & & | | & & | | & & | | & & | | 6 & | | J J L L | | L L | | | | | | | L | 6 L L | | > O | | | | L | > > L | > O L L > > | L | | | | | | J J | | 6 J L | J J 0 | & & J J . . $ s G G g f }.}.% % =.=.% % 1 * % % % # }.}.$ $ 5 5 . . & 5 V V V V * * }.}.* * [.[.* * F F s s * * h h F * E $ . $ 5 5 J 6 & 5 | | J J L | | | | | | | | | | | | O > | | > 6 L L | | | L L | | L L | | | | | O > | | | L L L | | | L | L L J J | | 5 & | | & & 6 6 & & | | & & | | | 6 6 | & & J J & 5 & & & & & & & & & & 5 5 & & 5 & | | & & & & & 5 5 J & 5 & & & 5 J J V V & & . . V V # % * * & & J J J J c F 8 8 +.+.m _.S S _.m S S ^.^.c c 2 2 2 2 2 [.% s $ $ $ $ E $ $ $ # # E $ # @ E E % s 2 G g g 2 2 2 2 2 2 g =.g g g g G 2 G G 2 2 [.2 F F 2 2 * * 2 2 F * 2 2 F * 2 2 ",
"}.}.2 2 * * F F F * F F * * F F F * 2 2 F F G G G G g g 2 G G G G 2 G G 2 2 g g % % % % $ $ $ $ $ . . $ V V . $ & & . $ c c 2 2 c c F c _._.S + _._.m m S S ].].8 8 c c 6 6 6 J J 6 2 2 $ $ V V & 5 . . J J . . & & 5 5 & & & 5 J & & 5 5 J 5 5 & 5 $ . & & 5 5 6 J & & J 6 & 5 J J & & | | & & | | 5 & | | & & | | 5 & 6 | J & | 6 J 6 L L L | | L L | | | | | L L 6 | | L | | > O | | | | | | > > | | > O | | > > | | | | | | | L J J | | 6 J | | J J 0 | & & J J . . $ s G G g f }.}.% % =.=.% % 1 * % % % # }.}.$ $ 5 5 . . 5 5 V V V V * * * }.* * [.[.* * F F s s }.}.h h F * E E E $ 5 5 J 6 & & | | J J | | | | | | | | | | | O > | | | > 6 L L | | | | L L | | L L | | | L L | O > O | L L | | | | | | | | J J | | 5 & 6 | & & J 6 5 & | | & & | | | | | L & & J J & & & & & & & & & & 5 & & 5 5 & & 5 | | & & & 5 5 J 5 J & 5 & & & 5 J J V V & & . . V V # % * * & & J J J J F F 8 8 +.+._._.S S m m S S ^.^.c c 2 2 2 2 2 [.% % E $ $ $ $ E $ $ # # E $ % # $ E s s G G =.=.2 2 2 2 2 2 g =.g g g g G 2 G G G 2 2 G F F 2 2 * * 2 2 F * 2 2 % F 2 2 ",
"F F * * F F * F 2 2 * * 2 2 F * 2 2 2 2 =.=.G G g g 2 2 G G 2 2 G G 2 2 =.g G G s s E E % % $ $ $ E . . . $ 5 5 & 5 % # 2 2 F F c c c c ^.^.m _.m m _._.+ S <.<.j j * F | J | | J J F F # # V V V V J J | | & & 5 5 & & V V & 5 . V & & 5 5 & & . . 5 5 V V & & & 5 | 6 & 5 J & & & J J 5 & J 6 & & | | & & | | & 5 | | & & | L J J | | | | | | & J | | | | 6 6 6 J J 6 | | L L | | L L | | | L | | | | | | > O O | | L O | | | 0 | | | 6 6 | | J J L | & & & & . . V V $ E s % g g [.[.=.=.G G >.>.,.,.# # $ E F F ,.,.5 5 J J V V & 5 E E s % E E E $ . $ >.>.f f G G g f f f s s $ $ V V J J & & L | J J O L & & J | | J | | 6 6 | | | | L | | | | | | | 6 | L | | > 6 6 | L 6 6 | L L 6 O L 6 | | 6 6 6 L L J 6 | | J J | | J J 6 J & & | | & & | | & & | | & & | | 5 & J J & 5 6 J & & & 5 J & & & V V 5 & & & 6 6 & & & & 5 5 5 & & 5 J J & 5 & & 6 6 & 5 . . E E 2 c 6 6 & 5 6 6 c 2 h h ].].S S _._._._.m m _.m 2 2 c c 2 2 * * s % 5 5 $ . $ $ $ E $ $ % % $ $ # % % % g g 2 G =.=.[.[.2 2 [.[.2 2 2 2 g g 2 2 g g 2 2 G 2 2 2 [.2 * * 2 2 * * 2 2 * * ",
"F F * * F F F * 2 2 * * 2 2 }.}.2 2 2 2 =.=.2 G g g 2 2 G G 2 2 G G 2 2 g g G G s s E E s % $ $ $ $ . . E $ 5 5 & 5 % # 2 2 F F c c 2 c ^.^.m _.m m _._.+ S <.<.j j * * 6 J | | J J c F # # V V V V J J | | & & 5 5 & & V V & 5 . V & & 5 5 & & $ . & 5 V V & & & & J 6 & 5 J J & 5 J J & & 6 6 & 5 | | & & | | & & L | & & | | J J | | | | | | J J | | | | | | J J 6 J | | | | | | | | | | | | | | | L | 6 > O | | | | | | | L | O | | | | | | J J | | & & & & . . V V E E s % f g [.[.=.=.G G >.>.,.,.# # $ E F F ,.,.5 5 J J V V & 5 E E s % E E E $ E $ >.>.f f G G g f f f s s $ $ V V J J 5 & L | J J | | & & 0 | 6 J J 6 J 6 | | | | | | | L | L 6 6 | | L | | > 6 6 6 | L 6 | | | | | | | 6 6 | 6 6 | | J 6 | | J J O | J J 6 J & & 6 6 & & | | & & O & & & | | & & J J & 5 J 6 & & & 5 & & & & V V 5 & & & 6 6 & & & & & 5 5 & & 5 J J & & & & | | 5 5 . . $ E F c 6 6 & 5 6 6 2 2 h h ].].S S _._._._.m m _.m 2 2 c c 2 2 * * % % 5 5 $ . $ $ E E $ $ # % $ $ # % % % g g G 2 =.=.2 [.G 2 [.[.2 2 2 2 g g 2 2 g g 2 2 2 2 2 2 2 2 * * 2 2 * * 2 2 * * ",
"* * 2 2 * F 2 2 F F G 2 2 2 g g G 2 G G 2 2 G 2 F F G 2 2 2 G G G 2 G G 2 2 =.=.% % % % $ $ $ $ V V $ . 5 5 V V & 5 % s * * 2 2 c c c c ^.^.m _.m m _.m _._.<.<.h 8 c F | 6 & & | | 2 2 E E E . . . ' ' L L 5 5 & & V V & 5 . . & 5 V V 5 & V V & 5 . . 5 5 & 5 J J & 5 | | & & 6 6 5 & | 6 & & 6 6 & & 6 6 & & | | & & J J 5 & | | & & | | J J 6 6 J J | | & & J J & & 6 6 6 6 | L | | | | | | | | | | | | | | | | | | | 6 | | | | | | | | J J 6 | & & 6 J & 5 5 5 V V V V $ $ F F [.[.* * s s $ E E E . . # # * * $ $ J J V V 5 & V V V V s s $ $ . $ ,.,.E E F F =.=.F F # % ,.,.E E J J V V | 6 & & | | 6 J | | & & | | | | 6 6 6 J 6 6 | | | | | | | | | | | | | | | | | | | | | 6 6 | 5 & | | | | | 6 6 6 L | & & 6 6 J J 6 | & & 6 6 5 & 6 6 & & | | 6 J | | & & 6 6 & & | | & & | | 5 & & & V V & & V V & & & 5 5 & $ . & 5 $ V & & 5 & & & | | P P E E . . s s * F & & J J 5 & c c 8 8 <.<.S S m _.m m _.m +.+.c c g i 2 2 2 2 E E $ $ $ . . $ $ $ $ E $ E % # $ E s s G G g g 2 2 2 2 2 2 2 2 F F 2 2 * * [.2 2 2 g g G 2 g g G 2 2 [.F F [.2 * * 2 2 ",
"* * 2 2 * F 2 2 F F G 2 2 2 =.=.2 G G G 2 2 G 2 F F 2 2 2 2 2 G 2 G G G 2 2 g g % % % % $ $ $ $ V V $ . 5 5 V V & 5 % s F * G 2 c c F c ^.^.m _.m m _.m _._.<.<.8 8 c F | 6 & & | 6 2 2 E E E $ . $ ' ' L L 5 5 5 & V V & 5 . . 5 5 V V & & V V & 5 . . 5 5 5 & 5 J J & | 6 & & J 6 5 & J 6 & & 6 6 & & | | & & | | & & J J & & O & & & | | J J 6 6 J J | | & & J J & & | | 6 6 | L | | | | 6 6 | | | | L L | | | | | | | 6 | O | | | | | | J J | | & & 5 J 5 5 5 5 V V V V $ $ c F [.[.* * s s $ E E E . . # # * * $ $ J J V V 5 5 V V V V s s $ E . $ $ ,.E E F F =.=.F F s % ,.,.E E J J V V | 6 & & | | J J | | & & 0 | | | | | J J 6 6 | | | | | | | | 6 6 | | O | | | | | | | | 6 6 6 & & | | | 6 6 | | | | | & 5 6 6 J J 6 6 & & | | & & 6 6 & & | | | 6 L | & & 6 6 & & | | & & | | & & & 5 V V & & V V & & & 5 5 & $ . 5 5 V V & & 5 & & & | L P P E E . . s s * F & & J J & & c c 8 8 ].<.S S m _.m m _.m +.+.2 c i i 2 2 2 2 E E $ $ . . $ $ $ $ $ E E $ % # $ E s s 2 G g g G 2 2 2 2 2 2 2 F F G 2 F * [.2 2 2 g g G G g f 2 2 [.2 F F 2 2 * * 2 2 ",
"2 2 F F G 2 2 2 g g 2 2 2 G F * F F * }.2 2 F F 2 2 F F 2 2 F F G G 2 2 g g G G s % $ $ $ E V V . $ 5 5 $ $ & 5 V V $ E 2 2 2 c i i c c <.<.S S m m _._.S S ].].h 8 1 1 J J & 5 J J F F # % V V 1 1 V V * 1 $ . . . 5 & V V 5 5 . . & 5 V V & & . . 5 & V V & & 5 5 5 & & & J J & 5 | 6 & & | | & & J 6 & & J J & & J J & & | | J J J J & & 6 6 J J | | 5 & & J & & J J J J L | J 6 | | 6 6 | L 6 | | | & & | | & & | | & & | | | 6 6 | L 6 | | & & | | & & & & & 5 J J . . V V >.>.V V $ $ $ $ >.>.V V $ $ $ $ c F ,.,.5 5 & & V V 5 5 E $ % % % >.V V $ $ 5 & E E V V E E V V E $ V V V V J J & & | | & & | | J J | | | 6 | | J J | | | | L | | | | | J J | | J J | 6 | | | L L | L | & & J J J J | | J 6 6 6 J J 6 6 & 5 | | 6 J 6 6 & & 6 6 & 5 | | 5 & | | & & 6 6 & & J J & & J J & 5 J J 5 5 & & V V & & . . V V E E E $ V V 5 & V V & 5 . . # # # # F F E E # # c c J J & 5 J J G G h h ].].S S m m _._.m m ^.^.i i 2 2 G G F F % % V V $ $ . $ $ $ $ $ # % $ $ # % % % f g 2 2 =.=.2 [.[.2 2 [.[.2 F F 2 2 * * F c * F 2 2 F c g g g g g g [.2 2 2 F F ",
"2 2 F F G 2 2 2 g g 2 2 2 2 * * * F }.}.2 2 c F 2 2 F F 2 2 F F G G 2 2 g g G G % % $ $ $ E V V $ $ 5 5 $ $ J 5 V V $ E 2 2 2 2 i i c c <.<.S S m m _._.S S ].].h 8 1 1 J J & & J J F F # % V V * 1 V V 1 1 . . . . 5 & V V & 5 . . 5 5 V V 5 & . . & 5 V V & & 5 & & & & & J J & & 6 6 5 & | | & & J 6 & & J J & & J J & & 6 L J J J J & 5 | 6 J J 6 6 5 & & J & & 6 J J J L | J 6 | | | | | | | | | | & & | | & & | | & & | | | 6 | | | | O | & 5 6 6 & & & & & 5 J J . . V V >.>.V V $ . $ $ >.>.V V $ $ . $ F F ,.,.5 5 & & $ V 5 & $ $ s % % % V V E $ 5 5 E E V V $ E V V E $ V V V V J J & & | | & & | | J J 6 | | | | | 6 J | | | | | | | | | | J J | 6 J J | | | | O | | | | | & & J J J J | | J 6 | | J J | 6 & & | | J J | 6 5 & 6 6 & & | | & & | | & & | 6 & & J J & & J J & & J J 5 5 & & V V & & . . V V E E E . V V 5 & V V & & . $ # # # # F F E E # # 2 2 J J & 5 J J G G h h ].].S S m m _._.m m ^.^.i i 2 2 G G F F % % V V $ $ . $ $ $ $ $ # % $ $ # % % % f g 2 2 g =.[.[.2 2 2 [.2 2 F F 2 2 * * F F * F 2 2 F F g g g g g g G 2 2 [.F F ",
"2 2 g g 2 2 G G F F 2 2 1 * 2 2 * * F F c F 2 2 F F G 2 F F 2 2 2 2 g g 2 G g f * * % % $ $ % % $ $ E E $ $ $ $ 5 5 % % F F F F x x c c _._._.m m m _.m m _.].].8 8 c c | | 5 & J J 2 2 E $ E E E $ 1 1 E $ $ $ 5 5 5 5 5 & V V & & V V & 5 . V 5 & V V & 5 V V & & V V & 5 & & & & & & J 6 & & O | & & & & & & & & & & L | & & | | & & & J 5 & | | & 5 J J & 5 & & 5 5 | 6 J J | | 6 J | | 6 J | | & & | L } } | | & & | | & 5 | | | | | | J J | | & 5 6 J V V & & 5 5 5 & V V V V ,.,.5 5 $ $ V V E $ V V E E s % V V J 6 . . J J V V V V * 1 $ $ $ $ V V ,.,.V V $ $ 5 & V V & 5 V V V V . . & 5 & & J J & 5 | | J J | | J 6 | | & 5 | | | | | | | 6 6 6 J J | | | 6 6 6 J J 6 6 & & & & & & | L 6 6 | L & J 6 6 & & J J & 5 } } & & & & & & | | & & 6 6 J J | | & & 5 & 5 5 J J 5 & & & . . & 5 V V & & V V & 5 . . & 5 . . & 5 V V & & $ . . $ s s s % % # 5 5 % % F F & 5 6 6 & 5 F F j j <.<.S S _._.m m _.m +.+.^.) y y * * 2 2 $ $ . $ . . $ $ $ $ % % % # % % % % * * g g f g 2 2 2 2 [.[.2 2 c F 2 2 c F G 2 * * F F }.}.F F F * 2 2 2 2 g g G G g g ",
"2 2 g g 2 2 2 G F F 2 2 1 * 2 2 1 * F F c F 2 2 F F 2 G F F 2 2 2 2 g g 2 G f f * * s % $ $ # % $ $ E E E $ . $ 5 5 % % F F F F x x c c _._._.m m m _.m m _.].].h 8 c 2 6 6 J & J J 2 2 E $ E E E . 1 1 E $ $ $ 5 5 5 5 & & V V & & V V & & V V 5 & V V & & V V & & V V & & & 5 & & & & J J & & O | & & & & & & & & & & L L & & | | & & & J & & 6 6 & & J J & & & & & 5 6 6 J J 6 6 J J L | J J | | 5 & | | } } 6 | & & | | & 5 | | | | | | J J | | & & J J V V & 5 J & 5 5 V V V V $ $ 5 5 $ $ V V $ $ V V E E s % V V 6 J . . J J V V V V * 1 $ $ . $ ,.V $ ,.V V $ $ 5 & V V & 5 V V V V . . & 5 & & J J & & | | J J 6 | J J | | & & | | | | | | | 6 6 6 J J | | | | 6 6 J J 6 6 & & & & 5 & | L | | | | J J 6 6 & 5 J J & & } } & & & & & & | | & & O L & J | | 5 & & 5 & 5 J J & 5 5 & . . 5 & V V & & V V & 5 . . & 5 . . & 5 $ V 5 & . . E $ s s % % # # & 5 % % F F 5 5 | 6 & & F F j j <.<.S S _._.m m m m +.+.^.) y y * * 2 2 $ $ . $ . . $ $ $ $ # % % # s % % % * * g g g g 2 2 2 2 2 [.2 2 F F 2 2 F F G 2 * * * F F * F F * }.2 2 G 2 g g G G g g ",
"2 G 2 2 G 2 }.}.F F * * * F F * F F F % F F * * 2 2 F F G G 2 [.i g G G g g 2 G * * $ $ $ E V V V V & 5 V V 5 & E E & 5 F * F F c c * 1 ^.^.S S _._.m m m m <.<.j j c c & & J J 5 & F F # % ,.$ # % $ $ # % . . . . & 5 V V J 6 V V & & V V & & . . & 5 V . & 5 $ V & & V V & & V V 5 & 5 5 J J & & | | & & & & & & & & & & & & & & & & V V J J & & | | & & | 6 & & 6 J J J | | J J | | J J | | & & | | | | | | & & 6 | } } | | | | | | & & 6 6 & 5 | | 5 & & 5 5 & & & V V & 5 V V & 5 V V V V ,.,.5 5 V V $ $ * * & 5 V V V V E $ 5 5 . . # # # # J J . $ 5 5 E $ V V V V & 5 V V & & V V 5 & 5 & & & & & | | & & 6 J | | | 6 J J | | J J | | 6 J | | J J 6 | 6 6 | L & & | 6 | | | | 5 & J J J J | | J J 6 6 & & J J & 5 | 6 & & & 5 & & & & 5 & | | J J 6 6 & & J J V V & & 5 & & & $ . V V V V 5 & & 5 & & . . 5 5 . $ & & V V & & V V 5 5 E $ E E # # . . $ $ # % 2 2 & & & & J J 2 2 h h ].]._._.m m S S m _.m m ) ) x x 2 2 F * V V 5 & $ . 5 5 $ $ $ $ # % $ $ # % % % =.=.2 2 =.=.2 2 2 G [.[.2 [.* * 2 2 F * 2 2 * * G 2 * * 2 2 * * 2 2 * * 2 2 2 2 ",
"2 G 2 2 G 2 * * F F * * F F * * F F F % F F * F 2 2 F F G G G 2 g g 2 G g g 2 G * * $ $ $ E V V V V & 5 V V & & E E & 5 * * F F c c * 1 ^.^.S S _._.m m m m <.<.j j c c & & J J 5 & F F s % ,.$ # % $ $ # % . . . . & 5 V V 6 J V V & 5 V V & & . . 5 5 . . & 5 V V & & V V & & V V & & 5 5 J J & & L | & & & & & & & & & & & & & & & & V V J J & & | 6 & & J 6 & & J J J J | | J J | | J J | | 5 & | | | | | | & & | | } } | | | | | | 5 & | | & & | 6 & & J 5 5 & & & V V & 5 V V 5 5 V V V V $ ,.5 5 V V $ $ * * & 5 V V V V $ $ 5 & . . % # # # J J . $ 5 5 E $ V V V V & 5 V V & & V V 5 & 5 & & & & & | | & & 6 J | | | | J J 6 6 J J | | J J | | J J 6 | 6 6 | L & & | | | | | | 5 5 J J J J | | J J 6 6 & & J J 5 & 6 6 & & & & & & & & & & | | J J | | 5 & J J V V & & 5 & & & . . V V V V 5 & 5 5 & & . . 5 5 . . & 5 V V & & V V & 5 E E E E # # $ . V $ # % 2 2 & & & & J J 2 2 j h ].]._._._.m S S m _.m m ) ) x x 2 2 F * V V 5 & $ . 5 5 $ . $ $ % % $ $ % % % % =.=.2 2 =.=.2 2 2 G [.[.2 [.* * 2 2 F * 2 2 F * c 2 * * 2 2 * * 2 2 * * 2 2 2 2 ",
"* * F F F % 2 2 * * F F F % * * * * F F * }.2 2 F F G G 2 [.G G G 2 2 2 2 2 f f % % % % $ E s % $ $ # # $ E $ $ $ $ 2 2 G G i i ^.^.^.) m m m m m m m m S S ].].8 8 c c 6 | & & J J 2 2 # % % # . . $ E . . $ $ V V $ . & 5 & 5 & 5 $ . 5 5 $ . & 5 . . & 5 V . & & V V & & V V & 5 . . 5 & & & & & 5 & & & & & & & & & & & & & & & . . & & & & | | J J | | J J 6 6 & 5 | | J J 6 6 5 & | L J J | | } } | | | | | | & & L | } } 6 | & & & & 5 5 & 5 & & J J V V & & V V & 5 . . V V ,.$ & 5 ,.$ 5 5 $ $ V V E E s s V V 5 5 E $ V V . . V V % % $ . . $ $ V V E V V E $ V V $ $ 5 5 V V & & 5 5 & & V V | 6 & & & & & & 6 6 & 5 | | J 6 | | J J | | | 6 | | 6 J O | | 6 6 | J J L L | J J J & 5 | | J J | | 5 5 5 & & 5 & & & & & & & & & & & & J J & & | | J & J J & 5 5 & $ . 5 & V V V V . . & 5 V V & & V V & 5 . . 5 5 . . & 5 V V 5 5 $ . . $ E E $ . . $ . $ s s * F V V J 6 V 5 F F j j <.<._.m S S _._.m m +.+.+ + ].].2 2 G G [.2 E E $ $ # % # # s % % # s % % # * * 1 * =.=.2 2 [.2 2 2 =.=.[.2 2 2 F * 2 2 * * F F F * * F * * 2 2 }.* 2 2 }.}.* * ",
"* * F F F % 2 2 1 * F F F % 1 * * * F F F * 2 2 F F G G 2 2 G G 2 G 2 2 2 2 f f % % % % $ E % % $ $ # # $ E $ $ $ $ G 2 G G g i ^.^.) ) m m m m m m m m S S ].].8 8 2 2 6 6 & & J J 2 2 % % # # $ . E E . . E $ V V . . & & & 5 & & $ . & 5 $ . & 5 V . & 5 $ . & 5 V V & 5 V V & 5 . . 5 & & & & & & & & & & & & & & & & & & & & & . . & & 5 & 6 6 J J 6 6 J J | | & & | | J J 6 6 5 & | | J J | | 0 } | | | | | | & & | | } } 6 | & & & & 5 5 5 & & & J J V V & & V V 5 5 . . V V ,.$ 5 5 ,.$ 5 5 $ $ V V E E s s V V & 5 E $ V V . . V V >.% $ . . $ V V E E V V E $ V V $ $ & 5 V V & & 5 5 5 & V V | 6 & & & & 5 & | | & & | | J 6 | | J J | | | 6 6 6 J J L | 6 6 | J J J | | | | J J & 5 | | J J | | 5 5 & & 5 5 & 5 & & & & & & & & & & J J & & 6 6 5 & J J & 5 5 & $ . & & V V V V . . & 5 V V & & V V 5 5 $ . 5 5 $ . & 5 V V 5 5 $ . . $ E E . . $ $ $ . s s * F V V 6 J V 5 F F j j <.<._.m S S _._.m m +.+.+ + ].].2 2 G G 2 2 E E $ E % # # # s % % # % % % % * * * F =.=.2 2 2 2 2 2 =.=.[.2 2 2 * F 2 2 * * F F }.F * * * * 2 2 F * 2 G }.}.* * ",
"}.* * * F * * * * * s s * * F * * F F F 2 [.2 2 G G 2 2 2 2 2 2 2 2 2 2 g =.2 2 % % $ $ % % $ $ $ . $ $ $ $ V V $ $ c 2 i i 2 [.x x x x _._._._.m m m m _._.].].j j 2 c & & & & V V F F s s $ $ % # $ . . . & 5 . . & 5 5 5 5 5 . . V V $ . V V $ . 5 5 . . & 5 V V & & V V & & . . V V $ . & & & & 5 & & & & & $ . & 5 . . & & a a & & V V & & & & | 6 & J | 6 J J L L & & 6 6 & 5 6 6 & & | | & & | | } } | | & & | | & & | | | 6 & J V V & & & & & & V V & 5 V V & 5 . V V V ,.$ V V $ $ V V V V J J & 5 E $ 1 * V V $ $ $ . . $ $ V V E # # $ . V $ $ $ V V E E V V ,.$ V V . . V V . . & & . . & & & & | 6 & 5 & & & & J 6 & & | | | 6 | | 5 & | | J 6 | | 6 6 | J J J L L | | | | 5 & 6 | J J | | & & 5 & & 5 5 & V V J 6 3 3 3 & & & & & 5 & J J & 5 & & V V 5 5 . . 5 5 V V & 5 . . V V V V & 5 . . 5 5 . . V V . . V V . . & 5 . . V V $ . . . $ $ . . $ E s % 2 2 & & & 5 5 J 2 2 -.h ].].S S _._.S S _._.m m ^.^.) ^.g g 2 2 2 2 $ $ $ E $ $ % % $ E s % $ $ # % % % G G g g g g 2 2 2 G [.[.2 2 2 2 2 2 F F 2 2 * * F F * }.F * * F * * * }.2 2 F F ",
"* * * * F * * * * * s s * * 1 * * F F F 2 [.G 2 G G 2 2 2 2 2 2 2 2 2 2 =.=.2 2 % % $ $ % % $ $ $ $ $ $ . $ $ V $ $ 2 2 g i [.2 x x x x _._._._.m m _.m m _.].].j j c c & & & & V V F F s % $ $ % # . . . . & 5 . . 5 5 & 5 5 5 . . V V . . V V . . & 5 V . & 5 V V 5 & V V & & . . V V $ . & & & & & 5 & & & & . . & & . . & 5 a a & & V V & & & & 6 6 J J 0 | J J | | & & | 6 & 5 6 6 & & | | & & | | } } L | & & | | & & | | J 6 J J V V & & & & & & V V & 5 V V & 5 . . $ V . $ V V $ $ V V V V J J & 5 E $ * * V V $ $ $ . $ $ V V ,.$ # % $ $ . . $ $ V V E E V V $ $ V V $ . . V $ . & & $ . & & 5 & J 6 5 5 & & 5 & 6 6 & & 6 | 6 6 | | & & | | | 6 L | 6 6 | J J J L L 6 6 | | 5 & | | J J | | & & 5 & 5 5 & & V V J J & 3 3 & 3 3 & & & & J J & 5 & & V V & 5 $ . 5 5 V V & 5 . . V V V V & & . . 5 5 . . V V . . V V . . & 5 . . V V . . . . E $ . $ E E % % 2 2 & & 5 5 J J 2 2 -.h ].].S S _._.S S m _.m m ) ^.^.^.g g 2 2 2 2 $ $ $ E $ $ % % $ E % % $ $ % % % % G G g g g g 2 2 2 G [.[.2 2 2 2 2 2 F F 2 2 * * F F * }.F * * * F * * * 2 G F F ",
"s s }.}.s s }.}.s s }.* * F 2 2 F F 2 2 F F 2 2 F F 2 G 2 2 G G 2 2 =.=.2 G 2 2 $ E E $ E . $ $ 5 5 . $ 5 5 5 5 5 5 2 2 c c 2 2 ^.^.^.^._.m _._.m m _._.S S ].].8 8 G G & & . . J J G G # % $ . . $ . . V V . . & 5 . . . . . . V V . . V V . . & 5 $ . 5 5 . . & & V V & & V V & 5 . . V V . $ 5 & & 5 & & & & & & . . & & & & & & a a & & & & J J & & | | J J | | & & J J & & J J & & | | J J | | & & | | | | O | 5 & | 6 | | | | & & & & & & J J & & & & V V & 5 . . 5 5 . $ V V . $ V V $ $ V V 6 6 6 | % % % s $ $ $ $ % % . . . . . . 1 1 # # L L J J $ $ V V $ $ V V $ $ V V $ $ 5 5 V V & 5 5 & J J & 5 & & 5 5 & & & 5 | 6 & & | | J J 6 | & & | | J J | 6 J J 6 6 J J | | & & | | 6 J | | J J L | & & & 5 . V & & & & & & & & & & & & & & & & & & V V 5 5 $ . 5 5 V V 5 5 . . 5 5 V V & & V V & 5 E . V V . . V V . . V V . . & 5 $ . & 5 $ . V V ,.$ . . s s F F V V 6 J & 5 F F j j <.<._._.S S _._.m m m n m m +.+.2 2 G G * * $ $ 5 5 . $ $ . $ $ $ $ % # $ E s s [.2 4.4.=.=.=.=.2 G =.=.2 2 2 2 F F 2 2 2 2 2 2 F F 2 2 }.}.* * }.* * * * * * * ",
"s s }.}.s s * * s s * * F * 2 2 F F 2 2 F F 2 2 F F G G 2 2 G G 2 2 g g 2 G 2 2 $ E E E $ E . $ 5 5 $ . & 5 5 5 5 5 2 2 c c 2 2 ^.^.^.^.m _._._.m m _._.S S ].].8 8 G G & & . . J J G G % % . $ $ . . . V V . . 5 & . . . . . . V V . . V V $ . 5 5 . . 5 & . . & & V V 5 & V V 5 5 . . V V . $ 5 & & & & & & & & & . . & & & & & & a a & & & & J J & & | | J J | | & & J J & & J J & & | | J J | | 5 & | | | | | | & & | | | | | | & & & & 5 & & J & & & & V V & 5 . . 5 5 $ $ V V . $ V V $ $ V V 6 J | | % % s s $ $ $ $ % % . $ . . . . 1 1 # # L L J J $ $ V V $ $ V V $ $ V V $ $ 5 5 V V & 5 5 5 J J & 5 & & 5 5 & & & & | | & & | | J J | | & & | | J J | | 6 J 6 6 J J J | & & | | J J 6 6 J J | | & & 5 & V V & & & & & & & & & & & & & & & & & & V V 5 5 $ . 5 5 V V 5 5 . . & 5 V V 5 & V V & 5 E . V V . . V V . . V V . . 5 5 $ . 5 5 $ . V V ,.$ . . s s F F V V 6 J 5 5 F F j j <.<._._.S S _._.m m m n m m +.+.2 2 G G * * $ $ 5 5 . $ . $ $ $ $ $ # # E $ s s [.2 4.4.=.=.=.=.G G =.=.2 2 2 2 F F [.2 2 2 2 2 F F 2 2 F }.}.* * }.* * F * * * ",
"1 * * * F * * * 2 2 }.* 2 2 2 2 G 2 * F 2 2 F F G G 2 2 G G 2 [.G G G G g =.2 F % % $ $ $ E 5 5 $ . 5 5 5 5 5 & V V * * 2 2 G 2 ^.^.S S m _._.m _._._.m m m <.<.j j c c V V 5 5 5 5 2 2 1 1 V V . . & 5 . . V V $ . V V $ $ . . $ $ $ . $ $ . $ . . & 5 $ . & 5 V V & & $ . 5 5 . . V V . . 5 & . . 5 & . . & & . . & 5 . . & & & & & & 5 & & & & & | | & 5 6 6 & & | 6 & & & & & & 6 6 & & | | & & | | & & | | & & | | & & | | 5 & & & & 5 & & 5 & & 5 5 5 & 5 V V 3 & V V V V V V & 5 . . V V ,.$ % % * * # # }.}.E $ $ E $ E E E . . # # s s 1 1 $ $ * * $ $ . $ V V ,.$ V V $ . V V V V & & . . 5 & & & J J & & 5 & & & J J & 5 6 6 & & | | & & | | & 5 | 6 J J J J 5 5 6 J & 5 J J J J | | & & | | J J | | 5 5 5 & 5 5 J J a a & & a a 5 & 5 5 & 5 V V 5 5 . . 5 5 $ . & & . . V V . . & 5 V V & 5 . . 5 5 . . V V . . V V . . V V . . 5 5 . . 5 5 . . . . $ E % % 2 2 5 5 V V & & 2 2 h h ) ].S S _.m S S m m m m ^.^.^.^.g g 2 2 2 2 V V $ . 5 5 $ $ $ E $ $ $ $ % % % % 2 2 =.=.4.4.f =.g g 2 G g g 2 2 [.2 * * 2 2 F * 2 2 F F 2 [.F F 2 2 F * * }.}.F ",
"1 * F * * F * * 2 2 }.* 2 2 2 2 G 2 F F 2 2 F F G G 2 2 G G G 2 G 2 G G g =.2 F % % $ $ $ E 5 5 $ . 5 5 5 5 & & V V * * 2 2 2 2 ^.^.S S m _.m _._._._.m m m <.<.j j c c V V 5 5 5 5 2 2 1 1 V V . . 5 5 . . V V $ . V V $ $ . . $ . . . . $ $ . . . 5 5 $ . 5 5 V V & & . . & 5 . . V V . . & 5 . . 5 & . . & & . . & & . . & & & 3 3 & & 5 & & & & 6 | & 5 6 6 & & | 6 & & & & & & 6 6 & & | | & & | | & & | | & & | | & & | | & & & & & 5 5 & & 5 & & & 5 & 5 V V & & V V V V V V & 5 . . V V $ $ % % * * # # }.}.$ $ E E $ E E E . . # # s s 1 1 $ $ * * $ $ . $ V V ,.$ V V $ . V V V V & & . $ & & & & 6 J & & & & & & J J & 5 6 6 & & | | & & | 6 & & | | J J J J V & J J 5 5 J J J J | | & & | | J J | | 5 5 5 & 5 & J J a a & & a a 5 & 5 5 & 5 V V 5 5 . . 5 & $ . & & . . V V . . 5 5 V V 5 5 . . 5 5 . . V V . . V V . . V V . . 5 5 $ . 5 5 . . $ . E E % % 2 2 5 5 V V & & 2 2 h h ].].S S _.m S S m m m m ^.^.^.^.g g 2 2 2 2 V V $ . 5 5 $ $ $ $ E $ $ $ % % % % 2 2 g =.4.4.g g g g G G g g [.2 2 2 F % 2 2 * * 2 2 * F 2 2 F c G 2 * * }.}.* * ",
"* * F * * * [.2 2 2 G G F F F F F F G G 2 2 G G 2 2 2 G 2 G i g 2 2 G G G 2 2 2 E E $ E . $ . $ & 5 . $ & 5 5 5 5 5 2 2 2 c 2 2 m m _._.m m _.m S S _._.m _.].].8 8 c c & & . . J J G 2 s s E E V V . $ 5 5 . . V V $ . V V E E . . $ $ . $ $ $ V V . . 5 5 . . & & $ . 5 5 . . . . . $ V V . . & & & & 5 & . . & & $ . 5 & & 5 & & & & & & & & J J 5 & | | & & 6 6 & & 6 J 5 5 & & & & | 6 & & J J & 5 J J & 5 J J & & | | & 5 J J V V & & & & & & V V & & 5 5 & & & & & & V V 5 & V V V V $ . 5 5 E E E E # # s s E E E $ % # . . E E E $ * * $ E * * $ E $ $ 5 5 . . 5 5 V V 5 5 V V 5 & 5 5 5 & & & J J & & & & & & 5 & & & 6 6 & & & & 5 & 6 6 & & 5 & & & J 6 & & 5 J & 5 & 5 5 5 6 6 J J J 6 5 & | 6 & & & & V V 5 & & & & & a a & & a a 5 & 5 5 & & V V V V . . V V . . 5 5 $ . 5 5 . . & 5 V V & 5 E . V V . . V V . . V V . . & 5 . . 5 5 V . V V $ $ . . s s F F V V 5 5 V V F F j j +.+.m m _._._.m m m m m m m +.+.2 2 G G * * $ $ 5 5 $ $ $ . . $ $ $ # # E $ % % 2 2 g g 2 2 g g g g g g 2 2 g g 2 2 2 G F F 2 2 * * 2 2 F F 2 2 2 2 2 2 F F F F ",
"* * * * * * [.2 G 2 G G F F * F F F G G 2 2 G G 2 2 G G G G g g 2 G G G 2 2 G 2 $ E E $ E . $ . 5 5 $ . 5 & 5 5 5 5 2 2 c c 2 2 m m _._._.m m m S S _._._._.].].8 8 c c & & . . J J 2 2 s s E E V V . $ 5 5 . . V V . . V V $ E . . . $ V . . E V V $ . 5 5 . . 5 & $ . & 5 . . . . $ $ V V $ . 5 & & & & 5 . . & & $ . 5 & 5 & & & & & & & & & J J & 5 J 6 & & 6 6 5 & J J & 5 5 & & & | | & 5 J J & & J J & & J J & 5 | | & & J J V V & & & & & & V V & & & 5 & & & & & & V V 5 & V V V V $ . 5 5 E E E $ # # s s E E E . # # . . E E E . * * $ E * * $ E $ $ 5 5 . . 5 5 V V 5 5 V V 5 & 5 5 5 & & & J J & 5 & & & & & & 5 & | | & & & & 5 & 6 6 & & 5 & & & 6 6 & & 5 J 5 5 & 5 5 5 6 J J J J 6 5 & | 6 & & & & V V 5 & & & & & a a & & a a & & & 5 & & V V V V . . V V . . 5 5 . . 5 & . . 5 5 V V & 5 E . V V . . V V . . V V $ . & 5 . . 5 5 V . V V $ $ . . s s F F V V 5 5 V V F F j j +.+.m m _._.m m m m m m m m +.+.2 2 G G * * $ $ 5 5 $ . $ $ $ $ $ $ # % $ $ # % 2 2 g g 2 2 g g g g g g G 2 g g 2 2 G G F F 2 2 * * 2 2 F F 2 2 2 2 2 2 F F F F ",
"2 2 2 2 2 2 F * 2 2 * }.2 2 G 2 2 2 F F G G 2 2 G G [.2 G G 2 G 2 2 % % * * * * % % $ $ $ E 5 5 . . 5 5 5 5 5 & V V * * 2 2 c 2 _._.m m _._.m _.m m m _.S S +.+.8 8 c c V V 5 5 5 5 F F F * $ E E E & & & 5 5 & V V 5 5 $ $ V V $ $ V V . . V V . . V V $ . V V V V 5 5 . . V V . $ . . $ . 5 5 . . & 5 . . 5 & . . 5 & . . & & 3 3 & & & & & & 5 5 6 J & 5 6 6 & & 6 6 & 5 & & 5 5 J J 5 & & J & & J J & & 6 J & & J J & & | | & & & & & 5 & & & 5 & & & 5 5 & . . & & V V V V V V 5 5 E $ V V V V V V . . . . 1 * $ E E E E $ $ $ . $ $ E s s E E E E V V V V $ $ 5 5 V V 5 & V V 5 5 $ . 5 5 . . 5 & & & & & 5 & & & V V 6 6 5 & & & & & J 6 & & & & 5 & & J J J 6 J & 5 J J V V 5 5 J J | | & & & & & 5 & & & 5 5 & & 5 J J a a 3 3 . . & & V V 5 & 5 5 & & $ . . . . $ V V $ . V V . . 5 5 . . & 5 . . 5 5 . . V V . . V V . . 5 5 . . 5 5 . . 5 & . . . . $ E % % 2 2 5 5 V V & & 2 2 h h <.<._._.m m _._.m n m m m m n m g g 2 2 2 2 V V . $ J 5 . $ $ $ E $ $ $ % % E E [.2 g g g g * * 2 2 g g g g 2 G G G 2 2 2 2 2 2 2 2 2 2 2 2 * * 2 2 * * 2 2 F F ",
"2 2 G 2 2 2 * F 2 G * * [.2 2 2 2 2 * F G G 2 2 G G [.2 G G 2 2 G 2 % % * * * * % % $ $ $ E 5 5 . . 5 5 5 5 5 & V V * * 2 2 2 G _._.m m _._._.m m m m _.S S +.+.8 8 c c V V 5 5 & 5 F F F * E E E $ & & & 5 & & V V 5 5 E $ V V . $ V V . $ V V . . V V $ . V V V V 5 5 $ . V V $ $ . . . $ 5 5 . . 5 & . . 5 & . . 5 & . . 5 & 3 3 & & & & & & 5 & 6 J & & | | & & | 6 5 5 & & 5 5 J J & & J J & & J J & 5 J J & & J J & & 6 | & & & & & 5 & & & 5 5 & & 5 5 & . . 5 & V V V V V V 5 5 $ . V V V V V V $ . . . * * $ E $ $ $ $ . $ $ E E E s s E E E E V V V V $ $ 5 5 V V 5 5 V V 5 5 . . 5 5 $ . & & 5 & & & & 5 & & V V 6 6 5 & & & & & | 6 & 5 & & & & J J J J 6 J & 5 J J V V 5 5 J J | | & & & & & & 5 & & 5 & & 5 5 6 J a a & & . . & 5 V V & & 5 5 5 & . . . . $ $ V V . . V V $ . 5 5 . . & 5 . . & 5 . . V V . . V V . . 5 5 . . 5 5 . . & 5 . . $ . E E % % 2 2 5 5 V V & & 2 2 h h <.<._._._.m m _.n n m m m m m m g g 2 2 2 2 V V . $ & 5 . $ $ $ E $ $ $ % % E E [.2 g g g g * * 2 2 g =.=.=.G G G G 2 2 2 2 2 2 2 2 2 2 2 2 F * 2 2 * * 2 2 F F ",
"F F 2 2 * * 2 2 * F 2 2 2 2 2 2 G 2 G G 2 2 2 G 2 2 G 2 2 2 G 2 F F $ $ # % [.2 % % E $ E . $ . 5 5 $ $ 5 5 5 5 & 5 c c c c 2 2 m m _._._._._.m m _.S S S S ].].8 8 2 2 J J V V 5 5 g g s s % % E E P P | | . . V V . . V V E E $ . $ $ . $ . . V V . $ $ . $ $ 5 5 . . V V $ . V V $ $ V V V V & & V V 5 & V V & & V V 5 & 5 5 & 5 & & & & & & & & & & & & & & 6 6 & & & & & 5 5 5 . . | | & & & & & & & & & & J J & & & & & & & & & & & & V V 5 5 V V 5 & . . 5 5 . . V V . $ V V V V 5 5 $ $ . $ # # . $ % # * * % % E E s % $ $ # # # # 1 1 $ . # % % # . . . . $ $ . . . . & & . . V V V V 5 & . . & 5 V V J J V V & 5 5 5 & & & 5 5 & & & 5 & V V J J V V 6 J 5 5 J J & 5 5 & . . J J J J J J & 5 5 & 5 5 & 5 & & & & & 5 & & . . & 5 . $ & & $ . . V $ . & & . . V V . . V V . . 5 & $ . V V . . V V . . . . . $ $ . E E . . $ . & 5 V . . . L L M M # # . $ 1 1 2 2 5 5 J J V V c F j j ].].S S _._.m m _._.m m S S ^.^.2 2 G 2 * * V V 5 5 . $ V $ $ $ $ E $ $ $ $ % # * F =.=.% % $ . c 2 2 G 2 2 2 G 2 2 G G 2 2 2 2 G 2 2 2 2 2 2 2 F * 2 2 * F 2 2 ",
"* F 2 2 * F 2 2 * F 2 2 G 2 2 [.[.2 G G 2 2 2 G 2 2 G 2 G 2 2 2 F F $ $ # % 2 2 % % E E $ E . $ 5 5 $ $ 5 5 5 5 5 & c c c c 2 2 m m _._._._._.m m _.S S S S ].].8 8 2 2 J J V V 5 5 g g s s % % $ E P P | | . . V V . . V V E E $ . . $ $ . . . V V . $ . . . $ 5 5 . . V V $ . V V $ $ V V V V 5 & V V 5 & V V 5 & V V & & & 5 & & & & & & & & & & & & & & & & J 6 & & & & & 5 5 & V . | | & & & & & & & & & & 6 J & 5 & & & & & & & & & & V V 5 5 V V 5 5 . . 5 & . . V V . . V V V V 5 5 $ . V . # % $ $ # # * * % % $ E % % . $ # # # # * 1 . . s % % # . . . $ $ . E . . . & & . . V V V V & & . . 5 5 V V 6 J V V & & 5 5 & & 5 5 & 5 & & 5 & V V J J V V J J & 5 J J & 5 & & . . J J J J J J & 5 & & & 5 5 & & 5 & & & 5 & & . . & & . . 5 & . . V V . . & & . . V V . . V V . $ & 5 . . V V . . V V . . . . . $ $ . E E . . . . & 5 . . . . L L M M # # . . 1 1 2 2 5 5 J J V V c F j j ].].S S _._.m m _._.m m S S ^.^.2 2 G 2 * * V V 5 5 $ $ $ . . $ $ $ $ E $ $ % # * F g g % % . $ 2 2 G 2 2 2 2 G 2 2 G G 2 2 2 2 2 2 2 2 2 2 [.2 F * 2 2 * F 2 2 ",
"G 2 F F 2 2 2 2 G 2 2 G 2 2 2 G 2 G G 2 2 G 2 2 2 G 2 2 2 G F F 2 2 $ $ * * * * s % $ $ $ E V 5 . $ & 5 V V J J V V * * 2 2 c c ^.^.S S m m _._.m m S S S S ].].8 8 2 2 V V 5 5 5 5 2 2 s % V V # # # # * * $ . . . 5 5 . . . . % # $ . . . & & . . 5 & V . & 5 . . V V $ . V V $ . . . . E V V . . 5 5 $ . 5 5 . . 5 5 . . 5 & & 5 & & 5 & & & . . J J & & J J & & & & & 5 & & V V 5 & & & | | & 5 5 & . . 5 & . V 5 & V V 5 & V V & & . . V V . . . $ $ . V V E E . . E E E $ $ E # # s s E $ % s s % c c c c c 2 s % $ E . . s % E E s s 1 1 c c s s % % # # # # E E E $ $ . # % . . E E 5 5 . . V V . $ V . . . & 5 V V 5 5 5 5 J J & 5 J J & & V V V V 5 & 5 5 J J & 5 5 5 V V V V V V J J V V & & . . & & & & & & & & J 6 . . 5 & . . V V . . V V . . 5 5 . . V V . . V V $ . V V $ . 5 5 . . . . . . 5 5 . . V V $ $ . . $ $ V V . . & 5 # # s s s s 1 1 . $ % s G G J J V V V V G G h h <.]._._.m m S S m m m _.m m m m 2 2 2 2 2 2 5 5 V V 5 5 $ $ . . $ E $ $ % # $ E 2 2 G 2 % s 5 5 G G F * 2 c 2 2 2 2 2 2 G G G 2 G 2 2 2 2 2 F F 2 2 F F 2 2 * F ",
"2 2 * F 2 2 2 2 G 2 2 2 2 G 2 2 2 G G 2 2 G 2 2 2 G 2 2 2 2 F F 2 c $ $ * * * * s % $ $ $ E V 5 . $ & 5 V V J J V V * * 2 2 c c ^.^.S S m m _._.m m S S S S ].].8 8 2 2 V V 5 5 5 5 2 2 s % V V # # # # * * $ . . . 5 5 . . . $ # # . $ . . & & . . & 5 . . 5 & V . V V . . V V . . . . . $ V V . . 5 5 $ . & 5 . . 5 & V . & & & 5 & & 5 & & & . . J J & & J J & & & & & 5 & & V V & & & & | | & 5 5 & . . & 5 V . & & V V 5 & V V 5 & . . V V . $ . . . E V V E E . . $ E E . E E # # s s E $ % s s s F c c c 2 2 s % E E . . % % E E s s 1 1 c c s s s % % # # # E E E $ $ . # # . $ E E 5 5 . . V V . $ V . . . 5 & . V 5 5 & 5 J J & 5 J J & 5 V V V V 5 & & 5 J J & 5 5 5 V V V V V V J J V V & & . . 5 & & & & & & & J 6 . . 5 & . . V V . . V V . . 5 5 . . V V . . V V . . V V $ . 5 5 . . . $ $ . 5 5 . . V V $ $ . . $ $ V V . . 5 & # # s s s s 1 1 $ $ # % G G J J V V V V G G h h ].]._._.m m S S _.m m _.m m m m 2 2 2 2 2 2 5 5 V V J 5 . $ . . $ E $ $ % # $ $ 2 2 G 2 s s 5 5 G G * * 2 2 2 2 2 2 2 2 G G G 2 G 2 2 2 2 2 F F 2 2 F F 2 2 * * ",
"F F 2 2 F F 2 2 2 G 2 2 2 2 2 G 2 2 G G 2 2 2 2 F F 2 2 F * * F * * $ $ # % 2 2 s % E E $ E . $ 5 5 . $ 5 5 & 5 5 5 c c c c 2 2 m _.^.^.m m _.m _._.m m _._.].].h h G G & 5 5 5 J J c 2 s % V V $ E * * E $ . $ & & V V V V . $ 5 5 . . 5 5 . . V V . . V V . $ . . $ . V V . $ V V . . V V E E . . $ E . . # # . $ $ $ & & V V 6 6 & & & & . . 5 & V V 5 & & & J J $ . . . $ $ & & V V V V 5 & 5 5 E $ . . # # . . # # . . . . $ E # # # # s s % # s s s % % s s % E E 5 5 E $ V V V V V V $ $ 5 5 L L M M & & * * % % V V . $ $ $ # % # # E E 6 6 > > ' ' V V 5 & . . & 5 . . V V $ E 5 5 1 1 s s % s # # s s # # s s # # E E # # # # . $ E $ $ . $ E . . . . 5 & V V 5 5 $ . V . 5 5 & 5 & & & & & 5 & & V V & & & & | 6 & & & & . . . $ $ . V V $ . V V . . V V . $ . . . . . . . . V V . $ V V . . V V . . 5 & . . V V . $ V V $ . 5 5 . . . . E E s s E $ V V s s 2 2 J J J J V V G 2 h j ].].S S m _._.m _._.m m m m +.+.G 2 2 G * * V V 5 5 . $ . . $ $ $ $ $ E E $ % # * * g =.% % 5 5 2 2 % s 2 2 2 2 2 2 G G 2 2 2 2 F F 2 2 2 2 2 2 F F 2 2 F F 2 2 ",
"F F 2 2 F F 2 2 2 2 G 2 2 2 G G G 2 2 G 2 2 G 2 F F [.2 F * * F F * $ $ # % 2 2 s % $ E E $ . . 5 5 $ . & 5 5 5 & 5 c c c c 2 2 _._.^.^._.m _.m _._.m m m _.].].h h G G 5 5 & 5 J J c 2 s % V V $ $ * * E $ . . 5 & V V V V $ $ 5 5 . . 5 & $ . V V . . V V . $ . . $ . V V . . V V . . V V $ E . . . $ $ . E # . $ $ $ 5 & V V 6 6 & & & & . . 5 & . V 5 & & & J J $ . . . . $ & & V V V V & & 5 & E E . . % # . . # # . $ . . E E # # # # s s % # s s % % s s s % E E 5 5 E $ V V V V V V $ $ 5 5 L L M M & & * * % % V V . $ $ $ % s # # E E 6 6 > > ' ' V V 5 & . . 5 & . . V V E E 5 5 1 1 s s s % # s s s % # s s # # E E # # # # . . . $ $ $ $ E . . . . & 5 V V 5 & V . V V 5 5 & 5 & & & & & 5 & & V V & 5 & & 6 6 & & & & . . . . $ $ V V $ . V V . . V V $ . . . . . . . . . V V . $ V V . . V V . . & 5 . . V V . $ V V . . & 5 V . . . E E s s $ $ V V s s 2 2 J J J J V V 2 2 h h ].].S S _._._._.m _.m m m m +.+.2 2 G 2 * * V V 5 5 $ $ $ . $ $ $ E $ $ $ $ % # * * g =.% % 5 5 2 2 % s 2 2 2 2 2 2 G G 2 2 2 2 F F 2 2 2 2 2 2 F F 2 2 F F 2 2 ",
"2 2 2 2 G 2 2 2 2 2 2 G 2 2 2 2 2 2 2 G 2 2 F F 2 2 F F 2 2 * F * * 5 5 s s * * s % $ $ $ E V 5 . $ J 5 5 5 J J 5 5 * * 2 2 c c ^.^._.m _._._._.m m _._.S S ].].j j c c & 5 6 J 5 5 F F s s 5 5 E $ . $ $ . $ V . . V V $ . V V $ $ . $ $ E $ $ # # . . . $ & 5 E $ V V . . . $ $ $ $ . . E $ E E E . . # # . $ # % % # # # . $ . V $ . . E . . E E V V # # . $ E $ # # 1 1 # # s s # # s s & & | | & & . . J 6 & & & & & & & & & & ' ' ' ' O O O | | O O | O O | O M M L L J J V V 5 5 . . V V . $ V V $ . 5 5 1 1 $ $ $ $ . $ $ E E . # % % % V V 5 5 V V 5 5 $ . 5 & . V 5 & . . > > | | O > 6 6 | L L | | | | 6 P P ' ' O | V V 5 & & & & & V V 5 & . . # # % % # # * 1 $ $ * 1 E E # # $ $ # # . . . E . . . . & & . . . . E E $ $ # # E E E $ $ . $ $ . $ E E $ . $ . $ . . E . . . . . . $ $ . . E $ . . . . V V $ . . . $ $ . . . . V V $ E E . E E V V $ $ # # G G J J V V V V G G h h <.<._._.m m m m m m m _._._.m _.2 2 2 2 2 2 5 5 V V & 5 . $ . . $ E $ $ % # $ $ 2 [.[.2 % % 5 & 2 2 E E 2 2 F F 2 2 2 2 2 G 2 2 G 2 2 2 2 2 2 2 2 2 2 2 2 2 * F ",
"2 2 2 2 G 2 2 2 2 2 2 2 2 G 2 2 2 2 2 2 2 2 F F 2 2 F F [.2 F * * * 5 5 s s * F % % $ $ E E 5 5 . $ & & 5 5 5 J 5 5 * * 2 2 c c ^.^.m m _._.m _.m m _._.S S ].].j j c c 5 5 6 J 5 5 F F s s 5 5 E $ . $ $ $ V V . . V V $ . V V . $ $ . $ $ E $ # # . $ . . & 5 $ $ V V $ . . . $ $ $ . . E $ E E E . . # # . $ % % # # % # . . V V . $ . E . . E E V V # # . . . $ E # * 1 # # s s # # s s 5 & | | & 5 . . J 6 & & & & & & & & & & ' ' ' ' O O | O O O | L L O O | L M L L J J V V 5 5 $ . V . $ $ V V $ . 5 5 1 1 . $ $ $ . $ $ E E . # # s % V V 5 5 V V 5 5 . . 5 & . V 5 & . . > > | | > > | | L L | | | | | 6 P P ' ' O | V V 5 & & & & & V V & & . . # # s % # # 1 1 $ $ * 1 E E # # $ $ % # . . . $ $ . . . 5 & . . . . E E $ $ % # . E E . . $ E . . . E E . . . . $ . . E . . . . . . $ . . $ $ $ . . . $ V V $ $ . $ $ V $ . . $ . V E E . . $ E V V . $ # # G G J J V V V V G G h h <.]._._.m m _.m m m _._._.m _._.2 2 2 2 2 2 5 5 V V 5 5 $ . . . $ E $ $ % # $ $ [.[.2 2 % % 5 & 2 2 E E 2 2 F F 2 c G 2 2 G G 2 G 2 2 2 2 2 2 2 2 2 2 2 G 2 F F ",
"* F 2 2 2 2 2 G * F 2 2 * * 2 2 F * 2 2 F * 2 2 }.}.2 2 * 1 * * s s E $ s % 2 [.E E E E . $ . . 5 5 $ . & & 5 5 & & F c c c c 2 m _.^.^.m _.m _._._._.m m _.].].h h G G J J V V J J G 2 % % V V V V . $ . E # # . $ . . . . $ $ $ . # # E $ ,.# $ $ % % E E s % $ E % % % # # s # # s % $ E s s % # 1 1 s s 1 1 s % * * % # V V 5 5 $ . & & & 5 & & 5 5 J J ' ' ' ' > > | O O > > > > > ' ' O | ' ' O | & & & & | | & & & & 5 5 & & & 5 & & & & & & 5 & & 5 . . 5 & . V 5 & . . 5 & V V 5 & V V V V . . V V E $ * 1 # % $ E . E . . # # E E * * $ E V V 5 & . . & 5 V . & 5 V V & 5 E $ & & . . 5 5 V V 5 & V V J J & 5 J J 5 5 J J $ . 6 6 & & 6 6 ' ' ' P P ' ' P P ' > > > > > | ' ' k k | | | | & & & & & & & & V V V V # # s s 1 1 s % 1 1 # # * 1 1 1 1 1 # # % % # # # # # # * 1 . $ # # . $ E # E E # # . $ E $ $ $ # # E E # # . . # # . . % # $ . & & . . 1 1 2 2 5 5 J J 5 5 2 c 8 8 ].]._.m m _._._.m _.m m m m ^.+.2 2 2 G * * 5 5 5 & $ $ $ . $ $ $ $ E $ $ $ % # * F g =.# # 5 5 F F % % 2 2 2 G F F 2 2 F F 2 [.2 2 2 c c F 2 2 * F 2 2 2 2 c 2 ",
"F F 2 2 2 2 2 2 F F 2 2 * * 2 2 F * 2 2 F * 2 2 * * 2 2 F % F * s s E $ % % 2 [.E E E E . $ . . 5 5 . $ 5 & & 5 5 & F c c c c c _._.^.^.m _.m _._._._.m _._.].].h h G G J J V V J J 2 2 s % V V V V . $ . E # # . . . . . . $ $ . . # % E $ ,.# $ $ % % $ E % % $ $ # % # # s s # # s % E E s s # # 1 1 s s 1 1 % % * * % # V V 5 5 $ . & & & 5 & & 5 5 J J ' ' ' ' > > > | O > > > > M ' ' O | ' ' O | & & & & | | & & & & 5 & & & 5 5 & 5 & & & & 5 5 & 5 . . 5 & . V 5 & . . & 5 V V & & V V V V . . V V . $ 1 1 s % $ $ E E . . # # E E * * $ E V V 5 & . . & & V V 5 & V V 5 5 $ $ 5 & . . 5 5 V V & & V V 6 J & 5 J J 5 5 J J . . | 6 & & 6 6 ' ' ' P P ' ' P ' ' O > > > > O ' ' k k | | | | & & & & & & & & V V V V # # s s 1 1 # % 1 1 # # 1 1 1 1 1 1 # # s % # # # # # # * 1 . . # # . $ # # E E # # . $ $ $ $ $ % # E E # # . . # # . . # # $ . & & . . 1 1 2 2 5 5 J J 5 5 2 c 8 8 ].]._.m m _._._.m m m _._.m +.+.2 c 2 2 F * 5 5 5 5 $ $ . $ $ $ $ $ E $ $ $ # % * * g =.% # 5 5 F F % % 2 2 2 G F F 2 [.F F 2 2 2 2 G 2 F F 2 2 * F 2 2 2 2 G 2 ",
"2 2 F F 2 2 * * 2 2 F * * F * }.F F * * 2 2 F * 2 2 * * [.2 F * * * 5 5 s s * * s % $ $ E E 5 5 V V 5 5 5 5 6 6 5 5 * * 2 2 c c ^.^._.m m _.m _.m m m _.m _.].].j j c c V V 5 & V V 2 2 F F E E s s # % % # . E * 1 # % 1 1 1 1 1 1 # % * * * * * F F * % % V V $ $ V V $ . & & . . & & | | ' ' ' ' > > O O > > L L M M O O > > > > & & & 5 & & 5 & & & & & & & & 5 & & 5 5 J J & 5 6 6 V V J J V V J J V V & & & & & & V V 5 & 5 5 5 5 $ . & & V V & 5 . . V V J J V V . . 5 & $ E V V ,.$ V V E E L L | | E E * * $ E E E E . $ $ . $ % % s s s s L L & & V V . . V V . $ V V $ $ 5 & . $ J J $ $ 5 5 V V 5 5 5 5 J J V V & & & 5 & & 5 & J J J J & & 5 & 6 6 & & 6 | & & & & & & | | & & J J & & J 6 & & > > & & ' ' ' ' ' ' O > M M L L M M 6 6 ' ' ' ' ' ' > O O | J J & & V V V V # # & & . . % s 1 * % % * * * * F F % % * * * 1 1 1 # # 1 1 # # # # % # % # * 1 g g V V V V 5 5 G G h h z z S S m m _.m _._.m m _.m _._.2 2 2 2 F * 5 5 V V 5 5 $ . . . $ $ $ $ # % $ $ 2 [.2 2 >.% & & 2 2 $ $ 2 2 F F 2 2 F F 2 2 F F 2 2 F F 2 2 2 2 2 2 F F 2 2 * F ",
"2 2 F F 2 2 * * 2 2 F * F * * * F F * * 2 2 F * 2 2 * F 2 2 * F * * 5 5 s % * * s % $ $ E E 5 5 V V 5 5 5 5 6 6 5 5 * * 2 2 2 c ^.^.m _.m m _._.m m m _.m m ].].j j c 2 V V 5 & V V 2 2 F F E E s % % % # # E E * 1 # % 1 1 1 1 1 1 % % * * * * * F F * % % V V . $ $ V $ . & & . . 5 & 6 6 ' ' ' ' O > > | O > L L M M O O O > > > & & & 5 & & 5 & & & & & & & V & & & & 5 J J & & | | V V 6 J V V J J V V & & & & & & V V & & 5 5 5 5 . . & & V V 5 & . . V V J J V V . . 5 & $ $ V V ,.$ V V E E L L J 6 E E * * E E E $ $ . $ $ $ $ % # s s % s L L & & V V . . V V . $ V V $ $ 5 & V $ J J $ $ 5 5 V V 5 5 5 5 J J V V 5 & & 5 5 & & & J J J J & 5 5 5 J 6 & & 6 | & & & & & & | | & 5 J J & & | 6 & & > > & & ' ' ' ' ' ' O > M M L L M M 6 6 ' ' ' ' ' ' O > | | J J & & V V V V # # & & . . % s * * % % * * * F F * % % * * * 1 1 1 # # 1 1 # # # # # % # # 1 1 g g V V V V & 5 2 G h j z z S S m m _.m _._._.m m _.m _.2 2 2 2 F F 5 5 V V 5 5 . $ . . $ E $ $ % # $ $ [.[.[.2 % % 5 & 2 2 $ E 2 2 F F 2 2 F F 2 2 * F 2 2 F F 2 2 2 2 2 2 * F 2 2 * F ",
"* * 2 2 * * F F }.}.F F * * F F * * F F F * * F * F 2 2 * * * * s s E $ % % 2 [.E E $ E $ $ $ . 5 5 V V 5 & & & & & c c c c 2 2 m _._._._.m m m _._._._.m _.].].h h 2 G J J & 5 5 5 g g s s s % $ $ E E $ $ . $ V V $ . | | O > > > J J | | L L | | L L M M O L L O 6 6 & & . . 5 & 5 5 5 & V V 5 & 5 5 5 & V . & & V V 5 & . . 5 5 & 5 & & & & 5 & & 5 & & V V 5 & . . & 5 . . 5 5 . . & & V V 5 & . . 5 & & & & 5 . $ ' ' & & 5 5 . . V V . $ 5 5 . . V V E E M M % % . $ E E V V . $ V V ,.$ E E # # . $ E $ s s # # . $ % # . . # # E E * * 1 1 $ $ $ E s % V V . . V V . . . $ E # . . > > $ $ V V V V . $ 5 5 V V & 5 V V 5 5 M M & & V V 6 J & 5 J J & 5 6 6 & & & 5 & & 5 & & & J J & 5 & & & & | 6 5 & 6 6 $ . & J V V 6 6 & & & 5 5 & 5 & & & | | & & | | & & | 6 & & | | O O > > > > > > L L M M O O 6 6 | L ' ' O > | O 5 5 & 5 & & . . . . . . # % . V 1 1 2 2 $ $ 5 5 5 5 2 c 8 8 ].].S S _._.m _._._.m m _.m +.+.2 2 2 G * * 5 5 5 5 $ $ . . $ $ $ $ $ E $ $ # @ * * g =.% # 5 5 F F % % 2 2 2 G F F 2 2 * F 2 [.* * 2 2 F F 2 2 F F 2 2 F F [.2 ",
"* * [.2 * * F F }.}.F F F * * F F * * F F * * F * * 2 2 * * * * s s E $ % % 2 [.E E E E $ $ . $ & & V V 5 & & & & & c c c c 2 2 m m _._.m m m m _._._._._._.].].h h G G J J 5 5 & 5 g g s s % % . $ E E E . . $ . V $ . | | | O > > J J | | L L L | | L M M L L O O | J & & . . & & 5 5 & & V V & & & 5 & & V V 5 & V V & & . . 5 & 5 5 & 5 & & & & 5 & & & V V 5 & . . 5 5 . . 5 5 . . & 5 V V 5 & . . & & 5 & & 5 $ $ ' ' & 5 & & . . V V . . & 5 . . V V E E M M # % $ E . E V V . $ V V $ $ E E # # $ $ E E s s # # $ E # # . . # # E E * * 1 1 $ $ $ E % % V V $ . V V $ . . . E E $ . > > $ $ V V V V $ . 5 5 V V 5 & V V 5 5 M M & & V V 6 J 5 5 J J & 5 | | & & & & & 5 5 & & & J J & & & & & & 6 6 & & 6 J $ . & J V V 6 J 5 & & 5 5 5 & & & & | 6 & & | | & & | | & & | | O > > > > > > M L L M M O O 6 6 L L ' ' O > | O 5 5 & 5 & & . . . . . . # # V V 1 1 2 2 $ $ 5 5 5 5 2 c 8 8 ].].S S _._._.m _._.m m m _.+.+.2 2 G 2 * * 5 5 5 & $ $ . $ $ $ $ $ E $ $ $ # @ * * g =.# # 5 5 F F % % 2 2 2 2 F F 2 2 F F [.2 * * 2 2 F F 2 2 * F 2 2 * F 2 2 ",
"2 2 F * F F * * F * * }.F F * * F F * * * F * }.F F }.* * * s s * * 5 5 s % * * % # $ $ $ $ 5 5 5 5 5 5 5 5 6 J 5 5 * * 2 2 2 2 ^.^.S S m m m _.m m S S S S ].].h h G 2 5 5 J J 5 5 F F E E 6 6 J J & 5 V . & 5 5 5 & & . . 5 5 V V & 5 V V 5 5 5 5 J J V V 5 5 5 & 6 6 & 5 5 & V V 5 & V . & & V V 5 & & & J J & & | | & & & & V V V V 6 | & 5 . . 5 & V V & & V V 5 5 $ . V . P P & & . $ 5 5 5 & . . . . & 5 . . E E J J % % E E V V . $ . E $ $ 5 5 . $ % s s s F F $ $ V V $ E V V $ $ V V % s s % % s E E * * E E E E $ $ . $ $ $ % s s s # # 1 * * * V V . . V V . . V V 5 5 V V % % s s s % V V V V V V V V 5 & V V V V E E L L E E 5 & . . & & V V 5 5 . . 5 & & & ' ' . . 5 & . . J J & 5 J J & & & & V V L L & & & & & 5 & & 5 & J J V V 6 J & 5 J J 5 5 & 5 . . & 5 & & & & & & 6 6 6 6 J J & & | | V V 5 5 5 5 J J & & & & . . 5 & . . & & & & > > | | J J F F 5 5 E $ 5 5 2 G h j <.<.S S m _._._.m m _._.m m m m 2 2 G 2 F F 5 5 V V 5 5 $ $ . . $ E $ $ % # $ $ 2 [.2 2 >.% 5 & 2 2 $ $ 2 2 F F 2 2 F F 2 2 F F 2 2 F * 2 2 * * 2 2 F F 2 2 F F ",
"2 2 F * F F F * * * * }.F F F * * F F * * F * }.F F }.* * * s s * * 5 5 s % * * % % $ $ $ E 5 5 5 5 5 5 & 5 J 6 5 5 * * 2 2 2 2 ^.^.S S m m m _._.m S S S S ].].h h 2 2 5 5 J J 5 5 F F E E 6 6 J J & 5 . . 5 & & 5 5 & . . 5 5 V V 5 & V V 5 5 5 5 J J V V 5 & & & J 6 & 5 5 & V V 5 5 . . 5 & V V & & 5 & J J & & 6 6 & & & 5 V V V V 6 | 5 5 . . 5 & V V 5 & V V 5 5 . . V V P P & & . $ 5 5 5 & . . . . & & . . E E J J % % E E V V $ . . . $ $ 5 5 . $ % % s s F F E $ V V $ $ V V $ E 5 V % s s % % s E E * * E E E $ $ . $ $ $ $ % s s s # # * 1 * * V V . . V V . . V V 5 & V V % % s s s % V V V V V V V V 5 5 V V V V E E | | E E 5 & . . & 5 V V 5 5 . . 5 & & & ' ' . . 5 & . . J J & 5 J J & & & & V V L L & & & 5 & & 5 & & & J J V V J J & & J J & 5 5 & . . & & & & & & & & J 6 6 6 J J & & | | V V 5 5 5 5 J J & & & & . . & 5 . . & 5 & & > > | | J J F F 5 5 E $ & 5 2 G h h <.]._.S _.m _._._.m _._.m m m m 2 2 2 2 F F 5 5 V V 5 5 $ $ . . $ $ $ $ # % $ $ [.[.2 2 % % 5 & 2 2 $ E 2 2 F F 2 2 F F 2 2 F * 2 2 F * 2 2 * * G 2 F F 2 2 F F ",
"* * F F * * F F * * 1 * * * * F F * * F F * 2 2 F * 2 2 * * F * % % 5 5 % % F F E $ $ $ V V . $ 5 5 . . 5 & 5 5 5 5 2 2 G 2 2 2 m m m _.m m m m S S m _.S S ].].j j G G 5 5 & 5 5 5 2 c $ $ V V $ . V V & & $ . & & & 5 & & 5 5 V V . . 5 & V V & & . . J J & 5 5 & V V 5 & & 5 & & . . 5 & ' ' O > . . 5 & & & J J 5 5 5 & V V 5 5 O O | L E E V V V V 5 5 $ . & & V V . $ 1 1 $ $ c c V V . . $ V $ . & & & 5 5 5 1 1 s s s s E $ E E E $ # # E E # # V V . $ $ . E E V V E E V V . . V V . . V V s % E E E E * * % % # # s % $ E . E $ $ * F $ $ . $ V V . . V V . $ $ V V . V V V V . . E E E $ $ $ & 5 V V & 5 V V 5 5 V V s s g g V V V V 5 5 $ . 5 5 V V V V . . . $ $ $ 1 1 $ . & & V V 5 & V V J J & 5 J J M M V V . . 5 & V V 5 5 V V 5 & 5 5 5 & 6 | > > V V 6 J 5 & J J & & & & & & J 6 & & J J & 5 5 5 V V J J & 5 & & V V 5 & 5 & 6 6 5 5 5 & 5 & . V $ E * * $ E 5 5 E $ c c j j ].<.S S _._.m m _._.m m _._._._.2 2 G 2 * * 5 5 5 5 $ $ . . $ . $ V . $ $ $ # # * * G G # # 5 5 F F E $ F F 2 2 * * 2 G F * 2 2 * * 2 2 * * F F }.* F F F }.}.F ",
"* F F F * * * F * * 1 * * * F F * * F F 1 * 2 2 F * 2 2 * 1 * * s % 5 5 s % * F E $ $ $ V V . $ 5 5 . . & & 5 5 & 5 2 2 2 G 2 2 m m m m m m m m S S _.m S S ].].h j G G 5 5 5 & 5 5 2 2 $ $ V V $ . V V & & . . & 5 5 & & & 5 5 V V $ . & & V V 5 & . . J J & 5 5 & V V & & 5 & & & . . & & ' ' O > . . & 5 & & J J 5 5 & & V V 5 5 O O | L E E V V V V 5 5 $ . & & V V $ E * 1 . $ c c V V . . V V $ . & & 5 5 5 5 1 1 s s % s $ $ E E $ $ % # . E # # V V $ . $ $ E $ V V $ E V V . . V V . . V V s % E E $ E * * % % # # s % $ $ E E $ $ F F E $ $ $ V V $ . V V . . V V $ . V V V V . . $ E . $ $ $ & 5 V V 5 & V V 5 5 V V s s g g V V V V 5 5 $ $ 5 5 V V V V . . . E $ $ * 1 . . 5 & . V 5 & V V 6 J 5 5 J J M M V V $ . & & V V 5 5 V V & 5 5 5 & & 6 | > > V V 6 J 5 & J J & 5 & & & & J J & & J J & 5 5 5 V V 6 J & 5 & & V V 5 & & 5 6 6 V & & & 5 & V V $ $ * 1 E $ 5 5 $ $ c c j j ].<.S S _.m m m _._.m m _.m _._.2 2 2 G * * 5 5 5 5 $ $ . . $ . V V . $ $ $ # # * * G G % # 5 5 F F E $ F F 2 2 * * 2 2 F * 2 [.* * G 2 F * F F * }.F F * 1 F F ",
"F F F * * F * * }.* * }.F F 1 * }.F s s * F * * F F * F 2 2 % % * * 5 5 s % * * % % V V $ $ 5 5 5 5 5 5 5 5 6 6 5 5 * * 2 2 2 2 ^.^.m m m m _._.m m S S S S +.+.8 8 2 2 ,.,.5 5 E $ c F $ $ V V . $ 6 J & & & 5 V V 5 & V V & & . . & 5 V V $ $ M M > > . . 5 & & 5 & & & 5 & & 5 & . . # # L L # # . $ 5 5 & 5 . V 5 & V V 5 5 s % * 1 c F V V . . V V $ E 5 5 V V 5 5 . $ $ . * * $ E $ $ V V . $ . E . . 5 & V V V V ,.$ V V . $ V V $ E $ . # # . $ $ E E . E E 5 5 V V . $ $ E . . # # E E s % $ $ # % s s 2 G % % # # E $ $ E E E s % 1 1 1 * % % % % # # E $ . . . $ V V $ $ V V . $ V V $ . 5 5 V V 5 & V V 5 5 V V J J V V 5 & . $ 5 5 V V 5 & V . V V . . V V E $ s s . . 5 & V V & & . . & 5 V V V V s s 1 1 F F 5 5 V V 5 & V V & & 5 5 & 5 . . V V 5 & 1 1 $ . | | & & & & 5 5 5 & V V & 5 L L O O . . 5 & . V 5 & V V 5 & $ . 5 & . . 5 & 5 5 . . . . . . 2 2 V V V V V V G G 8 h ].]._._.m m _._._.m _._.m m m m 2 2 2 2 * F 5 5 V V & 5 . $ 5 5 $ $ V V # # E $ F F 2 [.% % 6 6 2 2 $ $ 2 2 F F 2 2 F * F F F * 2 2 * * 2 2 * * F F * 1 F F F * ",
"F F * * F F * * * * }.* F F 1 * }.F s s * F F * F F * F 2 2 % % * * 5 5 % % F * % # $ V $ $ 5 5 5 5 5 5 5 5 6 J 5 5 * * 2 2 2 2 ^.^.m m m m m _.m m S S S S +.+.8 8 c c ,.,.5 5 E $ c F $ $ V V $ . 6 J & & 5 & V V & & V V 5 & . . 5 5 V V $ $ M M M > . . 5 & & 5 & & & 5 & & 5 & . . # # L L # # . $ 5 5 5 & V V 5 & V V 5 5 % % * 1 c F V V . . V V $ E 5 5 V V 5 5 $ $ $ E * * $ E E $ V V . $ V . . . & 5 V V V V ,.$ V V $ $ V V ,.$ $ . # # . $ E $ $ $ $ E 5 5 V V $ $ E E $ . # % . E s % $ $ % s s s G G % % % # . E E E E $ # % * 1 * * % % # % % # # E $ . $ $ V V $ . V V $ . V V $ $ 5 5 V V 5 & V V 5 5 V V 6 J V V 5 5 E $ 5 5 V V 5 5 . . V V . $ V . . $ % s . . 5 & V V & & . . 5 & V V V V s s 1 1 c F 5 5 V V & 5 V V & 5 5 5 & 5 . . V V 5 & 1 1 $ . | | & & & & & 5 5 & V V 5 5 O L L O . . 5 & . V 5 & V V 5 & . . & & . . 5 & 5 5 . . . . . . 2 2 V V V V V V G G h 8 ].]._._._.m _._._.m _._.m m _.m 2 2 2 2 * F 5 5 V V 5 5 . $ 5 5 $ $ V V # # E $ F F G 2 % % 6 6 2 2 $ $ 2 2 F F 2 2 * * F F 1 * 2 2 * * 2 2 * * F F * 1 F F F * ",
"1 * * 1 * * F F * * F F * * 2 2 * * $ $ $ $ 2 2 F * 2 2 * * F * % % 5 & % % * F $ $ $ E V V . . 5 5 . . & 5 5 5 5 5 2 2 G 2 2 2 m m m _.m m m m S S _._.S S ].].j j G G V V V V ,.,.[.[.$ $ . $ $ E ' ' 6 6 V V 5 5 $ . & & V V & & V V 5 & * * V V 1 1 5 5 E $ 5 & . . 5 & V V & & . . s s 2 2 $ $ . . & & V V 5 & . . V V . . V V E $ $ $ V V V V $ . V V . $ V V $ . V V $ $ V V E $ $ . $ $ . V ,.$ 5 & . . & 5 E $ V V . V 5 5 $ E E . % % E E 2 2 1 * * * F * % s s % c F % s F F * * 2 2 1 * s s % # 1 * * F % s % # s s E $ % % $ E 1 1 # # % % % s c c * * * F s s % s % % s s s % s s % % s s E E E $ V V . $ $ V $ $ V V $ . 5 5 5 & 5 5 . . . . . . 5 5 E $ 5 & . . . $ $ . E . V V V V . . 5 5 V V 5 5 V V & & & 5 5 & V V & & & 5 & & 5 5 E $ 1 1 1 * E E 5 5 V V & & 5 & & 5 V V V V s % E $ $ E E E 5 5 & 5 V V 5 & V V 5 & V V 5 & & J M > # # . $ # # F F E $ 5 5 E $ c F j j ].].S S _.m m m m _.m n m m _._.G 2 2 2 F * 5 5 5 5 $ $ $ . . $ V V . $ $ $ # # * * G G # # 5 5 F F E $ F F G 2 * * c 2 * * % % * * 2 2 * * F F }.* 2 2 F * 2 2 ",
"* * 1 * * * F F F * * F F * 2 2 F * E $ $ $ 2 2 F * 2 2 * * * * % % 5 & % % * F $ $ $ E V V . . 5 5 . . 5 & & 5 5 5 2 2 2 G 2 2 m m m _.m m m m S S _._.S S ].].j j G G V V V V ,.,.[.[.$ $ . $ $ E ' ' 6 6 V V 5 & V . & & V V & & V V 5 5 * * V V 1 1 5 5 E $ 5 & . . & 5 V V & & . . s s 2 2 $ $ $ . & & V V 5 & . . V V $ . V V $ E E . $ V V V $ $ V V . $ V V $ . V V $ $ V V $ $ $ $ . $ . V $ $ & & . . & 5 $ $ V V V V 5 5 E $ . $ % % E E 2 2 1 * * * F * s s % % F F s s F F * * 2 2 1 * s s # # * * * F # % % # s s $ E % s E E 1 1 # # % % s s F c * * * F s s s % % s s s s % % s s % % s E E E $ V V $ . V V $ E V V . $ 5 5 5 5 & 5 . . . . . $ & 5 $ $ 5 & . . . . $ $ . . V V V V . . 5 5 V V 5 5 V V & & & 5 5 5 V V & 5 5 5 & 5 & 5 $ $ * 1 * * $ E V 5 V V & 5 5 5 5 & V V V V s % $ E E E . E 5 5 5 5 V V & & V V & & V V 5 & J J > > # # . $ # # * F $ $ 5 5 E $ c F j j ].].S S _._.m m _._.m n m m _._.G 2 2 2 F * 5 5 5 5 $ $ . . . E V V $ $ $ $ # % F * 2 G # # 5 5 F F E $ F F 2 2 * * 2 2 * * % % * * 2 2 * * * F }.* 2 2 * * 2 2 ",
"* * F * }.}.* * F F * * 2 2 * F [.2 5 5 % % F * F F * F 2 2 % % * * 5 5 s % * * % % V V . $ 5 5 5 5 5 5 5 5 J 6 5 5 * * 2 2 2 2 ^.^.m m m m _._.m m S S S S +.+.8 8 c c ,.,.5 5 E $ 1 F $ E E . % s $ E c c & 5 V V & 5 V V & & V V & 5 . . # # F F E $ $ $ V V . $ 5 5 . . 5 & & & . . . . & & . . . . . $ & 5 . . V V $ E V V V V & & V V 5 & V V V V V V V V $ E E . E E E E s % % s 1 1 % s }.* % s 1 1 # # % % s s F F s s 1 * % s % % E E # # $ $ E E E . # # E E % # E E E E E $ # % # # s % E $ # # # # c 2 # # s s E E % % # # # # s % % % . $ E E E E # # $ $ E E . . # # E E # # E E E E E $ # % E E s s # % * * % s 1 * * * % s $ $ # % s s 1 1 # # 1 * E E # # $ $ E $ $ . $ E 5 5 E $ 5 V V V 5 5 $ $ & 5 V V 5 & $ V & 5 V V 5 & 5 5 & 5 . . & & V V 5 & V V & & V V & 5 5 5 & & . . . . s s % s $ $ 5 & V V & 5 5 5 & 5 & & & & # # 1 1 s s 1 * E E . . 2 2 5 5 V V V V G G h 8 ].]._._.m _._.m m m m m m _.m m 2 2 2 2 * F 5 5 V V 5 5 $ $ 5 5 . $ V V # # E $ F F 2 2 >.% 6 6 2 2 $ E 2 2 F F F F * 1 F F $ $ * * F F 2 2 * * 2 2 * * 2 2 F * ",
"* * * * }.}.* * F F * * 2 2 * F 2 2 5 5 % % }.}.F F * F 2 2 % % * * 5 5 % % F * % % V V $ $ 5 5 5 5 5 5 5 5 6 6 5 5 * * 2 2 G 2 ^.^.m m m m _._.m m S S S S +.+.8 8 c c ,.,.5 5 E $ 1 F E E E $ # s $ E c c & 5 V V 5 & V V & & V V 5 & . . # # F F $ $ $ $ V V $ . 5 5 . . 5 & & & . . . . & & . . . . . . 5 5 . . V V . $ V V V V & & V V 5 & V V V V V V V V $ E $ $ E E E E s % % % 1 * s s }.* % s 1 1 # # % % s s F F % s * * % s % % E E # # E . $ E E $ # # E $ % # E E E $ $ E % % # # s % E $ # # # # c 2 # # s % E E s % % # # # s % % s $ $ E E E E # # . $ E $ $ . # % . E # # E E E E E . % % $ E s s s % * * % s * * * F s s $ $ # % s s 1 1 # # 1 * $ E # # . $ E $ $ . E E 5 5 $ $ V V V V 5 5 $ $ & 5 V V & & V V 5 & V V 5 5 5 5 & & . . & & V V 5 & V V & & V V & 5 5 5 & & . . . . s s s % E E & & V V 5 & 5 5 & & & 5 & & # # 1 1 s s * * $ E $ . 2 2 5 5 V V V V G G 8 h ].]._._.m m _.m m m m m _._.m m 2 2 2 2 * F 5 5 V V 5 5 E $ 5 5 $ $ V V # # $ E F F 2 [.% % 6 6 2 2 $ $ 2 2 F F F F 1 F * * $ $ * * * F 2 2 * * 2 2 F * 2 2 * * ",
"s s * 1 * * 2 2 * * 2 2 * * 2 G F * 5 5 E $ F F * * 2 2 * * * * % % 5 5 % % * F $ $ $ $ V V . $ 5 5 . . 5 & 5 5 5 5 2 2 G 2 2 2 m m _._._.m m _.m m m m S S ].].h h 2 2 5 5 V V ,.,.[.[.$ $ $ . $ $ E E $ . . . 5 5 . . V V $ $ V V V V 5 & . . 5 & . . 5 5 V V 5 & . . 5 5 . . 5 & . . 5 & V V J J $ . . . . E V V % % E E E E s % * * % s F F s s s s E E 2 2 1 * * * % s * * $ E # % $ E . E V V $ $ . . E E E $ $ E . . . $ . $ $ E V V $ $ V V . $ $ . $ E $ $ # # . . $ $ . $ $ E E . # # . $ # # E E s s F F s s E E E E E $ # # E E F F E E s s E $ s s $ $ E $ . . $ $ . $ E E E $ $ E V V . $ $ $ $ $ V V V V V V E E V V # # . $ $ E E $ $ E E . % % $ $ E E E E # % * 1 * F 1 1 1 * E E E E $ E s % % % * * % # E E . . $ E . . $ $ V V $ . V V $ $ V V V V 5 5 V V 5 5 V V & & V V 5 & . . & 5 V V V V V V & 5 E $ V V . $ V V . $ V V E E E E s % V V E E 2 2 $ E V V $ $ c c j j ].].S S _.m m m _._._.m m _.+.+.2 c G G * * V V 5 5 . $ $ $ $ V V V $ $ $ $ # % * * 2 G # # 5 5 * * $ $ F F 2 2 * * F F * * 5 5 % % 2 2 * F 2 [.* * F F F * F F ",
"s s * 1 * * 2 c }.* 2 2 * * 2 2 * * 5 5 E $ F F * * 2 2 * * F * % % 5 5 % % * F $ $ $ $ V V . $ 5 5 . . 5 & & 5 5 5 2 2 2 G 2 2 m m _._._.m _._.m m m m S S ].].h h 2 2 5 5 V V ,.,.[.[.$ $ $ $ . $ E E $ . . . 5 5 $ . V V $ $ V V V V & & . . & 5 $ . 5 5 V V & 5 . . 5 5 . . 5 & . . & 5 V V J J $ $ $ . $ V V . % % E E E E s % 1 * % s F F s s s s $ E c c * * * F s s * * $ E % % . $ E E V V $ $ $ . . E E . E E . . . $ $ $ E $ V V . $ V V $ $ . . E E $ $ # # . $ E $ . . . $ E E # # . $ % # . E s s F F s s $ E E E $ $ % # . E F F $ E s % $ $ s s $ . E $ $ . $ $ E $ E E E $ $ E V V $ E $ $ . $ V V V V V V E E V V # # . $ E $ $ . E E E . % % $ $ $ E E E % % * * * F 1 1 1 * $ E E E E E s s # % * * % # E E . . E E $ . $ $ V V $ . V V $ $ V V V V & 5 V V 5 5 V V & & V V 5 & . . & 5 V V V V V V 5 5 . $ V V . $ $ V E $ V V $ E E E s % V V $ E 2 2 $ E V V . $ c c j j ].].S S _.m _.m m _.m _.m _.+.+.2 2 2 G }.* V V 5 5 . $ $ $ $ $ V V $ $ $ $ # % * * 2 G # # 5 5 * * $ E F F 2 2 * * F * * * 5 5 % % 2 2 * F 2 [.* * F F * F F F ",
"* * }.}.2 2 F F 2 2 F * F F }.}.* * 6 6 s % 1 * F F * F * * % % * * 5 5 s % * * % % V V . $ 5 5 & 5 5 5 5 5 J 6 5 5 * * 2 2 2 2 ^.^.m m m _._.m m m m m m m ].].j j c c ,.,.5 5 >.>.* * $ E V 5 E E V V V . 5 5 . . V V . $ V . . V V V $ $ 5 5 E E E $ E E E $ $ E . . # % s s F c * 1 1 1 # # s s 1 1 2 2 * * % s $ $ $ E E E % % $ E % % V V . $ $ $ $ $ V V E E E $ $ E V V ,.$ V V . . 5 5 E $ V V . $ V V . $ 5 5 . . 5 5 $ $ . $ $ E V V . $ . E $ $ $ . # # . $ E $ V V . $ $ $ $ E E E % # E E E E % % 2 2 E E s % $ E E E . E # # 1 1 * * $ E $ $ $ E $ E E . $ $ V V $ E . . E E $ . $ $ V V $ . V V $ $ V V . $ $ V $ . . . . . 5 5 $ $ V V . . 5 5 $ $ . $ $ E $ $ % # . E E E . . $ E . $ $ E E . E E $ $ # # # # s % % # 1 1 1 1 F F * 1 1 1 # # * * % # s s % # s s # # # # $ $ . $ V V . $ V V . $ 5 5 $ $ V V $ . 5 5 V V V V ,.,.V V $ . 5 5 $ $ E E 2 2 $ E $ $ V V G G h 8 ].]._._.m m _.m _._.m m _._._._.2 G [.2 2 2 5 5 V V 5 5 $ $ $ . . $ $ V % # $ E F F G 2 % % 6 6 2 2 E $ 2 2 * * F F * 1 * * 5 5 s s F F 2 2 F * 2 2 F F 2 2 * * ",
"* * }.}.2 2 F F 2 2 F * * F F * * * 6 6 s % 1 * F F * * F F % % * * 5 5 s % * * % % V V $ $ 5 5 5 5 5 5 5 5 J 6 5 5 * * 2 2 2 2 ^.^.m m m _.m m m m m m m m ].].j j c c ,.,.5 5 >.>.* * $ E V 5 E E V V . . 5 & V $ V V . $ . E . V V V $ $ 5 5 $ E $ E E E E $ $ E . . # # s s c c * 1 1 1 # # s s 1 1 c F * * % s $ $ E E E $ # % E E s % V V $ E $ $ $ . $ V E E E $ $ E V V . $ V V . . 5 5 E $ 5 V $ $ V V $ . 5 5 $ . 5 5 $ . . E $ $ V V $ . V . . E . . % # $ . E $ V V $ $ $ E $ E E $ # # E E E E % % 2 2 E E % % E $ E E E . % % 1 1 1 * E $ $ E E E E E $ . $ $ V V $ E . . E E $ . $ $ V V $ . V V $ $ V V $ . V V . . . . V . & 5 $ E V V . . & 5 $ $ $ . $ $ E $ # # . $ $ E . . E E $ . $ E . . $ E E $ # # # # s % # # 1 1 1 1 F F 1 1 1 1 # # 1 * # # s s # % % s s # # # $ $ $ . $ V V $ V V . $ 5 5 $ $ V V . $ 5 5 $ V V V $ $ V V ,.$ 5 5 $ $ E E 2 2 $ E $ $ V V G G 8 h ].]._._.m m _.m _._.m m m _._._.G G [.2 2 2 5 5 V V & 5 $ $ $ . . $ $ V # # E $ F F 2 2 >.% 6 6 2 2 E $ 2 2 * * F F * * * * 5 5 s s F F 2 2 F * 2 2 F F 2 2 * * ",
"* * F F * * 2 2 F * 1 F F * * F * * J J E $ * * * * 2 2 * * F * % % 5 5 % % F F E $ $ $ V V $ . 5 5 . . 5 & 5 5 5 5 2 2 2 2 G 2 m m _._._.m _._.m m m m S S ].].h h G G ,.,.$ $ . $ 2 2 >.>.>.>.$ $ E E $ . E E s % * * % s F * % s % % $ E * * * F F * * * * F % # s s # # # % $ E # % $ E # # E E # % E $ E $ V V . $ V V . $ V V $ $ V V $ $ $ $ . $ 5 5 E $ 5 V $ $ V V $ $ V V ,.$ V V V V 5 5 $ . V . $ $ V V $ . 5 5 . . V V E $ V V . $ V . E E . . $ E . $ E E E $ ,.$ . . $ E E . # # . $ L L | | E % * F % # E E # # $ $ E E $ $ F F % s 6 6 | 6 E E E $ E E $ . . $ . E E $ . . $ E V V . $ $ V E $ V V $ $ V V $ $ . . $ $ 5 & . . V V . . & 5 . . V V $ E V V $ $ V V $ . $ . . $ V V . $ . E $ $ . . . $ $ . . . . . $ $ V V . . . . # # E E % % $ E s % E E % s % % s s # # s s 1 * 2 c c c 2 F % s s s % % F * % s F * * * * F $ $ E E $ $ % % $ E s s 1 * E E E E $ E 2 2 j j <.].S S m _._.m m _._._.m m +.+.2 2 2 G }.* V V 5 5 . $ $ $ . $ V V $ $ $ $ # # * * G G # # 5 5 * * $ $ F F 2 2 * * F * F * 5 5 # % 2 2 * * F * * F 2 2 F * 2 2 ",
"* * * F F * 2 2 * * F F F * * F * * J J $ $ * * * * 2 2 * * * * % % 5 5 % % * F $ $ $ $ V V . . 5 5 . . & & & 5 5 5 2 2 2 2 G 2 m m _._._.m _._.m m m m S S ].].h h 2 G ,.,.$ $ $ $ 2 2 >.>.>.>.$ $ E E $ . E E s % 1 * s s 1 * s s % s $ $ * * * F F * * * * * % % % s # # # % $ $ # % $ E # # $ E # % E $ . $ V V . $ V V $ . V V $ $ V V $ $ $ $ $ $ & 5 $ $ V V $ . V V $ $ V V ,.$ V V V V 5 5 $ E . . $ $ V V . . 5 5 . . V V . $ V V $ $ . $ E $ . . . $ E E E E E $ ,.$ . $ E $ E E # # . $ L L L | % % * F % # E E # # $ $ E E $ $ * F s s 6 6 | 6 E E E $ E E $ . $ $ . . E E $ . E E V V . $ $ V E $ V V . $ V V $ $ . . E $ 5 5 . . V V . . & 5 . . V V . $ V V $ E V V . $ . . $ . V V $ . . . $ E . . E $ $ . . . . . $ $ V V . . . . # # E E # % E $ % % E E % % s % % s s # # s 1 * c c c 2 F F % s s s s % * * % s F * * * * * $ $ E E $ $ s % $ $ % s * * $ E E E E E 2 2 j j <.].S S m _._.m _._._._.m m +.+.2 2 G G * * V V 5 & E $ $ $ $ $ V V $ $ $ $ # # * * G G # # 5 5 * * $ $ F F G 2 * * c F * * 5 5 s % 2 2 * * * F * * 2 2 * F 2 2 ",
"F F * * F F * * * F F * * F * * * F 6 6 E E * * * F }.F F }.s % * * 5 5 % % * * % % V V $ $ 5 5 5 5 5 5 5 5 6 6 5 5 * * 2 2 2 2 ^.^.m m m _._.m m m m m m m ].].h h 2 2 E E ,.,.$ $ G G [.[.s s 1 * s % 1 1 % s % s % % s s s % % % s % s s E $ s s s % % s E E E E $ ,.E E V V . $ $ $ # # V V # # E E E E V V . $ $ V $ E E ,.$ E E $ $ E V V E E V V V V V V $ $ $ $ E $ V V $ $ $ E $ $ 5 5 V V & 5 . . $ V $ . V V . $ $ V $ E . . E E $ . $ E $ $ . $ $ E $ $ $ $ . $ . . . E V V % # E $ # % V V % % s % F F $ E % % $ $ E E $ $ # # 1 1 * F V V # # $ E E E . . $ $ V V E E . . E E . . $ $ V V E E . $ $ E V V $ $ V V $ E . . . . V V $ . & 5 . . 5 & $ $ . $ $ E 5 5 E $ . . $ E $ $ $ $ 5 5 $ $ $ . $ E $ . . . . $ V V 5 5 E $ . $ # # E E # # . . # # E E E $ $ . $ $ $ . E E E E s % # # s s # % * * % % # % E E s s # % * s # % * * s % % s 1 * * * 2 G g g V V $ $ . $ G G h h ].]._._._.m _._._.m _.m +.+._._.G G [.2 2 2 5 5 V V 5 5 $ $ . . . $ V V # # $ $ * F 2 2 s % 6 6 2 2 E $ G 2 * * F F * 1 * * 5 5 % % * * F F * * F F * * F F * * ",
"F F * * F F * * F F * * F F * * * * 6 6 E E * * F F * F * * s % * * 5 5 % % * * s % V V $ $ 5 5 5 5 & 5 5 5 6 6 5 5 F * 2 2 2 2 ^.^.m m m _.m m m m m m m m ].].j h 2 2 E E ,.,.,.$ G G [.[.s s 1 * % % 1 1 % s % s % % s s s % % % % s % s E E s s # % * s $ E E E $ ,.E E V V $ E $ $ # # V V # # E E E E V V $ $ V V E E E $ $ E $ $ $ . V V E E V V V V V V $ $ $ . E $ V V E $ $ . . $ 5 5 V V 5 & . . V V $ $ V V $ $ V V $ . V . E E . . $ E . $ E $ $ E E $ $ E $ $ . $ $ E V V # # E $ % % V V s % % s c F E E % % $ E E E . $ % # 1 1 * F V V # # E E E $ . $ $ V . V E E $ . $ E E . $ $ V V E E E $ $ . V V E $ V V $ $ . . $ . V V $ . & 5 . . & 5 $ $ . . E $ 5 5 E $ $ . . $ $ $ $ $ 5 5 E $ . $ $ $ $ . . . . . V V 5 5 E $ . $ # # E E # # $ . # % . E E E . . $ E . $ E $ E E s % # # s % % % * * % % s % E E s s # % * s % % * * s % % s * * * F G G g g V V $ $ $ $ 2 G h h ].]._._._.m _._._.m m m +.+._._.2 G [.2 2 2 5 5 V V 5 5 . $ $ . . $ V V # # $ $ * F 2 2 s % 6 6 2 2 E $ 2 G * * F F * 1 * * 5 5 % % * * F F * * F F F * F F }.* ",
"F * F F * * F F * * F F * F * F 1 1 6 J $ $ * F * F c c F * * * % s 5 5 % # c c $ $ $ $ V V $ . 5 5 V V 5 & & 5 5 5 2 c c c G G ^.^.^.^.m m _._.m m m m S S ].].h j G G V V ,.,.$ $ G G * * % s % % % s % s 1 1 $ E s % $ $ E E $ $ E $ E E s % E E s % $ E s % $ E E E $ ,.E E $ . E E . $ $ E E $ $ E $ $ E E $ $ $ $ $ E E E E . E E E $ $ E 5 V E $ V V $ E V V . $ V V $ E V V $ . V V ,.$ V V V V $ V $ $ V V E E E $ $ E V V $ E . $ $ E V V $ E E . E E E $ $ E E $ ,.# $ . E E $ ,.E E E $ # s s s % s * * % s $ $ E E $ $ E E E E F F s s * * % s % % $ E E E V V . $ $ $ E E $ $ E $ . $ $ E V V $ $ V V $ E V V $ $ V V ,.$ $ . . E V V . $ V V . . V V E E E $ E E E $ $ . V V $ $ E $ $ $ V V $ . V V $ E E . E E E $ E E V V $ $ V V E E $ $ E E E $ E E . $ $ E . $ $ E E $ % s % # s % E E % # E E % % . $ # # . $ # # E E # % % # 1 1 # # % % % s * * 2 2 E $ 5 5 $ $ 2 2 j 3.].].^.^.m m m m m _._._.m m +.+.2 2 2 2 * * $ . 5 5 . . . $ V $ $ . $ $ $ $ % # * * 2 2 # # 5 5 F * $ $ F F F 2 * * F F s s 5 5 # # 2 c * * F F * F F F * * * F ",
"* * F F * * F F * * F F }.}.F F 1 1 J J $ $ F F * F c c * * * F % % 5 5 % # c c $ $ $ . $ V . . 5 & V V & 5 5 5 5 5 F c c c G G ^.^.^.^.m m _._.m m m m S S ].].h h 2 G V V $ ,.,.$ G G * * % s % % s s % # 1 * E E s % $ . $ E $ $ $ E E E s % E E % # E $ % % E E E $ . $ $ E . . E E . $ $ E E $ $ E $ $ E E $ $ . $ . $ E E E . E E E $ $ . V V . $ V V E E V V $ $ V V $ $ V V . $ V V . $ V V V V V V $ $ V V E E $ E E E V V $ E $ $ E E V V E E $ $ E E $ $ $ E E $ ,.# $ . E E E $ E E E . % s s s % s * * % % E E E $ $ $ E $ E E F F s s * * % s % % $ $ E $ V V . $ $ E E $ $ $ $ E . . E E V V $ . V V $ E V V $ . V V $ $ . . . $ $ V V . $ V $ . V V $ E E . E E E $ . $ V V . $ E $ $ $ V V $ . V V $ E $ $ E E $ $ E $ V V $ $ V V $ E $ $ E $ . $ $ E E . $ E . $ E E $ $ s % # # s % E E % s E E s % $ $ # # E $ % # . E s % % # 1 1 # # s % # % * * 2 2 $ E 5 5 ,.,.[.2 3.3.].].^.^.m m m m m _._._.m m +.+.2 2 2 c * * $ . 5 5 . . . $ V $ . . . $ $ $ # # * * 2 2 # # 5 5 * * $ . F F c c * 1 F F s s 5 5 # # c c F * F F * F F F * * * F ",
"F F * * F F F * F F * * F F 1 * }.F 6 6 # # 1 * F F 1 * c c s s % % 5 & % % * 1 % % . . . $ 5 5 V V 5 5 5 5 J J V V * * 2 2 [.2 +.+.m m +.+._.m m _.S S ^.^.].].j j c c ,.,.V V E E 2 2 1 * >.>.% s E E % s % # s % E $ E E E $ E $ $ $ E E $ . s % $ E % % $ E s % . $ $ E E $ $ E . . E $ $ $ E $ V V $ $ V V $ $ V V E E E $ $ E . $ E E V V . $ $ V E $ E $ $ $ V V $ E V V . $ V V $ $ V V . $ V V . $ V V $ E . $ $ E . $ $ . $ . E E $ $ E $ V V . $ $ V E E . $ $ E $ $ E E $ $ E $ $ $ % s $ $ # % s % * F E $ # % $ . E $ $ $ % % * * s s E $ % % E E E E $ $ $ E $ $ E E $ $ E $ $ $ $ E . . E E E $ $ . $ V $ E $ $ $ $ $ . E $ . . $ $ $ . . . V V E E E $ E E E ,.. $ V V $ $ V V $ E . $ $ . $ V E E $ $ E E V V E E . . $ $ V V $ $ . $ E E E $ $ E $ $ $ E E . E E $ $ % # E E % % # # # # E $ % # . E % % E $ E E $ $ E E $ $ # # # # s % E E s s % s g g V V $ $ V V G G j h ].].m m m m m m ^.^.m m ^.^.^.^.G G 2 2 2 2 5 5 . . 5 5 $ $ . $ V $ V V $ $ $ $ * * G 2 s % & & c c . . 2 2 * * F F * * F * J J % % * * F F * F F F * * F F * * ",
"F F F * * F F * F F }.}.F F 1 * }.F 6 6 # # 1 * F F * F c c s s % % 5 & % % * 1 % # $ . . $ 5 5 V V 5 5 5 5 J J V V * * G 2 [.2 +.+.m m +.+.m m m _.S S ^.^.].].j j F c ,.,.V V E E 2 2 * * >.>.% s E E s % % # # s E $ E E E $ E $ $ $ E $ $ . s % E E % % $ E % % . $ $ E $ $ E E . . E E . $ $ $ V V $ $ V V $ $ V V E E E $ $ E . $ E E V V E $ V V $ $ E $ $ $ V V $ E V V . $ V V $ $ V V . $ V V . $ V V E $ $ E E E . $ E $ $ $ E E . E $ $ V V $ . V V E E ,.,.E $ $ $ $ E E $ $ E $ $ % % . $ % % s % F F E $ # % E $ E E $ $ % % * * s s E E % % $ E $ E $ E E $ $ $ E E $ $ E $ $ $ E E . . E E E $ $ . $ V V $ $ $ . $ . . E $ . . $ $ $ . . . V V $ E $ $ $ E E ,.. $ V V $ $ V V E $ E $ $ $ V V $ E $ $ $ E V V $ E . . $ $ V V $ $ . $ E E E $ E E $ $ E $ $ $ E E . $ # # E E # % # # # # E $ # # E E # % ,.,.E $ E E E E $ $ # # # # s % E E s s % s g g V V ,.,.V V G G j h ].].m m m m m m ^.^.m m ^.^.^.^.G G 2 2 2 2 5 5 $ . 5 5 $ $ . . . $ V V . $ $ $ * * G 2 % % 5 & c c . . 2 2 * * F F 1 * * F J J % % 1 * F F * F F F * * F F * * ",
"* * F F F * F F F * F F }.}.F F 1 1 J J $ $ F F * * F c * * * F % % 5 5 % # c c $ $ . $ V $ . . 5 5 V V 5 & & 5 5 5 2 c c c G G ^.^.^.^.m m +.+.m m _._._.m ].].h h G G 5 5 ,.,.$ $ =.=.s s % % E E % % . $ # # $ $ E E $ $ E $ $ E % % $ E % # E E s % E $ # % E $ E E E $ $ E E $ $ E $ E $ E V V . $ V V $ $ V V . $ V V E E . $ E E E $ E E V V . $ V V . $ ,.V . $ V V $ $ E $ $ E V V $ $ V V . $ V V E E E $ $ E $ $ % % . $ E E . $ E E . $ E E $ $ E $ $ $ $ E . $ $ E $ $ $ E E $ E E E $ E E E . % s * * % % E E $ E $ $ $ E E E F F % s % % E E s % E E E $ $ E . E E ,.$ E $ $ E E $ $ E $ $ $ E E . $ $ E V V . $ . E $ $ $ . . $ $ . . E $ . $ $ $ V E $ V V . $ V V . $ E $ $ $ $ $ E E $ $ E $ $ $ % % . $ E E V V $ $ V V E $ V V $ $ V V E E $ E E E . $ E E ,.,.$ E E . % % E $ % # $ E E E $ E # % # # # % E $ $ E $ . E E E $ E E E $ # % E E * * 2 2 E $ V V $ $ 2 2 j j ].].^.^.m m ^.^.m m ^.^.^.^.+.+.2 2 G G * * $ . 5 5 $ . . . $ $ . . . $ $ $ # # * * 2 2 # # 5 5 * * $ . * * F * * * F F s s 5 5 # # c c F * F F F * F F F * * F ",
"* * F F * * F F * * F * * F F F 1 1 J J $ $ F F }.* 2 c * * * * % % 5 5 % # c c $ $ . $ V $ . . 5 & V V 5 & 5 5 5 5 F c c c G G ^.^.^.^.m m +.+.m m _._.m m ].].h h G G 5 5 ,.,.,.$ =.=.s s % % E $ % % $ E % # . $ $ E . $ $ E E $ % # E E % % E E s % E $ # % E E E E E $ E E $ $ $ E E $ $ E V V . $ V V $ $ V V E $ V V E E E $ E E E $ E E V V . $ V V $ E V V $ $ V V $ . . $ $ E V V ,.$ V V . $ V V E E E $ $ E $ $ % % $ $ E E . $ E E E $ . E E $ E E $ E % E E $ $ E $ $ $ E E $ E E E $ E E $ $ s s 1 * % % E $ $ E $ $ $ E E E F F % s % % E $ s % E E E E $ E E $ $ $ $ E $ $ $ E E $ $ E $ $ E E E $ $ E V V $ $ . . . $ $ . . $ . . . $ $ . $ E V V $ E V V $ $ V V E $ . $ $ . $ $ E $ $ $ E E E $ # % E $ $ E V V $ $ V V E $ V V . $ $ V E E $ $ E E $ $ E E ,.,.$ E $ $ >.>.E E % s E $ E E E E % s % # # # E $ E $ $ . E E . $ $ E E . % % E E * * 2 2 E $ V V E $ 2 2 j j ].].^.^.m m ^.^.m m ^.^.^.^.+.+.2 2 G G * * $ . 5 5 . . . . . $ V $ . $ $ $ # # * * 2 2 # # 5 5 F * $ $ * * F * * * F F s s 5 & # # c c * * F F F * F F F * * F ",
"F F * F F F F * F F * * F F F * * * 6 6 # # * * c F * * c c % s % % 5 & % % * 1 % % . . . $ 5 5 V V 5 5 5 5 J J V V * * 2 2 [.2 +.+.^.^.+.+.m m ^.^.m m ^.^.].].8 8 2 2 ,.,.V V . $ c 2 }.}.>.>.>.% V V V V $ . . E $ $ E E $ $ # % E $ s % E $ % s E E s % $ E E E $ E % # $ E E E $ $ $ E . $ $ $ V V $ . $ V $ $ V V E $ E $ E $ E $ E E V V $ $ V V ,.$ V V E E V V $ E V V $ E V V . $ 5 5 ,.$ V V ,.$ V V E $ $ $ $ E E $ E E $ E E $ $ $ E E $ $ E $ $ $ $ E $ . E $ $ $ E $ $ $ $ E E $ % % E E s % % % * F E E # % $ . E E $ $ % % * * F * E E % % s % # % $ E % % . $ % % . $ E $ $ $ E E E $ $ E E $ E E . $ E $ . $ $ . $ $ E $ . . . $ $ . $ $ . . . E V V $ $ E . E E $ E $ $ V V . $ V V $ $ V V . $ $ $ $ E V V $ $ V V E E E $ $ E V V $ $ . E E E $ E E E E $ E $ $ $ $ E E ,.% % E $ % % . $ % % E E % s . $ E E E $ E E $ $ $ E E $ 5 & E E s % # s G G V V $ $ V V =.=.h h z z m m ^.^.m m +.+.m m +.+.+.+.G G 2 2 2 2 5 5 $ . 5 5 $ $ . . $ $ V V . $ $ $ * F 2 2 s % & & c c $ . c c * * F F F * * * J J % % * * F F * F F F * * F F * * ",
"F F * F F F * * F F * * F F * F * * 6 6 # # * * F F * * c c s s % % & & % % * 1 % % . . $ $ 5 5 V V 5 5 5 5 J J V V * * 2 2 [.2 +.+.^.^.+.+.m m ^.^.m m ^.^.].].8 8 2 2 ,.,.V V . $ c 2 }.}.>.>.>.>.$ V V V $ . E E E $ E $ . $ % s E E # % E $ s % $ E % % $ E $ E $ E % # E $ E E $ E E E $ $ $ $ V V $ . $ V $ $ V V . $ $ $ E $ E $ $ E V V ,.$ V V E $ V V E E V V $ $ V V E E V V $ $ 5 5 $ $ V V $ $ V V $ E $ $ E E $ $ E E $ E E E $ $ E E $ $ E $ . $ E E . $ E $ $ $ E E E . E E E $ % % E E s % % % * F E E # % E $ E $ $ $ % % * * * * E E # % % % # % E E s % $ $ # % $ $ $ E $ $ E E $ $ E E E $ E E $ $ E E E $ $ $ . . . $ $ . E . $ . $ $ $ . . E V V $ . . E E E $ . $ E V V . $ V V $ $ V V $ $ . $ $ E $ V $ $ V V $ E E . E E V V . $ . $ E E $ E E E ,.$ $ E ,.,.$ E $ $ # % E $ % % . $ % % E E % s . $ E E $ $ E E E $ E E . $ & & E E s % # s G G V V $ $ V V =.=.h h z z m m ^.^.m m +.+.m m +.+.+.+.G G G 2 2 2 5 5 $ . 5 5 . $ . . . $ V $ . $ $ $ * F 2 2 % % 5 & c c $ . c c * * F F * * * * J J % % * * F F * F F F * * F F * * ",
"* * F F * * F F * F F F * * F F * 1 J J $ $ F F * 1 2 c * * * * % % 5 & % % c c $ $ $ $ V V . . 5 5 V V & 5 5 5 5 5 F c c c G G ^.^.^.^.m m +.+.m m _._.m m ].].h h i i V V . $ $ $ =.=.s s }.}.E E O O 5 5 E $ . $ E E $ $ E E E E s % E $ s % E E % % E E s % $ $ E E . E E E . $ E E E $ $ E V V . $ V V $ $ $ V $ $ V V E E $ $ E E E $ . E $ E E E E $ $ $ $ . E E . E E E . E $ E V V $ . V V $ E V V $ $ . $ E $ V V . $ $ $ E E E $ E E $ $ E $ $ $ % % . $ % % . $ E E E $ $ E E $ . E E E s % $ E s % 1 * s % $ E E E . E E E $ E F F s s % % E E s s E $ >.>.E E s % E E % % E $ E E E $ E $ $ $ E E . $ E E $ $ E E E $ E $ . . $ E $ . . E $ . $ $ $ . E E E $ E E $ $ E E E $ $ E V V . $ $ V $ E $ $ # % $ $ $ . $ $ $ # $ $ E E E $ E E $ $ E E $ $ $ E E $ $ E $ ,.E E ,.,.% >.$ E # % E $ % >.$ E % % $ E % # $ $ E $ $ $ E E $ E 5 & M M E E E $ * * 2 c E $ & V $ $ 2 2 3.3.].].) ^.m m ^.^.m m ^.^.^.^.+.+.2 2 G G F F $ $ 5 5 $ . . . . $ V $ . $ $ $ # # * * 2 2 # # 5 5 * * $ $ * * F * F * * F s s 5 5 # # 2 c * * F F * F F F * * F F ",
"* * F F * * F F F * F F * * F F 1 1 J J $ $ F F * * 2 c * * * * % % 5 5 # # c c $ $ $ $ V V $ . 5 & V V & & 5 5 5 5 2 c c c G G ^.^.^.^.m m +.+.m m _._.m m ].].j h i i V V . $ $ $ =.=.s s }.}.E E O O 5 5 E $ $ $ E E $ $ E E $ E % s E E % % $ E % % E E s % $ $ E E $ $ E E E E E E $ E E $ V V . $ V V $ $ $ V $ $ V V E E E $ $ E E $ . E $ E E E E $ $ $ $ E E E E . E $ $ $ $ E V V $ $ V V . $ V V $ $ . $ E $ V V . $ $ $ $ E E $ E E $ $ E $ $ $ % % E $ % s $ $ $ E E $ $ E $ $ $ E E E % % $ E s s * * % s $ $ E E $ $ E E E E F F s s # % $ E % s E $ >.>.E E s % E E % % . $ E E E $ E E $ $ E E E $ . E $ $ E E . $ $ E $ . $ . . E $ . $ . E $ . $ E E . $ E E $ $ $ E E $ $ E V V $ . V V $ E $ $ # % $ $ $ $ . $ E E E $ $ E $ E $ E E . E E E $ E E $ $ E E $ $ $ E ,.,.% % E E % % E E % >.$ E % % E E % # . $ E $ . $ E E $ E 5 5 M M E E E E * * 2 2 E $ & V $ ,.2 2 3.3.].].^.^.m m ^.^._.m ^.^.^.^.+.+.2 2 G G F F $ $ 5 5 . . . $ V $ . $ $ $ $ $ # # * * G 2 % # 5 5 * * $ . * * * F F * F F s s 5 5 # # c c * * F F * * * F * * * F ",
"F F * F F F * * * F * * F F * F * }.6 6 # # * * F F * * c c s s % % & & % % * 1 % # . . . $ 5 5 V V 5 5 & 5 J J V V F * 2 2 [.2 +.+.m m +.+.m m ^.^.m m ^.^.].].j j G G $ $ $ ,.E E 2 G * * % % * * % % 2 2 % % # # $ . $ E $ . s % $ E # % E $ % s E E s % $ E $ E $ $ E E E . $ E $ $ $ E $ . . $ V V . $ V V $ $ E $ E E $ E $ E $ $ $ E E . E E $ $ E E $ $ E E $ $ E $ $ $ E E $ $ $ $ V V $ E V V E E V V $ $ V V $ $ V V E $ $ E $ E E $ E $ E $ E E $ E % % E E E E E . E E E $ E E E . E E E $ % % $ E F F E E % % . $ s % E $ s % F F s % E E % % E E # % E $ % s E E # % $ E % % $ E $ E $ $ E $ $ $ E E E $ $ E $ E E E $ $ E E . $ E $ $ . . E . . E E $ E E E E $ E E . $ $ E E . E E E $ $ E V V $ E E . $ E . $ E E . $ E E $ . E E $ $ E E V V $ . $ $ $ E E $ E E ,.,.$ E $ $ % % E E >.>.$ $ $ E E E % % E $ E E $ $ $ E E $ E E * F 1 1 c c s % % s G G V V . $ ,.,.G G h j <.].m m _._.m m ^.^.m m ^.^.^.^.g g 2 2 2 2 5 5 . . 5 5 $ $ . . $ $ V V $ . $ $ * F 2 2 % % 5 & c c $ . 2 2 * * F F * F * * J J s % * * F F F * F F F * * F * * ",
"F F * F F F * * F F * * F F * F * }.6 6 # # * * F F * * c c s s % % & & % % * 1 % # . . . $ 5 5 V V 5 5 5 & 5 J V V * * 2 2 2 2 +.+.m _.+.+.m m ^.^.m m ^.^.].].j j G G $ $ ,.,.E E G G * * % % * * % % 2 2 % % # # $ E E E $ $ % % $ E % % E $ % % E E % % E E $ E E $ E E . E E E $ $ E E $ . . $ V V $ $ V V $ E $ ,.$ E E $ $ E $ $ E E . E E $ $ $ E E $ E E E . E E $ $ $ E E $ $ $ ,.V V E E V V E E V V E $ V V $ $ V V E E $ $ E $ $ $ $ E $ $ E E E E % s E E E E $ ,.E E $ $ E E E $ $ E E $ % % E E F F E E % % $ ,.s % E $ # % F F s % E E % % E E % % E $ % % $ E % % E $ % # E E E E $ $ E E $ $ $ E E $ E E E $ E E $ $ E E . . $ ,.. . . $ . . E $ $ $ E E E $ E E $ ,.E E . E E E $ $ $ E V V $ E . $ E E $ $ E E $ $ E E $ . E E $ $ $ E V V E $ $ $ E E E $ E E ,.,.E E $ $ % % E E >.>.$ ,.E E E E % % $ $ E E $ E E $ $ $ $ E F F 1 1 c c % % s s G G V V . $ ,.,.G G h h ) ].m m m _.m m ^.^.m m ^.^.^.^.g g 2 2 2 2 5 5 . . 5 5 . $ . . . $ V V $ $ $ $ * * 2 2 # % 5 & c c $ . c c * 1 F F * * F * J J s % * * F F F * F F F * * F * * ",
"* * F F * * F F * * F F * * F F 1 1 & & $ $ * * * 1 2 c * * * * % s 5 5 # # c c $ . $ $ V V . . 5 & V V & & & 5 5 5 c c c c G G ^.^.^.^.m m +.+.m m _._.m m ].].h h g g ,.,.E E E $ g g s s s s s % * * E E $ E E $ # % V $ E E E E % % E E >.% $ E % % $ E % % E $ $ E ,.$ E E E . $ E $ $ E E E $ $ E E . $ $ V V E E $ $ $ E E $ $ E E $ $ E E . E E E $ E $ V V E $ E . E E E $ E $ $ $ $ E $ E $ E $ ,.E E $ E $ ,.V V E $ E $ E E E $ $ E $ $ % % E E s % E E % % $ $ E E $ ,.E E E $ E E $ E % % E E % % * * % % $ E E E $ E % % E $ 2 2 s % $ $ $ ,.E E E E s % E $ % % $ E % % $ E % % E E % % $ ,.# # $ E $ E $ $ E E E $ E E . . $ E $ . $ E $ . $ $ E $ E E $ . E E $ $ $ E $ $ E E E . E E E $ E $ $ $ % % $ E E E E $ E E E . E E $ $ E E $ $ E $ $ $ E $ . $ $ E E $ % >.,.,.>.>.E E >.>.E E % % $ E # # E E E E . $ $ E E $ $ E $ E % % % % s s E E F F G G E E V V E E 2 2 3.3.].].^.^.m m _._.m m ^.^.m m +.+.2 2 G G F F $ $ 5 5 . $ . . $ $ . $ V $ . $ # # * * G 2 % # 5 5 * * $ $ * * F F * * F F 1 1 5 5 # # 2 c * * F F * * * F * * F F ",
"* * F F * * F F * * F F * * F F * 1 & & $ . * * * 1 2 c * * * * % % 5 5 # # c c $ $ $ $ V V $ . 5 5 V V 5 & 5 5 5 5 F c c c G G ^.^.^.^.m m +.+.m m _._.m m ].].h h g g ,.,.E E $ ,.g g s s s s % % * * E E $ E E $ # # E $ E E $ E % % E E >.% E E % % E E % % E $ $ E $ $ E E E . $ E $ $ E E E $ E E . E $ $ V V E E $ $ E E . E E E . $ E E . E E E $ E $ $ V V E $ $ $ E E . $ E E $ E E E $ E E . $ ,.E E $ E E $ V V E $ E $ E E E $ $ E ,.$ # % $ E % # E E % % ,.$ E E $ $ E E E $ $ E E E % % E E % % * * % % E E $ E $ E % % E $ 2 2 s % E $ ,.E E E E E s % E E # % % $ E % % E s % E E % % $ $ # # E $ $ E E $ $ E . $ E E . . $ E $ . $ E . . $ $ . $ E E . $ E E E $ $ E $ E E E $ $ E E . $ E E $ E % % E $ E E $ E E E $ $ E E $ $ $ E $ $ $ E $ $ $ E $ E $ E $ ,.# >.,.,.>.>.E E >.>.E E % % E $ # # E E E E . $ E E $ $ E E $ E % % s % % s E E F F G G E E V V E $ 2 2 3.3.].].^.^.m m m _.m _.+.^.m m +.+.2 2 G G F F $ $ 5 5 . . . $ V $ . $ $ $ $ $ # # * * 2 2 # % 5 5 * * $ $ F * * F * * F F 1 1 5 5 # # c c F * F F F * F F F * * F ",
"F F * * F F * * F F * * * F * * * * 6 6 # # * 1 * * F * * F % % % % & & % % * * # # $ . . $ 5 5 V V 5 5 & 5 J J V V * * G 2 2 2 +.+.m _.+.+.m m ^.^.m m ^.^.].].j j 2 2 $ ,.E ,.E E G G * * % % % s s s E $ . $ # % E $ $ E . $ >.% $ E % % $ E % % E E % % E E $ E $ $ E E $ $ E E E $ $ s E $ E $ $ $ E E . $ E E E $ E E $ E E E E . E E E $ E $ $ $ $ E $ $ $ ,.V V $ ,.$ E $ $ $ $ E $ ,.$ E E $ E $ ,.$ E E E $ $ E $ $ . E $ E E E $ $ $ % % $ E % # E E % % E E % % $ E E $ E $ E E $ $ % s L L 6 6 % % F F E E % % E $ % % E E s % F F % s 6 6 5 5 E E % % E E % % E E s % $ E % % $ E % % E $ # # E E $ E $ ,.E E E $ E E . $ E $ $ $ $ E . . E E . . E E $ $ E $ $ E E E $ E $ E E $ E E V V E E E . E E E $ E $ $ $ E E . E E E $ $ E E E . E E $ E E E $ E E E $ $ % >.$ $ % >.$ E >.>.E $ >.>.$ E # % $ $ # # $ . E $ $ $ E E $ $ E $ # # # % % s % % * * g g V V ,.,.,.,.=.=.j j z z m m ^.^.m m +.+.m m +.+.^.^.g g 2 2 2 2 5 5 . . 5 5 . $ $ . $ V $ V . $ $ $ * * 2 2 s % & & c c . . 2 2 * F c c }.* F * J J % % * * F F * * * * * * * * * * ",
"F F * * F F * * F F * * F F * }.* * 6 6 # # * 1 1 * 1 F F F % % % % 5 & % % * * # # $ . $ $ 5 5 V V 5 5 5 5 J J V V * * 2 2 2 2 +.+.m m +.+.m m ^.^.m m ^.^.].].j j 2 2 $ $ ,.,.E E G G * * % % s s s % $ ,.. $ E % E $ E $ . E % % E E >.% E E % % E E % % E E E E $ $ E E E $ E E E $ $ s E $ E E E . E E E $ E $ E $ $ E $ $ E E $ $ E E . $ E E $ E E E $ E $ $ V V E $ . $ E E $ E E E $ $ E E $ E $ $ E . $ E $ $ $ ,.E $ E $ E E E $ E $ % % E E s % E E % % E E % % $ $ E E $ E $ E $ ,.# s L L 6 6 % % * F E E % % E $ s % E E # % * F s s 6 6 5 5 E E % % E E % % E E s % E E s % E E % % E E # # E E E $ $ E E E E $ $ E $ E E E $ $ E E . . E E $ . $ E E $ $ E $ E E $ $ $ $ E E $ $ E V V E E . $ E E $ E E E $ E $ E . E E E $ $ E E $ $ $ E E $ E E $ E E E E $ % >.E $ % % $ $ >.>.E $ >.>.$ E % # $ $ # # E $ . E . $ E E $ $ E E # # % % % s % % * * g g V V ,.,.,.,.=.=.j j z z m m ^.^.m m +.+.m m +.+.^.^.g g 2 2 2 2 5 5 . . 5 5 . $ . . . $ V $ . $ $ $ * * G 2 % # 5 & c c . . 2 2 * F c c F }.* F J J % % * * F F * * * * * * * * * * ",
"* * F F * }.F F * F F F * * }.}.1 1 J J $ $ * * 1 1 c c 1 * 1 1 % % 5 5 # # * F $ $ $ . $ V $ . 5 5 $ . 5 5 5 5 5 5 2 2 2 2 i i m m ^.^.m m _._.S S m m S S z z j j G G ,.,.>.>.,.,.=.=.* * s s E E # % E E $ E $ ,.# # $ $ E $ . $ $ E $ $ $ E E $ E E $ $ $ E $ $ $ E E . $ E E $ E E $ $ E E $ $ E $ $ . E E $ $ E E $ $ E E . $ E E $ E E E $ E E E $ $ E E . E E E $ E $ $ $ $ E $ $ E $ $ V V E $ $ $ E $ $ $ $ E $ $ E E $ $ E $ $ $ # % E E % % $ E % # E E % % $ E % % $ E s % E $ # % E E V V E $ F F F F s s E E % % E $ E E $ E F F * F $ E E $ s s s % >.s # % % % E E >.% E E % % $ E s % E E # % E E # % E E # % $ $ $ E $ $ E E $ $ $ E . . $ E E $ E $ $ $ # % E $ % % $ $ E E . $ E E $ E E $ $ $ $ E E $ $ E E $ % % E $ E E E . E E . E E E $ E % % E $ E E $ $ % >.$ $ >.>.,.$ % s $ E % % E E # % . $ E E E $ # # $ ,.# >.$ $ # % $ E >.% % s F F G G E $ ,.,.,.$ 2 2 3.3.].].m m _.m _._.m m ^.^.m m +.+.2 2 2 G F F E $ . . $ $ $ $ $ $ . $ V $ . $ # # * * 2 2 # # 5 5 * * $ . F F c c }.* F * 1 1 5 5 E E * F F * F F 1 1 * * 1 1 * * ",
"* * F F * }.F F * F F F * * * * 1 1 J J $ $ * * * 1 c c 1 * 1 1 % % 5 & % % * F $ $ $ $ V V . . 5 5 $ . 5 5 5 5 5 5 2 2 2 2 i i m m ^.^.m m _._.S S m m S S z z j j G G ,.,.>.>.$ ,.=.=.* * s s E $ # % E E $ E $ $ # # $ $ E $ . $ E E $ $ $ E E $ E E $ $ E E E $ $ E $ E E E . E E E $ $ E E E . E E $ $ E E $ $ E E . $ E E $ E E E $ E E E $ $ E E E . E E E $ E $ $ $ $ E $ $ E E $ $ $ $ V V E $ $ ,.E E $ $ $ E $ $ E $ $ $ E $ $ $ % # E E % % E E # % E E >.% E E % % $ E s % E E % % E E V V E $ F F F F s s E E % % E $ E E $ E F F * F E $ E E s % >.% % s # % % % E E >.% E E % % $ E s % E E % % E $ % % E E % % $ E $ E $ $ E $ $ $ E E . . $ E $ E E $ E $ # % E E # % ,.$ E E $ $ E E $ $ E E E $ $ E $ E . E $ ,.% % E $ E E $ $ E E . E E E E E % % E $ E E E $ % >.,.,.>.>.E $ % s $ E % % $ E # # $ $ E E . $ # # E $ # % $ $ % # E E % % % s F F G G E $ ,.,.E $ 2 2 3.3.].].m m _.m _._._.m ^.^.m m +.+.2 2 2 G F F E $ . . $ $ $ $ $ $ . . . $ $ $ # # * * 2 2 # # 5 5 * * $ $ F F c c }.* F * 1 1 5 5 E E F F * 1 F F 1 1 * * 1 1 * * ",
"F F * * * F 1 * F F * * * F * * }.* 6 6 # # * * * * * F * c % % % % 6 6 % % * 1 % % . . $ $ 5 5 $ . 5 5 5 5 & & $ . F F 2 2 2 c ^.^.m m _._._.m m _.m m ) ) ) ].h h 2 2 $ E E $ E E G G * F >.% % % E E % % $ . E E E $ E $ $ . E E $ $ $ E E E % % E E % % $ E E E $ $ E E . E E E $ E $ $ $ $ $ E E . $ E $ $ $ E $ $ E E $ . E $ $ $ E E $ $ E E $ . E $ $ $ E E $ $ $ E E $ . E $ $ $ E E $ $ ,.V V $ $ $ $ $ E E $ E E $ $ $ E E $ E E E E % % E E % s E E % # $ E % % E $ % % E E % % E E % % % s F F * * 2 2 % % s % E E % % E E % % * * F F F F G 2 % % s s s % % s s % s s # % s s % >.% s $ E # % E $ % % $ E % # E E % % E $ E E $ $ E $ E $ E E $ . E E $ E E E E E % % E $ % % E E E E E $ E E $ $ E E E $ E E $ $ % % E E >.% E $ E E $ E $ E $ $ # % E $ E E $ $ % >.$ $ >.>.E E >.% E E % % E E # # $ $ # # $ . % # $ $ # # E E # # E $ # # E E s s * * g g V V E $ ,.,.=.=.3.j ].].S S m m m m m m m m ^.^.^.^.G G 2 2 2 2 V V $ $ . . # # $ . $ $ . $ E E $ $ * * 2 2 % % 5 & c c $ . 2 2 F * c c * 1 F * J 6 % % 1 * F F * * * * * 1 1 * 1 F ",
"F F * * * F 1 * F F * * * F * F F * 6 6 # # * * * * * * 2 c % % % % 6 6 % % * 1 % # . . $ $ 5 5 . . 5 5 5 5 5 & . $ F F 2 2 2 c ^.^.m m _.m m m _.m m m ) ) ].].h h 2 2 E E $ $ E E G G * F >.% s % E E % % . $ E E E $ E $ $ $ E $ $ $ $ E $ E % % E E % % $ E E E $ $ E E $ $ $ E E . $ E E $ E E $ $ E E $ . E $ $ $ E E $ $ E E . $ E $ $ $ E $ E $ $ E E $ . E $ $ $ E E $ $ E $ $ E E $ . $ ,.V V $ $ $ $ E E E $ E E $ $ $ E E $ $ E E E % % E E % % E E s % E E % % E E % % E E % % E E % % s s F F 1 * 2 2 % % % s E E % % E E % % F * * F F F G 2 >.>.s s >.% s s % % s s % s % % % % % s $ E % % E E % % E E s % E $ % % E $ E E $ $ E E $ $ $ E $ . E E E $ E E E E % % E E % % E E E E E $ E E E $ E $ $ $ E E $ $ % % $ E % % E $ E E $ E $ E $ $ % # $ E E E $ $ % >.$ $ >.>.E E % % E E % % E $ # # $ $ # # . $ # # $ ,.# # E E % # $ $ # % E $ s s * * g g V V E $ ,.,.=.=.j j ].].S S m m m _.m m m m ^.^.^.^.2 G G 2 c 2 V V $ $ . . # # $ . $ $ $ . $ E $ $ * * 2 2 % % 5 & 2 2 $ . 2 2 * * c c * * * * 6 6 % % 1 * F F * * * 1 1 1 1 * 1 F ",
"* * F F * * F F * * * F F * F F 1 1 J J $ $ F F 1 1 2 2 * 1 1 1 % s 5 5 # # * F $ $ . $ V $ . . 5 5 $ . 5 5 5 5 & 5 2 2 2 2 i i ^.^.^.^.m m _._.m m ^.^.S S z z j j G G ,.,.>.>.,.,.=.=.* * % s E E % % E E % % E $ # # $ $ E E E $ E $ $ $ >.% E $ % % E E % % $ E $ E $ E E E $ $ $ E $ E % % E E % % E E % # E E s % E E # % . $ $ E E $ E E $ $ $ E E $ E E $ $ E $ $ $ E E E $ E E $ $ E E $ $ E $ $ E E $ E $ E $ $ $ E E $ E $ E $ $ % % E $ s % E $ s % E $ % % E E % % $ E % % E E % % E E % % % % F * * F s s E $ % % E E >.% E E * F * * s % E E s s s % % s s # }.s % % s s # % s s s % # s s % # % E E % % E E # % E $ % # E $ % % E $ E E . . $ E $ $ % s E E % % E E % % E E % % E E E E E E # % E $ % % E E $ E E E % % E E % % E E % % E E # % E E # % $ E % % E E % % E E % % E E % s $ E % % $ E $ E E $ # % E E # # E $ % % $ E # # $ ,.# >.E E F F G G E $ $ $ $ E 2 2 h h ].].m m m _.^.^.m _.+.^.m m ^.+.2 2 2 G F F E $ . . $ $ $ $ . $ V $ . $ $ $ % s * * 2 2 # % 5 5 F * $ $ * F F c F * * F 1 1 & & E E F F * * * 1 1 1 * * 1 1 }.}.",
"F * * F * * F F * * F F * * F F 1 1 J J $ $ F F 1 1 2 2 * * * 1 % % 5 5 % # c F $ $ $ $ V V $ . 5 5 $ . 5 5 5 5 & 5 2 2 2 2 i i ^.^.^.^.m m _._.m m ^.^.S S z z j j G G ,.,.>.>.,.,.=.=.* * s s E E % % E E % s E $ # # $ $ E E E $ E $ $ $ % % E E % % E E % % E E E $ $ . E E $ $ E E $ E s % E E # % E E % % E E % % E E # % $ $ $ E E $ E E $ $ E $ $ $ E E E $ E E $ $ $ E E $ E E $ $ E E $ $ E $ $ E E $ E $ E $ $ $ E E $ $ E E E $ % % E E % % E E % % E E % % E E % % $ E % % E E % % E E % % % % * * F F s s E $ % % $ E % % E $ F F * * s % E E s s s % s s % % % s s % s s % % % s >.% s s # % % % E E % % E E % # $ E % % E $ % % $ E E E . . $ E $ $ % s E $ % % E E % % E $ % % E E $ E E $ % s E E % % E E $ E E E % % E E % % E E % % E E % % E E # % $ E % % E E % % E E % % E E % % E E % % $ E $ E E $ # # E E # # E $ % % E $ # # $ ,.# >.E E F F G G E $ E E E E 2 2 h h ].].m m m _.^.^.m m ^.^.m m +.+.2 2 2 G F F E $ . . $ $ $ $ $ $ $ . . $ $ $ % >.* * 2 2 # # 5 5 * * $ $ F F c c F * F F * 1 & & E E F F * * * * * 1 * * 1 1 }.}.",
"F F s s F F * * F F s s F F * * * * 6 6 # # * * * * F F F 2 s % % % 6 6 % % * 1 % % . . $ $ 5 5 $ . 5 5 5 5 5 5 $ $ * F G G 2 c +.+.m m +.+.m m _._.m m ^.^.].].h h 2 2 $ E $ ,.E E =.=.2 2 % % % % $ E % s E E # # $ $ $ E E $ E E E E % % E $ % % E E s % E E % % E E % % . $ E E . E % % $ E % % E E % % $ E s % E E s % $ E % # E E % % $ E % # E E % % E $ % % E E % % E E % % E E % % $ $ E E $ E % % E E % % E E % % E E % % E $ % % E E % % E E % % E $ s % E E % % E E % % $ E % % E $ E E $ E s s s % 2 2 % % % % E E >.% E E % % * * * F s % s s s % s s % >.% s >.>.s s % % s s s % # s % % s % E E % % E $ % % E $ % % E E % % E E # # $ E # % $ $ $ E E E % % E E % % E $ % % E E s % E E % % E $ % s E E % % E E % s E E % % E E % % E E % % E E % % E $ E E E E % % E E % % E E % % E E % % $ E % % E $ # # E $ % % E $ # # E E # # $ E % # $ E % s * * g g $ $ E E ,.$ 2 G j j z z S S m m m m _._.m m ^.^.^.^.G G 2 c 2 2 V V $ $ . . # # $ . $ $ $ . # # E E F F 2 2 % % 5 & 2 c . . 2 2 * * c c * * * * 6 6 % % }.* 1 * * 1 1 * 1 1 * 1 F 1 ",
"F F s s F F * * F F s s F F * * * * 6 6 # # * * * * F F 2 c s % % % 6 6 % % * 1 % # . . $ $ 5 5 . . 5 5 5 5 5 5 $ $ F F G G 2 2 +.+.m m +.+.m m _._.m m ^.^.].].h h 2 2 E E E $ E E =.=.2 2 % % % % $ E % % E E % # E $ E $ $ $ $ E E E # % E E % s E E % >.$ E % s E E % % $ $ $ E E . % % E $ % % E E % % $ E % % E E s % $ E % # E E % % E E % % E $ % % E E % % E E % % E E % % E E % % $ $ E E $ E % % E E % % $ E % % E E # % $ E % % E $ s % E E % # E $ s % E E % % E E % % $ E % % E $ E E E $ s s s % 2 2 % % % s E E % % E E >.% * * F F s % s s s % s s % >.% s >.>.s s % % % s s % >.s % % % s E E % % E E % % E $ # % E E % % E E % # $ E # % E $ E E E E s % E E % % E E % % E E % % E $ % % E E % % E $ % % E E % s E E % % E E % % E E % % E E % % E $ E E E E % % E E % % E E % % E E % % E E % % $ ,.# # E E % % E $ % # E $ % # E E % # $ E s s F * g g $ $ $ E ,.$ 2 G j j z z S S m m m m _._.m m ^.^.^.^.G G G 2 c 2 V V $ $ . . # # $ . $ $ . . # # E E F F G 2 % # 5 & F c $ . 2 2 * * c c * * * * 6 6 # % }.* * * 1 * * * * 1 1 * 1 F ",
"* * * }.* * * F * * * }.* * F F 1 1 6 6 $ $ * F * * 2 2 1 * * * % % 5 & % % c c $ . $ $ $ . . . 5 5 . . 5 5 5 5 5 5 2 2 2 2 i i ^.^.^.^.m m _._._.m _._.S S z z h h G G ,.,.>.>.$ ,.f f F F s s E E % % % % % s E E % % $ E % % E E % % E E % % $ E % s E $ % % E $ % % E E % % E E $ E E E % % E E % % $ E % s E E s % E E s % E E % % E $ % % E E % % E E % % E E % % E E % % E E % % E E % % $ $ E E E E % % E $ % % E E % % E E % % E E % # E E % # E E % % E E % s E $ % % $ E % % E $ % % E E s s s % * * F F s s % % s % s % s s s % F F 1 * s s E E % s % s s s % s s % s % % s % % % s % % s % % % s s % % % % # # s % E E % # $ E % % E E % % E $ # # $ $ # % E $ % % E E % # E E % % E E % % E $ % % E E s % $ E % % E $ s % E E % % E E % % E E % % E E % % E E % % E E % % E E % % $ E % % # # % % E E # # E E % % E E # # E E % % s % % s E $ % % % % F * G G E $ E E E $ 2 2 h h ].].m m S S m _._.m ^.^.m m +.+.2 2 g g c c E $ . . . E $ $ $ E $ $ . $ $ $ >.% * * 2 2 # # . . F * $ $ F F c c F * F F 1 1 & & E E F F 1 1 * 1 F 1 * * 1 1 * * ",
"* * * }.* * F F * * F * * * F F 1 1 6 6 $ $ F * * * c 2 * 1 * * % % 5 5 % # c c $ $ $ $ $ . . . 5 5 $ . 5 5 5 5 5 5 2 2 2 2 i i ^.^.^.^.m m _._.m m _._.S S z z h h G G ,.,.>.>.,.,.f f F F s s E E % % % % % % E E >.% $ E % % E E % % E E % % E E # % E $ % s E $ % % E E % % E E E E E E % % E E % % $ E % % E $ % # $ E s % E $ s % E E % % E E % % E E % % E E % % E E % % E E % % E $ % % $ ,.E E E E % % E $ % % E E # % E E % # E $ s % E E % % E E % % E E % % E E # % $ E % % E $ % % $ E s s s % * * * F s s s % % % s % s s % s F F 1 * s s E $ % s % % s s s % s s % % s % % % s s # % % s % % % s % % % % % # % % E E % % E $ % # E $ % % E $ # # $ $ # % E $ % % E E s % E E % % E E % % E E % % E E % % E $ % % E E % # E E % % E E % % E E % % E E % % E E % % E E % % E E % % E E % # # # % % E E # # E E % % E $ s # $ E % % % % % s E $ % % % % * F G G E E $ E E E 2 2 h h ].]._.m S S m _.m m ^.^.m m +.+.2 2 g g c c E $ . . $ $ $ E $ $ $ $ V $ . $ % % * }.2 2 # # . . * * $ . F F c c F * F F * 1 & & $ E F F * 1 1 * 1 F 1 * 1 1 }.* ",
"F * % s F F F * * * s s F F * * * 1 6 6 # # * * F F F F 2 2 % s % s J J % % * * % % . . . $ 5 5 . . 5 5 V V 5 5 . $ 2 c G G 2 2 ^.^.m m _._.m m m m S S m m ].].3.j F F E $ $ $ % % =.=.* F E E % % V V V V % % % % E E % % s E % # E E % % E $ # % E E s % E $ % % E E # % E E % % E E % % E E % % E E % % E E % % E E % % E E s % E E % s E E % % E $ % % E E % % E E % % E E % % E E % % E E % % E E % % E E # % $ E s % $ E % % E E % % E E % % E E % % E E s % E $ s % $ E % % E E % % E E % % % % % s % % 2 2 % % s % E E s % % % % s F F * * s % % s % % % s % % % s % % s s % % s s % % % # E E % % E E % % E E % % $ E % s E $ s % E $ % % E E # % E E % % E $ # % E E % # E E s % E E % % E E % % E E % % E E % % E $ % % E E >.% E E % % E E % % E E % % E E % % E E % % E E % s E E s % E E % % # # % % E E % % % # # % % E % % E E % s E $ V V E $ s s F * g g $ $ E $ E $ g g h h ].].S S m _.m m m m m m ^.^.^.^.g g c c 2 2 . . E $ . . # # $ . E E . . # # E E F F 2 2 % % & 5 c c . . 2 2 * * c c F * * * 6 6 # % }.* * * 1 1 1 * 1 1 * 1 F 1 ",
"* F % s F F * * * F s s F F * * * * 6 6 # # * * F F F F 2 2 % s s s J J % % * * s % . . . $ 5 5 . . 5 5 V V 5 5 . $ 2 c G G 2 2 ^.^.m m _._.m m m m S S m m ].].3.j F F E E $ $ % % =.=.* F E E % % V V V V % % % % E E % % s E % % E E % % E E # % E E % % E E % % $ E # % E E % % E E % % E E % s E E % # E $ % % E E % % E E s % E E % s E E % % E $ % % E E % % E E % % E E % % E E % % E E % # E E s % E E # % $ E s % E E # % E $ s % E E % % E E % % E E % % E $ # % E E % % E E % % E E % % s % s s % s 2 2 % % % s E E s % % % s s F F * * s % % s % % s % % s s s % % s s s % % s % % % % E E % % E E % % E E % % E E % # E $ s % E E # % E E % % E E # % E E % s E E # % $ E # % E E % % E E % % E $ % % E E s % E $ # % E E % % E E % % E E % % E E % % E E % % E E % % E E % % E E s % E $ % % % # % s E E % s % # # % % E % % E E s s E $ V V E $ s s F * g g $ $ E E ,.$ g g h h ].].S S m m m _.m m m m ^.^.^.^.g g 2 2 2 2 . . $ $ . . # # . . E E $ . # # $ E * F G 2 % # 5 5 F c $ . 2 2 * * c c F * * * 6 6 # % * * * * * 1 * * * 1 1 1 * 1 ",
"s s }.* * * F * s s }.* * * * F 1 1 6 J $ $ F F * * 2 2 F F F * % % 5 5 # # c c $ . $ $ . . . $ 5 5 . $ 5 5 V V V V 2 2 c c i i m m m m m m _.m _._.m m S S ].].h h 2 2 $ $ $ E E E =.=.* }.s s s % O O 5 5 s s $ E % % # E >.% E $ % % E E % % E $ s % $ E % % E E % % E E >.% E E # % E E % % E E % % $ E % % E $ % # E $ s s >.E % % E E s % E E % % E E s % E E % % E $ % % E E % % E E % # E E s % $ E % # E E s % E E % % E $ s % E E % % E E % % E E % % E E % % E E >.% E E % % E E % % E E % s % % s s F F s s % % s % % % % s % % 2 2 1 * s s % % * * % # % s s % % s s % s s % % s s E $ % % $ E % % E $ % % # # % % E E % % E E % # E $ s % E E % % $ E s % $ E # % E E % % E E % % E E s % E E % % E E % % E E % % E E % % E E % % E E % % E E % % E E % % $ E % % E E >.% E E % % E E # % s # # s # # # % s # >.% # # % % E E # % $ E . . L L % % s % F F G G >.>.E E E E 2 G 8 8 ].].m m S S m m S S _._.m m +.+.2 2 g g 2 c E $ . . $ $ . $ E $ $ $ $ $ $ $ % % * }.2 G # # $ . F * $ $ F F c c F * F F 1 1 & & $ E F F 1 1 * 1 F 1 * 1 1 1 }.}.",
"s s }.* * * * F s s }.* * * F F 1 1 6 J $ $ F F * * 2 2 F F F * % % 5 5 # # c c $ $ . $ V $ . . 5 5 . $ 5 5 V V V V 2 2 c c i i m m m m m m _.m _._.m m S S ].].h h 2 2 $ $ E $ E E =.=.* * s s s % O O 5 5 s s $ E % % E E >.% $ E % % $ E % % E E s % E E s % E $ % # E $ s s >.E # % $ E % % E E % % $ E % % E E # % $ E s % E E % % E E s % E E % % E E % s E E % % E $ % % E E s % E E % % $ E % % E E # % $ E s % E E % % $ E % # E E % s E E % % E E # % E $ % % E E >.% E E % % E E % % E E s s % % s s F F s s % % % # % % s % % % 2 2 1 * s s % % F * % # % s s % % s s % s s % % s % E E % % E E % % E E % % # # # % % E % % E $ s % E E # % E E % % E E % s E E # % E E % % E E % % E E % % $ E % % E E % % E E % % E E % % $ E % % E E % % E E % % E E % % E E % % $ E % % E $ % % E E % % # # % s # # % % # # % % % # % % E E # % E $ E . L L % % % s F F G G >.>.E E E E G G 8 8 ].].m m S S m m S S _._.m m +.+.2 2 g g c c E $ . . . $ $ $ . $ E $ $ $ $ $ >.>.* * G G # # $ . * * $ . F F c c F }.F F 1 1 & & E $ F F 1 1 * 1 F 1 * 1 1 1 }.}.",
"F * s s }.* * * F F F * * F * * 1 * 6 6 # # * * c c F c c c 1 1 s s J J % % * * s % . . . $ 5 5 . . 5 5 V V 5 5 $ $ c c i i 2 2 ^.^.m m _._.m m m m _.m ) ) ].].3.j F F E E $ $ % >.G G * F % % F * % % 2 G % % s % E E # % s E % s # % s s % % s s % # % % E $ s % E E % % E E % % E E % % E E % % $ E % % E E # % $ E s % E E % % E E % % E E % % E E # % E E % % E $ s s E E % % E $ % % E E % # E E % % E E % % E E >.% E E # % E E # % E E % % E E % % E E % % E E % % E E % % $ E % % E $ s s s % % s s % 2 2 % % s s E E s s % % % s F F % s s % s s s % % s s % % s s % s s % s s s % % # % E E % % E E % % E E % % # # % % E E % % E E % # $ E % % E $ % s E E % % E E s % E E % % E E % s $ $ % % E E % % E E % % E $ % % E E % % E E % % E E % % E E % % E E % % E E % % E E % % E E % % # # % % % % s s # # % s # # % s # # % % % # 1 1 s s F * c c s s F * g g E $ # % E E g g j j <.].S S m _.m m m m m _.+.^.^.^.g g c c 2 2 $ $ . $ . . # # $ . $ E E $ # # E E * F 2 2 % % 5 5 2 2 . . 2 2 * * 2 2 * F * * 6 6 % # * * }.F * * * }.1 1 * 1 F 1 ",
"* * % s }.* * * F * * * * F * * 1 * 6 6 # # * * c c c c c c * 1 s s J J % % * * % % . . . $ 5 5 . . 5 5 V V 5 5 $ $ 2 c i i 2 c ^.^.m m _._.m m m m m m ) ) ].].3.j * F E E $ ,.# >.G G * F % % * * % % 2 G % % s % E E % % $ s % s # % s s % % s s % s % % E E s % E E % # E E s % E E % % E E % % $ E % % E $ % # E $ s s >.E % % E E % % E E % % E E # % E E % % E $ s s E E % % E E % % E E # % E E % % E E % % E E >.% E E % % E $ % % E E % % E E % % E E % % E E % % E E % % E E % % E E s s % % % s % % 2 2 % % % s E $ s s % % s % F F % s % % s % % s % s s % % s s % s s % s s s s % # % E E % % E E % % E E % % # # % % E E % % $ E % % $ E % % E $ s % E E % % E E % % $ E % % E E % % $ E % % E E s % E E % % E E # % $ E % % E E >.% E E % % E E % % $ E % % E $ % % E E % % E E # % s # % % % % % s # # % s # # % s # # % % % # 1 1 s s * * 2 c % s * * =.=.$ E # % E $ g g j j <.].S S m _.m m m m m m ^.^.^.^.g g 2 c 2 2 . $ . E . $ # # $ . E E E $ # # E E F F G 2 % % 5 5 2 2 . . 2 2 * * 2 2 * * 1 * 6 6 % % * * }.F * * }.}.1 1 1 * 1 F ",
"F * * * }.* * F * * * F * * F F s % J J E $ * F }.* 2 2 * * * * s % 5 & % % c c $ $ $ E . . . $ V V . $ 5 5 V V . . 2 2 [.2 2 G ^.^.^.^.S S ^.^.m m ) ) S S ].].j j G G E E >.>.E E =.=.* }.}.}.s s * F s s % s E $ % % % % % % s % s s % % s s # % % s E E % % E E % % E E % % E E % % E E % % E E % % $ E % % E E % # E E % # E $ s % E E % % E E % # $ E s % E E % >.E E % % E E % % E E % % E E % % E E % % E $ s % E E % # E E % % E E % % E E % % $ E % % % s s s % s s % % % s s s % % s E E E $ 5 5 F F 1 * * * % % s s s % s s s % 2 2 * * J J V V % s % % s s s % s s % % s s % % s s >.>.% % E E >.% E E % % E E % % % % s % % s s s E E % % E E s % E E % # E E s % E E % % E E >.% E $ # % E E # % E E s % E E # % $ E # % E E % % E $ % % $ E % # E $ # % E E # % $ E % s E E s s # % s s s % s % s % % s # % s s % % % % E E % % E E * * % s * * s s F * G G E $ E E >.>.G G 3.3.].].^.^.S S ^.^.m m ^.^.^.^.+.+.2 2 2 G 2 2 $ $ $ . . $ . . $ E E $ E E $ $ % % * }.g g % % . . * * $ $ 2 2 2 2 * F 2 2 * * 5 5 s % 2 2 * * F F * F * * * * * * ",
"* * * }.* * F * * * * F * * F F s % J J E $ 1 1 }.* 2 2 F * * * % % 5 & % % c c $ $ $ E . . . $ V V . $ 5 5 V V $ . 2 2 [.2 G G ^.^.^.^.S S ^.^.m m ) ) S S ].].j j G G E E >.>.$ E =.=.* }.}.}.s s F F s s % s E $ % % % % % % % # s s % % s s % % % s $ E % % E E % % E E % % E E % % E E % % E E % % E E % % E E % % E E % % E E % # E E % # E $ s % $ E # % E E % % E E % s E E % % E E % % E E % % E E % % $ E s # E $ s % E E % % E E % % E E % % E $ % % s % s % % s s s % % % s s # s s $ E $ ,.5 5 F F F 1 * * % % s % % s s s s % 2 2 * * J J V V % s % % s s % % s s % # s s % s s % >.>.% % $ E % % E $ % % E E % % s % % s s % % s E E % # E $ s % E E % % E E # % E E % % E E >.% E $ # % E E % # $ E % % E E % % E E # % $ $ % % E E % % $ E # % E $ s % $ E % % E E % % . E s s s % s s s % s s % % s % % % s s >.% % s E E % s E E F * % s * * s s * F G G E $ E E >.>.G G 3.3.].].^.^.S S ^.^._.m ^.^.^.^.+.+.2 2 2 G 2 2 $ $ $ . $ $ . . . $ $ $ E E $ $ # % * * g g % % . . * * $ $ 2 2 2 2 * F 2 2 * * 5 5 s % 2 2 * * F F F * * * F * * * ",
"* * * * * }.* * F * * * * F * * * 1 6 6 E E * * * F F F [.2 s s * 1 & & % s 1 * % % $ $ . $ V $ . $ V V . . 5 5 $ $ c c i i 2 2 +.+.^.^.^.^.^.) ) ^.m m ^.^.].].h h 2 2 >.>.E E >.>.G G [.[.% s # s s % s s $ E s s s % % s % % s s % % # s % % % s % % s % E E % % E E % s $ $ % % E E s % E $ % % E $ s % $ E s % E E # % E $ s % E E % % E $ s % E E % % E E % % E E s % E E % % E E % % $ E % # E E % # E E % % E E % % E E % % E E % % E E % s E E % % # # s s % # s s % s s % % % s s s % % s 5 5 5 5 F F 2 2 % s s s s % * * % % F * F F F F V V % s s % s s % % s s s % % s % s >.s % % s s >.>.# s % % % % E E % % E E s % E E # % E $ s % E E % % E E % # E E % % E E % # E E % # E E % # E $ % % E E % # E E s % E E % % % % s s E E % # E E % % E E % % E $ % % E E s % E E % s # % s s # % % s % % s s % s % s % # s s E E % % E E % s E $ s % % % s % F * g g E $ $ E E E g g h h z z m m ^.^.m m ^.^.m m +.+.^.^.g g 2 2 2 2 . . . $ $ . # # . . $ E E $ % # $ E c 2 2 2 1 1 & 5 F F V V 2 2 F F c 2 F * * * 6 6 % % }.* F F * F * * * * * * * * ",
"1 * * * * }.* * F * * }.F F }.* 1 * 6 6 E E * * * F F F [.2 s s * 1 & & % s 1 * % % $ $ $ . $ V $ . V V $ . 5 5 $ $ c c i i 2 c +.+.^.^.^.^.^.) ^.^.m m ^.^.].].h h 2 2 >.>.$ E >.>.G G [.[.% s # s % % s s $ E s s s % s s % % s s % % s s % % s % % % % s E E # % E E % % $ E % % E E % % E E # % E E s % E E s % E E % % E $ % % E E % % E E % % E E % % E E % % E E s % E E % % E E % % E $ # # E E % % E $ s % $ E % s E E % % E E % % E E % % E E % % # # % s % # % s s % s s % % s s s % % s 5 5 5 5 F F G 2 s s s % % % * * % % * * F F F F V V % % s % s s % % s s % % % s % s >.s % % s s % % s s % >.% % E E % % E E s % E E % s $ E s # E E % % E E % % E E # % E $ s % E $ s % $ E s % E $ % # E $ s s >.E % % E E % % % % s s E E % # E E % % E $ % % E E % % E $ % % E E % s % % s s % % s % % % s % % % s s % % s s $ E % % $ E % # E E s % % % s % * * g g E $ $ E E $ g g j h z z m m ^.^.m m ^.^.m m +.+.^.^.g g G 2 c 2 . . . $ $ . # # . . $ E $ $ # # E E 2 2 2 2 * 1 & 5 F F V V 2 2 F F [.2 * * * * 6 6 % % }.* F F * F * * * * 1 * * * ",
"* * * * * * * * * }.F F * 1 F F * * 5 5 $ E * * * * [.2 * * * * % s 5 5 % # c c $ $ $ $ . $ E $ 5 5 $ . 5 5 . . V V 2 2 2 c i i ^.^.+.+.) ) ^.^.^.^.^.^.^.) y y j j g g E E % % E E =.=.* F }.}.>.>.s s % % % s >.% s % s s # s >.% s s s % s s % % % s >.% % % E E % % E E % s E E % % E E % # # % % s $ E % % >.% s s % % % % # # % s # # % % # # % % # # % % E E % % E E s % E E % % E E s % $ E # # E $ % % E E % % E E s % E E % % E E % % $ E % # % # # % # % s s % s s % % % % s s # s s s s F F F F G 2 [.[.}.}.>.% * * % s * * s s [.2 }.}.[.[.}.* }.}.% % s s % % % s s % % s % % % s % % s s % # s % >.% >.% E E % % E E s % E E % % E E % % E E % % E E % % E E % s E E % % E E % s E E % % E E % s $ E % % E $ # s E E s s % s % % E $ s % E E # % E E % % E E s % E E # % E E s s # % s s >.% s s % % s s % % % s % # s s E E % % E E s % # % s s % s * F =.=.>.>.,.,.% % 2 G h h ].].^.^.m m ^.^.m m +.+.^.^.+.+.2 2 g g 2 2 $ $ $ . $ $ $ $ $ ,.$ $ E E $ . % % * }.g g % % . . F * $ $ F F 2 2 * * * F F 1 J J % % 2 G * * F F F * * F * * 1 * ",
"* * * * * * * * F * F F * 1 F F * * 5 5 $ E * * * * [.2 * * * * % % 5 & % % c c $ $ $ $ $ . . $ 5 5 $ $ 5 5 . . V V 2 2 2 2 i i ^.^.+.+.) ) ^.^.^.^.^.^.) ) y y j j g g E E % % E E =.=.* F }.}.>.>.% s % s % % % % s % s s s s % % s s s % s s s % # s % % % % E E >.>.% E % s E E % % E E s % s % % s $ E % % % % s s % % % % # # # % s # # % # # % % # # % % E E % % E $ s % $ E % % E E s % $ E % # $ E s % $ E % % E E s % E $ % % E E % % E E % % # # s % >.% s s % s s % % % s s % s s % % s F F F F G 2 [.[.}.}.>.% }.}.s s }.}.s s [.2 }.}.[.[.}.* }.}.% % s % % % s % % % s % % % s % >.>.% s % % s s % s >.% E E % % E E s % E E % s E E % % E E % # E E % % E E % % E E % % E E % % E E % % E E % % $ E % % E $ % % E E s s % s # % E E % % E E # % E E % % E E s % E E % # $ E s s # % % s >.% % % # % % s % % s s % # % s E E s % E E s s s % s s s s F F =.=.>.>.$ E >.% 2 G h h ].].^.^.m m ^.^.m m +.+.^.^.+.+.2 2 g g 2 2 $ $ $ . $ $ $ $ ,.$ E $ E E $ $ % % * * g g % % . . F * $ $ F F 2 2 * * F F 1 * J J % % 2 2 * * F F F * * * F * * * ",
"* F }.* * * * * F F * * F F }.}.F F 6 6 % s }.}.1 F F F 2 2 s s * 1 & & % % * 1 % % . $ $ . $ V $ $ . . $ $ 5 5 . $ * F i i c c +.+.^.^.^.) ^.) ) ^._.m ^.^.].].h h 2 G % % $ E % % G G [.[.s s }.}.% % s s % % s % % s s s % % s s % % % s % % % s s % % s # % s s % s s s % s % % E E >.% % % s s % >.s % E E s s # % s s % % % s # # % % # # # % % # % % E $ % % E E % % E $ % # $ E s # $ E s # $ ,.# # E $ # # E E # % E E % % E $ s % $ E # % $ E % % E $ % s s % s s % % % s % # s s % % % s % % F * F }.[.2 % s }.}.>.% }.* % % }.}.* * 2 [.}.* * F s s s s % % % s % % s % % % s % % % s s >.>.s s % s % s $ E % % E E s s E E s % E E % % E $ % % E E % % E E s % E E % % E $ % % E $ % % E E % s E E # % E $ # % E E s s % % s % E E % % E E # % $ E % s E E % % E E % s E E s s % % % s % % s s % s s s % % % s % % % s % % s s s % % s % # s s s % F * * * g g $ ,.# >.E E g g h h z z m m ^.^.) ) +.+.) ^.+.+.^.^.g g 2 2 G 2 . . . $ $ . # # . . $ E E $ % # E E 2 2 2 2 1 1 5 5 F F V V c 2 * F 2 2 * * * * 6 6 % s * * F F 1 * * * * F * * * F ",
"* * * * * * * * F F * * * F }.}.F F 6 6 s % * * F F F F 2 2 s s * 1 & & % % * * s % . $ $ . $ V $ $ . . $ $ 5 5 $ $ * F f i G 2 +.+.^.^.^.) ^.) ^.^.m m ^.^.].].h h 2 G % % E E >.% G G [.[.s s }.}.% % s s % % % s % % s s s % s s s % s s % % s s % s % s # % s % % % s s s % % % $ E % % % % s s % >.s % E E % s # % s s % % # % % # # % % # # % % # % % E E % % E $ s % E E % # $ E s # $ E % # $ ,.# # E $ # # E E # % E E % % E $ # % E E % % $ E % % E E s s s % s s % % % s # % s s % % % s # % F F }.}.[.2 % s }.}.>.% * * % s }.}.* * 2 [.}.* * * % s s s s % % s % % % s % % % s % s >.s >.% % s % s s s E E % % E E % s E $ s % E E % % E $ s % E E % % E $ s % $ E % % E $ % % E $ % % E E % % E E % # E $ # % E E s s % % % s E E % % E E s % E E % % E E % % E E % % E E s % s % s s % s s % s % s s s % s s % # % s % % s % % # s s s % s s s % * F * * g g $ $ # % E E =.g j j z z m m ^.^.) ) +.+.^.^.+.+.^.^.g g 2 2 G 2 . . . $ $ . # # . . E E $ $ % # $ E 2 2 G 2 1 1 5 5 F F V V c 2 * F c 2 * * 1 * 6 6 % % * * F F 1 * * * * * F * * * ",
"* * * * 1 * F F * F F * * F 2 2 * * 5 5 E E 2 2 * * 2 2 F * * * % % 5 & % % c c $ E E $ $ $ $ $ 5 5 $ . 5 5 V . . . 2 2 [.2 g g ^.^.+.+.) ) ^.^.^.^.^.^.^.) z z h h g g >.>.% % >.>.g g }.}.* * s % * }.% s % s % s s s s % s s >.% % s % % % s % # s % s s s s s % s s # % s s s % % s E E % s % % s % E E % % % % s s s % s s % # % % % # # % # % % % # # >.% E $ s % $ E # % E $ >.>.E E % % E $ % % $ E % % E E % % E E # % $ E % % E $ % % E E % % $ E % % % % s % # % s s % % s % % s s s % % }.}.s s F F F F 1 * s s }.}.>.% }.}.}.}.[.[.}.}.}.}.>.% }.* % % s % % s s s % % % s s % s s % % % s s % s s # % s s E $ >.% % s s % $ E % % E E s % E $ s % $ E % >.$ E >.% E E % % E E # s E E % % E $ % % E E # % E E % % % s % s s % % s E E % % E $ # % E E % % E E % % E E % % % % s s s % s s % s % % % s % % % s s s % % s s % % % s % # % s % % s s % s * F =.=.>.>.E E % % g g h h y y ^.^.) ) ^.^.) ^.) ) ^.^.) ].2 2 g g G 2 $ . $ $ $ ,.E ,.$ ,.$ $ E E $ $ % % * * g g % % . . F * $ $ F F 2 2 * * 2 2 * * J J E E F F * * F F F * * * * F * * ",
"* * 1 * * * * F * * F F * * 2 2 * }.5 5 E E 2 2 * * 2 2 F * * * % % 5 5 % # c c $ E E $ $ $ $ $ 5 5 . $ 5 5 $ . . . 2 2 2 [.g g ^.^.+.+.) ) ^.^.^.^.^.^.) ) y z h h g g >.>.% % >.>.g g }.}.}.* % s }.}.% s % s % s s s % % # s % % s s % % % s % # s s % s s s s % s s % % s % % s s s E E % s % % % s E E % % % % s s % # % s # # % % # # % s # # % % % # s % E E % # $ E % # E E % % E E % % E E % % $ E % % $ E % % E E % % E E % % E E % % E E % % $ E % % # % % s >.>.s s s % % s % % % s % % }.}.s s F * F F F }.s s }.}.>.% }.}.}.}.[.[.}.}.}.}.>.% }.}.>.% s s s % s s s % s s % # s s >.% s s % % s s s % s s E $ >.% s % % s E E # % E E s % E E % # $ E % >.$ E >.% E E % % E E % s $ E % % E $ % % E E % s E E % % s % % s s % s s E E % % E $ # % E E % % E E % % E E % % % % s s s % s s % s s s % s % % % s s s % % s s % % % s % % s % % % s s % s * F =.=.>.>.E E >.% g g h h y y ^.^.) ) ) ^.) ^.) ) ^.^.) ].2 2 g g 2 2 $ $ . $ $ $ ,.E ,.$ $ . E E $ $ >.>.* * g g % % . . * * $ . F F c 2 * * 2 2 * * J J E E F F * * F F F * * * * * 1 * ",
"* * * * * F * * F F * * 2 2 * * * F 5 5 % % * * * F * F [.2 % s * * 5 5 % % * * s % . $ E E $ . . $ $ . $ $ 5 5 . $ c c i i 2 2 ].].^.^.^.^.^.) +.+.^.^.^.^.].].h h 2 G % % % >.>.% =.=.* F s s }.}.s s s % % % s s s % s s # % s s % % s s s % s % s s s s # % % s % % # % % % s s % s s s E E s % E E % # E E % s % % % s s % % s % # # % # # s % E E % % E E # % # # % % # # % % $ E % % E $ % % E E % % E $ # % E E s s s % % % E E >.% E E % % E E s s % % % s % % s % % s s s % % % s s s s s s s F * s s 2 2 % s }.}.>.% }.* s s * * F F * * % s }.}.s s }.* s s s s s % s s % s % % % % s s s % % s s % s s % s s s % % s % % s % s s % % % E $ % % E E >.>.>.>.s s E $ % s % % s % E E # % E E % % E $ s % % s % % >.% s % % % s s % % % # $ E s s % s s s s % % s % % s % % s s s % % s % % % % s % s s s s % % s % % s % % % s s % % s s % % s s % % * * * F g g E E % % E E f f j j z z ^.^.) ^.^.^.) ) ^.^.^.y ^.^.g g 2 2 G 2 . . . $ $ . # # $ . $ E E $ % # E E 2 2 2 2 * 1 5 5 2 2 V V 2 2 F F c 2 * * 1 * 6 6 % s * * F F * * F F * * F * s s ",
"* * * * F F * * * F F * 2 2 }.}.F F 5 5 % % * * * F F F 2 2 s s * * 5 5 # % * * % % . $ $ E . . . $ V $ . $ 5 & $ $ c c i i G 2 +.].^.^.^.^.^.^.+.+.^.^.^.^.].].h h 2 G % % >.>.% % =.=.* F s s * * s s s s % s s % # % % s # % s s % % s s % % s % % s s s % % s s s % % % % % % s % s s s E $ s % E $ s % E E % s % % s % s s s s # # % s % # % E E E % s E E % % % # # % % # # % E E % % E E % % E E % % E E # % E E % s % % s % E E % % E E >.% E E s s % % % s % % s s s % % s % % s s % s s s % s * * s s 2 2 % s }.}.% % }.}.% s * * * F F }.s s * * s s 1 * s s s s % % s % % s % % % % % s % % s % % s s s % % s % # % % s % % s % s s % % E E % % E E >.>.>.>.s s E E % s % % % s E E # % E E % % E E % s % # s % % % % s s % % s % % % # E $ % s s % s s # % s s % % s s % % s s % % s % % % s s % % s % s s % % % % s s s % s s % % s s s % s % s s F * * F g g E E % % E $ f f j j z z ^.^.^.) ) ^.^.) ^.^.^.y ^.^.g g 2 2 G 2 . . . $ $ . # # $ . $ E $ $ # # E $ 2 2 G 2 1 1 5 5 2 2 V V 2 2 F F [.2 * * 1 * 6 6 % % }.}.F * * * * F F * * F % s ",
"* * * F * * F F * * 2 2 * * 2 2 F * 5 5 % % F F }.}.2 2 * * * * % s 5 V s % 2 2 # # $ $ . $ E $ $ . . $ 5 5 $ . . . 2 2 2 c i i +.+.].].^.^.) ) ) ^.+.+.^.^.z z j j g g >.>.% s % % 4.4.* * }.}.% s }.}.% % s s % % s s # % s s % % % % % % s % s s % s % s s s % % s % % s s s % % % s s % % s % % s s E $ s % E E s s s % s s % # # % # # # >.# E % % E E % s E E s % % # E % $ E % % E $ >.% E $ >.>.E E # % E E % % % % % % E E >.% % % % s s % % s % % s % % s s s % % }.}.% % }.}.% % F * % % }.* % s * * 2 [.* * * }.}.}.s s }.}.}.}.[.[.% s }.}.s s * * s s * * % s s s s % s s % % s % s % % s s # % s # % }.s s % % s % s % % % % s s s % % s $ E % % $ E # % % % >.% E E % s E E % % E E % % E E % % $ E s s % s s s % # s s % % s s E E s s s % % s s % s s s % s s % s s s % % s % % s % s % % s s % s % % % s s % s % % s s % s s % % s s % s s s % s F F G G >.% % s s s g g h h z z ^.) + + ) ) ^.^.^.].^.^.y y G G g g 2 2 $ $ $ . E $ $ $ # # $ $ E E $ . % % * * g g % % . . F * $ $ c 2 2 2 F F 2 2 * * 5 5 $ E F F F }.2 2 * * * * F * 1 * ",
"* * * F }.}.F * * * 2 2 * * 2 2 F * 5 5 % % F F }.}.2 2 F * * * % % 5 V s % 2 2 # # $ $ $ $ $ $ . . $ $ 5 5 . . . $ 2 2 2 c i i +.+.].].) ^.) ) ) ^.+.+.^.^.z z j j g g >.>.% % >.>.4.4.* * }.}.% s }.}.% % s s % % % s s % s s % % s % % % s % s s s s % % s s % % % s % % % s % % % s s % % s s % % s E $ s % E E s s s % s s % # % % # # % % E E % % E E % % E E % % % # # % % E E % % E % % E E >.>.E E % % E E % % >.>.% % E E % % >.>.s s % % s s s % % s % % s s s % }.}.% s }.}.% % * * % % * * % s * * 2 [.* * * * }.}.s s }.}.}.}.2 [.s s * * s s }.}.s s }.}.s s % s % % s s % % % s % % s s s % % s s % % s s % s s % s % % % s % % % % }.% E $ s % E $ # % % % % % E E s s E E % % # E % % E E % % E E s s s % % s % # % s % % s s E E s s % s s % % % s % % s s % % % % s % % s % % % s s % % s % % % s s % % % s s % % s % % s s % % s % % s s s s % F F G G >.% % % s s g g h h z z ) ) + + ) ) ^.^.].^.^.^.y y G G f g 2 2 $ $ $ . $ $ $ $ # # $ . E E $ $ >.>.* * g g % % . . F * $ $ 2 2 2 c c F 2 2 * * 5 5 E $ F F * * 2 c * * F * * * * * ",
"* F * * F F * * F F * * 2 2 * }.}.* E $ F F * * * F F F 2 2 % s * }.5 5 % % * * % % E $ # # $ . . $ $ . . . 5 5 . $ 2 2 i i G 2 ].].^.^.^.^.^.) +.+.^.^.^.^.].].h j G G % % >.>.s s =.=.2 [.s s s % ,.,.E E % % s s % # % s % >.s s # % s s % % % s % % s s % % s s % s % s % % s s % s % % % s s s % s s s % % s s E $ s s s % s s # # s % E E # % E E % # % E % # % # % % # # # % E E % % E E % % E E # % E E s % >.>.s s % s % % >.>.% % >.>.% s s % s s % % * * % s }.}.% % }.}.s % }.}.% s % s s s * * F * 2 2 * * * }.}.* * }.s s F F F F }.}.* }.}.* s s }.* s s }.* % s * * % % s s % % s % % % s s s % s s % # % s # % % s % % s s % % # % E E % % E E >.>.>.>.s s >.% % s E E s % E E # % E E % % E E % % $ E s s # % s s % % s s $ E s % % % % s % % % s % % % s % # s s % % s % % % s s % % s s s % s s s % % s s % s s % s s s % % s s E $ ,.E E E * * F F g g >.>.s s % % f f j j d d ^.^.) ^.^.^.^.y ^.^.) ].) ^.g g 2 G G G ,.,.$ ,.. . # # $ . % # $ $ % % E E 2 2 2 2 1 1 5 5 2 2 $ $ 2 2 * F 2 2 * F }.* J J s % * }.F * * * F F F * * * s s ",
"* F * * * F * F F * * F 2 2 * }.}.* $ $ F F * * F F F F 2 2 % s * * 5 5 # % * * s % . $ # # $ . $ $ . . . . 5 5 . $ 2 2 i i G 2 ].].^.^.) ^.^.^.+.+.^.^.^.^.].].j j G G >.% % >.>.s =.=.2 [.s s s % $ ,.E E % % s s s % % s s % s s # % s s % % % s % % s s s % % s s % % s % % s s % s % s s % s s % s s s % % s s $ E s s s % s s # # s % E E s % E E % # E E % # % # % % % # # % E E % % E E >.% E E # % E $ >.>.>.>.s s % s % % >.>.% % >.>.s s s % % s % % }.}.>.% }.* % % * * % % * * % s s s % s F * * * 2 [.}.}.* * }.}.}.* s s F * F F }.}.}.}.* * s s }.* s s * * s s * * s % % s % % s s % % s s s % s s % % % s # % % s % % s % % s >.% E E % s $ E % >.% >.>.s % >.% % E E % % E E % % E E % % E E # % E E % s # % s s % % s s E $ >.% % % s s s % % s % % s s % % s % % s s s % s % s >.% % s % s s s % % s s % % s s % s s s s % s % $ ,.E ,.$ E F * * F g g >.>.% s s % f f j j d d ^.^.^.) ^.^.^.y ^.^.) ].^.) g g G G G G ,.,.$ $ . . # # $ . % # $ $ >.>.E E 2 2 2 2 1 1 5 5 c 2 $ $ 2 2 F F 2 2 * F F F J J % % * 1 F F 1 * * F F 1 * * % s ",
"* * [.2 }.* 2 2 }.* [.2 F * * * s s 2 2 * * 2 2 F F 2 2 2 2 F F s s . . # % 2 c % # # # $ . $ $ . . $ $ V V . $ $ . G G 2 2 g g ].].].].) ^.) ) ^.^.^.^.^.^.z z h h 2 G % % % % >.>.=.=.* F }.}.>.>.6 6 $ ,.# >.% % s s s % s s % % s s # % s s s % s s % # s s # % s s % % s s % % s s % s s s s % s % # % s s E E # % E E % % % # s s E E % % E $ s % # # # % % # # s # # % % E E >.% % % s % E E >.>.E E # % E E % s % % s % % >.s s % >.s s s % % s % % * }.>.% }.}.>.% s s s % % s % % }.}.s s 2 2 % s 2 2 [.[.}.* s s F * F }.}.* * }.[.[.}.* F F }.}.* * s % F F s s }.}.s s }.}.s s * * s % }.}.>.% s s # % s s % % s s % % }.}.s % % % $ E % % E $ % % >.>.>.% E E >.>.% % >.>.$ ,.E E E E % % E E % % E E % % E E s s % % % s % % s s % % s % s % s % % % % s s >.s % s % s s % % s % % % % s % % % s % s % % % s s % % % s s % % % s % % E $ 6 6 s s s % 2 2 =.=.s s E E s % 2 G h h y y ) ) ^.^.^.^.^.^.].].) ) y y G G =.=.2 2 $ . $ $ # # $ . # # $ . # # $ E % % * }.2 G % % . . F F E $ F F 2 2 F * 2 2 * * * * s s F F * * F F * }.* * * F * }.",
"}.* 2 2 }.* 2 2 }.* 2 2 F * * * s s 2 2 * * 2 2 F F [.2 2 2 F F s s . . # % 2 c # # # # $ . $ $ . . $ $ V V $ . $ . G G G 2 g g ].].].].^.^.) ) ^.) ^.^.^.^.z z h h 2 G % % % % % >.=.=.* F }.}.>.>.6 6 $ $ # % % s % s s % s s # % % s s % s s % % s % % % s % % % s % % s s s % % s s % s s s s % s % s % s % E $ # % E E s % # # s s $ E s % E $ s % # # % % # # s s # # % % $ E % % % s # % E $ >.>.E E % % E E s s s % % s % % s s % >.% s % % s s % % * * % s }.}.>.% s s s % s s % % }.}.s s 2 2 % s 2 2 2 [.* * % s F F }.}.* * * }.[.2 }.}.* F }.}.* * % s * * s s * * % s * * % s F * % % }.* % % s s % % % s s % s s % % }.}.s % % % E E % % E $ % % >.>.>.>.% E >.>.% % >.>.$ $ E E E E % % E E % % E E % % E E % s % % s s % % s s % s s s s % s s % % % s % s % s % % s % % s s s % % s s % % % s % % s % % % s s % % s s % % s s % s $ ,.6 6 s s s % 2 2 =.=.s s E $ % % G G h h y y ) ) ) ^.^.^.^.^.].].^.) y y G G g g [.2 $ $ . . # # $ E % # $ E % # $ $ >.>.* * 2 G % % . . F F E $ F F c 2 * * 2 2 % * * * s s F F * F F F * }.* * * F * }.",
"2 2 * * * F F * [.2 * * }.* 1 * 2 2 * * 2 2 1 * 2 2 * * 2 2 * }.* * 5 5 F * 2 2 s % $ $ E E $ . $ $ $ $ $ . $ $ $ $ 2 2 g g 2 2 y y ) ) ].) ) ^.].) ) ^.^.) z z h h 2 G % % % % s s =.=.G G * }.[.2 }.}.G G >.% % s % % s s # % s s % s % s % % % s s % s s % % % s s % s s % % s s % s s s % >.% s s % s s % % s s % % s % E $ # % % # # % E E % % # # % # E E # % # # s s % % % s s % s s $ E % >.E E s s % >.% % % s F }.s s % s >.>.s s >.% s s s % * * % s s s % % s % % s }.}.>.% }.* % s s % ,.$ ,.. * * 2 G % s * * }.}.F F * * * * 2 [.}.* E E % s % s s s % % s % % s s s s % s s % % }.}.>.% s s s % s s % % s s % % s s % s s s E E % s E E % % % % % >.% % % s >.>.% s s % % % E E % % $ E % # E E % s $ E # % E $ s s $ E s s E E s % # % s s s % s s s % s s % % s s % % s s s % s % # % s s % % % s % s % s % % s % % % s s % % * * G G F F F F * * F F g =.% % s % E $ g g j j z z ^.^.^.^.^.) ) ) ^.^.].].x x g g G G 2 G $ $ $ $ $ $ # # E $ # # $ . % % E E 2 2 2 c * 1 & 5 2 2 $ $ 2 2 2 2 c c F F 2 2 * * * F F 1 * * * * 2 2 * * * F * * ",
"2 2 * * * F * * 2 [.F * }.* }.* 2 2 * * 2 2 1 * 2 2 * * G 2 * }.* * 5 5 F * 2 2 s % $ $ E E . . $ $ . $ $ $ . $ . $ 2 2 g g 2 2 y y ) ) ) ) ^.^.].) ^.) ^.) y z h h 2 G % % % % s s =.=.G G * * [.[.}.* G G >.% s % % % s s # % s s % s % s % % s % % % s % s % s s % % s % % # s s % s s s % >.% s % % % s % % % s % % s % E $ # % % # % % E E % s # # % % E E s % # # % s % % % s % % s s $ E % >.E E % s >.>.% % % s F }.s s s s >.>.% s % % s s s % * * % s s s s % % s % % }.}.% % }.}.s s s s E $ $ ,.* * 2 G s s }.}.}.}.F F * * * * 2 [.* * E E % s % % s s s % % s % % s s s % % s % % * }.% % s % # % s s % % s s s % % s % s s s E E % s E E % % % % % >.% % % s >.>.s s % % % s E E % s E $ # % E E % % E $ # % E E s % E E % s E E % % % % s s s % s s % % % s % % s s % % s s s % s s % s % % % s % s % % s s s % s % % % s s % % F * 2 G * F F F F * F F =.=.% >.>.>.$ E g g h h z z ^.^.^.^.^.) ].) ) ^.].].x x g g G G 2 G $ $ $ $ $ $ # # $ E # # $ . % % E E 2 2 2 c * 1 5 5 G 2 $ $ 2 2 2 2 2 c c F 2 2 * * * F * * * F * * 2 2 * * * F * * ",
"* * [.2 F F c c * * F * * * }.F }.}.2 2 F * [.2 F * 2 2 2 2 2 2 [.2 % # 1 1 2 2 # # # # $ $ . $ V $ . $ V V . $ $ . G G 2 2 g g 2 c x x x ^.) ) ^.^.) ^.^.^.z z h h 2 G % % % % >.>.g f [.[.F F F F 2 [.s s s s % % s s s % s s s s F * s % * * s % % s % % s s % s s s # % s s % s s % % % s s % # # % $ E s s % s s % E E s s # # % % # # % % # # % % E E % % E E % s % s s s % # s s >.>.% % E E >.% % % % s % % s s s % }.}.>.% s s s % s s % % }.}.s s % % V V % s % % s % % >.s s s % * * * * E $ V V 2 2 [.2 }.}.>.% }.* }.}.* F }.}.G G * }.V V V V * * % s F * s s }.}.% % s s % % $ $ % s }.}.% s * * % % s s % % s s s % * * s s s s s % s s % # % s E $ % % >.>.% % >.>.s % E $ # % E E % % % s % % E E % % # % % s # % % s % % # % >.>.% % % % s s s % s s % >.s s % >.s s s % s s % s * * s s * * % s * * % s * }.s s s % s % % s % % F F s s [.[.}.* G 2 =.=.>.>.E E % % G G h h y y ) ) ^.^.^.^.^.^.) ].^.) y y G G =.=.2 2 $ . $ $ # # $ E % # $ $ >.% E E % s * F =.=.% % E $ * * % % 2 2 [.2 F F c c [.* 2 2 * * * F * * F F 1 * * F * * * * ",
"* * [.2 F F [.2 * * F * * * }.F }.}.2 2 F * [.2 F * 2 2 2 2 2 2 2 [.# # 1 1 2 2 # # # # $ $ $ $ $ . . $ V V $ . . . G G 2 2 g g 2 c x x x ^.) ) ^.) ^.^.^.^.z z h h 2 G % % % % >.>.g f [.[.F F F F 2 [.s s % s % % s % % % s s % s * * % s }.* s s s s % % % s # % s s >.>.% s s % s s % % s s % s s % $ E s % % % s % E E s s % # % % # # % % # # % % E E % % E E % s s % s s % # s s s % % % $ E % % % % s % % s s s % s * * s % s s s % % s % % }.}.% s s % V V % s % % % s % % s s s % }.}.}.* $ ,.V V 2 2 [.2 }.}.>.% }.}.}.}.* F }.}.G G * * V V V V * * % s * * s s }.* % % s s % % $ $ % s * * s % * }.% % s s % % s s s s }.}.s s % s s # s s % % % s $ E % % >.>.% >.>.% % >.$ E # % E $ >.% # % # % $ E % % % % % s % # s % % % % s % % >.% % % % s s % % s % s s s s % s % % % s % % s * * s s * * % s * * s s F * s s s s s % s s % % F F s s [.[.}.* 2 2 =.=.% % E E % s 2 G j h y y ) ) ^.^.^.^.^.^.) ].) ) ].z G G g g 2 2 $ $ . . # # $ $ # # E $ # % E E % s F F g g % % E $ * * % % 2 2 [.2 F F c c [.* 2 2 * * * * F * * F F 1 * F F }.}.}.",
"* F * * F F s % * * }.* * * * * 2 2 * * 2 2 * F 2 2 2 2 2 [.2 2 F * % % 2 G * * s % . $ $ E . . $ E E $ $ $ . $ . $ 2 2 g g 2 2 y y ) ) ) ^.^.^.+.+.) ^.) ) y z j j G G % % >.>.s s =.=.2 G * * F * s s % s % % s s % % s s s % 1 * % s * * s s * * % s s s % s s s s % s s s % % s % % s s >.% s % % % % s % % % s % % % s # % s s % # % s E E % s % % s s % % s s % % * * % % # # % % s s % % % s % % s s % % % % >.>.V V V V s s % % * * >.% s s s % }.}.s s 5 5 s % }.}.s % * * s s }.}.% s F F F F 2 2 F F G 2 }.}.* * }.}.F F }.}.* F [.[.2 2 [.2 G G * }.F * s s }.}.s s * * % s s s 6 6 * * s % }.* s % % s % % % s % % >.s 5 5 s % s s s % % % s % % % }.}.>.% s % % >.* * % % s % % # s s % s s % % % % % % s s s % % s % s % * * s % s s s % s s % >.s s % % s s % % s % % % s s s % * * s s * * % s * * s s }.}.% s F * % s % s s % % s % % F * % }.F F [.[.=.=.% % % % E E g g j j z z ^.^.^.^.+.^.^.y ) ) y y y y i g G G G G E $ . $ $ $ # # $ E % # $ $ % % % # * F 2 2 1 * $ . F F G 2 [.G [.2 2 [.* F c G }.}.F F * }.F F s s s s % % * * * * ",
"* F * * F F s % }.}.}.* * * * * 2 2 * * 2 [.F F 2 2 2 2 2 [.2 2 * * s % 2 G * * % s $ $ E E . . $ $ $ $ $ . $ $ $ $ 2 2 g g G 2 y y ) ) ^.) ^.^.+.+.^.) ^.) y z j j G G % % >.>.% s =.=.2 G * * * F s s s s % % % s % % % s % % }.}.s % F F s s * * s % s s % s s s # % s s s % % s % % s s % % s s % s s s % >.s s % % % s % % s s % # % s E E % s % % s s % % s s % >.}.}.% % # # s % s s s % s s >.>.% s >.>.% % >.>.V V V V s s >.>.}.}.>.% s s s % }.}.s s 5 5 s % }.}.s s * }.s s }.}.s s F F F F 2 2 * F 2 2 * * * }.}.}.* F }.}.F F [.[.[.2 [.[.2 G * * }.* s s }.}.s s * * % s s s 6 6 * * s % }.* % s % s % % % s % % >.s 5 5 s s s % s s % % % s % % }.}.>.% s % >.>.* * % % s % s % s s s % s s % % # % % # s % % % s % % s * }.% % s s % % s s % >.s s % % s s % % s % % % s s % % F * s s F * s % F * % s * }.s s F * % s % s s % % s % % * * }.}.* F [.[.=.=.>.>.>.% E $ f g j j z z ^.^.^.^.^.) ^.^.) ) y y y y i g G G 2 G $ $ . $ $ $ # # $ . % % $ $ >.>.# # * F 2 2 * * E $ F F 2 2 G G [.2 2 [.* F c G }.}.F F * }.F F s s s s % % * * * * ",
"1 * * * % s * * * * F F * * F F * * c 2 * F G G 2 2 [.2 2 2 * * % % 2 2 2 G c c $ E % # $ $ $ E . . . $ V $ . $ $ $ c 2 g g 2 G F c c c ) ^.^.^.^.^.^.^.) ^.z z j j g g E E s s % % f f [.[.F F * * }.* s s }.* % % % s % % }.* s s F * s s * * s s * * s s F * # % s s % % s s s % % s % % s s s % % s % % s s % s s s % s s s % # s s % # s s % # s s s % s s % % s s s % * * 5 5 s % E E % s % % s s s % s s E E F * O O % % >.>.% s s s * * s s F * s % F * F F G 2 s s * * }.* * F * * F F F 1 * * * 1 F F 2 G F F }.}.* F s s F * F }.g g }.}.* * F * * * * * * * s s F * 1 * F F F F * F * F * 1 s s F * % s % % % % s s ,.$ 6 6 >.>.* * % s }.}.% >.}.}.>.% s % % >.V V % s * * % % s % s % s s % % s s % s % % % % s % % s % s % s }.}.% % s s % % s s s % s s s s s % s s s s % % % s s s F * s % F * s s F * s % F * % s s s s % % s s % s s * * }.* * * g g =.=.* }.E E % % G G h h y y ) ) ^.^.+.+.^.^.^.) * * F c G 2 g g 2 2 $ $ $ $ % # $ $ >.>.# $ >.% # # # % * * G 2 c c 2 2 1 * F F 2 2 =.g F F 2 2 F * 2 2 * * 2 2 * * F F s s % s s s * F ",
"* F * * s % * * * F F F * F F F * * 2 2 * F G G 2 2 2 [.2 2 * * % % c c 2 2 2 c E E % # $ E $ E . . . $ V $ . $ $ $ c 2 g g 2 G c c F c ^.^.^.^.^.^.^.) ^.^.z z j j g g E E s s s % f f [.[.F F * * }.}.s s * * s % % s % % 1 * s s F * s s }.}.s s * * % s * }.s % s s % % s % % s s s % % s s % % s s % s s s s % s s % s s s % # s s # # % s # # % s % % s % % s s s % s * * 5 5 s s E E % s % % s s % % s % E E * * O O % % % >.s % % s }.* s s F * s % F * F F G G s s }.}.}.* * F * * F F * * F * * 1 F F 2 2 * F }.}.* F s s F * F }.g g F * * F * * * * * * * }.s s F * * * F F F * * * * * * }.s s * F % s % % % % s s E $ 6 6 >.>.* * % s * * s % * }.>.% s % >.>.V V % s * * % % % % 1 % s s % s s s s % s s s % % % s s s s % % * * % % s s s % % s % % s s s % s s % s s s s % s s % s * * s s F * s % F * s s F * s s s s % s s % s s s s }.}.* * }.}.=.=.=.=.* }.E E % % G G h h y y ) ) ^.^.+.+.) ^.].) * * F c G 2 g g 2 2 $ $ $ $ % # $ $ >.% E $ >.% # # s % * * G 2 c c 2 2 * * F F 2 2 =.g F F [.2 * }.2 [.* * 2 2 * * F F s s % s s s * * ",
"}.}.% % * * * 1 * * * * F F }.}.2 2 * * c 2 2 2 [.2 1 * F F * * 2 2 [.2 i i F F >.% $ $ # # # $ $ $ . $ E $ $ $ % # 2 2 [.2 F * [.2 2 c ) ^.^.^.+.+.^.^.) ) y z h h 2 G % % % % }.}.=.=.2 G * * }.}.% s * * s s }.}.% s * * s % * * % s * * s s * * s % * * % s s s % % % s % # % s % % s s s % s s s % s s s % s s % % F * % % % s % # . . s s % s s # s s s % s % % % s s E E L L % % % % 1 % % s % % }.}.s s }.}.* * F F [.[.}.}.>.% }.* % s s s s % * * * * * F s s * * % s F * s s }.}.s s F F F F 2 2 F F G 2 }.}.* * }.}.F F s s F F G 2 }.F F }.2 [.}.* * F s s F * % s * * s s F * F }.F * s s F * s % % s % % s s s % * F F 1 * F % % }.}.% % }.}.% % }.}.>.% s % 6 6 s s % % s s % % % s % % s s % % % s E $ s s % s s s s % }.}.% % * * % % s % % s * * % s * }.s s * * s s * * s % }.* % s * }.s % * * s s }.* s s * * % s s % % % s % % % }.}.* * * F 2 [.4.4.% % E % E E g f j j z z ^.^.^.^.^.^.^.) ].].2 2 1 1 G 2 F * 2 2 E E % % % # s % % # % % E E % >.# # c 2 2 2 i i c c 2 2 * * 2 [.2 2 G G 2 2 c c }.* 2 2 * * * F }.}.* * s s }.}.s s ",
"* * % % * * F * 1 * * * F F }.* 2 2 * * c 2 2 2 [.2 * * * F * * 2 [.2 2 i i F F >.% $ $ # # # $ $ $ $ $ E $ $ $ # # 2 2 [.2 * * [.2 F c ) ^.^.^.+.+.^.^.) ) z z h h 2 G % % % % }.}.=.=.2 G * }.}.}.s s * * s s * * % s * * % s * * s s F * s % * * s % * * s s % s % # % s % # % s % % % s s % s s % % s % s % s s % % F * % % % s % # . . s s s % # s s s % % s s s % s s E E L L % % % % 1 % s s s % * * s s }.}.* F * F [.[.}.* % % }.}.s s % s s s * * F * * F s s }.}.s s F * % s * * s s * F F F G 2 }.F 2 2 * * * F * * F F s s F * 2 2 * F }.* 2 [.* * * F s s * * % s * * s s F F 1 * 1 F s s F * s % % s % % s s s % }.F F 1 * F % % * * % % }.}.% % }.}.>.% s % 6 6 % s s % s s s % % s s % % s % s s s E E % s s s % s s s }.}.% >.* * % % s % % s * * % s * }.s s * * s s * * % s * }.s % * }.s s F * s s * * s s * * % % s % % % s s % % }.}.}.}.F F [.[.4.4.>.>.>.s E E f f j j z z ^.^.^.^.^.^.^.) ].].2 2 1 1 G 2 F * [.2 E E % % % # s % % # % % E E % >.# # c 2 2 2 i i c c 2 2 F * 2 c 2 2 G G 2 2 c c }.* G 2 * * F F * }.* * % s F * % s ",
"% % }.}.F * * * F }.2 2 F * * F 1 * 2 2 2 2 2 G * * }.}.* * 2 2 2 c G G 2 2 g i ) c c c F * 2 c * * F F F * 2 2 * * }.}.1 * F * F F g g ) ) ].].^.^.+.+.^.^.d d h j g g % % % s s s =.=.F F }.}.s s }.}.s s * * s s }.}.% s * * % s * }.s % * }.% s }.* s s * * >.>.s s # % * s s % s s s % % s % % s s s % s s % % % s s s % s s s V V O O % s s % s s % % s % % % s % s s * F s s 2 2 s s % s s % % s % s * * % % s s % % * * s s }.}.% s * * s % }.* % s * * 1 1 F F s s * * F * * F F * * * F F F c % s s s % s * }.}.* F F 1 * * * * s s s % % * * }.}.}.* * }.}.F F }.}.* s s * * }.* * F }.}.}.* s s * * % s F * s s s % s s * * % s * * >.>.}.}.s s }.}.>.% s s }.}.* * }.F }.}.% % s % % >.}.}.% % * * E $ J J E $ s s s % * * * * }.}.s s }.}.>.% s % >.% * * % s * * s s * * s s % s s s * * % s * * s s }.}.s % * * % s * * % % }.}.s s }.}.% s F * * }.G G =.=.}.}.% s % % g g h h y y ^.) ) ^.+.+.^.^.].].2 2 2 2 * * * * * * F c F * 1 * * * c c 1 * 2 2 2 c c c 2 2 g g c c c c 2 2 [.2 s s F * F F =.=.F F c G * * 2 2 * * F F * }.}.* }.}.* * ",
"% % }.}.* 1 * }.* * 2 2 F * * F }.* 2 2 2 2 G 2 * * }.}.* * 2 2 2 c G G 2 2 g i ) c c c * F c c * * F F * F 2 2 * * * * 1 1 F * F F g g ) ) y ].^.^.+.+.^.^.d d j j g g % % % s s s =.=.F F }.}.s s }.}.% s }.* % s F * % s * }.s % * }.s s F * s s }.* % s * * >.>.s s % % s s % % s s s % s s % % s s s % % s s % % s s s % s s s V V O O % s % % s % s % s s % % s s % s F F s s 2 2 s s s s % % s % s % * }.% % s s % % * * s s }.}.s s }.}.s s F * s s F * 1 1 F F s s F * * * F F F * * * * F F c % s s s s % }.* * F F F F 1 * * % s s s s % * * * * }.* * }.}.F }.}.* * % s F * * * F * * * * * % s * * s s F * % s s s s % }.F s s }.}.% >.}.* s s }.}.>.% s s }.}.}.* F }.}.F % % s % >.>.}.}.% % * * E E J J E $ s s s % * * * * }.* s s }.}.s % % s % % * }.% % * * s s * * s % s s s s F * s s F * s s * * % % F * % s * * >.% }.}.s % * * s s * * }.}.G G =.=.}.}.% >.% % g g j j y y ^.) ^.^.+.+.^.^.].].2 2 [.2 * * * * * * 2 c F * 1 * * * c c 1 * 2 2 2 c c c 2 2 g g c c c c 2 2 [.2 s s * F F F =.=.F F c G * * 2 2 * F F F * }.}.* * * F * ",
"* * % s F * * * F F * * * F * * c c 2 2 2 G 1 * * }.* * 2 2 2 2 c 2 2 2 i i c c $ $ 5 5 $ . 5 5 5 5 & 5 5 5 5 5 5 5 E $ * * * * g g 2 2 ].].^.^.+.+.^.^.) ) z z h h 2 G s s % % }.}.=.=.2 [.* * * * % s }.* % s F * s s F * s % F * s s * * s s % s s % s s s s % s s % s s % % s s % % s % L L E E s s F * s % * * % s * * s % 2 2 % % s % % s * * s s % s s % % s s % * * F * * * % % }.}.s s * * % s * * % s F * s s * * }.}.F * % s F F 1 * * F F F F F % % F * % % % >.$ ,.E E V V V V J J E $ 5 5 $ ,.# >.% % s s F F }.}.[.2 s s s % $ ,.5 5 V V E $ 5 5 $ $ ,.,.E E $ $ E E % % 1 1 1 1 F F * * F F F * * * s s * * s % }.* }.}.* * >.>.% s >.% * }.% s }.}.>.% }.* % s s s E $ s s >.>.>.% s >.% s s s F F E E F F % % s % % s * * >.>.}.}.% s % % V V J J E E 1 * s s }.* % s * * % s * }.s s * * % s F * s s }.}.% s }.}.s % }.}.% s * * }.}.}.}.* }.}.* [.[.4.4.>.>.% s E E g f j j d d x x x ^.) ^.^.) ) ) g g G G 2 2 % s 5 5 5 5 5 5 5 & 5 5 5 5 V V 5 5 $ $ 5 5 F F G 2 2 2 2 2 c c 2 2 * F }.* * * }.}.G G [.2 2 2 * * * F F * F F * 1 F F F * ",
"* * s % F F }.* F F * F F * * * 2 2 G 2 G G F * * * * * 2 2 2 2 c 2 2 2 i i c c $ $ 5 5 $ . 5 5 5 5 & 5 5 5 5 5 5 5 $ $ * * * * g g 2 2 ].].^.^.+.+.^.^.) ) z z h h 2 G s s % % }.}.=.=.[.[.* }.* * % s }.* % s F * s s }.}.% s * * s s F * s % s s s % s s s s % s % % s % % s s s % % % % L L E E s s }.}.% s * * % s F * s % 2 2 % % % s % % * }.s s % s s % % s s % * * * F * * % % }.}.s s }.}.% s F * s s }.}.s s F * }.}.* F s s * F F * * F F F * F s % * * % s % % E $ E E . V V V J J E $ 5 5 E $ # % % % s s F F }.}.[.2 s s s % $ ,.5 5 V V E $ 5 5 E $ ,.,.E E $ ,.E E % % * 1 1 1 F F 1 * * F * * * F s s * * % % }.}.}.}.* * >.>.s s % % * }.s s }.}.>.% }.* % s s s E E % s % % s % % s % % s s F F E E F F s % % s % % * }.>.>.}.}.% s % % V V J J E E F * s s }.* s s F * % % * * % s * * % s F * s s * }.s s * * % % }.}.% % * * }.}.* * * }.}.F * [.4.4.>.>.s s E E g f j j d d x x ^.^.^.^.) ) ) ) g g G G G 2 s s 5 5 5 5 5 5 5 & 5 5 5 5 V V 5 5 $ $ 5 5 F F G 2 2 2 2 2 c c 2 2 * F }.* * * * }.G G [.2 2 2 * * F F F * F F * 1 F F F * "};
