/* XPM */
static char * 2_xpm[] = {
"400 400 66 1",
" 	c None",
".	c #000000",
"+	c #F9F4EB",
"@	c #EFDCCF",
"#	c #F2E0D3",
"$	c #F4E8DB",
"%	c #E1CFC3",
"&	c #9E8E86",
"*	c #544D49",
"=	c #000000",
"-	c #AE9E96",
";	c #BAABA1",
">	c #8F847B",
",	c #CCBCB1",
"'	c #C5B4AA",
")	c #D2BEB5",
"!	c #D5C6BA",
"~	c #D0BDAD",
"{	c #B4A59B",
"]	c #E7DED2",
"^	c #E6D7CB",
"/	c #24201E",
"(	c #A89C92",
"_	c #BFAEA6",
":	c #49433F",
"<	c #BFAE9E",
"[	c #A3968D",
"}	c #ADA298",
"|	c #7B716B",
"1	c #857A73",
"2	c #BDB3A9",
"3	c #978C83",
"4	c #605953",
"5	c #736A63",
"6	c #363737",
"7	c #D8D2C7",
"8	c #C3C3BD",
"9	c #61615B",
"0	c #6A615B",
"a	c #6B655F",
"b	c #E5E5E2",
"c	c #92928D",
"d	c #5C5B5C",
"e	c #3D3733",
"f	c #414141",
"g	c #BCBAB3",
"h	c #767571",
"i	c #41413C",
"j	c #B2B0A7",
"k	c #9D9289",
"l	c #71716C",
"m	c #989792",
"n	c #8F8E8C",
"o	c #A9A8A1",
"p	c #878783",
"q	c #A2A29B",
"r	c #6D6D6C",
"s	c #AEAEAE",
"t	c #DEDEDB",
"u	c #A2A2A2",
"v	c #A09E9C",
"w	c #82827B",
"x	c #7D7D7C",
"y	c #606262",
"z	c #B2B2B1",
"A	c #FFFFFF",
"+@#$++$$+$%&*=-;>,')!;,')~%!{)%)!',!%)%%%'!~%{)@%!!!%%)]^@#%#@#@$###$$$$+$@$+$#$$#$$$+++%>/=({_''~!'%~,,)!;'^))'!!%%%)%~)'@!'%~)!%)!!)@$$%$#$@$$$#$$+$++@$++$#$$+$++++%:==><[(!,)<!),')!,'%!!)%!)!%)%~~~!!-^!%%^%%%!$#$@$$#@$$$$+$+$++$#++$$$$$$+$++~===><_,!,!',~!!)!!}^)!!!!!%%%@%~))%'^%@@%%^@'##$#$$$$$$+$+$+$++$@++$$$$$$$$++,===|;;>!'!~'~,!!%%{%%%!~!^%%@#%,!!%)'$@@%^@#!$$+$#$+$$$+$+$+++++@+++$$$$$$$++",
"^$#$$+$+++![*/&_1),))),,!!,),_)!))!!!%!%!));!;[%!%!^!%_2###@@#@@^$$$#$$+$+$+++%$##$+++++!>=/3-(!,))!!,,!~',,%!)!!%!%%%!%,'!%{!)%!%%%!'#$$##$#@$$$$$+$+$+++++$$$$++++++)*=/1{>{,,)!)~~!)'%'!!))!%!%%%!!'%%^>)!^%%%^%(^$$$$$###$$+$+++$+++++$#$$#+++$+'==/1{('),)!)))%!'),!!!%%%!%%^^%,!'^~'!@^^%@@!!+$+$$$##$$+$+++$++$$++##$#+$+++'==/|}<>!!!!)!)%%!!!'%%%!%%%%^^%%^;%,[^@@@#@#!<+$+$+$+$$$+$+$+++++$++$#$#+$+++",
"@@@$$#+++$)>4=&{1),','2<!!){!,'~,')!))%!!~),!){!!!%!%!<3#@@@#@^^@#$$#$$$$$+$++###$+$+++$~>/=>((')',','!!);_2,),')!!!%!%!!!!!;!%%%!%!)&@$@@$##^$##$$$+$$$+$+++$$#+$+++$~:==1->['_','<~),<'',,,)%~)!%!%)!!^!!%%%^%^%%3)$$#$#+$$$$$$++$$$+$+++$$#+$$++$<===|}>[!_,,'_')!)'~,)!!,)%!%%@!!!^%!'^%^^@^@{_$+$$$$$$$$$+$+$+$+$$++$$#$$$$++<===5[{1%))),',!%!_%!~%))!%%%%@%^%%^^{###^@%@~[$$$$$+$#$+$+$+$+$++$++$$#@$$$+$",
"+$$+$+++++%3*/1{1)~_'''_'~'',~~!'~,!)%!!!%!%^^%^!%^^@%%{'$###$#$$##$#$##$+++$^$+$+$+++++!>//1<&_''2~''',''2~')_'!!)%!!%!!@!%%^!%@@@^^}-$#$$$$$@$$+$+$$$+$++^$+$+++$+++):/65-3(;''~'''~'''~'))%%,~%!%%%!!,%%%%%!%@@^7[@++$$$+#$$+++$$$++++##+++++$+++'/=/|(([)!_''~_))~,,,%%',~!^%@%^%%!%@@#@^@#$#%[!++$+++$+$+++$+$+++++^+$$$+$+++<==/|3->!)'~,,'~)~,%!%%))!%^^^%@^@@$#$$@@$#+@$2~++++++++$+++++$+++++%$$$$$$$++",
"$#$$+$++##!>*=413~'{'_,<;;<<'''','),))!!%!!!^!%%!,%%^%@!_<##@^##$###+#@#$$#7+$$++$$$++$#!1/=43>{';;_'<'<;'',,',,!)!)!!%!%%%%%%%~^^@%@!,;^$$#$#$$+$+$$#$#+7+$$++++++++#!:8*90>{'''2'_'<2'~~),!!!,%)!%^%%)!%%%^!%%#^$$%{%$$$$$$$++++$$$$+7$+#$+$+++++$,===a|[&,<'',<_',',,!!!)!)!!%%^%@%%%@@@%@@#@$#%'!#$$$$+$++++$#$$+b]+$$+++$+$+$;===a01&!2_',,'<'',,!,)))!!!^%@#@^^#@##@^#$#$$#~2$+$$$+$+++++$$$+$%++$+$$$$#+$",
"#$$++$$+$@<>*/5|>,''''';;_<''~<~,,,!!!!%%%!,!%!%%%%^%^^@^~%$#@@$#$$+$$#^%+$@++$++++++++$<|//a15''_'''';_<',!',),)!!%!!%%%%%^%%%^^@^@^@^%'$$$$$$+$+++$@^#+$+++++++++++$':cda||22_,'''_,'2','~!!!!!%!%%^%%%^^@@#^#@#^^@@'$$+$++++++++$^$++++$+++++++++{==/011-'_',,'_~''',,),%!!!%%^^^^^%^@#@#@$##@$@#,%+$$++++++++$^#++$+++++++$+++-==/41|&!,',,,2''~,~!,!!!%%%%^^#@@%@#@#$@$$$$+$$!%++$+++++++++@@$+b+++$+$+$$++",
"+$+$+$+$+#'|:=|01';'''_;,''<_''<',,,!!!~!)!)!)%!)%%^@^^!%!$$$#####$$$$+++$+$+$+$$$+++$+$<|/=|55<__'_,22<';_,',),)!!))~!!^%!!%%!^@!%%@@^^@%$$$@##$$+$+++++++$+$+++++++$_e:f514;'-'_'__',<,',!!!!~,!!)!%^%%!^^!^@^@^@%^#@^$$$$+++++++++++++++++++++++${===515[){g''__;,,)'~))'!)!%%!^!%%^!^^^%@#$$$^^##^$$$$+++++++++++++++++$+++$+${===415>%_),,'')~,~,%,,)%!%%^%^^^%#@@$@%$@$$+$$$##$++++$+++++++++++++$$$+$+$+$",
"$+$+++++++,|:/150&'___<;{<',_!,',~)!!%)!!!!%%%%%%^%^^%%^%@#$$##@@$$$$+++++$+++++$$++++$+'|//|14&;2_''''_''_,,),~,!!%!%!)%^%!%%%^^^%^^@@@^$#$$##+$+++++++++++$+++++++++':/6|141{'_'_'<{','~,!)!!!)!!%!!%^%%%@@@^^^#$#@$#$#$$$++$++++++++++++++++++++${==/a355{2_'_';_'!),,',)!%!%%!!^%^@^^@@###$+$##$$+#+$+++++++++++++++++++$+++++{==/43a5&,',''_''!)~%%)%!^%@^^^@%@@$#$#$$$$+$$$+$+++++$+++++++++++$+++$+$+$++$",
"###$$$$$+$~1*=>*4/'_';_{;(_,'_'2'')'))!!!,!)%!!!%%%%!!!%%!%%@^@@^@###$$$+$$#+$$$$$+$$$+$~5/=>54e&<;_;{_{;',<,,_'~',,!!),),%!%!%%%%%!%%^%%^@##@$$$$$$$$+++$+++#$$++$++$'e==h>5/1)'__2_{{',2''',),,~!!!!!%%)%%^%^@@%@@$#^^@#$#$$$$$$+$+++++$+$+$+$+$$$;===5>|i0''2''__{'!''2,,)!!!%!!%%%%%@^@@####$#$##]#$$$+#$#+$++++++$++$$$+$$$+${===9[40e_,'''2<;'!,),)~!%%%^^@%%^@##@@#$$$##@$$##$$$$$$$$+$+$+$++$$+$##$$$#+$",
"#+++$$$++#'1:/>400[{}{;;}'{__,,__,_,'!!,,!)%!!!%!!!%!%!%!%%!^@%@^@@$##$$$$$$++$$+$$++++$2|==>005&;<2<;{_{'_,,'_,','~),)%!)!%%%!%%^%^%@!^@@^#@@^#$+$$$$$++++++$$$++$++$<e==|>04>}_;;_;;(-2,,,,,,!),)!!)!!!%%%%^%@@@^@#$@##$$##+$+$$$$$+++++$$++++++++{==/5>*51;'{;';_'{',),!!),)!%%!!!%%^^^%^^##$#$#$#$##$$$+$+$+++++++$+++$+$$$+++-==/*[0|5{;;;'<_';,,!%',!)!!%@%^^@^@^###^$$##$$##$@$$$$$$+++$+$+$+$+++$$$+$$$$",
"$$$#$#$$+#;5e=1*053{--;{_;{{_;,''','_g,,,,,')!))!!%!%)^%%%%%^%@@^%@@##$$$$+$+$$$$$+$$+$#;5/=|e015('{<{}{{;'{,',',,,',,))),!!!!%!%%#!#%^@@@@@@^#@$#$$+$$$+++$$$+$+++++$2e==|5*15{_-;;{{;{_2',,''',g!))!!!!%^^@%%%$%@^#####$$#$$$$$$+$+++$+++$+$+$+++${===||e>|>g-{_{;';2'')!),'!,!%%!!%%%%%%%^@$##$$###^#$$$$$$+$+++++++++$+$$$$$+$-===*10513;{;2''';''2!))!!!,!!%%%%!%@%^@@###^$$#$$##$$$$$$$$+$+$+$+++#$$+$##+#",
"#$$##$#$)@;|e/5e:[|<{}{;{;};;j;2_<_'',',,,,,)!)!!%%~%~^^!^%^%^%^@@#####$#$$+$+#+#$++$+,^<5=/0:e[1&_{;;{}[;;}{'_22'''',),,!%%!%%%%)!!!#%@##^@^@@#$$$$$+$+++++$++$$+++^@;e=/h4/>>&}{;<;{{;<;j,',,,,~,,),!%!%%^^@%%!^!$@#$$#$#^^$$$$+$+$+++++#$++$+$+^^-==/*4i0;5';{_<;;;;'<),,2~,))!!%!%!%%@^@@@'@,+$#$$#$###$$+++$+++$+++$$+$$+$$$@k==/*1e4-1_'{2___<_~',,)'))!!%!^%%!^^^@##$%^!#$#$$$$$$$$$+$+$+$+++$+$$$$#$$$$^",
"$#$$$#$$$^_5e=4e/:|-}[;((((3[{{;<{;_,,_,)',',,),,!%'_)_~%%^%%%%%^%^#$^^#$#$$+$$$$$$$$$$];0/=*:e:0&_-((}--}[[{{_<;;;_,,'<),)!!!!!%,-);'!^@#@%^%^^@$+$@$$$+$$$$$+$+$$$$@<e==a:e/0&;({{{--[&}{;''_g,<_,,_!~!!!!!!^!{!,8%^##^!^^####$$$$+$+$+$$$+$$$$$$#-===*6//55!{{(({{([-;'''2'''!!))!!%!%,,!@@',,',@$@###]#$#]$$$$+$+$+$$$$$+$$#+][===*5e/*1'{{'{}{{[-'','_'!!%,^%%%%%^^^%@#%<%,!^#$###@@##]+$#^$$$$$$$#$$$$$@#^",
"#@###@)$$^<0//*:eee}(k-;{;{([;(;{_;g',),,'_2!!',';,!!),8%!)%!%)%%%!^#]7@$$$$$$#$$$#$^@$@;4=/*4/e/({[k((;_{['''_,2'','2''_)!!)!'''!%%!,^@!^^^%%%^!##$%$++$$#@#$@+$#%%+#{e==4*ee/1'3[};;{{[;_;;'_,,,,2!~;,,!!!''')!))!@^%@^^%!$#^^#$++$+++$+$$@$#$@%$$-===*4::/0,[[[{}'_{{';{{''!!,,,,)!)%!!,!,%!!%%^#%%^^%%]$^%#++$$+++#++$#+#$@%b$[===*5i:e:_{[{;''_{}';2'')!%!^%%)!,@@%!!'%%%%%%$^@@^^%%@^^@+]^$+$+$+#####$@^%$",
"@^#]!%%!%^<0/=6::e:1'[{3&&{-{;;<__;{_2,';2)2!,,',)!',)%!!!%!%!%%@^^^@#$^#^^@#@@%@#%%!!@^{4/=64:e:4'k(kk&}-{<;_'__;2''2<',,),))),))!!%%^%%^^%^@@@@###$$$#@^$@####]!@^%^{/==:e*e:*'{}(3k{{{;'__;2{_'''),,,,,,)!!!~!!%^^^@]^%@@$#@]$$+$^$$^$$@%@##!@%%@(===:*0:e/};k-k[[{;;'',;'_,'!,',!!))!!!%%!!!^@#@^]^%@#$$$$$$+$#$#@$$$#^@#!%%%^(===*i::::38};k[-___'',,,_',!!%,!%!%%%%^^%!%^#@@$##^@#$$$]$$+$###^@#@@%^@!!!%%",
"%@^@#@7@^@_0//6**::4-([[3k>&>3[3-{;k[((}{{_,'2_,'',,!~','~,!!~'2!!'!!%,%@%!@%!%$#$##%@^@{4==e4*:i*(}&{&}kkk3[({{-'}(-(}j;){'2,;'2!),)!,2,%!!)!!%)!!!)%^@##@@^@$$$$##]@{e==::**:i>;&}3(>333[k[{'}[({(,,;!,~;,',!!%%),)~,%%%)%)!)!!^!!@$##@$%^#$#$@@^@(===*d0*i:|'-;kk[[[k},22-'-({}-,;!,,'!',',%!!!!)!!%^!!)%!%!!)%^#@@#^!@#$##@!@^[==/*4*4:*0'((-[(3[kk}[;_,[{};;'_!%!,))~,%!@!!!%)%%^!!,%!)!%%!%#^%@@)^^$@@@@@%",
")^%%!^)^%%,5/=|:4:i:4[[k(>[[{({{{;;;;;;;'';{_'2'','<,'!,!,),)!!!%!!,%8!,%%%!@7%^^7!##^^%'4==l*4*6e4;(([-(({}_<;{{';<;<,''-;;22_',',,),!',)!%%!%7!!!,!'%@#^^#^!@#^%#%^%;e==50**ee*>}[(mk-({;{{-;2;'';__;})',''))!!,!%!!))!%%!'!%!!!!!%@@@^]^!^%%!@!^%-===45*0:e*>2m[(([[;;<;{;'''_';',}{<,2,,!!%!!%%%%8)%%!%^!8%^%!)@#%^@^!@@^)^!^%(===:3*4*i40{(-}&({;;_'<,''',',,!'''!))8%!!!)%%%%!!!@%%%%!!!!!,!@%!^]^^%%)@#^%",
"!^^%!^%^@%{5/=0**4e:*{[3>3[k[}-{}{};{{__{__;{;{_;_';'),),!)!,!)))!,!!%%%%%%%%^%%@@#+@^]^{4==4**4ei*&{3k3k[}{}{{}(;{;_'_____;j'_,,,!!'))!8!)%!%)^%^%%%%^@^@#@@^^##@^@@^{e==404*i:*1'nk>k&-{{{{}(;{2'__{;'2_''')'),!!!!!)!)%!!!%%@%%%^%@^^^%]@^@^^%%%@(===40:4*i*0_kk[{{k({{{;__;2''_}_';''',,,),!!%!!!%!))%!!!%%@^%%@^^%@@^%#^^@^%^[===fh*44:*4{okkk-({{;_;__j2;),_,!g''',))!g!%%%%%%%%%%!!%%%^%@%%%@%@^@%@%@@^%^",
"%,%%%%@]%!;0/=0*a4*e*|2k[[kk}[(-{{{{{__;{((};2___22;,',,'',,,';2,))!!!%%%!!%%)%!%%@^@#^!{4==ai**4e**{pq[k(}[(({}{___';;-({,''_',,,!',)),),,'')!)!!%%%#@%!^@!^!%^@^^]]%-/==044446**;}[kk3-(([k(}}_;'<_{}{'')'''')!)!!!,))!),'%!%!%%^#@%!)%!^%!%^%^^%%(===*4**4*:*&}&([(;[[(}{;-;2)''{-;))!,,,,,!!!!!,)!!,,)%!%!%%^]@%%!^%%%!%^%^@@%[===:|4a4*:41'[(-k({}};22;'',',_;<,,)',)),')%!%,)!!!)')!%!%%^%@^!)^%!%%!%%%%^%",
"%@^@%^%)%%;5/=1*:0*::43k(>5>[k&k[k3k((-;k5||>3[{{<<{(&[{'))!!!'',)~)'{)!%@%%%~!^%@@^^%%%{4==|5*0*:e4a&&>01[k&[[k3&([-<(||>>3k;{_'~<k&{)%!%!%!'!!!!!',%%@^%^!%@@##@@!!%-e==416a4:e45-[(||((&k&[33{--;;1|1>&(;;'',_(k{,%!%%^!)!%%!!',%%@^%^!!@^@@^^^,%[===*3:54*e4*k>[5|((k[-(k3[}}'_&|33&&''')!!;({)@%^^^^!!^%%!!'%!^%^%^!@^@^@^%~%k==/63**a*i44k[<>13<((-;(&-';'~-|3>(({'))!'_-{'%%^^@^%!%%%!!_)!%%^!%,%%%%^!^)!",
"([((33['~'}5/=1>*04::ee:050**00*|00405|005|55*0500|0||>11111111|1111>1|0|>k&(&k[{-[&k[,){4==|na*4:e:e:404*444450045a|445a|144550|||53113>11>>1>11|>>|05>([(&(--{-&[-~~-/==435*5**e:i450**40*000400|5040|154550|5||11133>>>&>11>1>1>55>[[([[--{{[3&')[===:3>*0*ii:e40444004004*5||5451|104510|11|1>>&k3>&[>>>31>>>551&[[[[(--{[&&<,3===6>3*59*:ie*5|944|0015a55||501|||5515|1|11&>1&&&>k&3>3>11>|5|>>[&&[([-[3>-'",
"1a0|1>>>-[&|/=4>0:**eie*404040400445550504a500a|50551a51||5|a5a5511>1>11||5115154|1>3>[{k4==4>|6*4::i:*4*04444404a5aa54445aa5|a050|55||||15|||551>1>1>|151[10541|33>k;&e==:11i*d6:e:*04040440040a0a55**5555550a51|011151|5|||||1111>11511|5145|3>>>{>===i|>*:4**e**0*0404440*05505040||5a||505|15|11|1|5||5||11>>111a1115|4a|>>3>{1===6|>0f0:eii*040000405455555|00|555||555514|1||1|55|5551111>|10|1|5|00511>|}",
"5****40|&>10/=//6//=/=/e///////=/=////e/4a*/6/6///eei*:6iee/ee::*44***09*e:45a|***44413>1*==/66//=6=/e6=6////////6/=i/00*/e/6///ei:*ieifee:e:***4*4*004i:4>55****4413>|/==/e6//=6//e/=6///6///////i/404=e/6///ei:4::::ei:e::**4*4*594/i0|a|4**44413>0===/66/==///e6/6///6//=/6e6//*94=//////6e:4*iieiifef:***44:a44ei455|0****4|3>:===/e6//=////6/////6=////66//:09=////e66e:**6i6ieiei:***44*a44::450|0****4531",
"e:e:e*:i:**:/==/=/=/=/===/=======/=/=/=/=//==/===////6///e6////e=6=//e==/e6iiee:e:e*:i**:e===/=/=/===/=/=/=====/=/=/=/=/////===////6/6/e6////e=e=//e==/e6ieee*efi*:i**://6=/=/=/=/=/=/=/=/===/=/=/=/=/////===////6//=ee////e=6///i==/6eeeee:/6e4:i:*/====/===/=/=/=/=/===/===/=/=/=///=====////6//=66////6=/=/6i===/6eiee:6664:e:i=====/=/=/=/=/=/=/=====/=/=/=/=//====///=//6//=6//////=////:=//6eeeee://6*iie/",
"/=/=/=/=/=/=================================================================/===/=/=/===/=====================================================================/=/=/=====6r====================================================================///===========================================================================/=/=====================================================================/=====/=/===",
"========================================================================================================================================================================6s=========================================================================/============================================================================================================================================================",
"///=/=/////=/=/===/=/=/=/=/=/=/=/=/===/=/=/=/=/=======/=/=/===/=/=/=/=/=///=///=///=/////=/=======/=/=/=/=/=/=/===/=/=/=/=/=/=======/=/===/===/=/=/=/=/=///=///////////=/s/=======/===/=/=/=/=/===/=/=/=/=/=======/=/=/=/===/=/=///=///=/=/=///=///ie===/=/===/=/=/=/=/=/=/=/=/=/=/=/=/=/=======/=/=/=/===/=/=/=/=/=/=/=///=/////=/===/===/===/===/=/=/=/=/=/=/=/=/=/=/=======/=/=/=/=/=/=/=/=/=///=/=/=///=///=",
"{<;_;_;'<';<;_<'_'__<''''~'''~',,~,~'~','~,,'~'2&/===0&k&[[&[[&3[[-{}{-{}{{<;<{;;<;<;<<';<{<<_''<'_'''','~'~,),~,~,,,~',,,'~'2>/===0[[&[[[[[&&&[({{{-<{{{<;<{<;_<<<'<'<<;_;'''_''''''~','~,),~,,,~,~'~~'2~'2>====4&[&[[k[-k&&[[-}{{;{<{_;<{{;_;;<_<'<<;;<'''_''''~'~'~',,),,,,',,,'~,~'~_21====4&[k[[[[[[[&[[(-{}{{;{<{_{<<_<_''_'_<;'_'''_''''''~,,'~,,,,',,~','~,~'~'21====4&&k&[[&[[[&-({}{{{{{{<;_;;;'<_<_;'",
"%!%%%!%^^%%^@^%^^@######b]$$$#$#$b$$$b$$+b$$+]+b#-/=/{,__',_)')'_,))%!)!~,%!%!^%%!%!%!^@%%@@@%@@@#$###$$$b$$$b$$$b$b+b+b+b+b$b#[==/[,<_',','!,!~~~%!!~!%%~!%%%%%^!%%@@^%@@%]##@#$@#$$b$$$b+b$b$$$b$$+b+b+b+b$>==/>)'''''''',;',~!!!)!!!!%%%%%%%%@%@@@)@@#%@@##$#$b$$$#+b+b$b+b$$$b$b+b$$$b$1==6|!,_<',''',;',<,!%)!!^!%%%%%%^%%^#@#%@@#^#]##$b$$$b$$+b$$$b+$$b+$+b+$+b$$$1==e5,,'<,,'),!,'!!%!%!%!%%%%^@@%^^^%^#",
"%%)<'%%%%~'~!%)%~!^####$#$$+$$$+$+$+$+$+++$+++$]^~1=={,'!',,~,'!);;''';<,%%%%%%^!!,%%%^%~!!%%%~)%$#$#$#$$$$+$+$+$+$+$++++++++$@~:==-~3_;,,,),!!_}_'~_<'^%%%^%^%~{%%^^%'!~%%%%!%$$$$+$$$+$+$+$+$+++$+++++++++#_==/>)'!'',,!',)_{'<~_<'%%%%^%^%%!!%@%@)~!^%%%%!$$+$$$+$+$+++$+++$+$+++++$+++${==/1);(',,,!,~,,-;;',__%%%%^^@%%<~^#@#)!)@@^%%!@$+$+$+$+++$+$+++++$+++++++$+${==/|<)_%,!,!~!!!;~'~~~'^^^%@^@@@!!%@@#",
"!!!!,-~!%<'{~'!!,!@@@^@@##$###$b$b$]$$$b$$$b$b+b@'>e/{,k!',<;,),!_-{>'!')!!)!!%!%!!{'!%<'<~'!%,)@@@^#@#]$b$#$$$b$#$b+$$b$$$b+b#<5=/[)3;,,'',,,)'({3<),!)!!!!%!%!%{')^~'<')^%)~@#@@####$#$$$b$b$#$$+b$$$b$b+b$;==/1~[g,,'<','),{;k[%,,)!!%!%)%%^'')%)<'~~!^%)^##@##$b$b+b$$+b$#$b+b$b$$$b$$$-==/|!{k,~,),!,!){{-[%),!%!!%%%^%%){~%%~''%%^^!@]####$$$b$$$b$b+b$b+b$$$b$b$b${==/5,)k),)';!)!!'{_3!%)!%!%%^%^%@%',%^",
"))!'~-3<'~'!%%!%!%^^%^%^^@@#@#@@]b@#@$#######$$+$!>:/(;3)''_{',,,,-,_~)''!',)!!)%~~}1-'!)%!%!%^%^@^%^@^@##@#b@#$#$#$#$$##$#$$+$)|==3_&{';';;',)~<'_')~'~,!)!!)!))~3-')!%%%%^%%^@^@%@^####$b$b+#$#+$$b$##b$$+$'===>;3;'_';{)))!_;)'),<~)!!!!!!@%~3&_!^@%%%^%%^@^#@@@##$#$$$#$b#$$$$$$#$#$b+$<==/1;<3'_'_;,!)!,<)_)!,',%!%!%!^,!{k<!!%^@^^%@@#@#@@@@#$b$$$]$$$$$$$#$#####$$<==/|;'1!','_'))!,{),!%'~!!!%%%!@)!<>{)",
"~'!)!'k',~!!!)!)%%%%%%%%%%^^@]@%#b]]#b#]@^#@#]$b$~>//1;>~{{',;'_'';;,<''<~',),)!!!),''%!!~!!!!%!^%%!^]@@@@@@#%@b#]$b@]b##]#]$b$~5=/|-1{<_-;;''))';,{''{',,))!,)%%!;(!'!!!%!)%%^^^%@%@]#@#]##$b$]$b$b$]###]$b$<==/1}[{'';'''',,'{)'_';<),)))~)%%%!>!!%!%%!!%%@@@@#^@@#]##$]bb$^$b+]$##b###b$;==/|k->,,;;<<',,);,,;,'<)'!!!))%%7![)~%^%%%%%^@@#@@@#]###@b##]+]$b$]#]@@#]#b${==/53<3,<;!~2',')',),))'%!%!%%^%^!%{{]",
"))}'{)(_,))~,));!^^@%%%^%^%@^@@@]$]%$#^^^@#@#$b+#)>/=&[1_;_2;_,,'',{;'','),,,,,!!);)'~%!~~)!),)^^@%^^^%^^@@###@$b%]+#^^@@$#$$+b)5==>['_';;_2,~,,,;{,',',)))!!),~;')&%')!!!)~_^@@%@@@^@@####b$$b$#+#@]@@$b$$$$'===1}>(';2<2',,,''-!',,~))!!!!)''));%)!%!%%%'@@#@#@@]####$#b$$$b%$$#^@@$#$$$$_===|[{[,','_,),,')(),),!!)!!!%!;,;!;'!%^!%%^_%#$$##@##]b#$#$$$b+^$$$^@^####+$<===5(->)_,'2'!!),!{,)%!!%%%%!%%^!'!!'#",
"!''<[';[',)')~!([%%^%%%%^%^%^]#^@]#]@##!%%@]^]+^^'3/=&k4_;{{__'''_-';<2<;',',,)'),;',&),,,!~!<&^^^^%@%%^@^@]#]@]#b$b$^%%@]#b+b@<a=/1(<,'__'<',)'-''<,'',)',,),,,''!&_,)~,~!~>!^]^%^%^]#]#]b]##$b#b$]^%@]$#$b#'8n=|{0&'_<,''','-<_;,',!!,,)!!,'!')'{)!!%~%%&'@@$]#^@]@]#]$b$b$b$]$#@%^@$^$b${==/5({(''{',,',''_,;,')~!)%!!%!,,-!'[,%%%%^%<[#]$##]#]$]##$b$#$]$b+b@%^%#@$bb-==/4}ka,2_'','),,{)',~,,%!!!%%!%%'!%(!",
")~'~'),'!!))'),(&^%%!^%%!^^^^@^@@@@#@$]$b#@#^$$$#~>e=>[0{';;__;''_{{-'';}_',,,',,~'));!))!,))'&%^@%^^@!@@@@@^#^@@+b$^+@#@$#$b##~0=/|k[{'''__;2';<_{''2_,,,,))!',!%!%!!!%~!!~>,@#%@^@^@@###@#@$#$$+]$@#^#$b$$#!+t=|[1>~''_;{{'~';;_,,'~,)')!%'~!!!~~%%%!%%%-;^@#@@##^^##$#$$$#$$$]$b#@##@#b#{==/5>{k,'2____,!,2_,,~),)!!%!%!%!%%%)^%%%%%%--^$##@##@#$#$######$$b]b#@@###$#{===03(5',''~'',!,__2)!''!%!%%%!%%%^^~^",
",,),!,,'!'!%!,)!;(%%%%%!%%^^@%^%^^#]]]!]#]#]@]$]@~>//*&5{;{{<{;{;;_;;<,<;'__,,,)),),~~!';'),)%}k%^^%%%^%@^@]%%@]#]]b!]$b$b$b$]#,5=/4>>}-{{;;_{;<_;;_,',''_,))!!,)~)!!),))!!!![,]]^@]@%@]#b]^@]]]bb%^$b$b$]$bb)+8/4|>>'_;;;<-_'_<_;),;''',~~!!,~,!!%!'!%%^%7&_]#^@]#^@]$b$]@]$]$bt!@b$]b]$b${==/5|&3'_<;_;{_''_,,',_,!!)!!!%%%%%%%%%%@^^%@'{^$]#]#]bb$]$]#]$]$]$%@]$]$]#b@{==/4a[12_;_'_<'2,,,',!,~%)!!%!^%^^^%@^",
"8))!',,!!))%!!)!!~[%%%!%^^^@@@^%!%]^!+@@b$]##$b]%<|//4|1(-{}{{-(};;_<_{;<_<,_')!))'!,))!')!!)%!)[7^^%^^@@@]$]%!%]#!+b@#$b$]$b$%_0==4|5{-}{;;;;;;{_<,2,'_<'_,!!))'))!)!,!!%%%%%{_^^]#@#]$b$b^%%^+!bb@]$b$#$b+^,+8/001>;};_'{{__{;<2','_2,,!)%!!)~)%!%!%%^%@%^'{]@]@]$b$b$b#%^^$]#b$]$$$#$#+]-===0||>'{;};;{;''j_';''~)!!)!%!^%!%^%^%@^@^@@^!q%$]@]$b$b$b$^%%#]!b$@$#$#@@$](===4011{{'{_<;}<_),,,,,))!!!!^@^%%%^%@",
"''),',),,)!)))!!!!)'^%%!^%^^@]#^^^#]#b$]$b$]$b$b%{|//550--{-;{--}(;<{{;;_<'_;<',)_')!,,)%!%)%!!!!,^%%^^]@]#]#]]^#b#b$]bb$b$]$b]-4=/000;({};{{;'-{;{;;_,;''_<',)',)!!!)%!%!%,%!%)^^@]@#$]bb$b]]$b$b$]#b$b$b$b]2+s/0|03;;{_;_<{-;{{;'_,_'''',,!!%',!!%^%^%^%^%^!^]#]#]$b$b$b$]bb$]$b$]$b$b$b$[==/0|43'{{;{;{}{_<''_',',),',)%%%)%%%%^%%^^^@^@!!]b]#b$b$b$b$]]b$]$b$]$]#]#]bk==/*15|__;___{{;;')',),,!)!,!!%^%%^^%%",
"_,,),~',,,!,,!!%!~,%!%%%^^%^^@@@]$]@]#]$]$b$b$b]%<5/=150(--;;j-{{{;<{;_,','__2_,),,)',),!!!!)!!!!%)^^^%^^@@$#$b$b$]+b$b$b$$$b+^{*==554{;}o;{-{-;;<{;,,''2',g'),,,!,!!'!%,%%%%%%%!#%@^##b]$b$b$b$b+b$b$b$b+$$]g+o=510>;{;{;;{{<;{;';'''',,),),!!!)!!%%%!]]@^%%%]$]$#$]$b$b+b+b+$$b$b$b+$$b+#-===0141'_2_2;{;_{2_,'!'!)!)),!!%%^%%%%!@%^^@]@%^]#]$#$b$b$b$b+b+b$b$#$#$]$#$][===4>|0_{;_'_{j'_~,,')!%%!)!)!%@^^^%%^",
"'',',,,,,)!))),)!!!)%!%^%%^^@^@]@]#]#]@^b]@b$]$]@<|/=|4:*{{{;{-}{-;{;;;2'<'2,''',,)),,!!!!!)!!%!%)%%%%%^@^^]#]b]$]bb#^#]#]$b+b@;*==|5:03;{{}{-(}<{{;'''<,')',),,!!,,%)!!%%%%%!^%^%^]@]#]b]$b$]bb$b$]b]$b$b$]@g+u=a54e1_-{{{-{-_;_<;<'',<',,)!)!)!!%!%%%^@%^%@^^]#]#]b]$b$b$b$b$b$]#b$]$b$]@-===4>*4|{{;;;};;_<_',<',,,!!!)%!%%%%^!^^@%^%@]]^^]#]$]bb$]$b$b$b$]b]@]#]@]#b@[==/*>4**{;___{_<<''','!))!!!%!%!%%^%^^",
")'<''~,,'~!!)!~!,!,!%%!%%@^@^@]@]@]@^@%^]@]#b#b$^_|/=140:3{(}{[({--;j;{o;<_'',,g''')',,!!%!!!%!%)%!%%%%@@@^#]@#$##]+^@]#]@bbb$^<*==>5**5{}{{--{}}__;{;{2''')2,,,,!))!%%%!%%%!%%^!%^^%#]#@#]$b$b$b+^#]@]$$$b$]g+s=5||45-{{{{-{-}'__{{<'';','!!!),!%%%%^%%^^%^@@%@]^]##$b$b$b+b$b$b@]@]$b$@$]-===ak:40&;}{{({;}__,_;''',,!!!)))%%%%!%@^@^^^%^^^^]@@@b$b$b$b$b$#$b@]^%@^#^b][===*355*3,-;;{}';_',''2,,!!%!^!%!%^%%^",
"'_'''','',,'!)!,,,,)!%!)%%%%^%%%^^^%^^]]@^%^$]$]%{5==1400k&[--((-(}{;_{;;{<<'''__'',',),,,!!%!%!!!!!%%%!^^@^^^@]@]bb^]#]^]@]b]^{*==1040|-{(-(({-(;;_;__<_;_,,__'',),))!!!%%!%%%%^^%%%%@^^]#]#]$]$b#]#^$]#]$b@2+u=51451([((;[[-};;'_{;_'<'_',,,))!!!)!~!%%%%%^!^]@^%^@]#]b]$]$]b]$]$]#]#]#bb[===9k*|0&'(};([{;{;',{2'_'!)!)!!!!%!%!%!%^^^^%^%@^]^@]@]]]$]#]$]#]$]]^@!^^^]][===:k*|0(k{{_-}{{j',)_,,,,!!%!!!%!%!^%",
"';2_;'''',,,,%,%)!)!!!)%!%!%%^%^^@^@^@%^]$]@]@#!%;5/=5e*>5k-[(((([}ok(;_{j<'_'_;',''',)!,)'%'%)%!%!!!%!%%@%^^@]@^@^b%@]bb$]#b]%{:==|4:35;{[(((-}}{[(;2;;;'_,,'','),),!,!,^,^%@%%%^^^%^@^]^]@]b#b]$#b]$$$]$b%%g+s=54e11>{}-{{-{{o}v;'_2;'_;',_,,,)!!!)!!!!!^@%%%@^@^@^@]@]bb$b$#$b#]$b$##]@^[===*|*53>,--{o({{o{[_,',,~,,'!,!,~!%!%%%%%^!]@^^^@^^]@]@]@]@]$#$]$b^^#]]^@@]%[===*1e4[5-{{{{};}''};,,,'!!!)!)%!!!%%^",
"};__<''_',,,-';')))!!,!!%!!!!!%%%^%%%^]%^%%^^%],!(5==*e/111[[-}[(-}}{};-{{__';;;'__',''8,,{;__!!!!!!%!%)%!!!^^^^^%%]]^^^]]]^]7!(*==aa/5|>([[}[--(({;{{{{__',';''',,,,)!)g(8;!7%!%%%%%!%%^%^^@]]^%]^^@^b]@%]7!;+u=a*6*&|(}(((--}-_;_{;{'_,''__','),)!%!![!{%7%%%^%%^%^^^^@^]]b^^]@]]^@^]%^^%3===e1ee30-}[{-}}-(;_;{_;,',,)2))),!!!)%%%;,;!7^%]^%%]^^^^%]^@^#]^%#^^^^%^%%%!1===e|e6>33{(_{{};;_''';',,!))'),!)%!!!",
";{{'_;;_{{;'';_;{)')!!,,%!'!!)!%!^!!!%%^%^%^!!^@%{4/=4*ee*[3(-[k>[3>(({;;{{{[}_{}''''_;{;g,{_{,!,!%!,%)))%!^!%%^!%%]^^^^^]^^7@%{:==55e/e>(k([kkk3>k(-{;{{{{_{<;22'',_{;g)_'2)!)%%%)%!!)))!%^^^%%%@%@^@^#]]7]^'+o=4*ee:1}>[3kk[[>-}{;_}';{__,_',,2''<_)),_''g!%!^%%)!!7!^%%^@^%%^^^^@^@^%%^%[===*146i4;k--[[}[33(k{'2{'_'_'_'))'!)2_,!!_,'_7%%@^%%^%!%%%^%^^^%%^^^^%^%%%@^k===*5:ee4-k[({[-{[3;{'',_2_'')2'!%)!,,",
"{{;;;;;','''',!)_)!!!!!!%!!!%)!)!!%%%!%)!!^!%)t^!(4==**/e/1[[[[[3[{--(}((-{{}{{{;,'{;_,,,'2;,!),!%%!!!!!%^%!^%%!%%^^!!)!^!^!!]%(i==:06:/5;33k[[[--}-{m(-{;{{}<2<{;'<,,)''_),%!%^%!%!!^^%!!%^%!^%]]^!7%%!%]%7^;+u=::ei/*{3k[(k-}(({{-[-;;_;2{2'{{'_!))')<,%%,%%%!^^%%^^^^^^^%%%]^^!7!!%^%!7^3===i0:iei-->(&(;;{{--}[{;_'<_;,')'''!!%!%!%^%,%%]%^^]]^%^^%%%%%%^^%,!!7%!%%^^3===e4*ee:>{&((}-;';;;{-{2',','')!,',)!",
"-{-';';g'~')',,g_<,)!!,,)~'),!,!7%%^%%!%%%^%!g]%){4==i4*i*423(>>33[k3[[{-}[[[[([-'_2_'''8),),~,''!!!,,'!8,!!!!7%%^%^'!%!%^!%)7!(e==*4::::{[(3|33&k33[};;--(([j-2'2'2,%)))!),,~)%!%!!,!!))%%%7^^^^]%^7%%^!7!!!j+o=ie*eee-{[(1&3kk>(({__[-&}[{(''2'~%%!%!~)!!))!7%!!!%%!!%%%!t^^^^%%7%!^%%,!!&===:i:::e>_((1>3[[k3({;{{}-{(j_;!,),!!!!%%!%!),77@%%!7%!)%!%%^^^^@%)!%%^^%_^!&===**4::*5,[-3>[[{((-{'_;}-}(;}'!,8!)%",
"k{[[{}{(}-({{{_;';}})'_{,';_;{;,^!'%%<'2)!!!!'%!%{4==:**:e:1(>{k1>>33[kk{k(((([[-[{}}[-};-',,<_;{;_2'<';;','2,%!',),''!!!!^877%}i==:4**:i0[1&3>w>33[[3-{-[-{&{}[{-_2;'_-;<''_2{{',)<'2'_;;'''!),%!,,,!!!%,)7%_+u=****/e4[3k[>>>3k[[[{}-(;}}[{(;;;{,!){;'',,';{;%!<'2_<'<,'<!)'!!),)7!!%!)!!&===:|**ei*[c3k>>33[k-[[[{[{-{[_-{;;;;;;{_<','''{_!!''',_;<__%%!'%)8''!!!%!'!!&===6a:*ii*>[3'-w3>[c}((<({_{;(}{{';<;;",
"-{{{[;{;;;'_{_;,',',,)',,,,!,))%!%!%),',)%'',<,%,{4==a:**ee*(3[kk[[&(-(([((-(}{{};{2;{;''2;'''',,)'),),,)!,!!%)!!!)%!%!!!!,)<%)}:==04*:::*k->>>33k--[&k-[(({{--{{_;;;'',__',8~,!)!!,~!!!!)!!)%%%!%7%!!,!),;%!_+o=44:4*i:1->k3&&&[k[-((({}{;{;;_;';_,,)';',!!!%)!!!!!!%7^%)!!^%')%!!!!!,%;!!&===*3**::40s3>>k3[((}{--(}{;{_;2;{_2','!,_',!!!%%%!!!!,!%!)%%%^^!)!%!!!,',;'!3===e|:*4e:4-c{(-}{[{{o}}}{{;_g_2';')_'",
"(}-}((}}{[;;({{{{{,''__<,2,,,,,),~!),,,,,!!,~!%!!(4==*:*46ee|}1>3k3>k[[[n3((([}([{;{{};{_;({;;;{_;'',;',),,,!,''!)!!~!!%%!)8%!![e==40**:ie0}13>3>>[[&k([((-k-([(_;{}{-{__;;_;{2<_''{',))!)!!!!%!,))%!%!!!!!!%;+u=****:e::{3>3&3>k3[[([(-}({((}_{{{;{;'_;;_'<_,!,'__,,)%!!,%!%!,',)%~!!!)!%%3===f|44**:0&k>&333(k((((({{(}}{}_{{{_;-2';''';')!~)',!,)!,!!!)!!!'!)!,!~),!!!3===69:44ee*1;1&&[kk(}(}k[}{{{;{-'_;;;;",
"[k>3>(-{{--{}}({_'_'_;;'2,'~,~'),!,!!,',,))%)),!,-4==a:44:e::[333>>k[[[k[([3&{{(>&3(-{;-{;}{};_';'2__';!,)),2,'!)!)!'!,!!!!!,))(e==0*444e:e3(33>3-[[kk-(kk>;(}>3&-{;;{;';;}{'~;'_''_;%!,,!g!'!%%)!,!,%!!!%!!)j+o=da:44i::1->&3>[[([[[{((3;;{3&&{;;'_{{;'{_'~'),'2,;,),)),,'!!%!!,!)%!!!!!%!&===*l*04:i44;1k3>{{-((({[}3{_}[k((;''s{;_'''')g,,),',))!!!!,,!!!))),,%)!!!,,)3===6|*40:e*4-kkk3[(}(}({}{[}'2}k(-_'',",
">|00a04|>13&>1113(---(}----[{[3--;'',;-_,,)',''~,-4==5560*i/40|15:4|1||1|0a|1131000a0|>13&&>>1>-;---;{({;-{(k&-;,<''(')~!,,)8',(:==41e44:6*4115:4|1|1|5045|>>15055503>&([>>>3(;{;;_;{<'-{<[({{,,,,{_)~!))~)),o+u=*wi44:e:4|1>**51||>1501>>&>|0a5|03>&[((&3&[,'_;'';;';}{-&[{,',~;{))!)),,~,3===6>4:4*e:*|5>*45>>>115001>[>1a|510>&&-;[&&&&'_'')''<''_;{[--_','_-,~,,,''''>===/15:0*:e45|&5*0>>11315533((>5a5151[",
"440|a0455045a|01|||5050a050551|551a0000555|5|>>(;[4==a3d:0:eeee44::4404444*|5504a55505aa4501011|1|55a04055|11|51|00|0|5011|>1{;[i==4>5:0*::e:0404*44*a44440504455|a5|a450|5||1||||5|05||||1||||55555|511|>1&{-+o=*>>644i6e6*04***44500445|54455|05|50501|5>>1111|1a05||11>5|1505a5|a51|11k;>===:1>f0d*:ie40444*044a4004|544|||a5|105||15111>11||555|5|1151||050a5||15||>->===6|k4:0*6e/:40***44000440||a4|5|aa||",
"**4:***:****4*44444*4*4*0000a055|000a05a4400|513310==i4*e6e66/:e:::::ii:::*****44*4*******4*04444*4*4*400a5055|4045|5a440a|51331:==69*66i6e///6e*:::::*:**4**04*:***:***440:44044*44004a5005|444505a4400|51>k&+u=/4*i/e6e/*e6e*i::::*:*****44*:**::***4*0*040*4*4400005a5||004a0aa04405513[0===/4**/i6e/:e:i::::i:::**4**44*:*******4*04444***4*400950a5|55405aa90a4a5|134===/44:/i/e/eeee:::::::***4*440*******",
"/e:e=///=e///ee6/666ee//6e//6eee/6:::4**::eei*45a4:====///=/==//=/=/=/=/=/=////efe=///=e///eie/666ee/6e6/6666e66:::4*4::e:::4|a4/===////=/===/=/=/=/=///=////eii=6//=i6//e:e666eei/666/6/66e/e:::**4::::::4|0|+u=/////=/==//=/=/=/////=////ei:=///=e6//efe66/e6e//66/6/e6e6e:::*:4*:e:i:4|0/===/////=/==//=/=/=/=/=/=////6i:=6/==e///eie/6/e/6///e//6fee/e::i4*4*eei6i*5*====/////=/==//=/=/=/===/=/////e:=6///e",
"==================/=====/=====/=/=/=/=/=/=//e//////=============================================/=====/=====/===/=/=/=////e//=//====================================================/=====/===/=/=/=/=//e////f+v==================================================/=====/===/=/=/=////e//=/=====================================================/=====/===/=///=////6//=========================================",
"=============================================================================================================================================================================================================* u================================================================================================================================================================================================",
"=============================================================================================================================================================================================================f v================================================================================================================================================================================================",
"5|5|5|550*=====44044444440400505a55555555|5|5||||5000505000505055|555|5555555|555|5|550e====/44040444440400505a5555555555|5||||5000505000505055|555|5|555|555|5555550:====/0404440444040050505555|55555|5|||5|-w0505000505a55|555|5|5|555|555|55550e====/4404044444040050505555555555|5||||00005050005050555555|5|5|55555|5|55554/====e4404444444040050505555|555|555|||50000505000505055|555|555|555|555||5550/",
"^77777%77'>===[;-&(-}-{--{{;_;2<'','',,,,,),~,_'!,)))~)!%!!!7!!!%7%!%!77%7%777%7^777%!7'0===>--(---<<;[-{{'''_'''''',',,),~,,)!)!)!)!)!)!!%!%!%!%!%777^7^7%7!!^778%!7'0===|--({;{({;{{{<'<'',''',,,'~~))~,~)!),~!,!7%)!!%!%7%!%7%777^777%7%7^77!%)7g*===5-(({(}{{;{&{;;<'''',~,,,',,))~,)!!!)),,))%!%!%!%!%7%777^7^7%!%7^7%7%777%2e===4{{-[({;;{{-'{{<''''''''))!~))!)!'!!!)!!!!!!%!%7%7%777%777^777%77!%7%!7!%2",
"]]t]^]^b]^;1//{'-2_;;2{;_';'',,'_,,)'),!,,,!!!,!!))%!%!%%!%^^^%^^]^]%^%]]]^]]]t]^]t]]bt]<*=/&;(;;;<,___2{',,'{{2'~'~,),)~~!%!%%!!!)%!%!%%^%^^^^^%]^^]]t]]]tb^]t]]]^]]]{/=/>'-;{,_{_2'';'',,;{_),)!)!,,'!!%!%%!)!!%%%%%%^%^^^^^^]]]t]]]t]]]]]]]]]^%t](==/|__2-;;<_',2;_',,;-<!))!!!)!)))%!%%%!!!%!^%%%^^%%^^]^]]]]^tb]^^b]]t]]]^]]]&==652'{',;2'2<''2',,,;',!!)!!!%)!%%%%%%!%%^%%%%7^^]t]]]^]]]^]]]t]]]t]]]t]^^^]",
"]t]t]t]t]!<14/{-1'_;___<'_&kk&;<<',,,,8,!,<{,!!!<{;<''~;'!^7^7^7^7]7]^]7]t]t]t]t]t]^tt]!<|/=[<3';;____''[[}&({;<,,),,)!)'{')!!,<<{'')<_!^7]7t^]7]t]7]t]t]t]t]t]t]t]t]%{/==>'>{;;_<'_''}3([}<;_,,))))))!''!%!!-~<'~)~~)]7^^]7]^]t]t]t]t]t]t]t]tbt]t]7-===|<_';<'<'_'';3{[-''_,,))!)!!!__!!%%{)<''!)~,]^]7tt]t]t]t]t]t]t]t]t]t]t]t]7(==/5<{>,___'<'''&-[(<,'~~!)!)!!!'')%%^''<~~!)~~%7]t]t]t]t]t]t]t]t]t]t]t]ttt]7",
"^^^]^]t]t]'>4e[}|{;'{(__;2{--3;';'',))','~)~>[',-<{'~!!,!%!%!%%^%]%^^^^]^]^^t]^]^]^]tbt]<1//&;[';2{[;2;__({>-'_'',),','!,!(-<~{<;_)!!!!^!%!%%^^]^]^]^]t]^]t]^]^]^]^]t]<i=/>;>(;;;-{';2;-{((,'2_'',,),!)!-3{)<{'~!%!%!%%%!%%^^]t]t]t]t]t]t]t]^]t]^]t]-==/|{;'{'_{{,_''_;(k~'',~,))!)!)!'[{~'''')%%%!^^^%%%]t]t]]]t]t]^]^]t]^]^]^]t]-==/5{-1;j'_{'2''_-;3))''~)!!!)!!%)3[~,'~')%%%!^^^^^%]^]t]t]t]t]t]^]t]^]^]^]]]",
"%7%%%!^t]7'1*=>(5{{{-[{__;{(<__2-{'<''___,;<{3{<,,,,))!!!!!)!,!!%7%7%7%7^7^7t7^7t7^7^tt7'|/=1->_;{;{-'_;{&-'[;--'{'2''_,,;,3[<)~,,)!!!%!%!!)%!%7^7^7%7t7t7t7t7^7t7%tt7_:6=|-1[{--{-;_;_{_,{;_-<'~'''~,,;'[k''')!!!%~!!%!%7%%^7^7^7^7t7^7t7t7^7^7^7tt;/==|[{-{{-}-<'__}(,;};{_,,,~,''%<)_><,~))!!%!%7%!%7%!%7t7^7^7t^t7^tt7^7^7%7]7-===5&}|_{o{-{'__{}',_,-<~,,!,),!2~<3{!!!!%!%%^7^7%7%7%7t7t7^7^7^7^7^7^7%7%!t7",
"%!7^%^7]t]'>:/1[|;({{--;;;__-__;{-;_2_',2',)<}'!,~''','!)!!~)!!!!%!%%%%^^%!]t%7]%%7^%]t]'1=/1[[;-;;{{;;;__-<-{{(<''''''',,){(!_~<~'~')!%%!!%%%7%%%7^%^t]!tt]^^^]^^7]t]<4tf|3-{;_--{;;;;';<;;;}_,2''_'_,),_-%2~'!,)~!!%%!%^!%%^7^^^7tt]!]t]%]^^7]^^t]!r=/53({_;}};_;<;';{<;;;;'_,,,~~,))~3!,%!!)))'%%%%%^%^%^^]7^^]^]7%t]^]7^%^7^t]{==/53[>_{<;};_'_,'{'g'';~g),!!),!!,;'%%!!!!!!%%7^!^7^%^7^^^7^^]7%t]^^%^%^%%^]",
")!%7%7^tt!'1:=>[|{{{;{;;__{;}[{<_;;;'_''_[;&,[&'_<_'~_--!!%!!)!~!!%!%%^7^7)7t%!!%%^7tt]7<|/=13-_{{;{;};<_{}(___;;_'_''';}(''['_;_'~''-!!%!%!%!%!%%%7%7^777]7!!%7^7]tt7_e8f|[-;{{;;{(;__-_[_;_;''__,'_{('''><',)',,~&!!%7^7%!%7^7^7t7t^t7t7^7%%^7^7]72/==5&&(};;;;{'2_}_[';'2'2'',,,,{;-~_{'~!~~~!;,7%7%7%%%7^7]7t7]7t!^7^!%%%7^7]7-===a3(|';___;'',_,{}_,''',,,,!,{2[!;3)~!~%!!<;7^7%7^7%7^7^7^7t7t!%t^!!!%7%7]7",
"!!!%7%^]!%{1:/>[a;--{}(-<'{('{-;}-{___',;{;{2;>,''_'_2[>!!!!!!)%!%!%!%%^7%7%t]!!!^^%7b^%{1=/13&;{{}-{{;2{(;;{;{-;'___'___;{'&''''<_';&)%!%%!))!%%%%^7^t^7^t]!%!%7^^]t%{:pd|[[{-{-;{({;{({-(;{<'_;,',';_'_'{''),~,)'1'%%^7%%%7%%%7]^]^]^^^]t%%%%^7]t^(==/ak>({([;{{;_;{-_{;;,<<_,)),'''')2-,!!!!!)--^7]7%7%%%%^7^7]t]7^%]t%%%%^%]tt[==/43[1'{{;{}}~,'{'-;';{'')'!!~'''%,3)%!!!!!{>%%%7]%%%^%^7^t]7]^^%]t%!!!%%^t^",
"]!%7%!77^7'|:=0>|--[}((({{;-;{;;-({{_;2{_<_;''','<,;2,'>_!!)))!~%!!!!!!!%7t77,t!%!%7^7t7_5/=531({(--}[-{;{{{{{(-;<_;_<';_,,'',''!''),>-!%7%!%!%7^7%%%!%7^7t8%7%7^7^^]7<e/64|k&(};--[-{;;{--{{<'{;<'',<';_',,'<,,)!~}[!77%!%!!7%7t7%7%7^7t87^^7^7^777-===a1&>_---}[-;';{{{<'';{_,,',,,',,),!~))!!!;3,t7%7^7!7^7t7%7%7t7%7!7%7%7%7]7(===a531_-}-{-{;_<;{_',{;;,,,))!)~,!!!%))!!!!,[<^7%7^7%7%7t7%7%7%7^7)7%!%7%!t7",
"!%7%%%7]%%;1:/e||{-[-}-([(-}{{{_;{{<{_2'''_',,','_''',)'[{!%!!!%!%!%7!!%%%77t!)^7%7^7t7%;5=/:11[-k[(-}-((-{{{{{;;_;2_'''2,'~,,'<,),!!'}{!%!!7%7^%%7%!%7%777t7]7]^t7]t%;:=/*41[{{---(---;{;{;_'_''__,,,''',,~,;,!!!!7;[8%%%7%%%7^tt7%7]7]tt7]^]7t7]t^-==/4533{({{{(({};{;;_'';_''_))!),))!!)!!%!!7!'(,%7]7^7^7]7]7%7]7]7t!%7^7^7%t^[==/4*|>_(({{;-(-;{2_'''_''',!!%!!)%!%%);%!!!^8{}t^t7]7^7t7t7%%^7^!]7%%^7%%!7%",
"!7^7%7%7!~(5:=00|-(-((-k3k(---{-{{{{;{;_'_2-__;;';'','),,[')!)!!!!%7%7!~!77't!!7%7t7%7^~(0/=450[((-(--([(({{{{;{-{_<<_g''{'_2_'''')~)!!{;!!!%!%777%7!~!!^,t7t7^7^7^7t!(e==004[;({-}--(-(({-{';_<__2;'',<2',,)!))!)!~)_[!%7%777^7t7t7%!^7ttt7t7t777t!&===4a51}[{-}----{{}{;-;2<2'''!,,',~!!!)!!!!!!~,}!%!%7t7^7t7^!%777%777^777%7t7&===*5a1;-{-{-((}-;{_;;<';''''!!!)'!!,)!!!%7%7%!{;^7^7^7t7t7t!!!%7,7t7%7%7%!t!",
"7^7^7^7^77(5:/540{k}--([(}(--{{(({}{;2;<;2;__';;<'_!)!_'',,!!!,%!%%%7%7%7^777]7%7]7^7]t7[5//000-[}-{-}-}((-{{}-{};_2;<__'';2''_),,,,,!,,!%!%!!!%7t7%7]7^7^t]7^7]7]^]7^[e=/4|0-}[-{---}-(-j{{{2;{{'_<_'))_,,)'~))),)!,!!,7%!%7t7tt]t]7]t]^]^^7]^]7]7^&==/9|43;(}}-}-[}}};{;{;;<;,'',,,,',,!),)!7!!),!)87%!%^t7]t]^]^t^]7t7]7^7]7^^t&==/*|4|'[{{}-(;;{{<;_{j_2_!)~)!)))%!!,,!!7^7!!%!!7t7%7]^]^]7t7]7]!]7%!%7%7%7%",
"%!77%7^7%!}0:=a*03(v-[(k[[(---}}{};{;<;;;;__';;''''','''',),!,))!!%!%7%7^7%7t777%777^7^!-4/=00*>([-(-(([-((};{{}{{____;;'''_'',')',',,),)!%!7,!7%!77^7t7t7t7^7^7t7t7^7-e==0041(v((-((k((({;}{<;;;<''_;),)_,',,,,),!)!,!!%!%!^!%7^7t7t7^7t7^7^7t7t777[===4545}[---(([{-{{;({;_<'_'<;')8)'~)!,!)!!%!%!%7!7%!77%7^7t7t7^777t7^7^777t7&===*|40[}}}--([}{;{;;_'_','),,,))!!)8!8%!7!!!%!%7%7%7%777^7^7^7t7%777^777%!7!",
",%!%%%777%{5e/|*4e{-[(([[k({(-((}}({{;;;;;<__;;'2'''',',''',)))!)!!!!%7%7%7%7^)%7%7^7t7%-0=/|5*:>([([[[[[{(-}{-}}{{;;_;;;;'2;'_,,,'~2,',,)!%!!!%%%7]7^7t7%7t7%7t7t7t!%(e==55*e|;k([[k[[{}}}{({{{}};_;'2'2__,',,),)')!!!!!%7%7%7^7t7t7]7^7t7^7%7]7t7%[==/410:0(--(-[;-{{-{}(;{{;;_;;'',''')~!!%)%!%7%!!!%7%7^7%7^7t7]7^7]7!7%7%7%7%&==/*>:0e{}-({(-[;;{{;{2;_2'',',,!)!,,!!!%!%!%7%!%!%7%7%7%7^7t7^7^7t7!!%!%7%7!",
")!%!%7%77,{5e=1:4*3[[k[&&[k&[}{-(([-};_q}{;;_{;j_;'''',''',<~,,)!!%!!!%!77%7t7%!77%777%)-0/=1440>k([[[[[[[(-{-(-(-{{;{_<';2_'_22,'''',''!'!!~)!!%7%!77t777t7%!%7t7^!7!-/==5a*:|&(k([[(k[-{;}-}{{}{;-;;_;{<,'''!,,,,,)!!~)!!!!7^77!^!77t7t7%!%7%777t![===0|4*13{[(((([&({;{;{;(;{__'____2,'2')!!!!!!!%!!!!!%7^7^7^777t7^777%7%7%!^7&===*>*4*>}[((([{[(}___{;;';)'_',,))',))!!!!%!%!%!,!%!%7^777%7777777%!!!%!!!!!",
"!^!)!%7t7![0e/5**4>[3kkkk[&[([;;}-({({{;{{;{;;{;j__''',,',',,,,,,,)!!%7%7%7^7%%%!%77!t7!k0==0i451[(k[k[[3[}[-{-{{{({{;{;{{_';2_2''8,)),8,!!!!!))!%!%7%7%7]t%!%7t7%7^7%[e=/aa*50[[[((&kk(((-;}{}{};;{;_;__,''',''!)!,,%!!)%!!!%7%7%7%7]7^7]7%7^7%7^7%&===05e1a[-k[(3k-(({;s{;-};;_'_,',','),,,,!!!%!!!%!%!%7%!^7%7^7^7^7t7%7%!%%%7%3==/:1400>[kk([-([(;-2;_;;_{_,,,',',,,,)~!!%!%!%!%!%!%!%!%7%7%7%7%7]7!!%!%)!7!",
"!!!!!!!!;,[0e=0/:14>kck&>3k[}k-(-[(q}-}{{{;-{{;_'<_{,()',''','_2),,),)!!%!7!7!!!!!7!%8{'[4==4/e30|-3(&kk3&(kk[-(((}-{{;{;{__;{__'{'{,)),,,!,,~!)!!!!!!77777777777777,'[/==5*e|51[3[[[&kk([3[}-{}}}--;{2;_2'_,',',2_!,)!!!8,!!)!!%!7!77777!777!777!,'3===*:e0k*}k[(&&([--}{}{}{{{;;__'2_',',,)';,o7!!%!!)))!!%!7!7!77%!77%!%!7!7!!'>===:5e:&4&[[[[>[[}{}}{{{{;;_<,'''_',')))),8}!%!!)!!!,)!%)!)7!%!7!!!7!!)!!!!!,",
"!!!!)!!%!,[0//*e/*5>33&3>>>>>[(-kk[(({-;;;--{;;;;''}[{-_',''''_,)),!)!)!!!!!7%!%!7!%!!8,[4=/*:/*0>(k>3333>>({}k[[(-({{};{{{__;;'_;3;(;'!)))),,)!)7!!!%!%7!7%7%7^!7!!!)ke==4:ee0>&3>33>>3>k(}---{[{-;{}_{{'22<,,,k2{''!)%),,!!!!%7%!%777%!%7%7%!77%!)3==/6:ie50{kk33&331k(;-}[}--{_-__;{'''_,))(;}'{!!!,!!!!%!77!!%!%7%!^7%!%!!!!!)>==/e0/e413k&[33>&>k-{;([{;{__2;'2;,,,',)!_(;2_)!%)!!!!%!777!%!%7%)7!!!!!!)))8",
",','8,,!!'[*/=4/e/e>>1k33&&>1>3k3k[--[(({[([__-((-;{{{u-_{__;{;_;;'_)''''',,)'!!))),,,7'k*/=**e/e>[>>33&[3>k(([[([([}[-[(-{{;-(-_<{j;-''',,__2,'2',''',~),!'),)!)')'7)k/==*:e/e5[111>ckc>3[([-({{{{[_{}-;{;{[[;____},,,,),g'!','''g,!!!,),!)8),8)'!)3===**:/64}&3>k3[k33[[[&--{(((;(-{-{;'{{2'';';;,,,),'g82'','),)))~,!)!!,,8)'!)>===*06/e:[3>([&[&&3[c(k(}2{{};}{{{''--{_',__;o,'')'_''_'',,,',,),,8,,),,,,',8",
",!!!_!',g'[4//6i6ie1(3&1>p&3>3[([(k(([k([({(};-}{j{}}}-{-;__;;;;_,,,)!),',)%!!!%!72!',,,&*==64eie0->31>>>333&(([[([[[([(-{-{{;{;;}-;;;};2''2;2,,)!)!),,!!^7!777%!!)!!~3e=/:i6ee*{n3>13&k&3&([[[(--[(-};{{;{;{;;{{__'{{2,,~_j'!)!)!!!,%7%77!!!77!,_'!>===i**eeek-3p1k3k3&k[-3[(-}(}(}-_}{}2;222-',,;;'8',',,!)%)!)!,))%77!777!'),!!>==/6ieei:>{n[1[3([[3}q}-}{;-}{{{'{;;;{,'';2_g_22,'~'';')!)!!!',)!!7,7!7!2,,',",
"~!!8!'{,'<(*/=/:*e:*[1>w11||11>>33k13>3>33-}-k([([{{_-(([[-};(}({}-{;{;g)',,'<,!78!,;'''[:==6::eee&w1>111|>13>33k3&331k[({k([[[((};{{{{[-{;}--__;{';;g!'!8,;,!787!2'!'&/==66:ee/>[13w11|1|k>3k(w3>[>k3[;}-(}-(;;_<{}_&[;;{({;;;;2<{;!,!!)!!,7877,{8,3===:i*ee/|[1[31>1>1&3>>3k3k(>3-(;([(}((({;__;_(({;;{;{;';;';;!,,))'_'!!!8,-!,>===i6**:*0}>>3>>111133[[[>k[[k&[;_{--{-{2''2-_;-{;;{;o<_{_;_;,,g,)'<'!!),)','",
"{_{,8'-,,,-0//0:*:e:4>1>3>1>>>>x>vk[kkk[[[3kk-[[(}k[{};--{;(-{};_;','{;2';;''{{_!'_,{2',[4==4:*:e:*[1>>>>>>>[[k[k[3k[[k(k([-(--}(-}{_}}}{;{;;;_''_{2';2,''';;_''',o;8,[e==44*:6e:1w>331>>&>&k33[&[[}((>k{[[{({k{-(};;-{{_';2;;_';'};,'{,),'''';)~,',3===*4:*e::13n313>>33k13>-(}[{kkk({{-({;}{};({{{{{',_;;2;__2_,'g;''g;;<_','{',>===i1:*::*53>>k>3>&>33&--[([((}(3(}{-{;{((_{g{{;'-;<;;'<'''{_;'{__'};;,__''_'",
",'',,_;<)_[4/=4ii:ee:3>11>>1>>333k[kk3kk&3k3k[kk[[([-(((-}_{{{;{''),'','_',,,'8'),)<'{!<k*==*i::ee:1311111>>33k&kkk3k[k[([[kk[([-};{-{{{;<;;{{2',,,,,,!)',)'),),),,;,'&/==**:::/:5[hw|w13>>>[33kk3k[[[[k[[[-[}}[--q{;{;;_'_<''),,,)!,)),)',,')),!,__>===**:*:6:4-1w>[>3>33k&k([((((3(--([}{{{-{{((}{{;;__<_',,,,)',g8'!,,,,')),;_'>===e4:i*/e:k>>13>>>3&[k(-[k[[([[[[[-[-}}(-{{{;{;'2_2;_,),,'!')_,'!,','',';;{'",
";<_'_',,<'[0==4*44ie:|(xw>>>>>3&kk3kk(&k&k[-(([((-((-{}}((}{}{[}{__';__'_;;,';_{_'_'')__3*==*i*::e:4[1>w133>33k[3k3[[[kkk-{([((--;;{{{--}o{{[};{{2;_;8,g_,'_'2__''')2'3/==44:**e:*->w>>>33>33k3k3&([k[(-}((--;-q}__;{}{;{{--;o;;;';,''<_'''2;,'2',;'>===:d:4*:e:>k1k3n3>>33k3k[[}(([[};;}-({-;};;_}}};{{};2';;__;'''_2,'__;'''2,''>==/ea*4*:e4|{13>333>k3[[[[}(-([(;;{{--;{{(;{_;{-{{_{(-_;;_<_',,;;,,;'{;;__''2",
"'',''',2_;[4/=4::*:6:*3>>|5|31>>>>11&33[3555>13[[[[3k3[(;-{{;{-{;;{{--;_'2;,'v22'',,,'';k*==4::*:ee*|>15a|31>>3>>|>1k[3||5>13[(---(&[[;;;{;;-(_<_;;-;_,,;',},',,,,)2'<3/==*4e:*ee:|&>11|k>>>3>>131k[[1|0>>>(--(&([(-;<;;'{{{2_';_{<<,,_2){<,,,,,)''_>===:a6**:e*4>11a53>>>&>31&>&-(>|51[3(}{;{{-{-;2__'{;;2',;_{;<',2<,{{',,,','_<1===6a::4:e:4&3315&[33k3k>3([({3151[[[;{;-(-}{;'{{_;_};<'_2{;;'';;,_}';<'',''<",
"k[[(3&[;;{30/=5|60*:e::40*::*04*4*:**55044044*054550|55|1>1>1>111>|||||1>k>333&[[-k[[{;_34==01i**i/*:4**i:*04444:*40504040440540|||a551&>>>&>1131111|1>k3&33[[[{([[};;3e==*>**4*ie:*40::*4*4*4**45|504*0444|051||1|||3>&3333>3>11>1>1k3&33&-[{-[[(;_>===i>0i***:***4:::44440:**a5|4040444|551>1|5||&&k&&k&>&3>>3111&3333&(k--[&[-;1===/1|i04:i:**5**:404*a***4|1504040*1|513|>|1133k&3&&>&33>>11>3>>>3>(&[[[3&[{",
"4*0000a1>>>4/=4|*:*ee6ei:44****:4404400*:*44a44**:4*44a5004******0505a544*4*4*44400005>31*==*|9e*:eeee:******:4449044*::40a4094:4*440aa404**4*440405504*44|0444000a5>3>/==:|5e**eeee:*4***4:*4044004*:*4a40*4:4*40a5a004**4*4:4900|04444044440a00a|>1===ea|:**:e6e:*4******4440444*e4450440**4440550044*4*4*4a||5a0**40**444a00013|===ea1*:*iee/::44**4:*40000044:4000044****090|0a*4*4***405555544***4*440404|>",
"*4**:4*l11a4/=/666/////e/////////66/eeie*4ee6e/6ie6*e4:ee:e/eie*****:*44i:*444*******5110:==/666////=:6/////////ee/e:e44eeee///e6*e4eie:eeeee:*4**:*44e:*45a4******51|4////e/6////=://6/=////eee/e:e*9:/ee///e6*i4i:e:eeeee:****:*44:e:4004***:**a1|:/==/e/e=///=:/66///////6e6f/6:4:/ee//ei/*i4*:eiieee6:****::44:::4004***:**01|/====e/e=////e/6////////ee/i/6:d*/e6/e6i6*:4*eei:e/ie:****::44::*4440***:**015",
"6/6/eei/iee/==============================/=====/=/=/=/=///=/==/====//==///6e/666/6ei/:ee===============================/=======/=///=//6=/=//=/==//==//e/e/e6//eei/:e/=6y============================/=/=====/=///==/6//=//=/==//==//6/e/ee//eei/:e================================/=====/=/=///==//=/=//=/==//===/e/6/e6///:e/e=================================/=/===/===/=====/=/=/=====//==//6/e/e6/=/ee/e=",
"===/=/=/===================================================================/=====/=/=/=========================================================================/=/=/====/g=============================================================/===/=/=/=/=6/========================================================================/=/===================================================================/===/===/====",
"========================================================================================================================================================================/b6========================================================================s*===========================================================================================================================================================",
"eeeeeeeeee///////////e/e/e/e/e/e/e/e/e/e/e/e/e//======/e/e///////e///eee/eeeeeee/eeee:ee/////e///////e/e/e/e/e/e/e/e/e///e////======/e///////////eee/e/e/eee/eeeeeeeee///7d//e///e///e/e/e/e/e///e/e/e/e////======/e/////////e/eeeee/e/eeeee/eeeeeeg:////////////e/e/e/e/e/////e/e/e/e////=====//e///////e/e/e/e/eee/eeeeeeeeeeeee///////e///e///e/e/e/e/e///e/e/e/e/e//=====//e/e///////e/e/eee/eeeeeeeeeeeeeee",
"[&k&[&[[[[[&&&[[([[&[[((((-(-(-(-(}-}(((-}-(--(&>e===*1111>1>111>1>>3>&&&&&&k&k&[&&&([[([&&&[[[[[[[[([-(-(---(}--(---(}}{((-(&1====:1111>1>111>13>3>3&&&k&[&k&[&[[[[([[&[&[[[[[[([-(------}-{(--{---}-}((-(&1====:11>1>1>111>1>>3>&3&&[[[&&&[&[[([[[[&k&[[([[[([([------{(--}-}-}---{((-(k|====:>1>|>1>1>1>>3>33&&&&k&[&&&[[[[(((([&[[([([[[([((-----(---(-(}(---({-(((ka===/:11>|11>111>1>3&>&&k&&[[[[[[[[[(&[[",
"''','~'~'~'),~'!)!!!)!!!!7!777!77!!777!777777777)(*=/({(k(-({{-[(-{___{_;;2__'','''''',!',,!)!)!)!!7!!!777!7!7777777777t777777!&/=/3{([-{}}{;}}{{<__;;;'';;,',',,,'))!~,!!,!)!)!!7!777!77777777777!7777777!7!>==/1-((((--{-{k}{<;_;<<2',,,',',,,~'8!),,!!!!!!7!7!7!7!77t77777777777t777777!1==/5{{-(-{{{}{(;;{{'___',2'~','~,!,)!!!!!!!!7!!777!77777777777777777777777!7!|==/0{;-(-{-_;{({{_'''_''_~',,!)!,!,!,7",
"''_[{''<'<{;2<<<;<!8!)!8!)78!)!87!78777877787778!-1e/&{[{{{-{}--{&(-;-k&;_'<'','_{{;,','{{''2<'{')!87!!8!8787!7877787778777878!-4=/>{>(3;-{-};2[3[;{[&}''_'',''-(_~~)'{;_'~''<',!!!87!!8!!787778777877787878![/=/|;[;(;-{{--{[k({{[&-,,',','';<<,',)2-<''<'''8787!7877787778777877787778777&==/0{[k(;};{{({-&[-;{&(',',,,,)_-;,',)2;',,',2'87778787878787778777878787!787&==/4-{-{;{;_;{;;[({_{[-',,,8))!,';,8!8",
";'_{[{;''-(k{{{_{_!!)!)!!7!7!7!777!!!77777777777~{|:/k-n<{{}[{{;{[&&|(;{{2<2_'''''{[;',--(-<<'{<87)!!7!7!7777777!77777777t777t!-0d63{1[{-{(}{;;[>[1[}<;__'_''''_}(_')'-[-<'~;_,!!7!7!7!7!7777777777777777777!{zs=|{3}{{{-{{{{{3(1&';{__''''2g,_-{','({-_<~'2,!!7!7777t77777777!777777777777-/=/5;k1;{;{;{;;;>-33<;{__'_,,,,,_}}',!{<['<~,',777!7!7777t777777!77777777777!k==/0-;>'{;}}{__'([[1;,{'',',,!,!,2(',!",
";{'<<11(-&-{'<'''',','',)8!)!8!)!8!)!87!!8!8!8777{|//1&12[-k3-{-}-&-([{}-{{{;;_{'-_15&{---_''',,)',,~,)8!8!878!8!8!8!8787878787{4=/1(1&[([3-}-{-[(([{-}{{<{;_;'{'[|&{-{;'',',,),)',~!8!87878787878787878787872+t/5k1([(([[{;;{--{[{}-{-{___;';'{51{-_'',,',,!)),)8!87878787778!87878!878787[==/a[&1-((-({{;;{&_(;;{{;<__'<''<<>>{-{{,8,,),)8!8!)!8787878!878787878!!!8!87&==/0k[|;{}(&{{;{{[<-;_;{'<'',,',_'35(<",
"}-';;{1{(-;'__<<',',''_,',8!))))!7!!)7!78!!7)7!7!<|/=|[1{-k--(-(--k-{k{-[;-;;{{;__{;>[;,<<<''',,,,'',!,!)!!!!,8t!!87~!!!!7!777!<4==531&[([([}{;{[[{&{;[}};;;;;{__'k3<-;'_';;,,,)~~~!)!!7!!!!!78!77!77!!7!7!t7'+t=a[3k([[-}-{;{((;-&-[-{{;_{;{{_2{1__''','',))!~!))!7!7!7!7!77!8777!!!787!77(===51k|{-[[[[{{;-[;}[;[-;;_'<;{)'_;1;;;~))),'!!7!!)~!!!7!7!7!777!777!!)7!!!77[==/01-1;--{;-{({{-{'[_{{,_','',!,''k&)",
"{{[{-}>({{;-{{;['2,'_'',,,),),!,)8!'!8),!8!8!!78!;1//135-[-([--(--{&(}{-[{{{{{{{{;--(-,;{-;{<{''8,''~,',))!8!8!8!_!8!8!,!878787{4=/|>>3-(([[{-}-;[[-{}}{{{;{;{{;({{1'-;;'{;{{,!,',!,)8!8!878!87')778!~!8777872+z=5[13-((((--}-;(&;(-{-;{;{';{-{{;&,;'''''';,)))8!8!8!878787878,87!!,!8!8!!7[===a>&>}---[{-{-{{&{;{;-{;';''2(;(_&;_,,'',,-,!87)!8!!78!8787878'87888!8!)!87[===4331{-{{(;{{{<<[-_<;;,2'''',''{;{-8",
";{--1;[>({{{;;{&3,')'''2_',),!))~!!)~78',~,!!7778{|/=1>*([[--{--}(3-[{--({{{}{{-;_3-{&;;{{;;<(>8,!',)~'))!)!)!)!!7!7!)~~~7!7778-4==5>3&([--{-}--3{({-}(o{{{;{{{;>{'1({<;{_;;|',!,))~,!)!!7!7!7!7877!,!~!!7778;+s=5301}({-{-{{{3{(--;{;;{};__{;-[__{{''<2'~>o)!!!)!)!!7!7!777!7)777,~~!!!!7!k===0>k3{-{{{{{{{[{{-{;;<;2;2_~_;{>'{>;'~'~,,(3!!!7!!)!!7!7!7!7!78777,~~)!!!7!&===4>>4;(--;;{{<}[{-;_;;''_'',_,,k-,&'",
";(--(-{[<{{{}-{>1,'<''';'',',,,,)~!,~8!,!'!8~878!-|//5>*k-((([[({(&3&[-k[[-({-{-;{}{{3;{{{{-{(12)',,,'_8)'8'!8)8!8)8!8!~!8!878!(4=/0>13[[[([([(&[3[-([-}--{{{{(({;;-;{_;;;;-|{!,,,),'8,,!~!8!8!8!8!8!~887878!;+m/4>0|-([(&k&-[(3([{-{{{{}{;<{{;<'{{;'22'''3[!8)8)8!,!,!878!878!8!8),,~!8!8!3==/413>{([([([{{{[{{{-;-__{<_';;_;'2{''2'<''&1)8!8!8),!8!8!878!87878!,8,!8!8!>==/*1>4(;-{-{({;{[[[{{{{;__''''',2,'('",
"{{}{{;;;<{;~;;;23[,'','',)'~,,'~')8!!7,),,8!8!878;5/=*103(kk[[3k[[3k[[(kk{--{{-;{{;;{;;{};;_{'>>,,,),),,,))!,!,!!787{!8!!787778{4==*|13&&[[[[[[[&k[--}-{(-{;{;{{;{{;{;{_<'_2;32!!)~!~,,7!78!8!8!77'~!787!!87!2+v/*01|([[[[[&[(kk[({{k{({{;;<_;{}<'_'-_2,',j1}78)878!!!87!!8!!787,'8!)78!!78[===00>1{[[k([k({((-{{;-;{<{'_2_'',,,,!''~8,),([7!!87!!87!78!!!87!78',!,!)!~7!k===44>0(}(({(((-((-{{'-{22_,'',,,!,~,!",
"{{;{}{{{;-{<<;_;'[3','<_,,,,,,g'''!'_8!,!8!8!87''[5//:50>3k>3k&3&3[&[[[[[((--({;{{{{{;_;;<_<;';(>;)'',8,)8!8!,~,!8<8!878!8787,,[*=/:50&>33k&k&[&[k([[(-[[-((_;;{{{;{_;{<'''',_3{!8!8!8!8!8!',~)8;87'!8787878,{+m/*00|k3&[[k3[[k[(-{{-[[-{;'j_;{{;',_{;''',!_&[,,!,!8!8787,~,!8!878!8!8!8!8!>==/*051(&n[k(&(([&[([-}-{}_<__'''_,',,''8,),)8{388!,!8787878,~!8,o78)8!8)8!88>==/*455k[[[[([[[[--{{{{-_;';_')',','),",
"-{{{[}{{{<{;{;;__<({,''',,,))!))2')8'7)!87!787!!'k0/=0403k3kkk3333k([[((k-(((}-o;{-{{{{__2_<_'''{(,,'),))!)!8!',8!,787!787!787,&:==404k>>[kk&k[k&[[([---(--}{;;{{';,2''''''_'';(,!~))!!!87!!,~87,77!87!787!7)}+v=4001[&kk[[[kkk[3[[[---{{;;;;2;{{'''''',,',g'_'!~!!7877787~,,7!78!)!87!!87!>===4501(3[([[[3k(([}k({--;{;;_2''<',2,,',~,)8!)o{7!!87!787778,'788778!!!8!)78>===*a00-[[--[[3[[}{{-_;{<_;__',)'_,)',",
"-v--{-(--[;}<<_;{{{',_'',2',),)8!8)~!,,8!,)8!8888&0/=04*&>&k[k3&k&k&[&[(((}--((}{{{}-{{[;;;;_<_;_'_'),'',,)8!8!8!8!8!8)8!87878)&:==*4:k&>nkk&3kk[k[[{(---({--};{;{{;_[{;;<2';;''2,,,,,!8!8!8787878!878!878!~!-+v/4|*1[3&kkk&&k[[[[([((--;{{{;{_{{{'{;''8!''<g'2,)8!8!87878787878!878!8!8!~!>===*a:|([[[[[&k[([(-[(-{{{;;;;;;_'_;';{''')8,','88!8!8)8!878787878!8!,),!8),)>==/f|00(k[([(k((((-{-{;{___<;;'',''<''",
"{{({{{};{;;;;_{;;_<'''_,2'')~,,!)78)8),88,,78788,[4/=0*:*[3kkk3k3&&[[[[-(((-}--}-{{;{;{;;_;<;2;__'g,',',,),!8!878!87))8!~78787,(:==50:53kkk[&k>kk[k[-{-}--{{{;};;;(;2'<'_228''',,2'),!8!8!878!87878!8787!7878o+v=40*e1[kk&k&kk[([([(-}{({;-_;;;2;;',',')8)',,!8)8!878!87878787878!878!87878&===4|**1[kk[k&k[(([;---{_;_2{'_;_''g,',!,88,,,,!878!8)8787878787878!8!,~8!8!,>===*|4:4[[(-([([[(-{}{;;;;_';'__'),,,,",
"}-((-}{}}};{;{{{{{}}'_;<'_'',2,,,,),,,,',,)88,!g,k0==a**e>k3&33>3>[[[kk&([[[--{(((}{{}{};{_{{{_;;{,''''',,,,),8~)8)8),,,)~!,!8,&:==aai:4k3k333&3[[[k[[([([{}--}({{}}___;'_;__'2;_{',',),,,),)8!8!8!8,,~8!~!,,}+m=40*e4(&&&[3&>k([&k[((}[{{}{{{_{;_2'''''''',8''',g,,,,g,,8!8!87~!8),,~8~,,8>===*>:*:>&k3k3[3[--(([-[{-;;;;_{__'''_'''''''','',)'8,,,)8,8!8!8!,!~8g,,,,,,,>===:1*4e>(k[[3k&[-}(-(({;}{<_'_;__'''_",
"(--}}{}{}{({{;{{{}}{___;__;_',_,',,,',~),!~,8!872&4/=1***1>33&3>33&k[(&k[[[((}-(-{-{-{{;}{;;;;_{{2__''__2',,_,',,),!,!,),!~!8!'k:==5**41>k3&>3>3>k[-[((((-({}}(}-;{{{;{;;'___'_'''',2',,',',,887878),~,!,!8),}+v=05**5&&>3[3>k3([-[-(---({{{[}{;;___;;_'''',''')',',,,,),888878)8!~)8!,,,!,>===41:45>(>3kk3(&([}--(}(}(;;;{;;__2_'_;_,''',;_'!,)'8','!,,888)8)8!~~,,'~,!8>===i144413c[[k>[&(({{(({}{{2__{_'_''',",
"(&[[[(-[((--{;{_;}{{;;;;_;;__2'',,,',,g'8~,,,'82'>4=/4e*5413p>31>13&>3[[[[([[k[[}(((}-{{{-}_}';;_;;;;;;_'''',,,',,88g,8,),,88g'>:==a*e|*&&>>3>3>33>3([[&[([}}[---}{{'_{{{'{'____'_,''',','',8'8~,88,8888,,!g'v+m=4*/|*|3>>&>k&&k3>-((k[((-{-}-{{;{{;;{;2_2''2;'',''','8g8,88!888!,,8!,8',g,1===i5:0a1(33k3kkk3&>}--(-((-}-(-}(;;{{;;__g;,''_'',',',',',,),8,8,8'',8,,',,'1==/i564|41[3[k>>3[(>--{-{;{}{{{_;{___'",
"[[[([((-}{}{k{kj;{{;;;{{;__,_'_g'g',g,'',,',,,,[{34/=*/e5|5p>3>>>>>33kk&3kk([[k([-[}--};{{k}k{2__';;;;;'',',',',,~,!8,,8'88),;{3:==04/5a|&>k&3>3>3>k[[[[[[[}[-[}-{};;2{;}({}___'2_'';',,',',,,,),!8'g!,)8,,j-(+v=0:e:>0>>>>333>33k([k[k[-((---}-}{;2_;;&;kg,_g_g'_;2',,8,,,)8),!8''!,,,,'';1===eaei>*k>3333&33&[-([[((-{-{-{{}{s;_22_-;[',',','';',)8,,,,,'!8~8,',',,,''}|===eae/>|1333333>&[[-}[((}{{-}{{;;;__,",
"(([[[k([&&{-[k(&&(}{{{{{_;}{';;o_''',''',',8,',';&*==*:/e*11>11|1w1|1>k[[33>&&->&-(k(kkk{-(&(3[[}{_{{;_{{_'2',8,',ggg',ggg,g,'2&e==44/ee|>>331w1|51>3k-3&33kk&k}-(--[&({{no{-[;;2;{_2;;{'',,88,,!8g',,ggg',,2q+m=:://*5>>>>|11>|11[&(3k3&[-[[-{((((k-_;[-k(k{_<o;_,_'_2,8,)8!,)8,_,,,'),,,g1===e5:/e*3>>k1>11|1>3k-&[[[[[};-{---{[(''-({-k;_'_';'''{_,)2_,!,,~~2''gg8,,''1===i06/e51>3311w>11>&(-}k&&[(o[[_{({{(",
"3[[&3([(-}-{[(}(&;;;};{__;{};;}{-2_,'2;o;o2,g2',;3:/=:://e|>1>3>13>33333kkk[[[kk3(([k}{}{;[((-(;_;;_;';;;;{o',,,2,_2}{;22;22_,;3e==:4ee60[1>1>>33&33>>3&k(&k3-[{([([-}{{k[({-2'';2;''g2__'_8,8g,,,;;;2___'_,_(+v=:ieee*k1>>>1&&313>>>kk-[k[([(((-({o}-([({;'_,{;;''8'';',,',,,8,_;_2;j2,_,'1===i0*eeek>>>>>k33>3>3>[k[({[k}((({-{;{{_{{{(('g___'',_;;'';}2,,,,_{;_{2_,_'21===f*:/ee>3>3k3n3k&(k33}((-{(-(-{;-}{;",
"3&k[k[[[(([-([-((-{}{}-{{{{{;<;'2<_;__2{{{'};(;{{>:==/iee/4[11>1111>&3333333[33>k[[[[(([-}([((-{{{;{{{{__{'_g''2'{_g;{}_,{{{{o{>e==/:ee/:&>11511>>3>3>3333&3&&[((k[k((-(---({{;;;{{;;__;_'_2,'';_'';;j'2}{{{;[+m=/6:e/e3&51h>1>11&&[k3>33&333[([([}{{}}(}{___;_{;{_2,;'2,''_g<;2';22'_-;}{<1===e::e/e1(1>511>1>&[[k&3>[([&([;[}({}{(;-{-;{___<;;'<'_2_'282''_<'{2{;2}{({;|===66i:/:4{|>>31>>3[(k[&[k[([[3({}{(}(",
">[13[[33((>3&(([[k3[{}kkk[[([[};<{[{;(&-;;{,{[_'_[*==ei:eee1>11|515>1>>>&13[>3>>>>[k33&k[3k([([&3--{[[v[&({-[;jj[{{{&({;{'2{;2_ke==:*:ie65>|1|5|51|>>13&>&>3>[3>[kk&&[&3k(}{[[3(}{-[[([-[([-{'({;{k({_}2'(-'_-+v=:i*ee60&h1>51|11>>3&[w>3333>>&[([[-(k&-[{((3([_{[((&(-([{}g--{;[[}_{;';};;>===:4*:ee*>1|>51|11&>[33[3&3&3[>3-[[k{}&k[};((k[(_;([([([-[{;2o({;([(;{{2;&;;1===e*::ee*>313||1111>33(>&&3kk>3>{kk[-",
">3[3>k&3[3-&>3[{-(-----[-{{-}{{(({{---{-}{}(;};--3*==4ei:/ei3|11>|>11>33>>33>3[[k3>3&k[[[k&[[(-(-(}[--[-;-[({{(({;{;{;;}}-{{-{}3:==04ii6ee>>1|h|>133>1>>33333>33>[k3[k[[(([[{-}-}{{{[[}({-{}-({;{<;{;-;o({}{{q+m=**e*eee|3h1>11|>1>x>33>>3(>3>3k[[k[[[[(-(;-{{-(;{--;};{;{{(_-(;_{}-{{{{};;1===i1e:eei4k1h1|1>3>>&3>3333k3k[33[[[([([3k&{(}{{-;{}-;o;-;{-(;{{;;--(;-({{-{|===6ae::6e*&113>1>>>3k&>3k33[(}[k>[[((",
">>&3333333&[>k(((((-[[[([[((({(-(}-([};{}';;o2;;{3*==*e::eee535||11>1p>311>>>k&&p3333k&[vk3[[((((--k([[(}[[--{}}}{}_;2{;{_;;;_;&e==***ei6:5&515>1>>3w>1>>333>3>33[3[&kkk[((((}(([-(-([([};-{{}{;;_;_{j__(}}{_}+v=:i:i:/::[11|11ww>>>>>>3p[k3>3&&3[3[[[k&(-(}[}(((-(}-(-}}o({;{-}-2}{;j}2j;;1===i0*i:ei*&11|>ww>>>3>3>k33kk>k&k&[3k3k[k[([-({{}[---[}-}}--}}{-};_--_;;;{;;1===6*::*6ei13|l111333k3>1&3k[[[k&k&[[[",
"3>>|>&k&&>333&[[(k[([&[[[[(-(({-}{{({((-{}{{{-;;{>*==*i**eee:>|5111>>1>1>11h>3>>>|>&[&3>&3&&[(-[[((&[&k{((((}({{-({{(-{{;{{{;;;&:==*::*:eee1>|11>>>1>13>11133>>1>&[[k>3[[[-({-[[[[[[[;{((({{{}{({{({}{;{;}{{;v+m=f*:*f6ee|351111>1>w3>>>133331>k-[k&3n&k(}{}(--[([[-{[(({}[-;{;}{-{{{{;{{{{1===e9e4::/*4[l1>>>3>>1>3>>13[33>>&}((&3k[&}{{{[(-[[[([((;-}{{-{{}-{-{{{-;-};;|===/4e*:i/::k||1>>3>>>>>>>>>[&&3>3{-([",
"15*4400>1113115|1&&[k[[k3[k&k&1k[{;{{{({-{{;{{(_{3*==a*i*i/e:0||44*|55a|a|51|11|*4*001111>>>||1[[[k(([>([k&k>k({{(}{[}{;;_;<-;{[*==49/**ee:4|54445||||550||>>>44400|>11k3>||1k([(}--k}-(k(>3({{{{;({{;;_;;-{{}+v=*5e**e6:*1||4*a||5|||011>>>04*05|>>>&>&111k-{-{{{[(-(k(&&-{;;{{{-{;{;;;}{{1===6lee*:ee*||5*45|1|1|50|1>>3|44405&&>[[3>1|3[}-{{{((--(([>[}}2{{{({{{{{{-({|===6|di4ie6*a115*011|11|11>>>k1444a5>[",
"ee*444***e:::*40040*4*0**4**404:*44440|55|1000>>k1*==41e::i/e/ee***::::**40***:/*444***i:****004044*44**4*444***44405|||1500|3[3*==*|*i*:6e/ee***e:::***4***:/:*004*4::****0a4044400444*400***4404|||5>|a05>k[+m=i1a6::/6//6***i*:i:*4*:*4*/:400444::****0540004004*44440**:44045|151|a051k|===655e::6e/6e:*4::**:4:44***ei*444:4*::4*4*5000040004044*04**4*04a||5||540|k5===/a1ii:e////:**:::*e4*044*4ee*040*0*",
":**:**:::*:***44444*:****4*4444a4**4444**4*4405>15*==i**/i6e/eiieieie:i::*:**4:****4:*:*:*4:4444*******4*044450*404044*0*0005>>>*/=e*46iee6ei:e::ii:e*****44*4***4**:4**4*4*4444*****040404504*44444*0*40051>k+v=e446eee66:ie:iie::**4**44*4**:4**i4**4*444444:*:**4*4444504*44444*4*4400||4===/*4:eee6eeii:i:e:e::*********:4**:*:****4*4*4::***444444004*444*4:44440011:===/*4:6ie/e6ie:iie:e::*:**4****:4**:*",
"//6//=/=//////6/////////6///6/6///e6::::i/e6ee*44:e=====/=====/=/===/===/===/=//e/==/=///=/6e/6/e/i6//e///e/e/6/*e*****e:e::4a59:===/=/=/===/=/=/===/=/=/=///6e6=//=//6/66i/e/ee:6//e///e///6/::*****e:i::45a|+m==/=/=====/=/=====/=/=/=/=//e6=//==e6=66i/6/6/e//=6///6/e///e6ee::i6e/ee*4i=====/=/=====/=/=========/=/=//6/=//=///=//e/////6///////e/6///e6e::::/e/ee:4e=====/=/=====/=/===========/=//6/=//=//",
"===================/=================/===/=///=///=======================================/=/===///=/=//=====/==/////=////66e/6/e//=/=/=/===/=/=/=/=/=/=/===/=======/=/=/=/==//=/=/=//==/=====/////=////e6e/66d v===/=/=/=/=/=/=/=/=/=/=/===========/=/=/===/=/==========/====/=/=====///=/=================================================/===============/===/===///==========================================",
"==================================================================================================================================/=p/=======================================================================d n========================================================================f=======================================================================================================================",
"=========================================================================================================/===/===/===/===/===/===/=/8t===/===/===/===/===/===/===/===/===/===/===/===/===/===/===/===/=======r c=/===/===/=/=/===/===/=================================================v8=======================================================================================================================",
"00aa50a04*e===/*4*4*****4*4444440400a00000a000555404000004440000a00050a0a00050a0505a044*===========================================6+ g=====================================================================/8 t/=======================================e*4******:*44*440404040004005053>004040004044400005000005000000000a050a04/====e*4******:4*4*440004000000000050550444000404440400500050a000005000a050004/",
"2g2g2_22{-1*==1[3>>3>3&3>&3k&k[[(((((}(------}[}{{{{-{{;{;{;;;{22_;222_2<g2g22_2'gj2'2{{>e/6/6/6/6/6/6/6/6/6/6/6/6/6/6/6/6/6/6/666f+   8/6/666/666/666/666/6/6/6/6/6/6/6/6/6/6/6/6/6/6/6/6/6/6/6/6/6/6/6/6/68   tf/666/666/666/666/6/6/6/6/6/6/6/6/6/6//03>&3>>k&k&>>[[([---({-{---{}{{{{;{;{;{;;_{j;2<2222'222gg2_222<g222g2''2;(*/=/*k331>3[&k33k[&[&---(-(--{}{{}{;{-{_;;;;;2{j;2_22'<2222'2g2'2g_2<_2'222_;[",
"888g,g888g[|:/[[&>k[kk&&[[[&(-}-([}-}{{{{-{;{{{{_-{;''_;22'','gg,g8g,g,g8g8g8g8g888g8888}>wt+++++++++++++++++++++++++++++++++++++++     ++++++++++++++++++++++++++++++++++++++++++++++++++++++++++++++++++++     +++++++++++++++++++++++++++++++++++++v/5([&k&[k[[}>&[(-{[[(}{;;_;;{{<___'g';_g';g2'gg8g,g8g8,8g8g888g888,8,8g8,8,&==/0[(&k[([([[[{[[-;{}(-{;{2;'_;;'2';'g;{gg8gg'8g888,888g8~8g888g8~8g8,8g,g8g",
"8888,88822[5*/3k|-&[[([(-(13>3[-&}{{{;{;;{[[{;;_[&[{;_-([2ggg,g8g8,8,8,888888888888888g2-(>a8                                                                                                                                                        +//5}[{k-(((([-k1&3&-(--;;_;___;;-;'g'({-{<{<-{g88888888888888888888888888888>==/4(&>-[[(-(-{->&3&}--;____2_'_-(2'gg{--;''<-{28888888888888888888888888888,",
"gggg,g,,8g-5*=>30&k[k>([([k>>|[[[(--{--}}-{(1>-{&&&(--{(-_'<'_''ggg'g',g,g8g8g,g8ggg,g8g_[&5/x+                                                                                                                                                      r=/5&&k[[[k[-[(->k>>{(({{{{;{{;;;[>[{'-(({{gj{2,''g,g,88g8g,g8g,g888g,g,ggg8g>===4kk5([(k&--(-[k>1{{(;;_<_;;;_;;1&{_[-}<{22;<ggg'gg,g8g8g8g8g,g8g8g,gggg'8g",
"'g'gggg88,-|e/134k3[3>k[[[k>([[-3&(-(-(-[{[(>|>[-{{;{{{;;_;<{;___g'''g_,ggg,88'8ggg,g8882-3>i/a+                                                                                                                                                    8==/a313k33k3((-(3>{k[([[{{{}{}{;[}k|k;_;'<22'',''','gg888g8g,,8g8g8,,g,g,',883==/43&5[k[[k(-(([3{(({[[{;;;{{;_--&|&{2_'''2gg,g,gg',g,,8g8g,g8g8g8g,gg'g''g8",
"g_gg''gg8g-5e=5>0k>>&&k&k3[kkk(&&3[k([(([(}(k3(-{{-({(-{;;;{{;';__';'22'82'g8'g'2','gg8g'(k14=/x                                                                                                                                                   +:===a13>(33>[[kkk[[[[[[&k((-;(}-;{{}1}}<_<2{;{g'g'g'gggg,g,g,g8g2'8ggg,'g'g28g&===4|>5-3[[(&([[(([((-((-}{{{_{;o;([['2';_2_<g'gg''gggg,ggg8gggg28g,gg''2'2,g",
"<<2g2g'8g2(|e/|>0k3&&3&[[[3[>k[[[[[[[([-[3k>(>3}(-[--(3(;__;{;<;__222g'gg8;ggg;22~g,g8g8<-&>5e/y                                                                                                                                                   +6/=/a>1kk[&[3&[([k[>-([-[-(}{{{{&[3;[}-;;<{;;[;gg8'g2~g,g8g8g8g8gjg8'22'g~',g~>==/41>|(kk(&[(--[-3-}-{({};{{;;k(>j[3_<<;_';-(,g8'g',',g,g8g,g8gj28g_<_2g2,g,",
";{;<'_,gg;&5i=|14&3>333>k&3>[&&33>k[([[(k[[>k>5[-[[--(>5;{;{;;;;_<__'2'2g2g'8';;_2g2,ggg{[&1|e/y                                                                                                                                                   +f===01|>k>>&k3[[[&[k3[[[[(--{-{-{[[}(1(;;{;;<&>'ggg''2g'g'gg,ggg,gggg;<<2'2g8'>===*1>0-n3&k&&[(kk{-[[k[({;{{;-;-[{(a-;<;2<_[5j'gg'g'''ggggggggggggg<;{;<'2,2",
"g'2'_2g2gg(5e/410k3333>3&kk33&[[333[[[[[[([[[(k{[[[[[{[|}_;;{;;{__<2;__'2_g,g_ggg'g'ggz8_[&>14/r                                                                                                                                                   +f/=/4|11[&&k3>>[[(3k3[[(&([--}}{{}({-(;;;o;22k12g,2,'gjgg,ggg,g,g8gg2g2g2g2ggg>==/*515[&&&3&k[[-3[[-([n(-;};{;;{};;{2;-;{;'o1{g,2g',jg'ggg2g2g',gg;,;<_'2'g2",
"''g222,22_[0e=:00&3>33>>>>&3&3&k&3k&&k([((([[[-(--}[[(;k1-2j;{;;;j_<'{<<2'gjg(_gg',2ggg2;&&>15e9                                                                                                                                                   +f=//401|k>k33>333kkk[[->[(-[(-{-{-{-{{;-__2;2{>1j'g2'2g'gg8g22g2gggz}_,gggg2g2>===4*5a(>33[333k[[[(k-[[(}-{;{;<{;{;<2j{;<{_2(1og8gg2g2g2gg2<22'22g}{2'g22_gj",
"_gg'_gg,;{>0e/*4a&>&>3>>h>3333&>>k3k[kk(--[k(([[(((((-{{(>(j{{;__2_'22{{{';vgg<,g,g228gj(>331|:y                                                                                                                                                   +f/=/*00|&>k33333k[&k3[[[[((}(({{{}({{;;;;;;__2{o>j;22'',g8g82<<22j}8g'gg'g2'g21==/:44|[3&333>3k[[[[[3[((({[-;_;{(<{{{;{;;__g22w}'22g'gg,g,g;;2;j[8g;_'2';<g2",
"22'2g2'2g{>4i=4*03>>>>>1>>>>&>3>3333[3&&[[[k-([&[((-(}([-[[{;-{__;2_222;22g<gg'2g2g2ggg2(13>154y                                                                                                                                                   +f===404|&13>3>313>3&k&k[[&[[[[(-;-(-{{;{;{;{_;;_;(22_<ggggggg222ggggg2''g2'2g21===:440(w3>3>>3&>k[[kk&[[(((({{;-{;2{{};;2;2;<<{(2222g'ggg'g'g22g'2g__<2<_;'2",
"'22g2g'g;_30:/4*4>1p>3>>>3>333>&kkkk&[&k[-[(([k-3-(((-(}({{-;{{_;;<_222g2'j2gg'g'g'gg8g'}>331|ah                                                                                                                                                   +f/=/*a*5&33333>333>kkk[[[([((([}{{{-{;{}{{};___{{_j222gg2g2,ggg8gg2,'g'ggg2ggg1==/:5*0>>3&33>3k&k[kk[}(-((((({;;{<{{{-<<{_;__;;_{g2'2g2g2gg,gggg2g2'22222222",
"{<;;222j;{34:=a::e&>>>31>>>>>>3>33>3&&k3kk[[[3k[[(}((-{--((({-;{;;;-__22222_g2;22<22222<}13>1|5x                                                                                                                                                   +f=/=45460>>>3>>>>333333&&3k[([[(-(([(---{{{{{;2;_{;22222222gg2g'g2gg2;2<;22__;1===*5*::33>33>>33k3k&3[[k([-((-{{{{(-;;;;;;2<2;;{;22_222__2g2g2g22gg{j<;;2<2;",
"{;;__2_g;{306/0::e|31>>>13>>>3>3>3>33[kk3k&[[kk[[((-(}--(((({{-{j_;;j2;_22j22_;2_2;g_g2;->>>1|5n                                                                                                                                                   +f/=/*a*:4>3>>3>3>>>nk3>k3k3[k(([[[[(}-[{;;{;{;{;{;;2;__g2g2g2g'g2g2g;_;_;22;221==/:|i4e13>>3>>>>>kkk3&kk[(---(((-{(-{;;_;2;2;_{;-;_j;g22;g222222_g;;{;;;;;;_",
"_;_};2gg_}1*e=0:*:1|11>1>1>1>>&33>>3&3k&33[&[n[[[k[(-[-(-(-(-({-{{;;;;;;2j;_g;2<j{2;_22{[1>>155p                                                                                                                                                   +f=/=44e0*|31>>1|>>>>kc>3k>&kk[[[([((--(---;{j{{{{{;;{;;j22222;222j_22j_;{;2jg;|===ea**411|>>>>>>>>k[kk&3[[((([(-(-(}{}}};{;{;;;;{;;;{{__2j2<2j2;22;;;{{;{{2;",
";;;;;_;jm}14//*e:5*1|111|11>>33n33>3333k3[k3&kk-([[[-3{((}((((((}{({-{{_j;;;j;;j;2j;_j3ok>>>1|5n                                                                                                                                                   +f/=/::/a|*>>>>11>>>>13>k[[&k>3[[-[[((((}-}(o[2-;{;{}(;{;;;;;;;_2__;2__;_;_;_;}5==/60e*|411>>111>>33kkk3kk[[[[[--[((}{{-{-j3_{;;;{{{}-;;{{{;;;_;_{_;;{;;;{;{(",
"{{{{;{;;((>*/=*//*0511>|1|1|11>>>>3>p33>33&>k&k&[[(>&kk[([-[[[}-(---{{;o;}{{j{;{{;<{;;(([h>1155>                                                                                                                                                   +f=/=66e/|*31111>1|11>>3>3kk>3k3&[kk[([[(}-1(3(}-{{;-};{-{{;{;;2j;ojj;{;{;;{{;(|===6*//00|1>>11111>3>&>3&[n[&kk([[(-((({-&&([(}{{}-{{{}{-{{;;;;;{;;;{{-;{{-}[",
"}{--q--jo(>*//:e//e1>1111>1|51|113>333>31>33&k33>33k3k1[[k(-[k[(kkk[[[k(q}((}-{;}}-}}jo}k|>>||a3                                                                                                                                                   +f///:*e6/4&|11|>>1|||>>>33nk33k>>[[k&}&3[k&k3>(([{{}[-([k[(([([}(((}({{}q}(-{o|==/i*/e/*>3>>1>>>||1>>333&[&3[3>[[-([33&([k[>3([;{}&-((([[-[[(}-([}({{}(-[({{",
"{-{-[[[q(k>:/=6/6//53|h51|111|1w>11>31>>>13>3>3>3>>3k3k>33[[[k[k((-(--{(--}{j{{{{{[}[[-(k511ha0>                                                                                                                                                   +f=/=eie/e/>1h511>|1111>1>133&3>>3>>>3[[&3>3k-(k[((([(([-{}{{}}(-;{;;;{}{}k-[{{|===6ee/e/13||h11w>1113>>w3&>>k33kk&&&kk33[mk[k[[(-((([({}}-{{-({{;;{}}-}k(k--",
"[-(-}(3-}(>*///ieee*>1154||1|||1w31|1||>1133&3>&k&&[[k>k3[[[-[k&kk3([((j((-{([[-(}}[3(-{[5|15a4p                                                                                                                                                   +6/=/ieee/ea&5>a551h1|1>3>w1>3>>3>[>3k[k(k[k[(-[[(}{o{(k([((((}o-};-([((((-[&{-5===eeei6e*k1>50|111|113&>1>|>3>>[&[&k[-[((([k[[--({-[k([k[[(}{}({{(&[[((}k&[(",
"3k[[([[--[3*/=*e:eee0|||1555|5|5|1>11|3>>11>>>>>1>>>k>&>>&(&[[&>[3([k3k[(3&[[3k[(([{(([-(5||594x                                                                                                                                                   +6=/=::::e/:1151511||1|11|>111>|h113w11>>>>&k3>33k>}--kkk&kk33(-[&k{(k3[k(}-[}(|===e4eee/ea1511|5||||||>>>11>>>>13>3>31>>3[3&>>(([--33k&[{(3&[[&3([33k[(k}((k",
"[(((k([([&1*=/*:e:/ee>|505|1|11>1x>11>>>1>>11>>>>>>>>3>33&[[kkk[3[}([(((k-(((-(([(((kk((k|||a04w                                                                                                                                                   +6///:*e:/ee4>|5|11|1|1111>1>>>>>>>13w3>3&&>33&&[k[[[k((([[(}}}(-}--([((([((k[(5==/64e::ee:>hl55|1w1>>>1>1>>3>>>3w33>>333>&3kk[[-[-[[kk[{{([([[}((-(([([[k[&[",
"k&[[[&(-[k1*/=:e*:e/e5>a50||l|1|1|111|11>1>>>w>>>w>1>1>>>>33kc3&kk[k[[[k[[[3(&[k(([k[-}k3a|5a441                                                                                                                                                   +6=/=:iiee/ee1|5|h|||||1111111h11>>33>>>13333>33>k&c333[&k&[[([([(&kkkkk[([k[}(|===6*:::/ee5>555|||1111111111>1>>&>p>3>>>>>3&3>33k&[3[k[[[&kk[k(k&[kkk[([[&-[",
"([(-(([(kk14==*ei:eee:11|50|1111h111111>1a40|>>3>>>>>113k3>k33>kk[3k&k(v[33([k(v(}({-}(k3|5544*x                                                                                                                                                   +6/=/i4/*:i/::15|05111>1111>3>3>100|>>[3k33&k1>[(3k[[kk(((k[([((-3k(k&(k}-[(([(5===/06::i/::111||1>1>>>>>>3>33>505>>[k&&k>k>3k(>3kkc3[[[[k(k([(&k[[&(&[([[(-(",
">>&3>1>>k&1*/=0*6*:/6e::4*:i444:4**:44a50:*:*:4440540400|||||||5|5|5545511>13>3>&&3>>>&&35004**h                                                                                                                                                   +6=/=e5*e:ee/e:**::*44*04*:440004*****050|5|4005111>>31111|1|0||1>>>>>>3&&>>1>k5===65*/*ee/i:454i:40*404**0a054::***455||5000011|11>111111|a0||>>>>3>>>3111&3",
"***4*445115*/=*5:::e/e/ee4:::*i:*****444*4*4*4**:::::*40*4:::*:*:*44*4*::**::****4***0|11a*4**:h                                                                                                                                                   +6/=//05i:*ee/ei***:*:::*:4*4**e:4444***::*:*4a44**:*:::****4**:*:******444*45>0===/4a*e*ee/6e:**:*:::**4*44*i:*4*4****i*:**044**:*:*i***444*i::*:*****4**441",
"*::::**450*e/=//e=/=/=///=//////6/6/e/6/ii6/e/e/i/ee:iee:eeei/ee:e::::*::e:*4**::::**4aa0**::efl                                                                                                                                                   +6=/=//6//=//////6///6/6/e/e///::i/i/e/iee::::eee:ee6ee:e::ii*::i::*:*:::::*454/====/6////=//////////6/6/e/6/eie/e/6/e/6e:e:eieieeeee:ei::e*::e::***:::::**a*",
"/////e///e//=====================================/=///=/////=/=/=/=/=/===/=////6//=e6//e///eee6r                                                                                                                                                   +6/=/=/=/===/=/=/===/===/=/=/=/=//==/===/=///=/=///=/=/=/=/=6===///////=//e///========================================/=///=/=///=/=/=/=///==///////6//=e///=",
"==============================================================================================/l                                                                                                                                                   +*=/=========================================================================================================================================================",
"=====================nsd//====================================================================d+                                                                                                                                                    b6===/===/===/===/====================================================/y8+x==============================================/======================/*cm========",
"ieeeieeeiee/e/e/e///:s8zk4e/e/e/e/e/e/e/e/eee/e/:xss8me/e///////e///e/eeeeeee/eeeeee::::eeee:eo8gggg8g8g8g8g8g8g8g8g8g8g888g8gt                                                                                                                      bzzzzzzzzzzzzzzzzzzzzzszszszszszszszszsozo*e/e/e///////e/eee/eee/eeeepg88j::///e/e/e///e/e/e/e/e/e/e/e/e/e/e/eee/66ossvh/e/e///////e/e/eee/e/e9cs8g9eee:eie",
"111>1>1>1>111>>>1>1>1>1>>3>3>3>3>3>3>3>33333>&>1|5am7k555555555||||||1|1111>111>1>1>>3>3>>>3>33&3&3k&[&[[[[([([[[([([((((([q[&>gb                                                                                                                                                            8**5555555|5||||1|1|1|11>1>111>1>>>>>>>1>>>>>1>>>>3>3>3>3>&33>333>3333&>3>>'8hf/:0555a55555|||1|1|1|>1>1>1>>>1>>>>>",
"[[([(((--(-[(---{};}{{o{;;jojojoj;z{;jjjjjzjjjzoo>0//13>11>13331>>3&[kk&&3[&[[([((((([}--(}--(-}{};oj;;;j;jjjjz;zjjjj;2jzj2jjjj-[8+                                                                                                                                                       +gf=64333>33k>&>>&k3&[[[[[-[(---{-}}{-{{j-{{o{j{j;j;jjjjzszjzjjjjjj;jj;;z;jjjoo0==/*3k>13>>k[3>3k&([([-([-[-{{}{}{{{-{",
"[([3k-[(-(&[(-[([(}o{{{;{jjj;jj;jgjjjgjgjgj2jgzjo&0:=w333[33&33&3>>&&&>>&[[[[((([(k(---{&[[}-(((-;ojj2;j;2jj;2zgjgzgzgjjjgjzzzjo-[k+                                                                                                                                                     +d==//03>>>3&&k>&kk>&&(&>>}-}-{}{{}3({{{j-(({{(}((jjgjgjgjgzgjgjgzgjgzgj<j2j<jgj>==/43[3([k&-kk[k>3&([3&--{-;{;{;-(}joj",
"[([>>&[(-1>1&3&&3&{{;{o{jojjj;jjjjjjzjjjzjzjzjzs}>0//1>h[333333&k|11|>[3k&[[[[[[([3>((}33>&&[[3&{{;oj;jjjjjjzjzjzjzjzjzjzjzzzjo{-&3c+                                                                                                                                                   +*====/4[1|3&n3&&&[3|111k&[[(((---{(&>[-oo3&3[(--&(;zjjjzjzjzjzzzjzjzjzjzjzjzjzjj1==/*3m1[k&k3kk([>>>5k([[--{-}-{{}kk}{;",
"k[[[ka|3>>>3&[(-[-}-(-q{o;oj;;ojjjoj;jjj;jjjjjzzjk0/=|1rm33>|33333|3|3&&3&3[k[k[(k[|5333333[({[-{-}{}{{j;soz;jjzjjoz;jjjjjjzzzzj(k3>7                                                                                                                                                   8/=/=//0>>5>>333&&&[>>31[[&[[-(-(-q-(-0|k[[[[{{j{}ojojo;jzjzjzjzjzjz;jjzjjjjsjjzj>==/413a[&k>1&k&[k>&1k-[[[[}--{-o[o|5&(",
"3>(>3>51>3[[[[[[(--[(([(--{}{{{};o;{{jjo;;;o{;zj;&0==0>0&>>>313>>>1>&131>&3kk3k3[&3&>>3[[k[[-({}---((}}};{;o;}jj;ojjojjojjjjzzz{[k317                                                                                                                                                   7=====/41103>1>1>&&331[>>&>3(3[([kk}&&k5>[(-{}{{{ojo;o;};ojjjjjjjjzjj;zojojoj{;jj1==/*|>a&3>&33[&331&[3[>3}k}----}(3k|1[",
"3&3[&3|33kk&3[k3[[(([-(}-{{{{{{{oj}}jj{oojojjjjz;[a/=510>>33>3>3>&313&>31&3k3[&k3[3k>k(33&k[[k--}{[}-{-{{o{oojjj;ojz;jjjojojzzz;[k>17                                                                                                                                                   8/===//0|15&>3>>>&33kk1[3&3&k[[[(-[k((k1m[({---{kj}jo;;;jjjjjjjjjjjsqzjjoj;;{{{jj>===41>5k>&33&&k[[[1[[[kk----}}-((([&>;",
"k311531|3>33k&k1>[(-([[[[[-}{}{}o{j[{{}[{}{{;ojjo>0==0|:>>>>>>>>3>>11>3>3>3333&3311131k>3>[&[>1}{-(-}--}{{}}o{;oj{sjj[}}{o;szss-[31|7                                                                                                                                                   7=====/4|1133>3>3>k&>3>>&&kkk&kk(([135[>1&[(-}}-3>ooj{o{{{oojojojjjj}{j{}}{-o{;jj|==/:||4&33&333k[3>3>[k[k([([((-m31&(>[",
"k31>>3>>&333333|5{[-((((-((}-{-{{;{o}oo}(-{;{jj;{30/=a5:>>>>1>1333|>1>>>>3333&&333>33|3&k&kk3>a}-(({(([--{{}ojojojojs--(};{jzzo}&31|7                                                                                                                                                   8/=/=//4|1|&1>>>1>&k>1&33&&33[k[[-&3&[[(>[(}(-(-11ooojoj{o{j;jojjjjj;o;j}-[}{{{jo1===*5|*k&333>3k[&>&3>k3k[([((}(((([(|[",
"333>3&k3k>k[kkkc|>{([(}--{((}(((-}o{oq[o((o{{oj{{&0==4|:1>11>111>111>>311>3>333c33[&k&[3&[[[kk51{(---}}(-}{-o{}}joj{&{}({{o{joj{&>1|7                                                                                                                                                   7=/===/45|5>>1>1>1>>>>>>kk>>p&[[[k[[[[}--}(({({([13oj{oojo;{;oo{o}o{jooko}--}}{o;1==/:5|*>&>>>31>3>>33k[>>[[[(([-[(}}-{}",
"3k&33[k[&k3kkk[(&11((}[--}--(o[((}{}mj((}o{;{jj-(>4/=i441>|11>11111>>>>>13333&3[3k&[&[[3>[[[k-3>1(--(o}{}}-;}--{}o[j}<ojojoos}{(>31|8                                                                                                                                                   8/=/=//**5531>>>>>>>>>333k3&&&3[(((([(}{}-([({-oo(>>{jooojoj{jj}-o{o}[j}}o}{}o-j{|===::043>>1>3>w>133k&k33[([-((}--{}{}{",
"k333>>k3&33&k&&3&&>&-[[[}[-}}}{[&&{}({}(o({o}};{(|4//:4*1>1111111|1w>1>>>>33333&&n33k3&kkkk[[[-[>>}(-(--}}o{{(k&(-(ojo{{;{o{so{&>>>57                                                                                                                                                   7===/=/*0*a111>1>111>1>>>w3333&k((([(3(--((k--}(}(}>[{{}{ooojo;{}k[}}vj}}}-}o--o{5==/e**41>1>>>1>1>>&&333>k[([((}--[(-v-",
"33>3>3>33333[(k3>&3((([(-((}}}-o{o}o}}{j}}{;{{oj-1*/=4**1>1>1>1>1111>>1>>>>333>33k33>k33[[[([[[[&(}}}-[(-}{o}o{j}o{j}o-oojojoook1>1|8                                                                                                                                                   8/=/=//4*e03|>1>111>>>133>>333k[k[kk&[[[[[[-[o{}[[((-{}{}o{;ojojojojoo{o}}-{{{}oo|===i04*313>>>>>>>>>k>>3&3[[[[[[[--[[(-",
">>3>333>&3k3kkk3&&k[[[([([((--{}{o}(-}{}o-o{o{j{}1*==**e4|1111111111>>>1>1333>3>>3&333&3[k[k&&k&[[--(-[[--}}}{ooo{}o{}o}{o;{j}o&1>>57                                                                                                                                                   7=/=/=/*0:4|11>11111>>>>3>33k3[k33kk[[(&[[--((}-((((}(o}{}}}o{ooooj{}-o}{{{}{}}{{|===e0*:4w1>1>1113>>33>333k([[[k3((-[-(",
">3>3>3333&&k333kkk3&k[k[[kk[[[(-q{}}[}}-(}{}}}oo(>*/=4i:/|1111|1|1>>1>1w>>>>>33>>3>33333&kk333&k3k[([([[(-(({}-o}o-o{}(}}{}}o}{k131|8                                                                                                                                                   8///=//*aeie|>1>w111>&>>1>>333&k&&kk[[[([([((([([-([[((-}{[((}(o}{{o{-}o-((}--(o}|===i0::e5>1>1111>3>>>3>&333[k[&&kk[([[",
">1>>3>p>>>>3&3&3&>33>3k3[kk[([(((--(((-(-}o-}(ook1*==4:::05|1|||1|11>w11>1>1>>>>&>>>3>3333&3&3k>3&3k[&[k[[}[(q-}-(-{o-((-(}-}}(&1>157                                                                                                                                                   7=/=/=/*5/*4|1||1|11|1w>>>>>>>>kk>>>&nk&k3&&([[[([[k(k((((-(}--(}(}}}({}-(-(-[(}}5===/5:*:5|111|1111>>3w>>>>33&3[&k&k&[[",
">>>p>3>3>3>3&kk[k33k>&&kkk3[[((-(-(-}}-((((}[-o}[1:/=4e**051|1|1||h>|>x>w>11>>>>>>133>>33&3k3[kkkknkk[[[&([(-}--(}{jq[(}{}(}ooq313158                                                                                                                                                   8/=/=//:4e**53||11|>111>3>>>>>133&3333nk3&nkk([((-[[[[[((-[[(-(}}}-}}o{}(([--[[}(5===e4e*40|111111|>>133>>>3>3>&&333k[n&",
">>>1w>p>3>3>>k>k&3&3k3&33kk[[[[[([(((([[([((([}135*==:6/54a|||1||a||||111111>1w>w1>>>>3>33w3>3[3kk[3k&kk[[([([([-}}}}[}((q}(omk>1>107                                                                                                                                                   7=/=/=//4/i1411|1h111h>111>111>>>>&>3>33k&k&k>(>([k[[[[&[k([((([((((}(}[[[[[([[[34===/4/6|051|1h11111h11>111>>>>n>3>&&&&",
"h3>>>>>>1>3311111k&k33333[&k[kk[[[[([-[([([([(((k1:/=:e/e4a|5|5r5l55|>11|111>>>>1>>>>333331|1h>3&[3[&33kk[(}kk[((}(q[-(((((((([35>|a8                                                                                                                                                   8///=//e*i/::1||1||1555111111>>3>>>>>333>33k[>1>1>[[[[[kkk[[[}[([-[(-((([([[[([([5===e*6/:05h1hr|h||51>>1w1>>3>3>3333k&k",
">>111>>1111>31>>>3>w>w>>333>3[[k[[[([(([k[[[k>[(3|i==ee///5a05|5||55111|1111>1111|1>31>111>w>>>33>333>>33>&[k3[((([[&&[&-[[3c([>51|97                                                                                                                                                   7=/=/=/64e//e|5a|||11|51||h11>>111>1>133>1>1333>3>k>>3>>33333&([[[-(-k([[c(k[3>k(0===/:////5505|||15|1111111>>>w>1>1333>",
"|11>1>>>>3>>>>>333333>>&&kk[k[[[&k3&[[[[3[[333&c3|e==/6e/e:>a|a5a|5|111>11h1111|1>1>>>>>>>1>>3333333>&3[k[[[(([[kkk(k[kk[3>33[&3a>|08                                                                                                                                                   8/=/=/=iee/e/51r|05|111111|11>1>>>1>3>>3>>3&3>>3&k&[&k>k[[[([[((([[k&[[[[3k[>3>&k5===e/e/e/*>5|r|5|11>1>11111>>>1>>>w333",
"|1||w11111|1>1w1>1w1>>>111>111>13k[>[>>3[k[kk>[3k1:==/e/6/e|5a54a4090a5||5|5a555|1>|1h1|w11>11>111>>>11>>1>>>13&3>kk>3[v[[v([&(351|48                                                                                                                                                   7=/=/=/e::e/6:1055449004|5|5wa555|1|>>>1>111333>>1>1>>>>>1>111>>>3([3&&13&[kk&>&35===/e6e/ee15550500a0551||555ll|h>>11>>",
"511||11||1>1|11>>3>>h1>>>3>>>3>>1[k3>k3>3[3>3>k3>1:==*6:e66:155|a55|51111111|1|111|11>111>1>13>31>>>33>>>>>31>13k3>&&[>k&3k}[k3351548                                                                                                                                                   8///=/=f5eie/e*1550a5||111|111111|1>|11>|11>111>>33>>1>3>333>>>>>1k[33&3>&k3>k>335===64e::/e:155|55||||11>11h>111>111>1>",
"h5|hh||51|11||11>1>w>|1>w1>1>>>>3>3>>>3>3&&33>3&3|:==e66i///05000005|5|5|5||||1|1|||1|1|11|1>1>>>1>1>1>1>>>3>>>>3>>3k&33&k[&3ck>a|5*8                                                                                                                                                   7=/=/=/646e66/:|040559a|||||1|||1|5|1|1|||111|1>>>>>>w11>1>>>>3>3>>>3>3>3>k33&3>k0===/:/ee//e0|a50a0555|h|||||>11|1|1||1",
"||5||111|1111>1>111>11111>1>>>>3331>33w3>3333kk3>|:==:e*ee/ee10aaaa|5551||11|1|15||111|1111>1>>11>1>111>>>>>>3&3>>3313>33&33kc33a|a48                                                                                                                                                   8/=/=/=e*e::eee41a555|555||||1|>11|||11>111111w>>>1w1>1w1>1>>>>333>>13>>>>>3>33&3a===6*e:f6e6:10a50|||5|h1|>1111|||11>w1",
"|0:**40a||1||549|1>1>>>h11>1>1h>>33>3>1>33&333>>>|:==*e6:6//e4aa4:*aa0a5a055a51a:*44451|111500|1>>>>3111>>31|1>3&3331>33&&&&>>k>5|0*8                                                                                                                                                   7=/=/=//4/iee/eea05**0|5555a0a55115:4*001111>1|95|>>33k3>13>33>|3>3>3>31>>3>3>31>0===/06e:e/6e0a|4*4|555|5|51511|*4400|1",
"e*:*::e:*::*:*:**444*444*04**4***40a05aa0|5505|115:==*0ee:e//eeiiie:::e*:*i::*::**:*e::::*:**4*44044404044*44**405a|055|5555|>11059*8                                                                                                                                                   8///=/=6d06:ee6e/:*:eii*i**ee::*******:e:4*******44000000000*4*4*44005a005a55a0|10===6406i:e/e/ei*ei:*::**::****:4:**::*",
":::::eii*:i:::::*::::i:e::::*:***:::*::::e:***4054e==/4i/66///6/e/eeeeie:ei::i:e:e:::i:::i::::*:*:*:::::::**4**:*:***::e::**4a|5044:8                                                                                                                                                   7=/=/==/**6/e///6/ieieeeee:e:::e:::i:::e:*:e::::***::::e::::*:***::::::::e::****5/====:*i/e/////e6e6eeee:e:::::::::::e::",
"////=/=//////e/////6/6///6/6/////6/ee:e:6eee6e:*:e=====/===/===/=/=/=/=/=/=///=///=///=e///e/6/e/eee///e//6////eeii*:*eeiee:*4**::6db                                                                                                                                                   +d=/=/=///=/=/=/===/=/=/=/=///=////6=////e///e/6///e6e///6///////6ee6:e:ee6e/ei*/======/=======/=/=/=/=/=/=/=/=///=///=/",
"/////////////////////////////////////////////////////////dcy*66///////////////////////////////6/66////6/////////6/6/6/6/6/i6/66/6/fb                                                                                                                                                     bd/6/6///6///6///6///////////////////////////////////////////6///////66:dpy6///////////////////////////////////////////",
"+++++++++++++++++++++++++++++++++++++++++++++++++++++++++    ++++++++++++++++++++++++++++++++++++++++++++++++++++++++++++++++++++++                                                                                                                                                       ++++++++++++++++++++++++++++++++++++++++++++++++++++++++++++++++++++++    ++++++++++++++++++++++++++++++++++++++++++++",
"+b+b+b+b+b+++  ++b+b+b+b+b+b+b+b+b+b+b+b+b+b+b+b+b+b+b+b+bbb+b+b+b+b+b+b+b+b+b+b+b+b+b+b+                                                                                                                                                                                                                                           +++b+b+b+b+b+b+b+b+b+b+b+b+b+bbb+b+b+b+b+b+b+b+b+b+b+b+b+b+b+b+b+b+b+b+b+b+ ",
"5|5|||5500adf*y59040444490900505a5a555a55|555|||5505a555a005a5a55|5|5r5|555r5|5|5|||55055ddxcz+                                                                                                                                                                                                                               +8mpydff*0404044449000aaa5a5555l5555555|5|550555a5aa05a5a5555|555|a55|555|5|||5a5r",
"[m[mk3(k3>|*e=0||5|5||1||1||111|11>1>>>1>>>1>>>>3>>>3>&>33&3&3k3k3k&[k[mkk[m[k[kvmk&[mk>10i===r+                                                                                                                                                                                                                             +x======/*5|55||11|||>11111>1>1>>3>>>3>3>3>3&&333kk33kkkk[m[kkk[k[mmk[kkkmk[[[3k&k1",
"qou}qoqoqq10:/1>111>1>1>1>111>>>>>>3>33k3&3k3&>k[33[[([[[qv(((vq(oqqq}q}q}qoqoqouoqoqouo3>|4=//p                                                                                                                                                                                                                             m=======/*3>11>>>>>>>>>>33&3&&[3k[[[([[[[[[(}vqqoqq(oqoqoqououoqoqoqoqoqoq}qoqoqo(q",
"qqqququq[k14:=1151>1>111>1||111||13333&&k>1>3&3&31>3333>3&(v(((v(vqqqqqquqqquququququuvm&>|0e=/*                                                                                                                                                                                                                             y=======/*>15>>>>>>>>>|>1>>11&[[[[[(mk>3m([qc&k[m([&&vququququuuquququququqqqqq(qq(",
"qqqqqqqoq(>0e/11*>1>11>>>>||50131>>3>33&333>|>3&11|>>33>>[[[[([(vq(qqqqoqqqoquqoquqqquvqk>1|*//9                                                                                                                                                                                                                             r=/===/=/*>10>>>>13>33>1|a&k>3[k&k[[vm[31>[[>>>3&[(3[quqqququqouuqouuqoquqoqqqq(qqq",
"([(v((qqu(>4e=5|*111|5w11115>|w111>>>1>>>3>>54|111>3k>33&kkk&k[k[[(m(v[v((q[qvqq(vqvqquu[>>|0//d                                                                                                                                                                                                                             r/======/4||4>|>||>3>3113>>31>3k3&&k3(>3|0|3>3&(([m(vqv([q((qqqqqqvqqq((qq(([([([q(",
"(((qv((uqq>0e/4|*>1||1|1h>111>|>11>1>>>>13>311>3>333333k&[k&3k[kkv[[[([(q(vqq(((vqqq(ouu[>1|0*/d                                                                                                                                                                                                                             r=/=/=/=/*a|031|11>>>>31>31>3>&>k&&&&kkc3>3k[[[[([[vq(qv((q(qqq(qq((oq((ovq((v([((q",
"[3[[[m([qm>4e=054|||1|11>11151>1>|11>111>|1|>51>3>>>>>1pkk[>3&k&[&[[[m[mqm3((mmm(((vqqq([11|a*/d                                                                                                                                                                                                                             y========*5|4>1111>3>>135>>3>>>333>331>>3>1[m[3k&[>cm(([mvv(m(v(mqv(vq3(v([[k[[[mvm",
"3&&[[[[qmm10e/05*>||1w1111||1111111>1>1>11151|4>>>1>>3|akk[3&[3kk[k[[[[[[(m(((&[[(((vuvq3>1|00ed                                                                                                                                                                                                                             r=/===/=/:554>11>>>1>11h3|>>>>33&33&3>>|3143[kkkkk>0(vq[(v([([qv(vqv([q[q[k&[&[[(((",
"&&&m[&(m(m>*e=4a*11|1|1|1115||11||1111>111>1>11>>1>1>1|0&k&3k&k>kkkkkk[m[[(mvmqm(mqmq[vv[11|544d                                                                                                                                                                                                                             r/===/==/*454>111111131h111>1>>3>&>3>333nk>mk3333315cqm[mqmkm(m(m(m([(m[m[mk[km[[(k",
"[(k[k[[(m[14//e0*1|1|1|||111|11>511>1>1>wp>>1>>>13331>3|an&k&&3&&[k[[kkkkq[(m3[(vq((vqm(k11|a04l                                                                                                                                                                                                                             r=/=/=/=/**00>1111||11>1>>>>>>33333>&&&&33k&k>kkkk[15cqmq[(m[[(vqm[k[[[mq>km([[m([k",
"kk[m[m(m3>|*e=i:4|55|5|555||||||1|1|1|11>>>1>1>>>>3>>13>>9>k&>3&kkkmvk&3kmk>qm[mqmvm(mc3>51|544h                                                                                                                                                                                                                             y==/===/=ii*41|1l|||5|h1|11>w1>>>>>&3&3&333k&&k[k&mk>apqm[m(mvm(m(k[k[k>m(k[m[k[kvk",
"k[m([vm[k35*e/::*15|||||5|5||||111|1|||11>11>>1>>3>3>3>3>>1[&3&[k[k[m[k[k(m[v(mqq(m(v(m[>||1504x                                                                                                                                                                                                                             r=/=/=/=/i*:411|||15|||1111>>1>>w1>>3&3>&k33km[k&k[k[3>m(mqv(m([vm([[mqmqm[k[m[k[m[",
"qk[m[m[m33|*e=*e*|55|||5||||||||111h1|1|1w>1>1111>>11>>>>13>&n&&&3k&[k[m[m[kvk[k[mvm[m[m>51|5941                                                                                                                                                                                                                             y/=/=/=/=:4i*15||1|||1|1h1|>>>>>1w1w>&33>>>3>k33>&&k3333m[m[k[k[m(m[m(m[m[&[k[kkk[&",
"&[kkm([(k3|*//*ee:1||||l5||||1|111111>111>1>w>>>>3>>>>>3>3>333&33kkkk[m[mvm[m[k[kk[vmqm[>5||a04x                                                                                                                                                                                                                             r=/=/=/=/i4e:*>|1|1|1|||1111>>>1>>>>3>3333&3[k&3&&[kkk[[k&[&[[[[vm(m[[[[(k[k[3kk[[k",
"3>3&mmkmm>|*/=4/:/5|555a5555|||5||1|11111|11>111>>>>>1>>>1>33>3>k&&3k&&kkk&&[333knkmkmm3>5|5544h                                                                                                                                                                                                                             y==/===/=i9ee/015|555|5||1|||1111>1>1>1>>>>>>k3k3333333[&&33kmkkkmk[km&kk3333&>k3k3",
"&&kk&mk[3>5*//*ii:5|a555555|51|||1|111111111111>1>1>>>1>1>>>>>>3>3>&333&&&3kkk&k33kkk[k315||a0*x                                                                                                                                                                                                                             r=/=/=/=/60i:i5|55|555|||1>|1111>w>1>1>>>13>3>33333>3>33333333&&&3k&&&k&k3&333333kk",
"3&m3&3cc>>5:/=*/e**55a55aa55l0l|||1|1|1|||1|1111>1w1>h31>>>1>1>1>>3>3>33&333k>3&&mk&kk331a|5044h                                                                                                                                                                                                                             y/=/=/=/=6*ei0:|555la55||5|11111111w1>111>13>>1>3w3>>3>3>33>3333333&3&33&>>3ck333k3",
">333333kw>5://://4*0a555a555||||5||1|1|||1|11>11w>1||11>>>>>w>>3>p>>>3333&>3c333>n3333131a5504*h                                                                                                                                                                                                                             r=/=/=/=//*/e0405a|5|5|5111|||11>x1|1111>>>>3>>|1|1>n>3>33&>p>3>3>33&33>k33>333>>>>",
"3>3>3>>33>5e/=e//=e0445a000*4aa5||5||5|||5|||||5||11|||5>11>11>>>1>1>>>>3w>>3>3>3>3>>>3>14500**l                                                                                                                                                                                                                             y==/===/=e:///:540a54aa4455||15|l||1||11|1|||11>|1||11>311>3111>>>>3>>>333>>>>>>w3>",
">>13>>1n3>5:///6///0a0aaa555a555a55|||55||||||1>11111>111>>>>>>>>>>>>3>>>>>3>1111>w3>>>314a54*:h                                                                                                                                                                                                                             r=/=/=/=/6:////0545a|5|5555555||1|||111|||1>>>>1>>31>>3>>>3>>>3>>33>>>33>1111>>>>>3",
">>1>>>11p>5e/=//e/e:|0a*440444a055|9000aa51|1|1111>1111||1>1111|1|1111>>>>p>>111>3>w1>3>14004**r                                                                                                                                                                                                                             y/===/=/=e/6/e/*|a54*00040a5||5a0a0|5|1|111>>>>w1>111>>>11h111111>1>>3>>>1|113ww1>>",
"1>1>>>|>>>5:=/ee6e/e404044444000d500555aaa0|5|5|5|5111|||5|1||5|5|5>1||1>11111|ww>>>h>>31000**:r                                                                                                                                                                                                                             r=/=/=/=/6:/e/66000a044400500550|55a5aa|||55|5|1>1|||5||1|||||11>51>>|>11|11>1>>1>>",
"1|11|1|1>55e/=:/e///e0444444095a50005a5||555||||||||1|111|111|1|||1111>|>111>111w|1h||>11444*:ia                                                                                                                                                                                                                             y======/=6*e/e/e/a44404ayaa55a0555ah||555||||1||||11111>1111511w1>>>1>111111|||1||1",
"111w11>3>1a:==eeee/6/0a444400005a005aaa|555|5555a|55|||||1h111|1|11111111>w11>11>>111>>1|444::er                                                                                                                                                                                                                             r=/=/=/=//*eie6/e4544*4409aa54a55a555a||55|55||5|||5||111||||11|11>111>1w11111>111>",
"1111>111>15:/=:/eee/ee54044050a00aa040|0040455|55al555||||1|||1|1|111|11111|1|1|11>111w1|44*:eey                                                                                                                                                                                                                             y========/:eee//ee5400455a0a05a54555a005||||5|5|51|||||1|1|511111h|111111h|11111|11",
"11111>11110:==*:/:ee/e:*4:e:*4****::*444*:i:::*44004*440a|5|5||55|a500a||>|115|11>1>1111|4::ee/r                                                                                                                                                                                                                             x===/===//4i6:e/ee**0:e:444*4*::040a4::i*:4055500409||11>11|1||550a5111115111111111",
":::::**0504e/=:4eee/6///eee6eeee:6ee:::ei::::e:::e:e:e**:::e:e:e:e::*::i*::e::::*:*:**555*i6/=fb                                                                                                                                                                                                                             bd=======/:4/eee///eeeee/ieeeeee:*:ee:::ii::ee::::**:*::::::::e::*::::::e::*:*:*:*5",
":ee:e::*44i6==/e///////////6/6/6/6/e6e/eee6e6e/eee6eeeeieeeiee/eeee:eeeieee::::ee:e::**4:e/e*xb                                                                                                                                                                                                                               +vdf//===ee6=////////6/6/6/6/e66/eee/eee/eee/eeeeeeeeiee/eeee:eeeieie:::::e:eii**:",
"mcmcnnmmmcss87tmppppppppppppppppppppppppnpnpppppnpppnpnnnpnnpxpnnpnnppppncnnmmmcccnncmmmz8b+                                                                                                                                                                                                                                     ++t8znppppppppppppppppppppppppxppnxppppnpppnpnnnpnnnpppnnnnppppnncnmmmcccnnccs7",
"                                                                                          ++++++++++++++++++++++++++++++++++++++++                                                                                                                                                         ++++++++++++++++++++++++++++++++++++++++                                                                             ",
"i666i666i666i666i666i666i666i666i666i666i666i666i666i6666ptzcyf6i666i666i666i666i666i666ie::**44d49d090yaaaa5a55r5r5l5ll|l55rlh|h5>b                                                                                                                                                     +r6ff*f*f*f*f*********:*f***f***666i666i666i666i666i666i666i666i666i6f9pu8n6666i666i666i666i666i666i666i666i666i666i666",
"eee:eee:e:/e6e/e6e/e/e/eeeeeeeeeeeee/eeeeeeeee/eee====/eee/e/e/e/e/eeeeeeee:eee:e:e::::*e:i::***:****4*444444440444004404044**0||54w+                                                                                                                                                   +y===/e*44****:*:4*4*4444440444444*4*444**e:eieeee/e/e/e6eeeeeeeee/eeeeeeeeeee/e=====6eeee/e/e/e6e/eeeeeeeeeeeeeeieii:ee",
"a050aa55555055|555505555|||5|5|5||||||||||1||||504i==/4*444*4444040404000050505055555||5|5||||1|||1|1111111111>111>1>w>w>1>>1h111h508                                                                                                                                                   8=/===/:055050500a505555||||||1|||1|||1|1||||||||||5|5|5|||||5||||||||||||1|||50*===/e4*4*4*4444000000000a50555055a555|5",
"1>>>1>1>>>>>>>>>>333>3333kcn3cnccncn3knk3kc&cmcmp|*e=5|50|55|1|a5||111|111111>>>1>1>1>>>>n>3>3>n3n3c3c3kck3k3kckcmc&ckcmcmckcmc3>>|58                                                                                                                                                   8/=/=//*h1|15|11h|5|1w111>>>>>>3>3p333p333c333p33cckckckckcmckc&cmckcmc&3kck3k3k34==/:|155|||1115111>>>>>>1>1np3>3pn33>n",
"1111>1>>>11>>>>>>>>>3>3>c3c3c3c3ccc3ccccmcc3ccmcc|4//01|1|||15|||5||11||1|1111>111>>>1>>>1>>3>>>3p3cccccccc33cccmcccmcccmcccmcc3>1|58                                                                                                                                                   8===/=/*||15||||||1|111115|>>>>>>>3w>>3>n33>3pnpc3c3mcccccmcmcccccmcmcccccccc3ccc0==/:1111>|111|1h11>1>111>>>>333>ppn33c",
"1>1|5>>>>||||111|1>n3n3cccckckcmcmcmcmcmcmcmcmcn>|*/=5|5w||1|h|11aa50||11>1>1>1>11|>>>>>1||11>|11n3kckcmcmcmcmcmcmcmcmcmcmcmcc33>1|58                                                                                                                                                   8/=/=//41501|1|111114|a||1|>>3>3>333||>33c1>1>>3>>>3cmcmcmcmcmcmcmcmcmcmcmcmcmcmc5==/:|1a>111w11>>a|55|>1>>3>33333>1>n3k",
"11>114511||511>>113>>>3>33c3n3ncc3c3ccc3ccccccmcc14==0|41|150|h5||554515|h111111>1>4a|10|5|1>>w>3>3>3333c3c3cnkcccccmcmcccmcmcm3>1|08                                                                                                                                                   8=/===/*|50||||51111|l|41111>>3>>>3>>195>>111133cpn3c3c3ccmcccmcmcmcccmcccccc3ccca==/:554|11|0111115141111>13>>>>3>>00>>",
"||1|1|4||11>1>>>1>>>>>>>>333>n>33n3c3kcccc3c3kcm31*/=454||||5|||||0|1||551|1111111||*a|11>1>>>>3>3>>13>3333c33cmnkcmcmcc3m3ccmcn11508                                                                                                                                                   8/=/=//405415|5551h1|5111>|1>>>>1>131>|4|>>>333n3nnc3cnn3cccckcc3kccccccccnn3n3cc5===:0|*1|1|||>11|51>|>|1>1>n>>>31>145>",
"1||1154|||1|1|1|>1>1>1>>>>>>3>3>33p>c3333>33cpccc|4=/*a*|a||5a5||||515|55|||||11111|||1|1|1111>1>>>w>p>p3>33cpncnwccc3c3c3n3ccc31|548                                                                                                                                                   8===/=/*404||555||||1|5|1|||1|11>111>>14w1>pp1>>1>333p33c3ccc3ccc3c33cc3c3333>3cc0===f954|||15||1|>1|1||1|>1>1>>31p>>5rp",
"110541a5||||11|5|>>>>>1>1>>333>n3nnp33>>>33n3ncn>|*/=44:||||||51||555||1|||1|111|501||11|11>||lp>>>>>3>3>3>3333cc>pc3>>33ccccm3>11a08                                                                                                                                                   8/=/=/=*4501|||||111515||111111>1>15|4>|5>1>>p>3513c3c33333nncnccccc>nnn>3>3333cna===i40*1|1|1|11w115|111>1>>>13>>|51>5p",
"15h55||0||1|1|144>1>>1>1>>>>>>>>3>pp3331>>3p33cp35*==446|555555||50||5|55|1|||1||||5|4||||1||54ww1>>>111>>3>333p333nnw>>3333cnn>1|548                                                                                                                                                   8=/=/=/:0a0|50|555h|551|||1||1>111111|>|a|>111>1043>3p3p3>np33n3n3npn3c3>1>>3>3334==/e04i||5|5|5111a1|1|||>1>1>1>1>|110|",
"|1|1|1|111|1|11|41>>1>>>13>>>>>>>3>n3n>n>n>n>ccc31*/=:4:a|5555a55|5|5||55||1|1|1|111111|h1|1114|>31>>p>3>3>>w3>3pcnn1cp3>c3nccn3||508                                                                                                                                                   8/=/=//**04|555555|1||||111151111w1>1>>>1p11w11ph01n>3p33>3n3c>33333nnpp33>>p3pc35===:40:|||5|55|1|11111|11>1w1>w>1>>p>3",
"1|1|1|111|||1|111a|1>w>1>1>w>>11>>>>pp1w3>>p3pn3>5:=//*:aa0a55a0aa5|55|555|5|||11|11111|5|1|11|0|w>>>>>>>1>>>1>>>>pn>>3p3p3>np31|5548                                                                                                                                                   8===/=/:i*4|55|55055|5||||1|||||>111>1>>>1>1>11>315h3p3p3p3p3>3w>>p>pwn1>>>>3>>p34==/6:**55a55|555551||11|1111>1>11w3>>w",
"|1|15h|1|1|1|1|1|101111>>>>>>3>11>>>1n1>33>3>p3p15:/=i:*05555500055|5|5|555|5||1h|51|||1|1|111>>5|1>1>w>>3p3pw1>>31c3>ppp3>>n3>1a|a48                                                                                                                                                   8/=/=/=:*:*50|555aa55|5||5|1|||||>1>111>>w111>1>>>1a1pw>p3p3p3pn1>>>w1n3>3>3>>1c>4===ei**a5|5|55a55||1|1|||111|>>>111w|1",
"|||5||1|||1|1|1|||1|111|>>>>>>>>>>>>>>3>>>3>>>np>0:==:iea05a5aaa5055555055||||||||||||||1|111|1h11>1>1w>>>3>>pp>>ppp3p>>3>3>333|a5a*8                                                                                                                                                   8=/=/=/:*e*5a55aaa5555|5|5|5||1|11111|>11|111w>11|>h11>11>3p3p3>3>3>3w3p>>p>>>>p34===6*e:555|55a5555|5|55|||11111111111h",
"5||h|1|||111|111|11>|>111>w>1>>p>n>>>3>3>333>3n315:/=:ee*5a5a50aa5555|5|5||||||||1|1|||111|1|1111>1>1>1>>>>>>3>3p>>npn3pp3pnp3p1a|a48                                                                                                                                                   8/=/=//:*i:|5555aa055|5|5||||1|1||1111111>1>111>1>1>>1>>w>>>>3>3pn33>>>3>n>3>>>3>0===e*:e4055r5aa55|5||||||1111111111x1>",
"55||||||||h|1|1|1|||1111>11111>w>>>w>>>1>1>w>>>>10:==:ee/4a0a000005a5aa5505555|555|||5||1|h|1|1|1|1111>1>11wp>>>pw>pp1>>>w>>p1>|a50*8                                                                                                                                                   8===/=/e4/ee00aa505a55555a|5|||||5h|1|1|1111>111>1>111>1>>>>>1>>>>>>>>3>1w>1>1>>>4===/4e:/4aa0505a555555|55|||||||1|1||1",
"555|||5|5||1|1|1|||1|1|11>1>1>1>1>>>>pw>w>>>>>>>|ae/=*eie4000000000a5|5aa055||ar||||5||||1|1|1|||1|1111>1>>>>p>3>>>31>1>pp>>>p110|948                                                                                                                                                   8/=/=/=:4ee*450aaa0a40a|5|5|5|51|||||h|||||11111111>111w1>>3>>>>>>>p>>p>1>>>>>1>14===64ii:45aa0a05055|||555|51|h|||1|||1",
"555555|l|5|5h|1|||1|||1|1h1111>1>1>1>>>11111113>14i==:eee*440004040a0a5a555055l55555|5|5||h|111|1|11111|11w1>1>1>w>>w1>1>>11pw>50a4:8                                                                                                                                                   8=/=/=/6*/:e0594040a005a|5laa555|||5h5||1|h|111111111|111111>1>1>1>1>>>11111>11>>*===/*/:e44a9a000005a|555|555|||5|5||||",
"5|||5|||51||515w|1h1|||||11111111>1>1>1>111>1>w5|0i/=i//*:*a4004400500a505a5a55|5|5|5||||151a11111|1|||111111w1>1>1>w>111>>>111|954*g                                                                                                                                                   8/=/=///:ee0i500404a05555555555l5||||||||111||15w11111|1|1111>1>1>>>1w>>1w1>1w1>|*===6://0:4a00a40055a0555555|5||||||1||",
"0a|aa55555||a00a5|1||l||1|111|111h111111111111>|10e==//=e:*40*4*444*0054040a|5|a5555|55|1|5450||1|||15|111111111>111>111>h1|111|404:8                                                                                                                                                   8===/==/*//:e4440*944*405a04aaa5|a555a||||1h10aa|5111|1h||11w111>111>1>11|1111111*===/://e4*0444444*4055040a55|||l|5||||",
"50000|5|aa5|555a0|5|||5|||5|5||||||1h1|111|1h11w|0e==e////*44444404444400005555a0aa555005|5|55a|5|||55a||||1|||||1|1|||1h1|11>1|*0*:g                                                                                                                                                   8/=/=/=e*e///044004044*44040a|a505a5a5||5aa|||5|55|||1||5|55|||||||1|1||11|1|1|114===6e6///44440404040404aa5aaa|aaa55|a5",
"0005aaaa555aa5|5a055|5|55|||||1|||1|1111>1w51|1||4e==/6///:a44444*44400009a000a4a5505a5a55555a5a55|5555||11|11|||1>111>11|1||115*4*e8                                                                                                                                                   8=/===//e////4a44*44044400000aa0aaaa5a5a55|55a|5|a55|5|555||1|1|1|||11wh1w>15|||1*===/6////:540*040904a0a00a50aaaa|aaa55",
"4a45a54a05055|55a00aa5a50555a55||1|11|5|1>11|51||5e==/ee/ee0*444*****440450040444a500a00a555a555055505a|55555||1|111511>1x|>111h*4:fg                                                                                                                                                   8/=/=/=e6e66/:a044*4*4*444400400400055a0a5a05|||a50aa5555555a5555111|1|55ww11|a1|4===6/eee/ea4*0*4***444d0a0900440a|000a",
"4*4404a444900055a05555505555|555|555|5aa5||l|0|554e==e//e//e0*444***4**4a90444000444a00a5905a5a0550055555||5|5555a5|aa5||51h|||54*:6g                                                                                                                                                   8======/*/e///*9**4***4*4*4*04045444400044440055|0aa|5|55a55||55|5|a555a55|5|5a5|*===/:/e///:4**4*4*4*4*40094*90090400aa",
"4440049044400a00050|5|5555|h|1||||||1||1|||1||51|0e==e/e6//e*4*444*4444940494400404000000a0aa0a55|555551|1|1|1|||||1|1|1|1|ha1||:*iez                                                                                                                                                   8==/=/=6:e/e/6e0*4:44444404000400040004090400a0a0aa555l|555||1|1|||1|1|1|||1||5||4===/e6/e/6/4*4*4***444409044404009904a",
"0404a0a0000900aaa0a0aaa0555a555||55a|55555|5||h5|4e==666e///e0****4*4444449404044900a000a0005aa0a05aa40a55|5551||5|555555||5|5|a::ift                                                                                                                                                   +6====//:/e///e:0*4*444*444444400400a55000a000a05aa0aa50aa5a55|5|5555||555|5|5|||*===/i/e/6//ea:4*444*440494400044aa5000",
"04:::4400000404005a555aa5|55a55||155||a||1|||1||50e==i/e6e/6e444:**4*44444*04404*::4*00000404005555550055555a||1|a5|5155||||||l5:::t                                                                                                                                                     +6==/=6e6ee///e44**:4444044*4440a4*:*400aa5000005555|a5a55|55a5|1|5a1555||||1|1|4===/:e/e///i40**:444404044000544:*4005",
"ieeee6ee:e:::eie***********:*:::**44440400040405a*e==i*/e//=e/eee///:eeee/ee::i6eee6ee:e:::::i:*4***4****:***:**0*4400000444a554*rb                                                                                                                                                       +n===/*e/6e///e6e/e/eeeee/e/e::ii6eee/::i:*::e::**4*4*4*4**:*:**4*4400040004405:====:*//e///eei6//eee6:ee/i::ie/eee/::",
"6eeee:eeee/e6ee::iee6eee/e6:e:i:ee/eeeeieeeee::*4*/6yf:e/e/////66e6eee/eeeeiee/eeee:eeee/e/ee:i:ee6e6e/eeii:::6eeeeee:eeeie::*4a8                                                                                                                                                           ta=/e*/e66/////eee/e/eeeei6iee/eeieeee/e6eeee:eeee/eee6ee:i:eiee6e/eeee:eee*ar/==/e*///6/////e6e6e/eeeeiee6e/ee:eeee",
"///=/=/=///=////////66e66////=/=//e/eee///e///eee/dvg*/===========/===/===/=/=/=///=/=////////e66fi//=/////=/=//e/e6ee6/e///eeep8zgzgzgzgzgzgggzgggz8g8g8g8g8g8g8g8g8ggb                                                                             bzzzzzzzzzzzzzzzzzzzzzzzzzzzzzzzzzzzzzz8zd=/=/=======/===/===/=/=/=///6666=///=///////////=///=/=/=//e//6e6//e///eexznf==/===/===/=/===/=/===/=/6e6///=/=/=",
"=====================hsd======================================================================fbtn/============================/=//6/e6eeeeeeie:e::::::::*:*:***:*:*:*:0b                                                                           bf=/=/=/=///////////////=//============================================a8b*======================================================================fmx========",
"===============================================================================================**=============================////ee:e::*:*:********4*4*4*44444*4*4*4*4*|b                                                                         +d==/e///e/e/e/eeeeeeieie:e:eeee////=====================================/f==================================================================================",
"////////////===///=///=//////////////////////////////////////////////////////////////////====/=///=///=////////////////////e/ee:e::******4*4*4*4444444404040404444*4*0a50b                                                                         +6/=/e:i:::i::::*:*:****4***4*4*4*4**:*i:eeee////////////////////////////////=======///=////////////////////////////e//////////////////////////////////////==",
"**4***4::::e/=/e:::e:e:e:i::::::*:*:***:*********:*:***:*:::::*:*********************::::/==/e:::e:e:e:i::::::*:*:***:******4*4***4*440*4444440000000000000000a0aa04*0555b                                                                         +6===:*444*4***4444440400a40004040000040*4*4*4**:*:*:***********************::/====ee:::e:e:e::::::*:*:*:***:******4**:*:***:*:::*:********************4**::/",
"1111|h11||4*6/:444444044404090000aa5a5a5a55555555|5|5|5||||||||h|111|1|1h11111111w|h11hl4:/=i44440404040400a0005a5a5a55555555||1|||1|1111x111>11w>111>w>1pwww>wpw1ww11||5+                                                                         +6/=/:00000450500a5555||55||1|||||||1|1|1|||1|1|1h111|1111xh1|111h111h1111|11||e==/e444444040400a05a055555|555||55|5||1|||1|1|1|1h1|1h111|1|111h111|1h1|||1|5",
"pwpwpwpwpwa:e=050400a0a000aa5555|5|5||||||||1|||1l|11|11w111w1ww>www>wwwwwpwpw>wpw>wpwpwa:/=400400055509a0|||5555|55||||1|||||1|111|11w1www1wwwwpwpwpwpppwppwxpppxwwpw|55b                                                                         +6==/*550a05a55545555|||5|||11|1|111111ww11w11wwwpwpwpwpwpwpppwpwpwpppwpppwpwpw4===i||005505a505555||||||1|11w111w1whww11>wwwpwpwpwpwpwpppwpwpwpwpwp1pwpwp1ww",
"1wwpwpppxxa*//0545|555a55540a5a04||||1|1||a||1|1|551||5||w1wwwwwwpw>w>wpwpwpppwpppppppwwa*=/4a4505a|5555400|5045||5||1|155|111|5|||1|||11wwpww1wwwwpppppppppppwpppwppp1|ab                                                                         +6/=/:5050|a5555504a5|a0511|11111|5|x1111|||1|1|1wpwpppwpppwpppppppppppwpwpwppp4==/er50a55|5|5|50a5||0a|1111w1w||1ww>w1|11w11h1wpwpppwpwpppwpppppppppw>wp1ww>",
"wwpwpwpww15:e=04:55a5a5555444*0555|55||||||aa|1|0000|5|051w1w1wwwwpw>wpwpwpwpwpwpppwppp15:/=0545aa5055|5040:a555|5|5|||||a0||15005|||5|1wwwwww>wwwpwpppwpwpxpwpwpwpxpww|ab                                                                         +6=/=*500555a5555545*4||5||1|1h|11la51110|5||||||>wpwpwpwpppwpppxpwpwpppwpwpwpw0===:a0*|555|5|||404*5|51|1|11111|5a11w5|5||1|||wwpwpwpwpwpppwpppwpwpwpwpwwwpw",
"w>www>wpwp|*//*9:5aa0055a5a0a0a505555|5|51||**05055||1|1|1h1111w1>1ww>w>w>wwwpw>wpwpwppp5*=/*0450504055550a0055555|55|5151a*05aaa||1111w1w|11ww>wpw>wpppwpppwpwpwpwppp1|a+                                                                         +6/=/:04005aaa|5|550|0|555||1|1|h11|44|5|5|111x1ww>1wwpwpwpppwpppw>wpwpwpwpwpwp0==/:04*|5a5a|5|550|a|||5||1|111w1h4:5||||1w1ww>www>wpwpwpwpwpwpwwwpw>w>www>ww",
"w1w1whwxp15:6=:4:004040a0004500544505555555554aa|5|||5||1|||||1|1111w111w1w1p1w1w1wwwxp15:==:4*004000aaaa4054a5450|5555||5|405|5|5||||1|1|11xhw1w1w111p1wwp1wwwwwwwwpxw5ab                                                                         +6===:*44a00050555095a4a45555|555w5|5*5||1|111|w1w1w1x1wwwwwww1wxwwwxwwwww1w1ww0===i*0:5004aa50500550|05|||||||1||5aa|h11x111www1w111w1wwwww1wxw1wxw1w1w1w1ww",
"111w1w1www5*//*4:a4500aaaaa5455500a555555055545|555|55a1|1|||1|1111x1x1wwx|www1www1wwwww5*=/*4400a00a50aa540a5a0555|5555|55a01555|a|5||11|1w111w1w1wwwww|wwwww1wwwwwwp1|0b                                                                         +6/=/:440aaaa0aa505505aa5a|5|51||5|5|41|1|1|1151ww11www1wwwwwwwwp11wpwx1www11ww4==/e44*505a0|555||05|5|a||||1||a|l|0511|1|11|111whw1w1wwwwwwwwwx1wpww111x11ww",
"||1|11w1x|a:/=*4fa00a050aaa40450aa5aaa5aa05*a4*a5555554*||151|1||h1|1111www1w1|11hw1wxw10:/=**4090a050a0a4a050a055aa55a5|4554a5555|5541hx|111|1111w1w1w1xhw111w1w1www1|50b                                                                         b6=/=:**9a0a050555454a5|5555a5||5|59|5455||||1aa1w1w11|1hwww1w1w1whx11|1h11w1w14===e*4:|0a55a5550a5055555|5|5|555455*||1|1|1041w111w111w1w1w1w1w11ww|111h11w1",
"|||w11ww1w5*//:4ia00000005a49000000505a505a5a54|5555a54*|||111|||1h1|x1x1wx1xwh1|111xpxx0:=/:4*0000a00050444050005a5555555a505555555a*|wh|11||1h|x1w1w1w1wwwx1h11wxwww150+                                                                         +6/=/i4*4a00a90455545055595555||5a|||50|||||||04w1x1111111w1wxwwwxw1wx||||x1www4==/e*4:55050005559555a55|55||||5|5||05||||||5*x111w11|1111xww1w1w1wx1|1|1|1w1",
"w||11|11w|5:/=e::404444444040000040aaaa05a55555555|5|ar40|||1|||1||h1|1|11x1x5111|1h11w1ae==e**40449040904440009500a505a55aa5555|5|5|4*|1|1|1h||111h1|1111wlxh||1111w1150b                                                                         +6===::4*a4440440a4490554a055|5555555|||51|||15*0w11hx1w11hwh1|1hw1wh|h|51h1hw14===ee*ia0040904a00050505555|555||||||15|h1h1|d4111h11x|11xhx11|11wh5h15||1|11",
"|||1111wl|4:///::0444440444440400000050555a5555|a55|55||04l1|||1|1|111|1h1|rw1hwwxhw1w||4e=/6*:4444d40404040009000a0055555a55|555||||a04|x11|1|1111x|11x1rxw1w1x1w1wh1550b                                                                         +6/=/6::*444000400040a55005055|5||55||1|55||h||50911x|11x1x1w|h111hlwh1|1111x11*==//ei*0040404040400aa505a|55||||5|||h||111|1|541x1|x111x1w11h1115wh111h11111",
"||1h1|11154ee=ie:0a4040*44449990040000a05a59aaaa5a5555|5500h||||||1|1h|55|15x11|1h1h11x54e/=eie444044444440409040000aa55a05555|5|5|5|5|a0h1|||1|1hxh|5||1hw11|xh1111xh|00b                                                                         b6=/=iee*049904044404040000aa55|555a5|5||5|||||||a51|||1|11x11|551h|1||1|1h1|1|4===eei:a44004490400a05a005555|||505|5||||||||1|a0xh1|1|1h11x|55h||11|||1|1|1h",
"11|11111h|4://iee040404440404040000a0a00a5a5aa55955|5|5555|||1|1|||1h11x111x1111|11x11114i==e:e0444040404040450005a500a5555aa50555555|5|5r|1|||1|111hw1x1wx1h1111w11hw5a4+                                                                         +6/=/e*e*0400404440000a0005a55555a555055a55h1||5|5||1h111hx1xhxxx1w11|x11|111|14==/6:e:0440004a00d0000aa5a555a55|555|5a5||1|1||51|111|1|11w111x111x|1|1|1h1|1",
"h|||1h111l4e/=i/ee0444444*44400404a0a00aa9aa5a5a55555a5555|||5|5||||1|1h1|1h1||h|51h1h||4e==ie6e4444044*449400a0000aa0a055505a555a55|555|555|5||1|1|1hhh1|1|||1|1h11x|544b                                                                         +6===eee/4444444444040400000a5055aa555555|5|||555|5||h|||1|1h1h1h1|1|1|1|||1|1|4===6:e/:44444444404a000a5555a55a5|5|||5|5|55|||||1||h||1|1|1h1|1|1h||1|||1|1l",
"5||1|1|1h|4://:e//4444444440404040000a05000aa5aaa5a5aaa555a|||5|5||||1|h|1|h|1|||||1|h||4e=/::/e:0404444*0404040004aaa000aaaa5a55|555|55a55||||h|||1|||1h||1|||1|1|111504b                                                                         +6/=/e:eee4494049*00044404005aaa5a5a5555|5|5|5|5|555|5||||||||1|1|1|1||||||||||*===/*/e/44049444000d00005055555a55555555|55555|55|||1|||h|||h|1|1|1||5|||||||",
"|5h|||||h54e/=:/e/**4*4***444404449400a000a0a0aaa0aa5aaa005a55555a5|55|5|||5||h5|l|||h154e==:/ee**4*4*4*44440404040400a909a0aa50aa5555aa5555555555|5l5||||1||5|l|5||h|a44b                                                                         b6=/=e:66:*d*444*4*04040404040aa0aa5a5a500a555550a5|5|5|555|5|||||||||||||5|51|*===6:e6e*4*444*4*4400440409aaa0aa5a555550|a5a505555|55555|55|55||||1|55|5|5h|",
"5|||||5hr|*i//ee6:i44444*4*444d04090404040000a0a0aaa5055a555555555555|||||||||5||1|||1l|*e==e/6:e*4444*4*44**000d0009090000aa55a055a55555555555|5|5|||5|||||5||h|||1||04*b                                                                         +//=/ee/:e:44*4444444*000400d0a000a0aa00a05555|55a55|55555|5|5h|||||h5|||||5|||*==//:/e::4d*444*44d40000000000000055aa5a55|0|55555|5|555|5|5|l||||1555|||5|||",
"55|5|5550a46/=e//:e*4*4*4***4*444*4404d40404000050a4a4555a55505a55|5|555|5|||55||5|||54a4/==e//::e**4*4***4*4444440404090400aa5aa9a4055555555055|5|5|55l|5||55|5|5|l000**b                                                                         +6===////4/4*4*4*4*4*444444d444090909a0aa5045455a5a555055|5|5|5|5|5||55|5|555|0*===/e//*:4*444*4*444444440404090000aa555a0a45|5555a5a55|5|5|5|5|||||5|555|550",
"5||h||||55*e=/////e**44*:***:**4444444404440404445004a440aa5a005a0a5555|||5|||5|5h||||554e==6e=/6**4******:**44044*440440040944a0a4a444aa5aaa5a0a55||h|||1||5|||l|5|5504*b                                                                         +6==//6//ee4*******:**440444440400a009040554044*0a5a5a|5|a5||55|1|ll|5|5|5|||||*===/e///:***4***4:**440444440044a940044a594a040a5550555055l5r|h5|5|555|||||55",
"a055l555504//=6////**:444*4***4**4444904444*0400000404945aa0a05000a0000a|550500005|555|a4/==6//=/:4**:**44444*444494444400440000040904a5a05050a050a5|||5|559a0aa5a5al50**b                                                                         b6=/=6/////4:*:**4*4*4*4*44044444949440049444044a50005a5aa055505555aa505aa5|a55*===/////=******4*4*4*4*94440444444900090009049550a0aa50a000a0555aaa00a05a5055",
"0555050aa54e=//////i4***:**4*44444*4*444*444d00000004000a5a500aaa5a|a5|l55a5550005aa0aaa4e==/e///e4***:**444*44444444440d044400000000aa5a5aa0a55555|5|550555aa05a0aaa50*:b                                                                         +//=//6////*4:*:*:**4*444444444444040400000400505a5aaa5555|5|5|555555a505500005*===///6//e0*4:**4*4444444*400444040400a0a00400555a505a555555h5555a50a4a50000a",
"0a00504a5046==///=//*:::::::*:*:***:4*4*4**44*444*4404444*4004444*4004aaa4000*40a05040aa4/==//////:*:*:i*:*:*****44*4****44*4*44**44444*040444440444a0a4090444a05a4055a::b                                                                         +6===6/6///e4::*e::*:**4*****4*****4444444*44544*44a044444444005400a444a0050450*===///////**:*:::::****4*****4***044*444*44044*4400444444a4405044a444a00a54a0",
"400a050500*e==e//6///*:********4*4*4*4*440*4444040444400004000900a0000000a05aa0aa0450500*e==e//6///4**:*:**4*4*4*4*4*4444*44444d444040904040a94a04400440aaa00a000000004*h                                                                           m==//e/e///:4*:*:**4*4*4*4*444*444*444*440404a40004a400500050045004a009a00a00a:===/:/e///e**:****4*444*444*44044*4404440404a0000000a0a0040004000050a0a000aaa",
"00a00a5a504/==e//////**ee:*:********4*4*444*4*4*444*449404044404444404040009a0a4aa500aaa*/==//6////i4i*:*:**4*4*****444*4*4*44444444440444440499040400090059a0a0a000a09e8                                                                           +6==////////4:::**********4*444*444*4*4*4444440404944444440904000444a90aa05aaa*===/6//e///**ie*:****4***4*4*444*4*4*44444494040404044404490909090aa090a0a9a0",
"050aaa05a0*e==666e///e4::****4***4**:444*4**4444*444400040404440d0404a000000004a00a005a0*e==6//e///6*****4*4**:**4**44*4**4444*44040404444444400400ad0004000000a0000054a+                                                                            8=//e/e/e/6e4:**4*****4****4444**404444*d40900440444d404040000a000040000a0a05:==//e/e/6/ee4:****4***4*****4*444*0004444*000004044404040400090009a40000a00aa",
"0000a90454*e/=i///////i:*eee:::i:e::*:**:/e6ee*****:*e:*4444444*4*444:4400005440a0a00954*//=ee//6///e::ee6:::::e:e::*:*6e6ee****4**:::4494444*44444*4440a0a400a0a004004z                                                                              d=/://e////e:ie/::::*::e:****ee6ee:***4*4*::*4040004444404444050000900000440*===/://e////e*::ei:*::::e:***4:e6ee:*4*44**::**440404444444*444a0000400000400",
"i:::eee**4:e==e:/e///////e/e/e/6eeee6e66/eeeee/e/6/eeeeeee6eeeeeee/eee/eeeeii::::*iie**4:///e*/6///////eee/e/e/eeeee6//e6eee/e/6/e/eeieiee6eeeeeeeeeee/ee:e*:::*::e:*4***d*d*d*d4d4dd9d090y0yay0yayaaayaaayrt   bdiffffffffffffff:f*fffffffffffffffff*/=/:i6/6/////e6e/e/6/e/e6e6e/eeeee/e/6/e/e6eeeeeeeeeeeeeee6e/ee:e:::i:::e:*4e/==/::6/e/////eee/e/e/e/e6e/e//6eee/e66/e/ee:eeeeeeeeee6eeeee/eeie:::i:::ee:4",
"e/e/e6ee::e===///=/=/=/=//////////////6///6/////e/6/e/e/e/e/6/6/e/e/e/e/e/e/e6e/e6e/ee:i/===//6=///=/=////////////6///6/6/6///e/6/e/e/e/6/e///e/e6e/e/e/e6e/e/e/e/ee::6=////6/e/e6e/eeeeeeieieie:e:e:i:i:i:e47 b6=====/=/=/=///////////=/===============//6=///=/=////////////6///6///e///e///e/e/e/6/e///e/66e/e/e/e6e/e/e/e/ee:e=====/6////=/=//////////////6///6/6///6/6/e/e/e/e/6///e/e/e/e/e/e/e6e/e/e/ee:/",
"=/=/===///=================================================/=====/=/=====/=/////=/===///=========================================/==rr===/=====/=/=====/=/////=/===////6/eeeeeeee:e:e:i:i::::*:*:*********:*:p p=////////e/e/e/e/e6e6eeeee////===/=====================================fx========/===/=======/=====/=/////=/===//==================================================/=====/=/=====/=/////=/===//=",
"====================================================================================================================================vf==============================////eeeeie::::::*:*:*:******4*4*4********r x==//////e/e6e6eeeeeeeeeeieiei/e//======================================/h=======================================================================================================================",
"=/=/=/=/=/=///////=///=///=/////=/////////=/=/////=====/=/=/=/=/=/=/=/=/=/=/=/=/=/=/=///=/=/////=/=/=/=///=///=///=///////=/=//======/=/=/=/=/=/=/=/=/=/=/=/=/=////e/ee::::********4*4*4*4*4444040404444*4*44| p=/eeee/eeee:i::::::::::*:*:*:*:*::e:e:eeee////=///=///=///=///=/////=/=///=====/=/=/=/=/=/=/=/=/=/=/=/=/=/=///=/////=/=/=/=/=/=///////////////////=/=/=======/=/=/=/=/=/=/=/=/=/=/=/=/=///=/////",
"eeeeeeeeeee/e/e/e/////e/6/e/e/e///e///e/e/e/e/e/ee/===e/e/e/////e/e/e6e/e6eee6eeeee/eeee//e///e///////e/e/e/e/e/e///e/e/e/e///e//===e/e///e///e/e/e/e/e/eee/eeeeee:e::ieie:e::ee:e::::*:::*:::*:::*:*:*:*::e4l x=/*::::e:e::::::***************:***::e:eeee///////e/e/e/e/6/e/e/e/e/e/e///=====/e/e///////e/e/e/e6eeeee/eeeeeeeeeee/e/e///////e/e/e/e/e/e6e///e/e/e/e/e/====//e/e/6/////e/e/e6e/e6eeeee/eeeeeeee",
"*4*4*4*4*444*44444*4*444404444444044004040004044**e/=e:::::*:*:*:********4*4*4*4*4*4*4*444*44444*44444404044444040004040004044*://=e:*:***:*:**********4*4*4*4*4*4444040400a05000005ar5555a5a5a55r5555550r000|+p=e*44444*4*4*4444440400000440040004000400000444440404004404040004040004044:/===ei**::*:*:********4*4*444*4*4*4444444444444444444404040444044404000404044:/===ei*:::*:*:******4***4*4*4*4*4*44444",
"00a0000a50a0a0aa55555555l5|5|5l5|5l5h5ll|l|5llhl5*:/=:4***4*444*4*440444040000a00000a4005a5a5a55|5l5l5ll|5|ll5hl|lhll5l|hlllhl5*e==:4*4*4*444*4*44044400a000a0a0505a5a5a555l|l|l|l|lhh||hlhlhhhhhhhlhhhlllhl|5+x/:4*4*9*44044*000400a055r0aa5a555al5ra5055l5|l|l|lhlhlhlhl|hhl|l|lhlhl5lh55:===e0*4*4*044***04040000a05a5a555555|5l555l5|5hlhl|lhlh|hlhlhl|lhl|l|l|ll5|lre==//4*4*4*04444444a4a0aaa555555555|555",
"aa05a5a|55055|055l5|l|l||hhhhhh|hhhhhhhhhhhhhhhxh0:/=444404494404440004040a005a505a5aa5|aa5|ll5l5|lh|hhhhhhh|hhxhhhxhhhxhhhxhhh0e==*44404040004040a50045a00555a555a|l|55l|5|||lhh||hhhhhhhhxhhhxhhhhhhhxhhhxhh+p=*944440444a44400a4005055|5555555||h5a5|||||lhhhhhhxhhhxhhhxhhhxhhhxhhhhhhh4===i444440404a40000500a555a|55555|5||hl5lhh|h|lhhhhhhhhxhhhxhhhxhhhxhhhxhhhhh4===e4040004a400000a55a0aa|5|5|ll5|l|5h",
"5aa*4a5a5444aaa004l5ll|l|l|lhhhlhhhhhhhhhhhhhhh554:==*0*a*4404040*4*444*00aaaa5aa9905a50045050045l|lhlhhhhhhhhhhhhhhhhhhhhhhhl54e==*9:4*4404090***444*0aaa5a5a54*a5a5a040a50505lhhhhhhhhhhhhhhhhhhhhhhhhhhhh||+x/:0*a404990404***4040a5a555555a055l5a0555550ahhhhhhhhhhhhhhhhhhhhhhhhhhhhhh*==/e0**499040904*44404005555l5|a44|5ll0005|55a55hhhhhhhhhhhhhhhhhhhhhhhhhhhhh*==/6004a000000aa4444a99a5555|r|5a45l|l",
"050a4*4a0444400a9a5|5|5|l|l|l|lhhhlhhhhhhhhhhhhhl0:/=44*9444*09044*4:049000a0aaaaa0**0a44400050al|5|l|lhl|lhhhhhhhhhhhhhhhhhhhl0e==*4*4040*04044*4:44040050aaaa5a4*050444a050al|l|l|lhhhhhhhhhhhhhhhhhhhhhhhh1+p=:4*4044*40040*4*4a0400a05555554*050400a05aa5|l|lhhhhhhhhhhhhhhhhhhhhhhhhhh4===i44*04044a00044**a04aa5a5555r5a*05ha045a|5a5|hhhhhhhhhhhhhhhhhhhhhhhhhhhhl4===e40:000440a0a944*aa05555|5|5|5r*4al",
"04040*:*4400a000a05a505555l5l5l5l5lllll5h5ll|lhll4:==:4f0*4***444**4440*44440404a44*i:4aa0a0005a555a5555l5llh5llhlll|lhlllllhlh4e==i4:*44*4*44044*0*0449440d04aa04:*44aa505555555555llhlhlhlhrllhlhlhlhlhlhlh|+x/e4:4*444*0400440404440000a05a04*e40505a5a55l5lll5llhlhlhlhlhlhlhlhlll|lhlh*===e4*:4**4*04004*040004a0aa50a5004e405a55l5555lllll|lhlhlhl|lhlhlhlhllll5llh*==/6*4:4494*44044*040a4050505555004e40",
"440004:440000040a5a5a5a5a5555l55lh5llh5|5ll|l|lhl0:/=:*:4444*44444444444404040900000400500050a0a55a55r5|5l5|l5lhrllh5ll|l|lhhhl0e==:*:*444*44440444444*0404000450a4*00000a0aa55|55555|l|l|lhlhlhhhlhl|l|l|lhh|+p=i***04444444444404944000a4045009*0a0a55a55l5l5|555|l|l|lhlhhrlhh|l|lhl|lhl4===e:4:044*444400440404400050a0raa4*905r55a5all|5|5|l|lhl|lhl|hll|l|l|5|l|5hh4===e:4:04044404490404040aa5aa5555r04*l",
"04***4**4404040*0a55a0aa555a55l555lal55a55|5lllr54:==e*e4*4*4444444*44444404940004*444a40400044a5550555555r5l5lllalll5l5ll|lhll4e==e*40*4*4*44949**444440404044***0:a404a00445l555l555l5l5l5llhlll|5l5l5lll5l5+x=e*e*4444*44d444*044940400a4044*0*50a0a0a045l5l5l5l5lll5lllrh55ll5l5l5l5l5l*===6***4444*440440*40404090000a*9*a*405a00aa4alll555l5l5ll|ll5hral|55555l5lll*===6**i4444490090444a900a0a0aa55a*0045",
"9444*44*4040900*:505a5aaa555a|5r555r5|50055l5hlr54e/=**e*4***4*444*4*444*044404440444*40400004:5ara555a55l5l5|5rr|lhl5a55|l|l|54/==:*4*44444*044*044444000444040440**d004000e0a55555a55lr|l|5|5|lhl5a555l|ll55+p=:*e:444444444*4*44440004000400444*0050005:45rll5l5l5|5ll|llrhl|lr55a5555|l4===e*4*4*44444444400440000aa05004449:0a505a54*55ll5l5lll5|lll|5ll|lr05555|l|5*===e**604**4444044044040aa000a95a095*4",
"444444440404440**aaa0000a5505a555a555ar5r55555l5l4i==e*/****4***4*4***4***44444444440*04044404:95a0a5aaa5a5a555a5555r5555lr5la54e==6*:*44*4***444***4*4444440444040404000404**55505a5a555a555555l55r5555l5l555+x//:i:*444***444*4*444*444490444404440440a0**5a5a5a5a5555l5l5l5l555r55a5ala5*===6:::44*4*4*444*4404444409000904004a00a40a4:a55a555ar55555l555la55ra5ala5ll*==//:*e*4*4*4444444*044*40a4040400500a",
"404044409000944a4*05aa0aaaa55505a55r5r4rll5r5llra4e/=6ie*4*4*4*4*4*4*444*44440404440404440404a**y5a505aaa55l05a5555l455l5l5ll554/==ei:*4*4*444*444*444*4444040400040404090050*4r55a555555la5a5aralaall5l5r5r55+p=ee:e4*4*4*444444440*4404040004040404005009**r5555a5555l55a5555ra05l5l55555*===ee*:4*4*4*4*4444440*4404000050a400a05550054:a5r5555555l55555l5550al5r555l5*===e6*e4*4*4*4*4404440444040000a00000a",
"040444444404040404*40009aaaa5aa400599r50l55a55la0*e==/ie**4*4**:**4*444*4*4*44090444444444440004*4a90aa055ra59005a0lrara55aal50*/==/i6****4*4*4***4*444*44444404444444944000a04*a05aaa55rara00aa45la5araa5l5a0+x=/ee:*4*4*4*4*4*4*444*449444094*44040909aaa94*59aaaar5l5ra005055r555l555555:===/ie:*****4*4*444*4*44440*400004a4000900a0a00*aaa0aa5a55ra0050a4l5a5ra5aa5a:===/ee:**44*4***44444*444*449050040404",
"404440404004400040440000a5a5a555a5a55l555l555r5l0*e/=eee***4*4*****4*4*4*444*4444440444400000440440a05a55555ara55r5r5r5r55555la*/==e/e***4*4*44**4*4*44444444d40444040a090000009a5a5a5555r5ra55r5r55a55ra55la0+p=eee:4*4*4*4*4*4*44444*444444a04409000009aaa0045a555555r5la55r555r555555555*===eee:4*4*4*4*4*4444444444440004000000a0a0a000045aaar55555r5555555ra555a5a55*===6ee64*4*4*4*4*444*44444444000400a00",
"4*444444d*04440404499409a000a05a5a5a5aa55a5a5al50*e==6e/::************444*4*4*4444444*4*4444040404400000a0aa5a5a5aa55a5a5a55l5a*/==/e/**************4*4*4*44444444440404440404040a00a05aa05a5a55555ara5a55555y+x=/i/e***********4***4*4*4*444404449404090900040aa0aa50aa5a5a555a505a5a5a55a*===/e/e***4*******4***444*444*40040404400400a044a4aaaaaaa0555a55505a5a5550555:===/:6e:**4*****4*4*4*9444444400040444",
"444444*4444040400044404a0a0a0505a5a5a5a0aa05a5aa04//=e/6/************4*4*44444*44444444440400040004000a5aa05a5a555ara0a5a5a55504/==eee/:******:4***4*4*444*4444444444440004400004aa55aaaa555a555ar55a5a5555a00+p=eee/e*********4*4***4*4444444444444404004400a900aa5aaa555a555ar5505aaa5aa0*===e:e/e***4***4*4*4***4*44444404044409000000a00400aaaa50aa5a5ara555050aa505a*===6ie//*4*4*****4*4*444*0444444404440",
"4*4*444*44944444444444040aa000a0a0a00a0900005a509*e==e6//e*:***:*:**4*****4*444*4*444*444404040444440400a000a05aa0aa0000a0505a0*/==e6/e/***:***:**4*****4*44**444444440444044404000400a0a0a05aa05a00a0a0aa5a0d+x=/e///*****:*:**4**:**4*4*44444*449449040404099aa409a0a0aa5aaaaaa00900a00aa:===/:/e/:****:*:**4***4***4*444*44944499090404044009005aa0aaaaaaa0a90000000aa:===/:/6/:****:****4*4***4*444444444444",
"*444*444444440044040404040000a0005a0050a0a0aa55a4*e/=:/e/::*:*:****4*4*4*4*4*444*44444444040404040404044000aaaaaaaa505a04a00a50*/==e/e6:**:*:****4*4*4*4*4*4*444*4444444400040004040400a05aaa5aa05aa00a5055500+p=eeeee:*:***:**4*d***4*4*44444444444444040400040000005aa0a0aaa00050aa005ara*===6eeee*d:********444*4*444444444444044400040000000000a05aa05aa0aa00a000a05a*===/i66e::*********444*4444444*4444440",
"4*4*4*4*4444444044444444440404040009090004a000a*4:e==///:/:**:::*:**********4*4*4*4*4*444444444404444*4404040400090a04040000044:/==6e=:/**::*:**************4***4*4*4*444449044444440404040900a00000040000a444+x=/e/eei**:*:*:***:**4****:****4*44**4444d*a40404440404090400a00000000400044e====e=e:e**:*:::*:**4*4*4*4*4**44*444444440*a40404444409040409090409040004004e===/e//:e:*:*::::**:**4***4*4*444*4*44",
"*4*4*444*444*4*444404440444040400a400a90000000a44*/==///e:e***:*:*:********4*4*4*4*4444444*4*440444440404040000a009a00400090004*/==e6//ee*:***:*:**4*****4*4***4*44444444*4444404040904000400a000a00000a000040+p=e///:e:**:***:**4*4*4*444*4*4*444*4404*4*44404040404040000a000a00400000004*===/e/=:/*:*****::*4***4*4*4***4*44444404*444040d0400040404000000000904000404:===/6/=::::*:********4***4*4*4*4*44444",
"4:**4*4********:4444044*4*4*4*4*444*4444044444044:6==//=//:**:::*:*e::*:******4::*444*****4:*:444444**4*4*444*44444444044444099:/==/e=/=i*::::*::e::*:*:********4*4*4***4*4:*444444*4*4*4*4*444444444494400404+x=//=//e:::*:*::e***:**4*4*****4***4***4*****44444*4*4*444*4444444*444444490i===/e//=/****:*::ii:::****4:***:4*4*4*********4*490*444*4*4*4*444444444444400i===/e=/=/:::*:***:i:*:*********:4*4*4*",
"***4*4*4*4***444*4*44444444040404440d000404444444*/==/////e*:::*:*:*:***:**4:****4*4*4*4*4***444*44444444044404440004000d444404*/==//////4::i*:*:***:*:**4**:**4***4*4***4*4*4444444*4404040404000004004404049+n=//////*:::*:*:*:***:****4***4***444*4***444444444*440404094400000404044*00:===//6///***:::*:***:*:*:********4***4*4*444444444444440404444404000404044404:===//////e*:::****:**********4**44*4*4",
"*::*********4*4***44444***4*4*4404444*4*4*444*044*6===/////*:::6:e*:::*****i::*:******4*4*4***4*4*444*444*4*040444944*4444444*4:/===///=/:*::/ie:i::::***:*::*******444*4*4*4*4*4*4*4*4*4*44044404444444440*44+m==///=/i*e*eie:::::**:::::*:::**4*4*4*4*4*444*444***4*4*449444444*4444444*4:===////=//*i:eee:::e::*:*:***:*:4***4*4*4*444*4404444*4*4*4*4444944*4*444**40i====//////*f:iee:::e:****:::**::4*4***",
":::***:*:*:4*4:****44444*4*444*444*444*4*44044404*/==6/////e*:i*i:::i::***:ii*:**4****:****4*4**44*444*4*44444*4***4*4*4444044**/==e/6///e::::ii::i*::i**:i*:*******44***4*4***4*444*444**44*4*444*4444440444d+s=6/////6::i*::i::::*:::*::****:**:**:*:4***4*4*444*****4***4***4*4*44440444:===/e6////e:i***i:::::::**:**::*:***:*:**4***4**4444*4*444**4444*4*4*4*044*04:===///////e*i:::e::::::***i::*:**4:***",
"*:*::**:************4*4*4*4444444*44444*444*4*444:e==////=//:i:e:::e::*:::*::**:***:*:*:******4*4*4*4***444*444*4444444*4*4**44:/==/e/////::ieieei::::::*:::*:*:***:**4***4*4*4*4*4**4444*4*444*44444*444**444+8=///////e::e:i:::i:::i*:***:*:*:*:*****:**4*4*4*4*4*4444444*4444444*4444**4i===/e//=///:::::::::*:*:*:*:*:*:*:*:************4*4*4***44444*44444*4*444*4*4i===/e////=/::e:i:i::*:::*:*:*:*:*****:",
":*:*********:******4*4*44444*4444444*4*4*444*444**/==e/6////e*e:i*ii:*:::*:*:***:************4***4*4*4*4*444444444*4*4*44444404:/6/e/e/////*e:i:e::::*:*:*:::*:**4*****4***4***4*4***44444444444*4*44444444044zc=6/6/////*:i::i::::::*:*:*:*:********4***4***4*4***4*444444444*4*444*444404:===/ee/6///::fi::::::::*:*:*:****4****:********4*4*4*4*444444444*444*444*4444:===////6///e*ii:::i*:::*:*:*:*:*******",
"*:e6e:***:***:::****4***4*4*4*444***4***4*4*4*4*4:/==///6////e:e:ee:::*:*::**:*:e/ei*****:**::***:***:**4*4*4*****4***4*4*444**:/==//////=/e:eiei:::*:*:::*:*:i6ee***:****::*******:**4*4*444*4*4***4*444*4*4i===/6=6//=//:e:ee::::::::**:*::6ee**4**:***:**4****:**4*4*4*444**4**44444*4*4i===/e=///=//:e:ee:::*:::::*:*::eee:*4****:*:**4*******4*4*4*4*4*****4*444*4*4e====e////=//:::iee::*:*:*:*:***eee::4*",
"ee/e/e/eeeeiee6ee:i:::i:i:i:i:e:i***:*:********4*:/==e6////////e6//e6e/eee/eeeee/e/e/eeeeieeeie:::i:::e:::i:eii***:*:*:********:/==ee//e/////ee6/e6eee6e/e6ee:/e/e/ee:e:ee6ee:::::::i:::::ei:*************:**:===/e6/6/////ee6/eee6iee/eeeee6e/e/6eieieieeei::::::::::::iei***:**:****:****i===/ie/e/////eee/e6eeeee/eeeee6e/e/ee:e:iieeee:::::*::::::iei::*****:***:*:**e===/ee/e/////eee/eee/eeeeeeeeiee/e6e/i",
"//e/e/e/e///e/e/e/e///e///e/e/e///e/6/e/6/e/e/i::6/==/i////=/=////6///////6/e///e/e/6/6///6/e6e/e/////////e/e/////e/e/e/e/e/e::/===/e//////=//6///////e/6/e/e/e/e/e/6/6///e/e/e///e///6/e/e///e/6/e/6/e/e/ee:/====e6///=/=////////6/e/6/6/6///e/6/e///6/6/e/e/6///////e/e66///e/e/e/e/e/ee*/====ee/////=//6///////e/6/e///6/e/e/6/e///e/e6e///6///e/6/e/e///////6/e/e/ee:/====ee/////=/=//6///////e/e/6///e/e/e/",
"=///=/=/=/////////////=//////////////e/6///////e/======/=/=/=/=/=/=/=/=/=/=/////=/=/=/=/////////////=///////=//////e/e///////e/======/=/=/=/=/=/=/=/=/=/=/////=/=///=////:////////////////=//////e/e/////6/e/======/=/===/=/=/=/=/=/=///////=/=///=i////////////=///////=//////6/e///////e/======/===/=/=/=/=/=/=/=/=///////=///=////////////////////////////e/e///////e=======/=/=/=/=/=/=/=/=/=/=/=/////=/=/=/",
"========================================================================================================================================================================/86========================================================================m6===========================================================================================================================================================",
"=/=/=/=/=/=/===================================///=/=/=/=/=/=/=/===/=/=/=/=/=/=/=/=/=/=/===================================/=/=///=/=/=/=/=/=/=/=/=/=/=/=/=/=/=/=/=/====/z=====================/=========/=/=/=/=/=/=/=/=/=/=/=/=/=/=/=/=/=/=/=/=/=f/==============================/=/=/=/=/=/=/=/=/=/=/=/=/=/=/=/=/=/=/=/=/=/=/===================/===========/===///=/=/=/=/=/=/=/=/=/=/=/=/=/=/=/=/=/=/=/====",
"e/6///////e//===///=///=//////////////////////e/6/////////////////////////////6////////////==/////////////////////////////////e///////////////////////6///6////////=///=/l=////////=//////////////////e///e///////////////////////6////////////////=====///////=//////////////////6///////6///////////////////////6//////////////=====/////=//////////////////////////e///////////////////////////////6////////=",
"i:::e::eeeee///eeeee6e6eeeeeeieeeeeii:eie:e:e:i:iieieieieeeeeieie:e:e:e:i:e:e:e:i:e:iieeee/=/eeeeeee/eeeeeeieeeeeii:e:e:e:e:i::ieieee:eeeeeee:e:e:e:e:e:e:e:e:i:e:ieeee//6/eeeeeee6eeeeeeieeeieei:eie:e:e:eii:eie:e:eeeeeie:e:e:e:eie:e:e:e:i:i:ieee/===/eeeeeee/eeeeeeee:eie:e:eie:e:i:i:iie:e:e:eeeeeie:i:e:e:e:e:e:e:e:::i:eee6===//eeeee6eeeeeeeeieieie:e:e:e:e:i:e:i:e:i:e:eeeee:e:e:e:e:eie:e:e:e:i:::eee/",
"049444044*:66=ee:i::::::::::::*:*:************4*4***4*444*444*4444444444044404040444044*://=ei:i::::::::::*:*:***********:******4*444*44444444440444d494440404444*444*:/==6::e::::::::::*:*:********4***4***4*4***44444444440404d44404440404944*444*e===6:::::::*:::*:*:*:******4***4*4*4*444*4444449444440404444494d40404444*444*/===/::ii:::*:::***:***:**4*4*4*4*4*44444*4444449404440444444404440444444*444*",
"yryryayry0*i//*4**********:**4*44444444044404440444040400a40ya9aaa9aaa9ryryraayrya9ryaya*e=/:***:**4*4:****44444*4*4444044444040909040909ayaaayayayraayryayryrya9a9aya*/=/i****4***4*4*444*4444444404040404a9040409a909ry0yry0yryryryayaaryryrya90ya:==/e4*******4***4*44444404040409040409a90409ayryayryayryayryryryayryayayayraa:==//4**:4*4*4*****4*44040449090909a909a9aya9a9ryryryryryryryryayraayaaayay09a",
"ayayayayy9*e/=****4*****4*****4:*44*44444*4444444*4444444409aya9aya9a909ayayayayaya9aya9*e/=:*********4***4*4:**4*4*444*4*4404044444444409a9a9a9aya9ayryayayayayaya9a9*===:*******4*4*4***4***4*444444444409044*440404a9a9a9ayayayayayayayayayaya9a9*===e*******4*4**:4*4***94444444444999a444044944aya9ayayayayayayayayayayayayay*===e*4*44**4***4:**4***044404044409a9a944090404ayayayayayayayayayaya9aya9a9a9",
"yryryryr90*e//**e4*4*4*4*4::::*4*444*44444***440*4*4*444*00ayaaayraryraayraryryryryryra0*e=/:4:4*4***444:**:*4*444444d444**04044*44444*0yaaryraayraryryryryryryryryry0*/=/i*e****4*4*4**::*4*44444404044*09044*4*44449aayraayraryryryryryryryryryraa:==/e4*4*4*4*4*4*:*::4444440404044*4909444444444yraayryryryryryryryryryryryrya:==/64*:44*444*44:**:4444040904044*99ay4444049449ryryryryryryryryryraryryryraa",
"09y9a9aya94e/=::e****:*****:*e******4*4*4*4*ie******444*44440409099909aya9y9ayyya9ayayyy4/==:::****:*****:*e****4*4*4*4444:e******44044494990dyya9ayaya9a9ayayayayaya9*/==e:e:***:*******::*4***4*4*4444*6*4****444494990dayayayayaya9yyayayayayayay*===e:*****:****4:**:***4*444444444e****4*44044da90909ayayayayaya9aya9aya9aya9*===e:*6******4*****:*4*44444444949ei*4*4*449994a9a9ayayayayayayyyayaya9y909a9",
"9090909ry0*i//e*6*:****4**:***:4:****4*4*4***::*44*444404049444040409040y090ya9ay0y09aya*e=/e*e4****:4***::4:*:****4*4*44**::*4444404040404099d0909a90y0y0yayayay09aya*/=/6*e***:*:4*4***4*4***4*4*4444***:**440494940909090yayaya90y09ayay0ya9a9a9a*==/6*::**:****4**:4*****4*444*49**4e**040409090909a909aya9ay0ya9a9ryaya9040ya:==//:*e*******4**:4**4**444444444**:**9904090ya90904090yayay09a909a9a9040409a",
"9404999ya94e/=i:e****:*:**4*:****:****4***4**:4*4*4*4**4444*449444049409y409a90994049ya9*e==e:::***:******:****:**4*4*4*4*4:*4********4494949404940999a94ya9y909y409y9*===eiii*:*:***:****4***4***4***4*4*:4**4***4*4404999499099909ayddyy0999099909*===e:*:***:*******:4*********4*4*4*:44444444*44940999099909y9ayd4a999099904yy*===ei:e*:*********:4*****4*4444444***4444444*94044904990999049y04yy0999044409",
"4040909094*e//e*6********4**:******4*4*4***:**:4*4*4*4:*40444444404940d09a40904940909ay9*e=/e::*:******4**:**4***4*4*4*****4:4*4*4*4**d0d0d040d040d090y0d0y0494090yay0*/=/e:e:*******4*********4*444*4:*:4e4*444*44:409090494090909ayay4y040409090y0:==/6:i********4*****4*4*4*4*444**:4***444444**090904040d0909ayay99044409040y0:==//::e***4***4*****4*4*4*44444*4:4*:4444444*:090d0404090d0909ay4da4440404090",
"4*44949944*6/=eee**:*:::***:*::**:*******:*:*:i*******:e4*444*44444444949494994444449994*/==eei:*:*:*:***:::*:*:*********:**:********e4444d44*444449949994994*444499y4*/==eiee*:***:*:*:*:::*:*:**4*4:*:**::4*4*4**e*449944494449499y994999444449994:===eei:*:***:***::******:**4*4******:4*4*444:*d44944444449d94999d999*4*4444y4:===6e:/*:***:****:**:*:**4***4******e4*4*4*4::444944*44449499999444y44*444494",
"9440444044*e/=6:e***:*:*:*:*****:*:*********44*4***4*4*:*0444449444444444040449d44409a90*e=/6:e*:*:*:::*:*:*:*:****4*****4*4*4*d44*4*i:04d4444*440494449409d9940404099*/=//:e::*:*:*:*:*:*:**4***4*4*****4*4***444**ed404444444094404040944944404040:==/6:i:**:*:*:***:********4*4*4*4*4*444*4*44*e44044494040444040404d*944444090:==//eie**:*:*:******4*****4*4*4*4*44444*44444i*49444044404440444049*944444440",
"444444994**//=//e:*i::*:::::*:*:*:*:********4*4***4***4*::444*44444*4*44444*94444494499*://=/ee:::::::*:::*:*:*:******4***4*4*4:4*4*4**:444*444444944444d*949494d44494*===6/ee::*:*:::*:*:*:********4*4***4*4:**4*44*i44449444949444449*d94499444494:===//ie*:*:*:::*:********4***4*4*4*444***4*44*:*4444444444444444444**44444494:===//ee*:::*:::*:**********4*4*4*444*4***44444::44444d444444*4444494444444*94",
"*d44444944:e///e6*:*:*:::::*:*:**********4***4***4*4*4*4***4444444494444*444d44440444044:e=//e/::*:*:*:::***:********4*4***4*4*4*444*4**:04444444d4444*44d9944494049d4:/=//e/::::*:*:*:::*:******4***4***444*4*444***4:4444444444044*44d4044494940d4i==//e/i:::*:*:*:*:*:*:****4*444*4*444*4*444*4*4:444*444404044*44040444440444di==//e/e:*:*:*:*:*:**:*****4*4*444*4*444*4444444**404444494044*444*04444444444",
"4*444*4*4*://=6/e:::::::*:::::::::*:***:*:***:******4*******4***4*444*444*4*44444*44444*:/==6//:::::*:::::::*:*:*:***:**********4*******4*444*4*4444444444444*4444444*:===///::e::::::::::::*:*:***:*****:******4*******4***4444d4444444444444444*44:===6//e*e::::::*:::*:::*:**************4*4*4***4*4*4*44444444444444444*444*44:===////*:*:::::*:::::::*:****************4*4*****4*4*4*44444444444*444*444*44",
"4449444944:e/=/e/i:::::::::*:*:*:****************4*4***4*4*444*4*44444444444444044494944:e=//e/e:::*:::::::***:*:**************4***4***4*44444*44444444944444949444944:/==/e/e:*:::*:::*:*:********4***4***4*4*4*4*4*4*4*444444444404944444944444444:==//e/e:::*:::::*:*:::*******:********4*4*444*4*4*444444444444944444444444444i===/e/ee*:*:*:::*::**:*:**4*****4*4*4*4*4*4*4*4*44444*44444444944*44444444444",
"4*4*4*4*4**//=e//=:::::i:e::::::::*:*:***:*:******************4***4**44*444*444*444*444*:/==e//=e::::i:e::*:::::*:*:***:*:*:*******:******4*4*4*4*444*4*4*444*4*4*444*:===e//=e::::::i::*:::::*:*:*:*:***:**********4*****4*4*4*4*4*444*444*4*4*444*:===/66=/:::::::::*:::::*:*:**************4***4*******4*4*4*4*44444*4*4*4*4*4*:===/e///::::::i::*:*:::*:************************4*4*4*4*4*4*444*4*4***4*4*4*",
"*444*444**:e=/e//ee:i:::i:i::*:::*:*:***:********************4*4*4*4*444444444444444*44*ie==66/66:::::i:i::*:*:*:*:***:**************4*****4*4*4*4*444444444*4*4444d44:/==6e//e:::::::e::*:*:*:*:*:*:***:******4*4***4***4*4*444*444*444444**444*444e===/e/6/::::*:::::*:***:*:*****:********4*4*4***4*4*4*44444*44444444444444444e==//e/e/:::::i::::***:*:::***:**********4*******4*4***4*44444*444*d44*444*444",
"4***4**44*i//=6///eiie:i:eie:e::::::::::*:*:*:*:*:***:**************4*4*4*444***4*4*4*4*:/==6=//ee:e:eie:i:i*:::*:::*:*:*:***:***:**4***********4***4***4*4***4*4*444*i===6///6::e::ie:e::*:::::::*:*:*:*:*****:4***************4*4*4*4*4***4***4*4*e===/////e:e:fii:e::::*:::::*:*:*:*:*:*:****4***************4*4*4*4*4*4*4***4*e===/////e:ei::e:e::::*:::::*:*:*:*:*:*:**************4***4*4*4*4*444*4*4***4*",
"*4*4*4*4:*ie==///i/:::i:i:i:::i::::::*:*:*:*:*:******:*4***********4*4*4*4*444*4*4*4*4:*i/==//=:6e::::i:e:i:i::::::::::*:************4*********4*4*4*4*44444*4*4*4*4**e/==//=eeee:i:i:e::::::*:::*:*:*:*:*********:4***4*******4*4*4*4*444*4*4*4*4**e===//=e:6::i:i::::::*:*:::*:*:*:*:*******:4:4***********4*4*4*4*4*4***4*4*4**e===/e=/iee:e:::i::*i::::::::*:*:*:*:*****:*:4***********4*4*4*4*4*4*4*4*4*4**",
"**4*******:/==/=//eeie:eieieee:i:e::::::*:*:*:*:***:i:::*******:**********4*4*4*********:/==/////e:eiefeieee:::e::::::::::*:*:***:e:i:*******:****4*****4*4***4*******:=/=/=/=6/iefe:eeeee:i::::::::::*:*:*:***:e:::*****:*:**********4***********4*e===/=/=e/:e:eieieee:::fii::::::*:*:*:****:i:i:***********4*****4***********4*e===///=//ieieieieee:::efi::*:***:*:*:****:e*e*******:****4*4***4***4***4*****",
"******:4**i/=///=//ieee:i:iee:e:i::::*:*:::::*:*:::*:*:***:*:*:::****4*4*4*4*4***4******e/==/6=/=eiee:e:::e::*:::::*::::i***:*:::*:*:***:***:***:4*4*444*4***4*******4e/*6//=/=eieeii:iie:::i::::*:::*i::*:*i::***::**:******4***444*444*4***4*****4e===////=/:eeiif::e:::i::::*:::*:::*:*:::***:***:***:***:**4*4*4*4*4*4*4*4***4e===/6=/=/eiefi:::ei:ii::::*:*:*:::***:::***:*:4:***:*:****4***4*4*4***4*4***4",
"*:***:***::/==/=/=//:ei6e6:eie:::i:e:i::::::*:::*:::::*:*:*:*:*:*********:*********:*:*::/==///=//:ei6e6ieii:i:i:i:::ii:::::*:::::::*:*:*:*:*:***********:*******:***:i=m//=/=//:eiee6ie:e:i:e:e:::::::::f::*:::::*:*:***:*****************:*:*:*:**:===/=/=/=eeeeeeeeie:i:e:e:::f:i::::::::*:::*:*:*:*:********4****:*******:*:**e===/=/=/=e:eieeeiie:i:::e:i:::i::::::::*:::***:*:*:*********************:*:*:",
"***4**:***ie===/////ieee6e/e6eeee:ieeeeie:i*::i::::**::*:::*::::::i*:*:***:**:*4********:/==//////efei6eeeeeeeeie:eeeee:i:e:::e::::::::::*:*:::*:::::**********4******i/z6////=/e:ei6e6eeeeee::ieeee::i*::e::::*:*:::::*:*i:::i*:*i:******:****4****9f==///////:e:6eeeeee:e:e:eeeee:e:::i:i::::::::::*:*:::*:::*::******:**4******e===///////:eieeee6e6ee:e:eeeie:e::::::::*:*:::::*:*::i*:::*::*4****:****4****",
":**::::**::/==6=///=/ee6e/eeie:eii:e:i:e:::e:::i:::eii*:*:::::*:*:::*:*:***:*:*:*::**:*::/==/////=/eeee6ee:e:::ei::e:i:::eie::::::::::*i::*:*:*::::i:i***:***:***:***:i=6=/////=/6i6eeeeee:eie:if::e:eie:i:e::::::::::::::*::::::::i*:*:***:*:*:*:*::===/////=//:ee6eeee:eieii::::ieieie:e:e::::::*:::::::*:::*:::::*:*:*:*:*:*:**e===/////=//ieeeeeeeiefe:e:i:e:i:eii:e::*iie::::::::*:*:*:::::::*::**:***:*:*:",
":***:*****i6==///////iee6eeee:e:e:i:e:i:e:::e:e:i:::i*:*:*:*:*:::*:*:***:*************:*e/==////=//eeeee6eiie:i:e:i:i:i:i:i:e:i::::*:*:::*:*:*:*:***:***:*************e/==///////eieeeeeeie:e:e:e:::i:i:i:i::::::*:::*:::*:::*:*:*:*:*******:***:*:*e===////////eeeeeieee:e:i:i:::iee:e:i:::i::::::::*:::*:::*:*:*:*:*:*********:*e===/6//////ee6eee6ee:e:i:i:e:i:i:e:i:i:::e::::*:*:::*:*:*:*:*:***:*:*:*****:*",
"*:*:*:***:e/==/////=//:6e6e6e6ee:eeeee:e:eee:i:i:i:e:::::i:::fie::::::::*:::*:*:*:*:*:::i/==/=///=//:/e6eeeeeeeeieie:eieie:::e:::::::::i:::::i::::::***:::*:*:::*:***:e===/////=/=iee6e6e6eeeeee:e:e:eee:i:i:i:::::::e:::::e::::*:::*:::*:::::*:*:::e===/////=/=ee6ee6eee6eeieee:eieee:::i:i:i:::::i:::i:i::::::*:*:::*:::::*:***:e===/////=/=/ie6e6eeeeieie:e:i:eee:e:::e:e:::::i:::i:e::::::*:*:::*:::*:*:*:*:",
":*:***::::ee==////////6eee/eeeeeee6eeee:e6/eeee:i:i:ee6i:::*:*i::::*:i:***:*:::*:*****:*e/==///6//=//eee/eeeeeeeeeeee:ee/e6ee:e:::eeee:*:*:*:::*:*:::*:****::*:*****:*e/==/e=//////iei/eeeeeeeeeeee:ie/e6e6:i:i:ee6ei*:*:*:::::*::i*:*:*::i*:*****:*e===/e=6//=//e6e/6eieeeeeeeee:ie/e/ee:i:::iieei*:*:*::i*:*::i*:***:*:*:***:*:*e====e///////ee:6ee:eeeieieee::i/e/eei::i:ii6ee::*:*::i::**:e*:***:*i*:*:*:*:*",
"eeeee6ee:ie===e////=/=////////////////6///////////e/e/e/e/e/e6e/e/6/e/e/eee6e6e6eee6ee:ee===/6/////=//////////////////////e///////e/6/e/e/e/e/e/e/e///eeeei6e6eeeeee:ie===///////=/=//////////////e///////////e///6/e6e/e/e/e/e/e/e/eee6eee6eeeeee::6===/6e=///=//////////////////////6///e/6///6/e/e/e/e/e/e/6/6/e/eeeee6e6eee/f:/===//e////=/=//////////////6///////////e/////e/e/e/e/e/e///e/e/e6eee/e6e6e6ie",
"/////6/eee/===/6////=/=//////////////////6///////////e/6/6///////////6///6///e///6///eee=====e//////=////////////////////////////6///e///6///////e///////6///////6/eee=====/////=/=//////////////6///////////6///6/6/e/6///////6/6///e///6///6///eee=====6//////=////////////////6///////////////e///e///////e///////6///////6/66e=====/////=/=//////////////6///////////6///6/6/6///////6///6/6/////e///////e6/",
"/=======/===================================================================/=========/=====================================================================/=======/========================================/g*========================/=/=====/=/=====================================================================/=======/===================================================================/===/=====/=",
"=========/=/=/=/===/===/===/===/===/=/=/===/=/=/=====================================/=/=/=/===/===/=======/===/===/=/=/=/=/=======================================/=/=/===/===/===/===/===/===/===/=/=/===/=6 w===============================/=/=/=/=/===/===/===/===/===/=/=/=/=/=/=/===================================/=/=/=/=/===========/===/===/=/=/=/=/=/=/=/===================================/=/=/=/",
"///=///////////////////////////////////////////////=====/=/=/=/=/=/=///=///=///=///=///////////////////////////////////////////=/===/=/=/=/=/=/=///=///=///=///=///////////////=///=///=/////////////////////6+h==/=/=/=/=/=/=/=///=///=///=///=///////////=///=//////////////////////////======/=/=/=/=/=/=///=///=///=///=///////////////////////////////////////////=====/=/=/=/=/=/=/=/=///=///=///=////////",
"/e/e/e/e/e///e///e///////e///e/6/e/e/e///e/e/e///e//=//6/e///////6///e/e/e/e/e/e/e/e/e/e/////6/6/////////e/6/e///e///e/e/e/////e//=//e///////6///e/e/e/e/e/e/e/e/e/e/e///e///e///////e///e///e/6/e///e/6/////f+x=//e/e///////e///e/e/e/e/e/e/e/e/e6e///6/e///////////e///e/e/e///6/6/e/////====//e///////e///e/e/e/e/e/e/e/e/e6e/e///e///////////e///e///e///e///e/e/6//=====//6/////////6/e/e/6/e/e/e6e/e/e/e6e",
"ieieieie:e:e:e:::eie:e::::::::::::::*:::*::::::ei6//==e/e/e6e/eee6eee6eeeeieieee:eee:eie:eie:::i:e:i::::::::::::::*:::::*::::eee/==/e/e6e/e/e6eee6eeeeeeieieieieieieie:i:e:::e:e:e::::::*:::::::*:::*:*::::eef+h=/eee/e6e/e6e6eeeeeeeeie:eee:eee:eii:e:i:::::e::::::*:::::::::::::*:*::::ee/===/e/e/e/e6e6eeeeeeieee:e:eeeieie:e:::::i:::::i::::::::*:::::::::::*::::::ee===//e6e/e6e/eeeeieeeeeee:e:eie:eii:e::",
":*:*:*:*****:******4*****4*d*4*d*4*d*d*d*d*4*d*4*://=ei:eee:::efi::::::::*:*:*:*:*:*:*:**********4*d***d*4*d*4*d*d*d*d*d4d*d44*:/==e::e:ii::iii::*i::*:***:*:*:***:********d*d*d*d*d*d*d*4*d*d*d*d*d*d*4*d*4**bx=ei:i:iii:::i::*:*:*:*****:***********:**4*4*4*d*d*d*d*d*d*d*d*d*d*dd4*d***e===e::ei::::::i::::*:*:*:***:******4***d***4***d*d*d*d*d*d*d*4*d*4*d*d*d*4*4*e===6e:ei::::::i::*:::***********:d***4",
"*:*:*:************4***4*4*d*d*d*d*d*d*d*d*d*d*d*d:e==e:e:i:e:::i:i::*:::::*:*:*****:*:********4***d***d*d*d*d*d*d*d*d*d*d*d*d*d:/==e:i:i:::i::::::*:::*:*:*****:*:******4***4*4*d*4*d*d*d*d*d*d*d*d*d*d*d*d*d*+h=6:i:i:::i::i:*:::*:***:********4*d***d*4*d*4*d*d*d*d*d*d*d*d*d*d*d*d*d*d*de==//:::i::::::::::*:*:*:*:************d*d*d***d*d*d*d*d*d*d*d*d*d*d*d*d*d*d*de==//::::::::*::i::***:*:******4*4*****",
"**:::*****:*:*:*:**d*d*d*d*d*d*d*ddd*ddd*ddd*ddd**e/=::::::::*::::::::i::*********:*****:*:***:**d*d*d*d*d4d*ddd4ddd4d*d*d4d4d*:/==e:e:i:::*:*::e:::i::********:i*****:********d*d*d*d*d*d*d*ddd4ddd*d*d*ddd*d+x=e:::::::*::::i::*:::****4****:****4*********ddd*ddd*ddd*ddd4ddd4d*d*ddd4d4:===e::i::*:*::::e*:*::i**4*4*d**:**d*d***4*****d*ddd4d4d4d*d*ddd4ddd*d4d*d4d*:===e:*:*:*:*:*:*i*:*:::**4*d*d*d***d*d",
"*:*::e::*e:e::*:::******4***d*4*d*4*d*d*d*d*d*d**:e==e:6*::ii:::*eeeee:i::::*:*:*::i::*e:e::*:::****4***d*d*d*d*d*d*d*d*d*d*d**:/==e:/i::::::::ieeei::::*:*:*:*:*e::*::e::***:**4***d*4*d*d*d*d*d*d*d*d*d*d*d*+h=/:e::::::::::eeee*:::*:*:*:*:*:::*:::::***:**4*d*d*d*d*d*d*d*d*d*d*d*d*d*de===/:ee:::::::::ieee*:::*****:***:i:**::::***:**d*d*d*d*d*d*d*d*d*d*d*d*d*d*de==//::e::::e::*::ei/:*::**********::**",
":::::ee:::i::*:************d*d*d*d*d*d*d*d*d*d*d**//=eee::i:e:::::e:i:::::i::*:**::i6::::::*:********d*d*d*d*4*d*d*d*d*d*d*d*d**/==eiee:i:e:::::i:i::::*:*:*:*:*::/::::********d**:d*d*d*d*d*d*d*d*d*d*d*d*d*4bx=eeei:i:i::*::i::::::*:*:*:*****6e:::*:****4*4*4*4*d*d*d*d*d*d*d*d*d*d*d*d*:===ei:e:i:i::::*:::::*:::*:***:*:*ee:*:*:**4***d*d*d*d*d*d*d*d*d*d*d*d*d*d*d*:===6e:6*:::::*:*:::::*:*:******4:*eei*",
":i*:::e:::*:*:*:***:*:*:**************4***d***d**:e==/:/:eii:e:e::ie:e:i::::::::*:::ee*:*:*:*:*:***:**********4***4***4***d*d*d:/==/e/ie:e:e::*::e:e::ii::::::::*:ie*i*:*:*:**********4***d***d*******d***d*d*+h=/ieii:e:::i:::e::ffi:::::::::*::/*:::***********:****d***d*d*4*4*d***d***de===/eee::e:ei::::e::i::e::*::::**::6::********d*********4*d***d***d*******4*de===/eie::e:::::::e::i:::*:***:***:*ei*",
"::e:e:e::*:::::::***:********4***d***d***d***d*d*:e/=eeei:i:e::::::ii:::i*:::::::*i*i:**:::::::***:**********d*d***d*4***d*d*d*:/==eeie:e:i:::::::e::::::::::*::i::e*::*:*:::********4***d***d***d***4*4*d***d+x=eeee:i:i:::::::e*:::::::***:*::::****:*:*:**4***d*4*d*d*d*d*d*d*d***4*d*4*i===6e:e:i::::*:::*e::::::*:*:*:::::i:***:*:*i**4*****4*d*d*d*d*d:d*4*d***4*d*:===6ei/:i:i::*:*:*e*:*::**:*:****:**:*",
":e:eeiie:::::::ee****:*:*:*************:*:*******ee==/e/:eee:e:i:eei:i:e:e:i:f:i::ei:6:::i::*ee******:*:*************:******d**e/==/eeiiie:i:f:ie::i:if::e:::::::e:6:i::::::e:***:*****************:*:********+h=/e/ee:i:e:::ieiie:::::::::::::e:ee:::::*:e:*******:**************::*:*****e===/eeei:e:::i:i:e:i::::*:::*::::6::e:*:*:*:ie***:*******************:*:*****e===/e6/:ie:::::::e:e::::*:::*::::e::e:",
"::i::::::::::::ee*:*:*:*:**********************d*://=ee6e:e:i:e:::eie:i:e:i:::i:::i::i::::::::/***:***:************d***4*4*4*d*:/==eeee:i:i:e:iie:e:i:e:::::::i::*:::::*::::/:**:***:******4***d***d**:d***d*4bx=6ee6:i:iiefi:i:e:::i:::i::*:::*::i*::::::ei******:***:*******:**d:*:****4*:===6ee6:::i:i::*::e::::::::*:*:::::::*:*:::*ee*************d***d***d*******d*i===/6e/:::i:i:::e:e:::e::::*:*:::::*i*",
":i:::::i:i::::::ee*:*:*:::*:*:*:*:****:****:***:*e6==/e/eeieieieie:eie:eii:e:::::::i:::::::f::e/***:*:*:*:*:::*:****:********:*e/==/e/eeeeieiefeiefe:i:iie:::::i::::::::::*::e::*:*:*:*:***:*:*****:**********+h=/6/6ifeiefeiefeie:iie:e:::::i:i::::::*:*::/i**:***:*:***:*:*****:*****:***e===//eeeieieie:i:e:e:::i::::::::::::::::*:*:*ei:***:*:*:***:*:*****:*****:***e===//e6e:eiefeie:eie:::i:i::::::::::*:",
":::::::::::*:*:*::e*:*:*:*******:***:d***d***d**:://=//eeeeeeieeeii:e:e:e:i:i::*:::::::::*:*:*::e***:*************:d**********:i/==//eeeefe:e:e:e:i:i:::e:i::*::i::::*:::*:***e:*************d**:***********:*+x=//e/feii:eie:efe:i:i:i:i::::::::*:*:::*:***e::**************d*************e===//e6:eieiefi:efe:e:i::::::*:*:*:*:*:***:*:*:e:***:***********:************e===//e/ee:efeie:e:i:i:i::::::*:*:::*:*",
":e::ie:i:::::e:::::i*:::*:*:*:***:*****:***:***::e/==///e6eeeeeee6eeeeieieieieii:ei::e::*::::::::e*:*:*:*:*:*:*:*****:***:*:**:e/==///e6e6eeeeieeeeeee:e:eee:e:i:::::::::f::*::e::*:*:*:*:*:*:***:*:*:***:*:*f+h=///eeeeieiee6eeeeie:eieieii:::e::::*::::::::i:**:*:*:*********:*:*:*:***:*6===/6/6eeeieieeeeeieee:eie:e:e:::e::::*:*:::*:::::*:*:*:*:***:***:***:*:*:*:*/====///eeeeeeeeeee:eee:e:eieii::::*:::",
"i:i:::i:i:::::::::i*:::*:*:*:*:***:***:*********:i//=6//eeeieieieeeieie:i:i:i:e:::i:i:i:::i::::::::*:*:*:*:***********:*******:i/==6//efeeeieeeieieif:i:i:i:i:i:::i:::i:i::*:::*:*:*:*:*:*********:***********bx=////ieieieieieie:e:e:e:i:e:i:::i:i::::*:::::::*:*:*:*:*******************:e===////:eiefeeeieie:e:e:i:i:i:i:::::::i*:::*:::::*:***:*:*************:***:**e===//6/eeeeieeeie:eie:i:i:i:e:::::::::",
":i:e:i:i::::::::::::::::::*:*:*:***:*:*:*:*:*:*:*e/==//=/eeeieeeeeieieieie:e:e:e:i:i:i:::::i::::::*:::::*:*:*:*:*:***:*:::*:*:*e/==////6eeieeeeeieieii:e:e:ei::e:::e::::::*:::::*:::::*:*:*:*:*:***:*:*:******+h=/////:6eee6eeieieieie:eiiff:e:i:i::::::*:::::*:::*:*:*:*:*:*:*:*:*:::*:***6===/6///ieieeeeeieieie:e:e:fii:e::::::*:::::::::::::*:*:*:*:***:*:*:***:*:***6===/6///ieeeieeeeeieie:i:ei::i:i::::::",
"::eii:::e:::::::i:i::*:::*:*:*:*:*:*:*:::::*****:e/==e///eeeeieeeeeieieie:iii:::e:i:i:i::*::::::i::::::*:*:*:***:*:*:*:*:***:*:e/==e////eeeeeeeee:eieieii:i:e:i:i:i::*::::::i::::::::*:*:*:*****:*:*:::*:***:*+x=6////eeeieeeee:eieeeiiie:i:::i::::::*:::::::*:::::*:*:*:***:*:*:*:::*:*:*:e===/6///6ieeeeeieie:eeeii:i:i:::e:::i::*:*::::::i*:::***:*:*:*:*:**::*:::*:*:e===/6///6f6ieeeieie:eee:i:e:i:i:i:::::",
":eie:eie:eie:e:i:eie:::e::::::::::::::::::::*:*::6/==/////66e6e6e/eeieeeieeeiefeieie:e:e:e:i:e:i:i:i:::i::::::::*:::::::::::*::e/==//=//e6e6e/e6e6eeeeeeieee:eee:e:e:e:i:f:::f:::::::e::::::::::*:::::::::*::f+x=/////e6e/e6e6eeeeeeeeieeefeiefe:efi:e:i:f:::e::::::::::::::*:::::::*:::*::/===/6=//eee6e/6ee6eef6eeeeieieie:efe:e:e:::::eie:e:::::::::::::::::::::i::::*/====6///e6e6e6e/eeeeieieee:eie:eie:e:i",
"eeefe:e:e:i:i:i*::i:::i::::::::*:*:*:*:::*:*:::::e/==/=///6eeeeeeeeieeefeie:eiefi:e:i:i:i:e:i:i:::i:::e::::::::*:::*:::***:*:*:e/==6////ee6eeeeeee6eeieie:e:iie:i:e:::e:i:i*::i::::*i::::::*:::*:*:*:*:*:::*:*bn=//////eeeeeeeeeeeefeiefeie:eie:i:e:i:i:::::::i::::::::::::*:*:*:::*:*:*:*:e===////e/i6eee6eeeeeeie:eiefe:e:eie:i:i:i:::::i::::::::::::::::*:::::::*:::*:e===////e/eeeeeee6eeee:eie:eie:e:i:i:i:",
"eeieeefeii:eeeee:i:i:e:f:i:i:::::::::::i:::::::e:e/==//=//66eee/eeeeeei6eeieieeeieieiefiieeeee:::i:e:::e:i:i:::::::::::::::i:i:6/==//=///6e6e6e6eeeeeeieeeieeeieie:e:i:ei6:e:::e:i:::e:i:i:::::i:::i::*::i:ii:+m=//=/6//e6e6e6e6eee6eeieieieeeieiefe:e:/i6:::i:::i:e:::i:::::::::::::::i:::/====/=///6e/e6e6e6ieeeeeieieieieiefeie:ei6iefi:e:::e:::::i:i:::::::::::i::::i/====/==/e/e6e/e6e6eeieeeieieieeeieiefe",
"eieieieieeiieieee:i:i:i:::i::::::*:::*::::::::::ie/==///=/6e6eee6e6eeeeeeeeeeieee:eieieee:ieeee:e:::e:::e::::::::::*:::::*::::ie===///=//eeeee6e/e6eeieeeeeeeieie:eieee:iieie:i:i:i:i:efe::::*:::*:::::::*:::*+s=///=//e/e6e6eee6eeeeeeee:eeeieieieee::feieie:i:i:i:e:i::::::::*:::::*:::::e===///=//e6eee6e6e/e6eeeeieieieeeieieie:e:efeei:i:i:i:i:e:::::::i*:::::::::*:e===///=//e/e6e6eee/eeiefee6eefeiiie:ee",
"e6eee6ee:e:eie:eee:i:e:::e:i:eie:e:::e:eie:i:e::://===/=/=/6e/e/e/e6e/e/e6eee6eeeee6eeie:eeeieie:i:i:e:i:i:e:f:i:i::ieee:e:i::://===/=/=/66/e/66e/e6e/e6eee6eeeeeeeeie:iieie:e:::e:i:::i:e:i:e:i:::eee:e:::::igx==/=/=/6e/e6e/e6e/e6e/eee6e6eee6eeie:eieieie:i:e:e:::e:i:e:e:e:::eie:e:::f:/====/=/=//e/e/e6e6e/e/e6e6eee/eeeeeeie:eie:::eii:e:i:i:i:i:e:e:i:::eiei::e:::/====/=/==/e/e/e/eee/e6e/eee6eeee:eeeee",
"6eeieie:e:e:eieieee:i:e:i:eie:e:::i:i:i:e:::ii::ie/==//////i6e/e/e6e6e6e6e6eee6eeieieie:eie:eie:e:i:eie:eie:i:i:::i:eie:::i:e:ee/==///=//e6e///e6e/e6eeeee6e6eeieeeieie:iie:iie:i:e:e:eie:i:i:::i:i:e:e:i:e:ie===/=///=eee666e6e/e6iee6e6e6eeeeeeie:i:eieieie:i:iie:iie:i:i:i:i:i:e:i:e:e:ie===///=/=6ee6//e6e6eeeeeee6e6eeeeeeie:e:eie:eie:i:i:eieieie:i:::::i:e:i:i:e:ie===///////ee6e/e/e6e6eeeee6e/e6eeieee:",
"eee/eee/e6e6eee6eee6fee6iee6eeee:iiiieee:e:i:e:ei6/===/=/=//e/e///6/66e/e/e6e6e/e/e6e6e/e6ieeeeeeeieiee6ee:eeeieeeieeeie:i:e::://===///=//e/6/6///e/e/eee6e666e/e6e6eee/eeieiee6eei6eee6eeieeeiefeeeee:e:eiii/===//=/=//e/e///6/6/e/eee/e6e/e/eeeeiei6eeeeiee6ee:eeeeeeeeeeeie:eeeieie:eie:/====///=/=e/6/6///e/6/e/e/e/e/e/eee6e6e/eeieeee/eeieeeieeee6:::e:eieee:e:eee:/====/=/=/=e/e/6/e/e/e/eee/e6e/e6e6eee6",
"6eee6ieeeieieeefe:e:e:e:efe:e:i:i:i:e:eie:eieee:ee/==///////6eee6e6e6eee6eeeeeeeeeeieeeieieieii:e:e:e:efe:i:i:efi:i:e:ifefeie:ee===///////6e/e6e/eee6e6e6eeeeeeeeieee:eieieie:i:e:iie:i:ififi:i:e:i:e:e:eie:ee===////////e6e/e6e6e6e6eee6eee6eeeeeeie:eeefefe:efe:eie:i:ifi:i:efi:i:efe:e:ie===////////e/e6e/e6e6eee6eee6eeeeeeeeiefeeeie:e:i:iie:efi:e:i:::i:iee:iieieiie===/////=//e6e6e6e/eee6eeeeeeeeeeeeiee",
"e/e6e/e6e/eee6e6e6eee6eei6eeeeeeieieeeeeeeieie:ii//===///=/=////6/6/e/e/e/e/e/e6e6e6e/eee6e6eeeeeeeei6eeieeeieeeieeeieeeieie:ee//==//=/=/=/66///6/e/e/e/e/e/e/e/e6e6e6eeeeeeeeeeeee6eeeeieeeeeieeeeeieieieie:/====/=/=/=//6/6/6/e/e/e/e6e/e/e/e6e/e6e6e6e6e6eeeee/eeeeieieie:eeeeeieieee:e:/====/=/=/=//e/6/6/e/e/e/e/e/e/e6e6e6e/e6e/eee6eeieeeeeeeieieieieieeeieieiefe:/====/=/=/=//e/e/6/e/e/e/6/e/e6e/eee/e6",
"6e/e6e6eee6eee6eeeefeeeieieieie:e:e:eieieie:eie:ee/==/=///=//e/e/6/e6e6e6e6e6e6e/e/eeeeeee6eeeeieeeeee6:eieieie:eie:eie:e:e:eiee/==/////=/=e6e/e/e6e6e6e6e/e6e/e6eeeee6e6e6eeeeieeeee:eieie:eieie:e:e:e:e:e:ee===/////=/=/6e6e/e6e6e6e6e/eee6e/eeeee6e6eeeeieeeiee6ieeefeiefeie:eie:e:e:e:ee===/////////e6/e/e6e6e6e6e/eee6e6eeeee6eee6eeeeieeeeeeefeieieiefeieie:e:e:e:ie===/////=///ee/e/e6e6e6e6e6eee6e/eeeee",
"6///////6/e/6/6/66e6e6e6e6e/e/6/ee:eiee6eeieieiee//==//=///=//6//=////////////e///////e/6/e///e/e6e6eee6e6e/e/eefeieeeieieieiee/===//=/=/=/////=//6/////////6///////6/e/6/e/6/e6eee6eee6e/e/eefeeeeeeeieieiee/====6=///=//6///////////////e///////6/e/e/6/e/eee6eee6eee/e/eeieiee6ieieieiei/====///=/=////6=//6/////////e/e///////e/e/e///e6eee6eee6e/e/eeieiei6eeieieeei/====/////=////6/////////////e/6///////",
"///////////////6/6///////////e///////////e///6/e6/===///////=////////////////////////////////e///////////////////////6/6/6///ee/===/////////=////////////////////6///////////6///////////////////////6///e/e6/===//6=///=/=//////////////////6///////////////////////////6///6///6///e///ee/===//e//////=////////////////////////////////6///////////////////6/6/6/////e//===//e////=/=//////////////////6//////",
"/=/=/===/===/=/=/=/=/===/=/=/=/=/=/=/=///=/=/=///===============/===========/===/===/===/=/=/=/=/=/===/=/=/=/=/=/=/=/=/=/=/=///=====/===================/=/=/=/=/===/=/=/6/=/=/=/===/=/=/===/=/=/=///=/=/=///===============/===========/=/=/===/==//=/=/=/=/=/===/=/=/=/=/=/=/=/=/=/=/=///=====/===================/=/=/=/=/===/=/=/=/=/=/=/===/=/=/=/=/=/=/=///=/=/=//============================/===/===/===",
"===/===/=======================================/=/=/===/===================/===/===/===/===================================/=/=/===/===================/===/===/========/n===============================/=/=/=/===================/===/===/=======/===================================/=/=/===/===================/===/===/=======================================/=/=/===/===================/===/===/========",
"///=///=///=/=====/===/===/=/=/=/=/=/=/=/=/=/=/=/=/=/=/=/=/=/=/=/=/=/=/=///=///=///=/=/=/=/===/=/=/===/=/=/=/=/=/=/=/=/=/=/=/=/=///=/=/=/=/=/=/=/=/=/=/=///=///=///=/=/=/d==/=/===/===/=/=/=/=/=/=/=/=/=/=/=/=/=///=/=/=/=/=/=/=///=///=///////=/=/=======/===/===/=/=/=/=/=/=/=/=/=/=/=/=/=///=/=/=/=/=/=/=///=/=/=///=///=/=/=/=====/=/=/===/=/=/=/=/=/=/=/=/=/=/=/=/=///=/=/=/=/=/=/=/=/=/=/=///=///=///=/===",
"//////////////=///////////////////////////////////////////////////////////////////////////===////////////////////////////////////////////////////////////////////////////6=/////////////////////////////////////////////////////////////////////////=====/////////////////////////////////////////////////////////////////////////===/////////////////////////////////////////////////////////////////////////==",
"e/e/e/e//////=//////////////////6///e///e///e/6/e///6///e/////6/e/6/e/6/e/6/e/e/e/6/e//////=////////////////////6/6/6///e///e/e/6/6/e/6/////e/e/e/e/e/e/e/6/e/e/e/6////=/=//////////////////6///e///6/6/e/6/e/6/e/6/e///6/e/e/6/e/6/e/6/e/6/e/e/e////===////////////////////e/6/e///e/6/e/e/e/6/e/6/////e/e/e/6/e/6/e/e/e/e/e/6///====//////////////////6///e///6///e/6/e/e/e/e/e///6/e/e/6/e/6/e/e/e/6/e/e/e//=",
"::::i:::e:6e/=/e/e/e6e6e6e6eee6eeeeeeeeieeeeeeeieieeeie:i:e:i:i:i:i:i:i:::i:::::::i:::e:6/==/e/e/e/e6e/e6e6eee6eeeeeeieeeeeieee:eee:i:e:i:i:i:i:::i:i:::i:::::::ii::ei//==/e6e6e/e6e6e6eeeeeeeeeeee:eeeieieieieee:i:e:e:::i:::::i:f:::i:::::::i:i:ei/==//e6e6e/eee/e6e6eeeeeeeeieeeieeeie:e:eeeii:e:i:i:i:::::i:::::i:::::i:i:i:ee/==//e6e/e6e6e6e6eeeeeeeeeeieeeieee:e:i:i:e:i:e:i:i:i:::::i:i:::i:::i:i:i:i:ee",
":f*f:f*f::e//=eee6e6e6e6eee6eeieieieieieie:e:eie:e:eie:i:f:f:f:f:f:f:f:f:f*f:f*f:f:f*f::e/==eee/e6eee6e6eeieeeieeeieie:eie:eii:i:i:i:f:::::f:::i:f*f:f*f*f:f:f*f:::f::e===e6e/eee6eeeeeeieieieieii:e:i:i:i:i:::i:i:f:::f:f*f:::f:f*f:f*f:f*f*f:f:::fe===/ee6e6e6eee/e6eeie:e:e:i:i:i:::e:f:f:f:i:f:i:f:f:f*f:f*f*f*f*f*f:f*f*:*f:fe===/eiee6eeeee6eeeeieii:eii:f:i:f:f:e:f:f:f:f:f*f*f*f*f:f*f*f:f*f:::f:f:i:::f",
"f*f*:*f*f*ee//ee6eeeeeeeeeeee:eee:e:e:e:e:e:i:e:i:i:i:i:f:::f*:*f*:*:*:*f*f*f*f*f*f*f*f*ee==6eeeeeeieeee6eeieeeee:eie:i:e:i:i:::i:i:f:i::*:*f*:*f*f:f*f*f*f*f*f*f*f*f*e/=//e6eeieeeeeieeeieeeiiie:i:e:e:i:::::i:i::::::*f*f*f*:*f*f*f*f*f*f*f*f*f*f*e==//fee6eeeeeeeeeeieeeei:i:i:i:i:i:i*::::::i*::f*f::*f*f*f*f*f*f*f*f*f*f*f*f*e==//ieeeeeeeeefeee:i:eei:i:i:::i:::::::i::*f:f*:*f*f*f*f*f*f*f*f*f*f*f*f*f*::",
"*f:f:f:f:ie//=e66eeeeeeeee6/e/eeeeieieie:eeeie:ieeeeieieee:f:f:f:f:f:f:f*f:f*f:f*f:f*f:ie/==e66ee6eeeeeee/e/e6eeieieieiee/ie:eieeeie:eee:f:f:f:f:f:f*f:f*f:f*f:f*f:f*ie===/e6/eeeeeeeee/e/eeeeie:eii:eie:e:f:eee:eii:eff:f:f*f:f*f:f*f:f*f:f*f:f*f:fe===/ee6eeeeeeeee/e/eeeeie:i:e:f:eee:i:eie:e:e:e:f:f:f:f*f:f*f:f*f:f*f:f*f:f*ie===/ee/e6eeeeeei/e/eee6:i:e:i:ffeee:::eie:e:iie:f*f:f*f:f*f:f*f:f*f:f*f:f*f:f",
"f:f*f*f*f*ee/=/e/eeeeeeeee6e6eeieee:eiefeiei/eeieeeee:eie:i:::i:f*f:::f*f*f*f*f*f*f*f*f*e/=//e/iee6eeeeeeeeeeeeeeieieie:e:6ee:eeeee:i:e:f:f:::f*f*f*f*f*f*f*f*f*f*f*f*e/==/e/eeeee6ieeeeee6feeeieie:e:e:eee:eeeee:i:::f:::f*f*f*f*f*f:f*f*f*f*f*f*f*e==//e6eeeeeeieieeee6eeee:e:i:e:ifeee:eeeee:::i:::f*f:f*f*f*f*f*f*f*f*f*f*f*f*e==//ee6eiee6ieeeeee/ieee:::i:i:i:ie6:ieeee:i:i:f*f*f*f*f*f:f*f*f*f*f*f*f*::f*",
":f:i:i:f:fe//=6//6e6e/e6eee/eeeeeee6eeeeeeeee/e6eeieieiefe:efe:e:f:i:f:f:f:i:f:f:i:i:f:fe/==//66e6e/eee6e/eeeee/e6e6eeeeeei/eeeeieie:i:e:e:eii:i:f:fif:i:f:f:f:f:f:fffe===////e/e6e6eee6eeeee6eeeeeeeeiee/eeeeiefi:efe:e:i:i:f:f:f:fff:f:f:f:f:f:f:fe===//e/e6e/eee6e6eee6e6eeieeeieie:6/eieii:iie:e:i:i:i:f:f:f:f:f:f:f:f:i:f:i:fe===//e/e/e6e/eee6eee6i6eeiefeief6ie66ee:iie:i:i:i:i:i:f:f:f:i:f:f:f:f:i:i:i:f",
"i:i:i:f:f:ee///e/e6eeeeeeeeeeeeeeeeeeeeieiefeeeie:eeeie:e:iie:i:i:i:i:i:f:i:f:::i:f:i*f:ee==/e6e6eee6eeeeeee6eeeeeeeeieeeieee:eieieie:i:i:i:i:f:i:f:i:f:i:f:f:f:i:f:f*e/=//eeeee6eeeeeeieeeeeeeeeieeeeifee6:e:e:i:e:e:i:i:i:i:f:i:::f*i:f*::i:::i:f*e===/eeeeeeeeeeeeieeeeeeeieieieie:ie/:e:i:i:eii:i:f:i:i:i:i:f::*i:f*i:i:i:i:f*e==//e66eeeeeeeeeeeeeeeeeeeieie:e:ifefi:i:e:e:e:i:i:i:f:::i:::i*f:f*f:i:i:i:f:",
":eif:eif:ee//=////e6e/e6e6e6e/e6e/e6e6eee/e/e/eee6eee6e6:eieieieieie:eii:fii:eee:i:i:i:ie/==//eee/e6e/e6e/e/e6e6e6eee6e6e/eeeee6e6eee/iiieie:eii:e:i:i:f:i:ieeee:i:f:ie===//6/e6e/e/e6e/e/e6e6eee6eee/eeee/eeeeeeee/ie:i:eii:iie:iff:ffe:eii:e:i:i:fe===//66e/e6e/eee/e/e/eee6eeeeeee/eee6eeieeei/ei:iieii:i:e:i:i:f:e:i:eie:e:i:ie===//e/e6e6e6e6e6e/e6e6eeeeeeie66eee/ieee:ee6eifi:eii:e:i:ifi:ffeiiie:eii:e:i",
"eie:i:i:ii66/=/e/e6e6e6eee6eee6e6e6eee6eeeeeee/eee6eee/6eie:e:e:i:e:i:i:i:f:f:eie:i:f:e:e/==/e/eee6e6e6e6eeeee6eee6eeeeeee6e/eeeee6ee6e:e:e:eee:i:e:i:i:f:f:eie:i:i:f:6/==/e/e6e6e6e6e6eee/eeeeeeeeeeeeeee/eeeeeeee6e:e:i:e:iii:i:i:i:f:i:i:eie:i:f:6==//e/e6e6e6e6e6e6eee6eeeeieeeeee6ieeeieieiee/:i:e:iie:i:i:i:i:i:i:iie:i:e:f:/===/e6/6e6e6e6eee6e6eee6eeieieeeieeeeeeeieiee/ie:i:i:i:i:i:i:i:i:i:ifeee:i:f:",
"fe:eie:eiee//=///6e/e/e/e6e/e6e/e/e/e6e/e6e6eeeee6e/eee/eeieeeieieieeeie:e:ife:eie:eff:ee/==////e/e/e/e/e6e/e6e/e6e6e6e6eeieeeeeeeeee/eeieieeeieieieieieii:e:eiefe:iiee===////e/e6e/e6e6e6e/e6e/e6e6e6e6eeeee6eeeee/eiieieeeee:eie:iii:ifefiiiieiiiee===//e/e6e/e/e/e6e/e6e/e6eeeeeeeeeeeeieeeeei66eieieieie:e:eii:eiiiifiieiiiefie===//6/e/e6e/e6eee6eee6e/eeeeeeeeeeieieeeeei666:eieieei:e:eie:iiifiiieeieii:e",
"e:ife:ifii6/=////e6e6e6e/e6e6eeeeeee6eeeeeeeeeeeeeeeeiee/ei:eiife:eiiieie:iiiee:e:i:i:ii6/===e/e6e6e6e6e6eee6eeeeeeeeeeeeeeieieeeeeiee6ee:eie:ifeiiieieiifife:i:i:i:i:6/=////e6e6e6e6e6e6eeeeeeeeeeeeeeeeieeeeeieiei6ee:e:iie:ifi:eii:ifi:e:i:i:e:i:/===///e6eee6e6e6eee6eee6eeeeieeeeeeeieieieieieeeii:e:ife:i:e:i:e:ife:i:e:ifi:/==////66e/eee6e6e6eeeeeeeeeeieieee:eiee6eeiefeee:i:e:e:ife:eie:eie:eie:i:e:ii",
"ieieieiie6e//=////6/6/6/6/6/e/e/e/e/e/eee6e/e/e6e/eee6eee/eeeeeeieieieeeeee6feeiieieiiiee===////e/6/e/6/e/e6e/e6e/e6e/eee/e6e/e6e6eeiee6eeeeieiefeiee6eei/ieieieieiiie6===////e/e/6/e/6/e/e/e/e6e/e6eee6e/e6e6eeeeeee/6eeeieieieieeeiei6ieieieieieie6===////6/e/e/e/e/e/e/6/e/e6e/eee/eee6eee6eeeeee6eeeieieieiei6eeieeeieieieieie/===////e/e/6/e/6/e/e6e/e/e/e6eee6eee6eee6eeeeie6eieeeieieieieeeeeeeieieieeeie",
"eie:eie:ie//==///e/e6e/e6e/e6e6e6e/eee6eee6eee6eee6ieeeeee6eeeeieie:eiefeie:iiefe:efeiii6/==///e6e6e6e6e6e6eee/e6eeeee6eee6eeeeieeeeeeeeeieieee:e:efiie:iie:eie:eieiii//==///6/e6e6e6e/e6e6e6e6e6eeeeeee6eeeeeeeeeeeeeeeeieeeie:iie:eie:iieieie:eii:/===///66e6e6e/e6e/e6e6eee6eeeeeee6eee6ieeeeeeeeeeeieee:eie:iie:e:eiiie:eiefii/===////6e6e/e6e6e6e6e6e6eee6eee6eeeeeeeeeeeeeeeeeeieee:e:iiefeie:e:i:eieieiii",
"ieieieieiee//=/=//e/6/e/6/e/6/e/e/e/e6e/e6e6e6e6eee/e6e6eee6eeeeeeieeeieieeeieieieieiiiee/==////6/e/e/e/e/e/e/e/e6e6e6e/e6e/e6e6e6e6eee6eeieeeeeeeieieieieieieieieieeee===////e/6/e/6/e/6/e/e6e/e6e6e/e6e6e6eee6eee6e6eeeee6eeeeeeieieieieieieieieie6===////e/e/6/e/e/e/e/e/e6e/e6e/eee/eee6e6e6eee6eeeeeeieeeieieieieieieieieieiee===////e/6/e/6/e/e/e/e6e/e6e/e6e6eee/e6e6eee6eee6eeeeeeieeeieieieeeieieieeeie",
"eieie:eiei6/=/////6e/e6e/e6e/e6e6e6e6eee6eee6eeeeeeeeeee6eeeeeeieieee:efe:eie:eieieiefei//==/////e6e/e6e/e6e6e6e6eee6eeeeeee6eeeeeeeeeeeeeeie:eieiefe:efefifeieie:efei6/=//////e/e6e/e6e6e6e6e6e6eee6eeeeeeeeeeeeeeeeieeeieiefefe:eie:eie:eieiefefei/===/6///e6e/e6e6e6e6e6e6e6e6e6eeeee6eeeeeee6eeeeeeieieieiefefeiefeieeeieieiei/==//6///e6e6e/e6e6e6e6e6eeeee6eee6eeeeeee6eeeeeeeeieeeieiefeie:iiefeeeieieiei"};
