/* XPM */
static char * 3_xpm[] = {
"400 400 66 1",
" 	c None",
".	c #000000",
"+	c #E1CFC3",
"@	c #D5C6BA",
"#	c #CCBCB1",
"$	c #D2BEB5",
"%	c #C5B4AA",
"&	c #E6D7CB",
"*	c #D0BDAD",
"=	c #EFDCCF",
"-	c #F2E0D3",
";	c #F4E8DB",
">	c #F9F4EB",
",	c #AE9E96",
"'	c #605953",
")	c #000000",
"!	c #7B716B",
"~	c #BFAE9E",
"{	c #A3968D",
"]	c #24201E",
"^	c #736A63",
"/	c #B4A59B",
"(	c #544D49",
"_	c #6A615B",
":	c #BAABA1",
"<	c #8F847B",
"[	c #BFAEA6",
"}	c #3D3733",
"|	c #BDB3A9",
"1	c #978C83",
"2	c #49433F",
"3	c #A89C92",
"4	c #9D9289",
"5	c #9E8E86",
"6	c #857A73",
"7	c #E7DED2",
"8	c #7D7D7C",
"9	c #414141",
"0	c #D8D2C7",
"a	c #767571",
"b	c #E5E5E2",
"c	c #DEDEDB",
"d	c #BCBAB3",
"e	c #82827B",
"f	c #ADA298",
"g	c #41413C",
"h	c #6B655F",
"i	c #C3C3BD",
"j	c #A9A8A1",
"k	c #363737",
"l	c #71716C",
"m	c #B2B0A7",
"n	c #61615B",
"o	c #6D6D6C",
"p	c #989792",
"q	c #A09E9C",
"r	c #878783",
"s	c #5C5B5C",
"t	c #AEAEAE",
"u	c #606262",
"v	c #A2A2A2",
"w	c #8F8E8C",
"x	c #92928D",
"y	c #B2B2B1",
"z	c #A2A29B",
"A	c #FFFFFF",
"+@+@+#$%&@#&#*@+@$$@=-;+--=+----;-;;>;&;>;;-;;;;>>>>-,')!~{{@#$~@$#%$@%%+$$$+@$@+#@###&+,+$@++@@+@-=-+--=+--;-;;;;>>=->>;;;;>;>;>>-{])^~/~$#@~#*$*$@@%+$$*$$$@@+&@#*$@%&@+++++&%=&-&;;-;;;;;>;>;>>;->;;;;->;>;>>-())_/:<@~$*[##$$@+/+@@@%#+@@+&+#@$+%#=&=@+&=$-=;;=;;;;;>;>;>;>>>&>>>;>;;;;;>>-}))':{,@|@@#@@*@@+%$&+@#++&&&++@@*+&*-$+@-+=@+;>;;;;;;;>;>;>;>>>;>>>;;-;;;;;>=]))',%{/@@$%@+@$@+#*++@+==+=&+++*@@",
"@+@+@@%%+&/@@@@+@+@%---=--==---;-;;;;;>;>>=--;;>>>>>&,')^/1/##*@@##@$%@%@@*@@+$@++$$%[@&<$@+++@++{+----;===;;;;;;>;>>;>>;-;;;>>>;>&{])_/{:##$$$#$+@%$$@@@+@+@@@+++%$%+#*@++++&+*@;-;;-===;;>;>>>;>>-;>;-;;->>>>>&'))',~<@$$@#$#@@#@$%@@@@+@+++++@+/+%{++&&=&&*~;;>-;;;-;;>;>>>;>>>>>>;-;->;>>>&2))'34,$#$@@+$@@@%@*&++@++++=&++@%=-[@+=&=-==%>;>;>;>;>;>>>;>>>;>;>>;=;->;>>>+}))'{%{:@#@@+*@++%&#+++@=&&+=&&+#&+",
"$@+@@$@*@@/@+@+@+@*1=;&&-==+-=---;;-;->->>;;--;;>>>;+{')_,13%[%#%|*#%:%%###*@#$@+@+#$#+@[$@++@+@@<$---;=;-;---;;;;;;>;>;>;;-;>>>>>+<])_,<5$~%#%~%$@%[###$@##@@+@&$$@+@$~+@++&+&,%;;;;-;----;;;>;;;>;;>>-;->;;>>>+2))'{/6@###%[%@+$:@$%@##$+@@+&@@@@++/=+&+&+&%{;;;;;;;-;>;>;>>>;>>>>>;;--;>;>>+]))'13{$$$####@+@[%%*@##$+@++&+&+&&=~+==&===@{7>;-;>;-;>;>;>>>;>>;>>>;-=;>;>>+]))'<~4:$##@##@@#%*$@+@++@+&&=&++==",
"*+@@@@@&@+++@+=&&&+,,-=-----&-;;;;;=->;>>&;>->;>;>>>=,')(,1{/%%%%%%*%%%%%*$+@*#+@+@+@@#@@@@+@+&&++{=;;--;;&-;>>;-;->;>>7->>>>>;>>>&5))'3{5##[%%%~*$%%*%@@%%*$+++@+@+@++&&++&&=&@5+;>-;>>;>;>>;;;;>;>>>&>>>>>>>>>&89)'1,<$*[%%*[%#*%$$@@##*@+++@&+&+-==-&&-=;&-[%>>;>;>;>;>>>;>;>>>>>+>;>;>>>>>&}))(1/{%$%%$#%*$#%*$@@*[++++++=&=;===-=-;;>--/~;>>>>>>>>>>>>>;>;>>>7;>>;>>>>>+}))(135[@$$#*#*@@#@$@@++=@+===-==&&",
"@#$@+@+++@+++%++&+&@%:+;-&----;-;;==;=;&>;;>>;;;;>;-+{()2_</%[%|%~%[[%###%$@@%@*$@+++$@@+@+@@+&+--@/+-;---=-;;>;=-;;>0;>=;;;>>;>>;+5])(64<%~%%#~[~%%%%$*@#$#@*@++++@+@&&&@++=+-&@~$-;--;;;;;>;--;;>;->;;>;>>>>>;+>>)''65$~:%%%[:[~[%#%##$$$@+@+&&++&&+=++&=--;-#%;>;;;>;>;>>;-;;>;0>>;>>>;>;>;+}))'^46%%[:%%%%%~##@$$$#@+++@&=&=-+==-=&-;;;;&$[7>;;;>;>>>>>;;;;>&>>;>;>;>;>;+]))(a!<[%######$%$@+@@+&@@+&+---=&+",
"@@@+++@@++@++++&&&+&+@%;-==--;;;;;-&+=;->>>;>>;>>>>>@1()(!^[[[%%%%~#[[[#%*$@@@$@@@@++@@+&&+&+=&=+++&%--;-;;;;;>>>-+;>;>>;>>>>>>>>>$<])(!6{||%#%%~#[%%%%#[$$@@@@+++0+@++&+&+=&=&=+=%&;==;>>;>>>>;&->>;>;>>>>>>>>>@>>)(6!5$%%#%%:|[%%#$%#@*@@+@++&+&@&=&&-+-=--;-;@+;>;>>>>>>>>>==>>->>>;>>>>>>>@}))(6!!%#%#%#%%[%#$$@$+$++&+&+===&--==;-;;;;;;;&#>>;>>>>>>>>>-=;>;>>>;>;>>>;>@]))2<!![#%@#$##$*#$@@@&+&+&&=&=-;=-",
"@@$#@@+@@$+@*+&@+@&+++&@=--+==-;;;;;>;>;>;;-;;>>>>>;@<()'!'/|,|[%[[~%~#%%$$$@##@@#@@+@@$++*+&+++&@++&+;--=;;;;>;>>>>>>>>>>>>>>>>>>@6])(<^5#/%[|~~:%%#%##%%*##@@$+@@@@@$@@@&+---++&=+--;;>;>;>>>>>>>>>>>>>>>>>>>;@>b)2!_6@:#%%[[#%%#~*%%%$$@@+@+@@@&++-&@-+-;;-===;>;>;>;>>>>>>>>>>>>>>>;>>>>>>+]))(6!^$%#%###%#%%%+*$@@@+&&@+&&--&&--+;;==;;;-;;-;>;;;>>>>>>>>>>>>>;>;>;>;>;@)))(66'##/%###%$$#@+@++&&+@&++&-;;=",
"@@@@$$++@@++@&&+@++++&+===-==;-;;;;>;>;>>>;>;>>>>>>>+5()'<'6/%[[|%~/|#%*%@$@$@$@@+@$+++@@&&&+++&-=&=&-&=--;;;>;>>>>>>>>>>>>>>>>>>>+<))(<^^,:[%[%:~%*%*#|%*$@$@@$$+++++@++&&&=;-===-;&;;;;>;>>>>>>>>>>>>>>>>>>>>>+>c)(1_^5#[%[|::~*#%$@#$$+@+++++@&+=&===---;==--;>;>;>;>>>>>>>>>>>>>>>>>;>>>>>+}))2<!'1[|#%$%*%#%*@@@+@@@&&+&&+=-=&----;-;-;;>;;;>;>;>>>>>>>>>>>>>>>;>>>>>>>@]))216_6:##%###:@@@@++&&=++&=-=&;;;",
"##@@$d*#@$@@@@+++$@++@@+&+=+=----;;-;;;->;;-;-;;;>>;&<()^!(}6#[[[~~//%#|%%%%#%%#@$$$$@@*@@+++++@&+-&+++&-+--;-;;;;;;>;>;>-;;>;;>;;+6])'e^}_||~%%:/f%$%[:%%#*#*@$$@@+@@++&+&&&+==-=&&&-=-;-;7;7;;>>>>;>>;>;>;>;>>+>0)(5('}%%%|[::/[$%#%%%$@$@+++@@++&=+&+===+=+--==-;;;;-;;>;>>>>>>>>>;;;>;>;>;+]))24!'g5%~%[~[:[@#%*@#@@@$++&@+++=&&=&--;-==;;--;;;;;;>;>;>;>;>>>;>;;;-;;;>;@)))916'(6@d#%#%%[@@@$@$+++@&&&+&&-=",
"%#*#$+$#$@@+@@@+@+@+@++++=+&+==;==;-;;;;;>;;-;;>;>>;$<2)^!'_<,:::[[~3,[##d%##*###$$#$$$@@+@+@&+&+&+=&=&===&;;;-=--;>>>>>;;;;>>;>>>*6])'<(h6##//%~:[f[d##$#####$+$##+@+@+@+@=&===&=&=====;>;;;>;>;>>>;>>>>>>>>>>>@>i)21(^^f://[/:[/%%$$[%###*@+$@@++&+&+&+=======&-+;;;;;;>>>;>>>>>>>>>;>;>;>>>@}))g{'^h{[%%%::%|##$@##$@@@@+@++=+&&---&--;--;=-;;;;;;;;>>>;>;>>>>>>>;;->;;;>@]))}36^^4:#[%%%#|:$@+@+@+++@&+=+=+=",
"%%#%#$#%@@@$@@@$&@&+++&+&+&+&+=&--;---;;>--;;;;;>>>;@<2)_h(!h/[,::////[[%##%%|#%$#$$$$@@@++@@@=@=+&&&&&-=&--==--;-;;>;>;;;>;>;>>;-@6])''}6^{%,/~//[/:[|###%~#%@@@$@@@@@@@@++=&==-&===--=;;-;;;>;>>>;>>>;>;>;;;>;+>0)26'_!1%f/:[~:/:[:$#####%$#@$@@$@+@+++&=&+-;==---;;>--;>;>>>>>>>>>;>;>>;;>;@]))2<}^16/%:|:/:/##[$@$@@@$@@+@+@+&=+&====;=-;-;;;;;;;;;;;;>;>;>>>>>;;;>;;;;;$)))}!6'<^[#:%%:%%%##$+@@$@@+&&+&&=&",
"%%%|###$@+$@@+@#$$$=@&&&+&+&+=-=-=--=;;;>>->;;;>;>&&$62)'']<<1,/::://::::%%#%#%#%###$@$@@+++@@@+@=@&==&=&++-----;;;>;;>>=;>>;>;>&+@!))g(}_/_:jf://://|[#%#[%%####@$@$@@++&++[&%;==-=-=&=&;;;;>;>;>>>>>-;>>;>;>;+@>i)26}',!%:,::::::[:|%#[#%#$@$@@+$++++&&=@&i--&-;;;---;;>;>;>;>>>>>;>>>;>>>;+$}))(12},<5#:%:[/3:%/%%#%#i@#@$+@++=&&&==-@++&;-;>;;;;-;;>;>;>;>>>;>>;;>-;;;;=#]))k!'}<11::d%#:%%*|#@@@+@+@+@&@=&=",
":~%%%:####$$*@@#,#f[*@+&&@+@+@+=;-&--=;;;-=-;;;;;;;-$6})((}]_</3///,3553/f[[[%%:~%%[*#$$@$#$+@f@%##@&=+$++&&&&-=;;;;>;>;;;;;;-;;;-#^))2k]]_h#,f{3,,3{3/[[~/:[[###%#$@i@%%$&+[%[%#&=&=&&&=--7;-;;>;;;>;;;>;>;;;>;$>0)gh}](!:,,~,,f35{~:|[:~#$@%@+@@@@+@@@&7$[+#@&---==&=--->>;7;;>;>>>;;;>;;;;&$]))g'(](^,%:3f//f~,,~%%%[#%#@+##++@&++@&7+/@[#+-;;--==--7>;;;>;>;>;>;;;;;--;-*)))kl(}2_3~:~%::/,{[||%@#@$@$@@@+++",
"|#%%%|[#$##@||[$+@##+&@+++@@@+@==-+;;;;;=+&-&>-=++;-$6])('}}]![11{::/34:[::#[%%#%:$#:%%@#$[|[#$$##+&$+++@@-=++&=;;;;;;-;-;=;&-&+;;*!))2'gg]_%{{{f,::3,[///[%$#%%%%%##@$$%#%@$#@@+&@@++++&=&+->;;;>;>;>>;->;;-+;>@>i)g^2g}2:f4/::[:,,~f::~%$@$+$@##%++@$@|@+++@@-+&=&+++=&&=>7&;>;>;>;;;>;;-=@-@]))k'h}}}/:{{,/:#:f#@$#$##@@@#@#@@=+&+i#@&=+&@;-&-;-&+=&&;;;;;>;>;;-;-=;;=+@>#])]k!(}}}6#1f/%%%/,%$%|@#@+++%&@$$@",
":%%~/%d%#%$#####$$+@+@+++@++&+&&&=--==&+-+=&=-&$&0+&*!})k}(}g(|,{{<5f//:[[|%|f:%[%#%%%#%%#$*$#@#@0+++++@++=&-=-=;;&-=7;-++=--@-&+7*_))k2'2}]3:435{{,f/%[|/%:%[#%~%$$%##*$@+$$@++&++++@&=--=-;;>;-;=&;;;==;;@&++&*>0)g2(g2}5%3/453::/~[%|%:|%##@%#@#@@@@@+@+@+&&&-==+&-;;;7;;;;;;-7;;--=--0+@@&$]))k'_222h${,3{3//:*|###%%#@#$%@+@@+++@&++0&=-=---==-;-;7;;;;;-;&&-;=&&=&$&&+#)))k'2(22^#://13[%~%#@%##%#@$@++++@",
"33,33m:#/%[%/|~####$%~%@@###$@##$*#++++&&&+&----;;&-$!])}2'(}26/531{<11<54{f[f{{,3%%:#%|/*[|$$@+###%%@@@#@#$@@@+%#==-=&=+=-;-;==&;$^))k('(}2![3/114444,d[|,:33f3{|/$[#[#:*%%@@$@$*$@@+@$#+@@$@$@-&==-&@&-;-;-+==$>i)}(('}(':{3344<51134//#4f3//%:*@@%*@$%++=@@$@$@+&@@#+@@@+&@+>=&-=@=-;-;-+&=*}))}n''22(:/3:4{{{35ff|::[ff:,:%#@%$#$%$#@+@+@@$@0&@+$++@@+@@+-&==;=&+--=7==&%]))ko2'(22{[{/{,14{1,{/:@/f3|/@$#+@",
"f~::%%[3::[~:%%|%%$#$|%#$@@@@@i$+%@|@++@+++@&&++&+&+@6])'_(2}}(<,4{p433/:f/3/~:%%:::/3%:[||%#$$%$@@$##@@+i[$@$@@##@&=&&7&@&++@&$&+$^))2(('2}(<[4{{3p{:::/f/~[~|%//:3f~%:%:#$##$@@@@##@@$++@$++@$#&=+&77@-&&@&$7&$>0)g<((2}(_/p{31{,//::/|~|~%~|%$~[%$%$#@i#$$++++@@@&@++&@@+@@$&-++=&+&-&@-=&@#]))}6(''](':3f3f,///%#%%~%:%|%~##:~d#$#@@$#@@++@@+@=&&0+@+@$@#@===&-+@&-+++++#)))]<^'(}('4/f,f{:/[~|::~#%##%%#~:@",
"f:[|::::[:j|:%||i$%i$##$#@$@i+@++@@@++++&+&+&=&=@+7=#<])(_((gg26[11141f////f3/f[[:://[[:[%|#|%#$i$$$###+$$$+@++@+++=&==+-&&-=&@#&-%^))2'2'(g(_/45{/f4,f/f/:::[%|:3/::|[|%[%#%$$@@$$@$##+@@$&@++++=+&+&==&=&&=&&=#>i)k!(('22'/3111353///j:::[/%|:%#[[%:%i#$%@@@@@+&++++@++@+&+=++&=+=&=+-=-;=&+%}))]o2((gg'1:13{3{:/:m[/:[::##%%#%#[##$@@$+@@++@+++++++&&&&+&+&&&&-=-+&&=++++|])]]!_'((2'6%1{134/f[:[//:|[$%#[%##",
":[%::,3,%|%~[%%%$%###%#%##%%$#$$@0+++@$++$&@@+=+&7&+#^])(''''}((/3{441f{3{4333//[::f3,[[d|[[[#$##$$%##i#%%+$@@@@+&&+$@&$&+@+&+&&=+#_))2((''222131{{{,{{3,//3f[#~[f3f%%#[[%%%$$$$@##$$%##+@@@++&7&+@@&+++@&&+=-7@#>0)k^(h_(2(6%{{343f33/::/|~#%%://%%#%%%d%d$@@+#$$@@$%@@+@&+&+=+@@=+@++++&=+=+#]))k!g('(2(_~13q4//,f/:::[%$##|:/%@$##$+$+&@@+@@@@$$#@@@@++&+-&+@&&++@@++++=@[]))]!_'_'g'':/,34{/f,:/:f[####%[~%$",
"34,:{!^6<1{//:[[/51,%@$$@@#:#***#:#$@&+++*+&&==+&@0+#6])(6k_'2}(^34{!!{{54141<3{{//6!6614//:[[/45,%@$@@+*#$$$$$:%@@&++&@@=&===&&@+%^))2<2^'(}'(1<4h^5{54{{5<433:/1^6<51/:[%*#,{3%+++@++#$+@@@$%+@=+&+&@===-=&&@+%>i)]r((_(2((44/6!1,{{{,{53/f~%{^<654/[%%*~:{f%@@++&++@++++@[@+&+=+&#&&&&-&=@+%}))]<h'^(g2'!4{<!</33,/3{1%,[%/6<<{{,%*$@@$,f[+&&&&&+$+++@+#$@++&+=$++=&=+&$#[])]]!6}h_22_!3f,66:/,/:,{1%/~#*<<<{",
"!_^''^h!!''__'^^!^<!!<<6666!666!66^_!<55{13{3,35{{%$%6])21h(h((g2}'h_(('_(__'(__!__'_!!h'h^_!_^!<66<<66616666!<66^^<55{35{,//515[*%_))k169'(g}2g'_'(''_(__((h^!^'_!!!''h!_^!6!666<1<6<16<<166<<h!65{3{{,/,:{{5%*%>0)]<1(^'(22}(h^'((!_'!_'__!!__6!!!__!h!6^661<<5<1<4<<<16<<16^!153{{{f,/355,*[]))]e4'''(k(}(_^''__'_!^__!!!h'6h!6_'!^!6<665<6{51<541<<66<1!^^1{{5{4,{,,5<3%:)))]h5^_^'(2}2_!_''^__h^_'^^!!_h_!6",
"^_h^'_'h^^_^____^!^!!!^!^^^^^^!66666!!^66^'^'!!1<<3/,!])g66(('k2}2(_'_'_''__'_^__h^('^^^h^^h_h!!_6!6^!^h^!^!!<66<<!6^!66^6'^!<<1<,,^))k6<(2s((}(2'('__''''(_^^_^_(_^^h_!!h_^!6h!66^6!^!!!!!<6<<<66h!<6^6'^!<116/,>i)]l<_2'2}9}(_'____''^'_^^^^^h'^h^^!^hh^^6_^66!66^^!!!!6<<6<66h!66^!h_!6<16,3}))]^<l}'((}2(''''_'''_'_^^h^^'(h^!^^!!^^^6^!66!66^^!^^^6<6<<6!^!66^!^'^6<<6f{]))]_682'(gg22''hh__''h'_^^_^^^(n^a",
"k}]](_')]]}]]]k}2h(2g}2}g222(('('(__'g2'h_^'(((('^556^}))kk]])])]]k]k]]]k]]]]]kkkk9__]]]kk}k}}9((ggk}}9}}2((''((h_'92(^_!h((((n^116'))]]k]])]]]]})]]k]k)]]]]kgkk2^^]]]k}k}}k9('k}}9]kkg2((''(('_'2((lh!h(''('^116>0))kk)])]]]]2)]]k]]]]]])k9}}2^h]]k]]]k]k2((}g29]kkg2((''(('h'2(2^h!h(('('_11^))))]k]])]]]]2)k]]]k]]]]]kgk]g_h]]]]]kgk}g'(gg2g}k]}2(('((('_'222_^^^(('(''1<())))kk]])]]]]g)])]]]]]]]]kgkkg(^k]]",
")])])]]])))])k)]]]]]]]}k]])k))))]}]]]}}kg}k2k}}g(gg((2]))])])])])])])])))))])])])]]]]])))]]k)]kk)]]]kk]])k))))]g]]]}k}g}](}}}((g}((})))])])))])))])])])))])])]]])]]])]))]k]]kk)]]kk])]]}))))](}]]}}}}}k2kg}((}g(2>i))])])])])])])])])))])])])]]]]])]))]k)]kk)]]kk])]]}))))](}]]}k}g}]2}g}((}}(]))))])])])])))])])))))])])])])]]]))))]k]]]])]]k]])]]})]))]2]]]}]}}k]2}g}2(g2})))))])))])))))])])))))])])])])]]]))",
"))))))))))))))))))))))))))))))))))))))))))))))])])])])))))))))))))))))))))))))))))))))))))))))))))))))))))))))))))))))))))))])])))])))))))))))))))))))))))))))))))))))))))))))))))))))))))))))))))))))))))])])))]bi)))))))))))))))))))))))))))))))))))))))))))))))))))))))))))))))))))])])])))))))))))))))))))))))))))))))))))))))))))))))))))))))))))))))))))))))))])])])))))))))))))))))))))))))))))))))))))))",
")))))))))))))))))))))))))))))))))))))))))))))))))))))))))))))))))))))))))))))))))))))))))))))))))))))))))))))))))))))))))))))))))))))))))))))))))))))))))))))))))))))))))))))))))))))))))))))))))))))))))))))))))>i)))))))))))))))))))))))))))))))))))))))))))))))))))))))))))))))))))))))))))))))))))))))))))))))))))))))))))))))))))))))))))))))))))))))))))))))))))))))))))))))))))))))))))))))))))))))))))))",
"))])])])])])))))))))])])))])])])])])])]]]]])]]]]]]]]])])))))))])])])])])])])])])])])])])]))))))))]])])])))])])])]]])]]])]]])]]]]]]])))))))])))])))])])])])])))])])])])])))))))))])])))])])])])])])])])])]]])]]]]]ct)))))))])])])])])])])])])])])])])])))))))])])])])))])])])])])]]])]]])]]]]]]])))])))])))])))])])])])])))])])])])])))))))])])])])])])])])])]]])])])]]])]]])))])])])))])])])])])])])])])])])]]])",
"#*%%%*##d*%|,')))21{5{{{{{{55{3/,////~///~/~:~:::%[%~~:[:%%%[%[%%%%#%#%####*%*%##*%*#*%#%|,()))}<515{5{{{55{3/,/,//:/~::/~:~~~~[~%[::~:[[%[[%%%%%*%#%*####%#%*##%*##%*%%,})))}<55{{{{{{{1{{,,/,//~///~:~:[~~~%[%[~:~:%%%~%%%%%%###%*#######*d*%###%#%%3])))}<515{{5{{{1{4,//,//:/~:~/~:[~~:%/%[::~[[[%[%%%%%%*#%#*#*#####$##%*##%*%%3])))}<{5{{{{,{{5{{/,:///~/:/~:~:[[[~%[%%[:~%%%%[%%%%%%#%*##d*###*%#%*%*#*%#",
";b;;>b;;>b;;;*^))1#[%[#%$%@#$%%*+@$$@@+*@++++++@++=&&+==+&-==--=-7;;;b;;;b;;;b;;;b>b>b>b;b;#())!$%[%%%[%%#~%*#$@@$@++$+++@++++&+=&=@=+=+-===;-;-;b--;b;;>b;;;b;b>b>;>b;b;%]))_@#%~%#%%[#%#%:%*@*@@+@+++@+@++++===+===@=&--;-;--;;b;;;b;;>b;;>-;b>b;b;b;~]))'%#%~##%###%[$*@@@*@@++++++&++++++=-++=-;;=--;b;-;b;;>b>;>b>;>b>;>b>b>b;;>~)))'/#%~%##*#@@@$#@@+$@$&+@@&+=+&&++=-;=&-;&;;;-;;;b;;>b>;>b>;>b>;>b;;>b;;",
";>;>;>;>;>;;=+{')1#5%/*##$#@@:,[%*~~%++++++&+%/+++++%@#+++@@+----;-;-;;>;;;>;>;>;>;>>>>>>>7+<))6@%$%%##@%%#%/%~*[/[++++&+++@*@@++=**@+@+@@$;;;;;;;;>;>;>;>;>>>;>>>>>>>>>-+'))h$[,%###$%%##3~/%%/~++++++&++/*+=+=***=+++@@=;;;;;>;>;>;>;>>>;>>>>>>>>>>>;+}))_[$[@%$%@##$@~%[%%%~++++&+&&+@@+=&-+@@===++$&;;;>;>;>>>>>>>;>>>>>>>>>>>>>;+]))'f@1%/@%@$@++:~%%#~~@&&+&&=&=*~+&=-&*$@&=&=++;>;>;>;>;>>>;>>>;>>>;>;>;>",
";;>b;;;b;;>b;@{!]<$5[##%[###$%3/1~##$$@@@@+@@@+,%$&#~:~%++$*======---=;b;;;b;-;b;;;b;;;b;b;$5})!#{d%#%[%#%$#,/5{@%#*@@@@+@+@+%:*+*~~%%$+$*=7=&----;b;;;b;b;-;;>b;;;b;;;b;@^))_#/3###$%$#$$//34@#%$@$@@+@+@+#/*+@%~~*@+&*&--=--;-;b;b;;>b;;;b>b;b;b;b;b>@2))(%#p@##%:$$@@%,:<#@#@+@+@++&++@%%++%**@++&@+7b=--;-;b;b;b;b>b;b>b;;;b;;;b>@}))(/${%$##[$#@$#,[5##@@@@++++++++:~@&$***+=-@+7;7-;;-;b;b;;;b>;;b;b;-;;;b",
"&;=;--=-=;;;;&,!]6[4:|[[3/%##*:%[|$#~*#@#@@@@*$*1/[*$@@@+&+++=++@&&===-----;=;-;-;-----;;>;&52)^:1|%[%:/$$$@[:$%#*~**@$@$@@&@*<5~*++@@@+@+&&+=+&&--;-;-;-;-=-;;;b;-;-;;>;&!))h:/{%:%[/#$i@#/*~#$%%#@$@@@$+%@f{~*$@+&++++&=&======;-;b;=;;;;;;;-;-;--->;&}))_/|<@[*[:%$#*%/#%$@%%@*$@@+@&#@/</*+++=+++-&-======-;b;b;=;;;;;;;;;----->;+]))_3#{[[%%/:##@$[*#%+#*@@@+++@=@@#,~*@===+===&-=-==&--;b;;;;;;;-;b;-;--=-",
"-b&7-===-7;b;+,^]n,<:~#:::%%$#%:#/[%~~####$##$@+~{@%$*$@@*+@+++++++==&===&-b;7bb-7b--==7;b;+5])n,{/%[:[%%%##%/#%~%/~*%#$#%#++@#1@*@$++@$++++++&+&&====---7;&;b;7;7-b-7;b>@!))'5,1%%::::%%%#/%%/%[/#|$$$##+@@$1##+++++@@&=&&&=+=&=7-=-7-b>7bb>7b--7--;b>+2))'1:1#:/##[%%%#~%#%##%+#@@@$+++$$f:&&+++&+&&&=-&==;-;--7---7>7-b>-;7---=-b;@}))'<31~%#%~[%*$@%%*:#$~@$+$+@+@=+&/,+$+++=++&=7-==7==-7---7;7;b-b;bb-==-=",
"-;7&&==;-;b>;&,^)!{%[%::[[#*#%#:f#%#%####$@$##/~#5@%#$$@*%[&&&@&&=+=&=&====;;=7>-&&&=;->;;;&{])^/<4%:[:|%###%%3$%#%*$##$@$#%%$*/+#$+@@$@%&+=&=&======-=--;b>7;--=&7;-;b;;+!))_{/3%[#%:%###%*{#%#%*##$$$@$/%:@f[@@+*@@+:+=-7=====---b-;-;;;&;;-&==;-;;;;&2))'{36#m%%[%$###$f%#$$#@@$@$@@+@[@#[=++@+++@@=;;==--=7b-;-;;;b>&-b;&=+=--;;;+]))'{3*$%|[%%$$@#$:[$$@$@+@+@&+*[|#+5+*++&+&@#-;---;-----;-;-;;;;-;;==&==-",
"=b;+++=7=b>7-*3_)!3:%%:~%~%#$%,%%~#%[#$%%%$%*#%~$5%%###%##<$+++@++++=&=&===7=--b;&++&=;7;b-*5])_/_5%[%#%%%#%3[:/#%%*@%%#$*%~#%#//*$$$#@@1%&+=&&++&&7=&b7bb;b--;7=+&=;=;7-@!r(({,3[[/%%%~#|%:#/%%##$#$$$@*#%3$%3%@@@@++:{=&-&=+=7-==7;b;7;-;7;b&+==;7;b-*_))(,5n%[f:[%%#%%f#%#[%:#$@@@@*@@[$$5@&$++++#<77b=-7=&;7-7;b;-;7;;>b=+&+=7;b;@}))(3,*@i~%%%%@@#,$##*@%@@$@@@+$@*$+3~@+&@+++<@7;7-=-=-7;7-b;7;-;7bb-+++&7",
"7;&;7==;=;;=b+{^)_{{/|%|[[:[%:::f%|[:*%#%##*%*$@$@@*$@###%<#&&+&+=+&&==&+=&==;-;&;&=+-b;b;;+<})'{6<%%%[:/:%%[:::%%[#%*%##@[%$@@%#@@@#@@@{:&&&&&=&++==-=----;-;-;7=&=b-;=-+!ir'<35%|[[:::%$#::|%#%%#*#@$@#@@$@@#+@++@@+33&======&7b-;-----;;;-b;;7-;-;>b+2))'<{h[%:[%[|%*|::[%*:/%@@@@@$+@@@+%&++++++#{@;--=--&7;-;-=7--;;>;7b-==7;=;;@]))'<{3%%#%%%%%*|%%%$#%#@@@++++++&&=&&+&&++&$5#;b==b=-&=-;-=-;-;b;-=;-&&&-",
"77$&b7-7-7;&;@3_]}<<,,f/::[:::~::~%%%[[[#*#$@%*#**$#####@@#4*+7+++++&&=7&+=&&77b0+7b;7b7>b;@5])}!<<|:/:::,:[[/::#%:[%[%##*$%#%$$@$[$@@@@@<[&=+&==+&&-7=&&7-7;7b&=7;7;7;7;@!oe2^51%[:/:/f[~%:%%[%:%*$##$$$@@@@$@@@+=++@&:/+=&=&=&-7;7;&-7;7;7b@-b;7;7;b7@2))2_1!~[/:~:/:~%%%[%$%%$%#$@$+@+@@@+@+@+++@7/{0;7-7;7=7;7;&-7;7;7;@&7;7;7-b-@}))(!<1:j/[[%%%~%%%%$$$@@#$@&+&+++++&&&@++&+=+/i;7;7;7=7;b;7==-7-7;++&;7=7",
"#;-&7;7;==b7&$1_]2!^,,f/::::/:/[~%[%%::%~%$@$#%#%##@#$*@@@++f[++&&+=&-7=7++++;$bb+7b--7bb;&*<])2_6</f/~|//:~f/:[[%%:~%%##@$$#%%@$@$@@+@&++:/&+&&&=7-b--=@++;+7b;7-b;-;b>7*^(u2h61[,/,///:[:::[/|%[#*###@$+@@@+@+@++&+&++$,+==&+;b;b;b7+++;c0b;7>;;b;-;7@}))(_!6/3:f://3/:%|%|%%#%#$##+++@@+++++++=+&7&+3@;=--;-;;;b;&++=b+b>=-7;-=7;-#]))(^6^:f::|[%[%[%%#$$$@%#@#@&&&+++++&+++===7-&[|b7;-;b;b>b;&++&b07;&=7;7=",
"&-;7=7-7-7>b&%<'](__/{/,:/:/[,/:/::~%:|~::%%#%#*#@@$+@@$@%@@@%@+&+&&=&=7-77&7b-b;7=7;-;7;b;%6])(!_1///::::/,//f/::%:[|[~%%#$$~%$$@+@+@+@+@+#+&&+=7-7b-;b-&bb;b;7;-;b;b;b;%^]k2^(1:f/:/:/,f:/[~::%:%%|~%%$@+%$@@@+@+@++&+&@$7=&=7b-;b;b;7-b>b;b;b;b;b;b;#}))26h!://:/:,f/f~%:[%%|###%#$+@#$++@@++&&&&&+=+#7;7b-;b;b;b;777;b;b;7;7;7b7;%]))96_^:v::[[:[[:~#%#%#$#$@#$@++@@&+7&+&=&&&+&=&+&--;7;b;b;b;777;7bb-7-7-7",
"&;--7;b;7;b;7*<')_^',:,///,f,~::/|#d%%[|%%[####$%*$|#@%@@@@@@@$=@&+&==&=7b--b;7>-;bbb;b;b;-*6])(!'</,//:///////[/%%|[%%#%#%#$###$@@@$+++@+@+&=+&=-&=7;-;b;b;b>b;b;b;b>;;b*h]]26'6|:::::,/:/::%[#[*##%*%##@@@$@@@#&@++&&&@+7=&-=;7--;b>b>b>b;b;;;b>;;b>b@}))2<^h:,/:|:f/:/%[[:#$$$$##%#@+@++@@+$&++@&+=+&7&7;-=7;b;b>b>;>b;b;b;b;-;b;7$]))(6!':[::|:j:~%#%#%$$@$$#+@@++++&++&@&&+&-7=&=&&7--;b;-;b;b;b>b;b;7;-;--",
"=7=+=7&7b7bb-@1']_h2_1///,/f3,:///%%%~%~#%%##%#$%%@$@$@@+@@@+@+@+++&=+=7-7-&;7-b-&77;7;b;7-@6))(^(}<[,//f3,,~/~:::[~#:[%[%###%##@$@@@@+@+@++++&&=7=&-7b7;7;7;b;7;b-7;b;7b$^)k26('6f/://,/f:::~|:%%%|####@#$$@$@$+++++@++&++&=&b&77bb;7;b;b;b;7=7;7;b;bb$}))26'((:/:::,///:[~%~#####$@$@$+@+@++&+&++&=&&&&&=7-7bb;7;b;b;b;bbb-7-7b7bb-#]))g<^(^{::::/[/[%%~%#@*#@@@@@+@++&@+&=&=7-7=7=7=&=7b7;7bb;b;bbbb7;7-7-&=7",
"=-+&&=&&7=7;&*6')!h((^ff//3f/,,[::/:/:[|%#[d##%$##$@@+$@@@$@@+$+++@=&&+&&=7-7=7;+77&7;b;b;7$!])_!^(^/f///,,{,[::///[%:~#[######@@@@+@@@+@++&+&&+&=7=7-7;b;b;b;7===7;;;7b-$_]](<(''1:,,ff//3::%:/[[[%%##@#%%@@@$#@&+++++++++=&&&=b;7;b;b;b;b;b=7==-7;7;b$}))2<__(1[3j/,3:f:[#m::%%##@$+$@#@+@@++=&=&&&=&&&=7-==b;bbb;b;b>b;b-7=&b7;7;b#]))91!(_![/[/j/%/:%#|%%%%@$@+@@@@+&++===7==-7&7=7=7;7=-;-b7bb;b;7;7&&=&=&-",
"=7+&=&&&&&b&&[<2)^_'_!3,3,33f33j:[:[::[::%#[:[%##%####@@+@@@@@++@@@@+++&&&=&=7-b&&=+7b=7bb7~6))'!'h6353{/3{33/:[:/:~[:::%%%[%###$##%*@+@@@+*@&&+@+&&=7-7-7;7-7b7-7;7bb;b7%h)]9<2^h5~{,/3{,/,/[%,:[:~%%####$#$$@#@$@++++@@@&+=&&&=7-7-7-7;7b7;7;7=+77-b7#}))g1'^_3w3,/3,,,/[[%:|[[%##$###@$+$+++@+&=&&&&+=+&&7&&7=7b7-7;7b7;7-7=&77=7-%]))k3hh^6/[,:,/::,%%#%$%###%+@@$@@++++++&+=7=&=&=7;&=+&7=&-7-7-7-7-7=&&&=&",
"+=@&&=-=&=b&&*<()_'2<^,/333{3ff/{,:[:m:|:#%[[#%#%###%#%+#&@+@@@+++@++++++=&=&=&;&==-b;==b+0*!])__}6!<f33//,/f/,{:[::/[::[%:%%###|*###@$@++@@@&+&+&+&7&&=7bb;7;-=7;;;7;-&+*_]]2!2^1<%33/f{ffff{/[[%%%%[[#%$%%#@##$@@0+@&++++=++&&&=7=7=-;b;7;b=7;b;7-7;@*}))(!2'5^,f,ff3,{::3,%%[[#####%$$$$@@+++@@&#&+&=&&+=&&&-7=7=7;-b7=b&&=-;7=7-7*]))g<_23!%:f//3m/:[,/%##%%$$++@+@+++++++++&@&=7=+&7=7&&===&=7-7;7&7;==7-&&",
"+7++++&&&+70+/6(]2']^!6,{,f{,333///f:/:[[%[:%[|%d%%#*%[3#/*@@$@@+@@#@$+@++&&&++7++&&-7&+70#:^))((]21!4,{{{33,3::/f//[:%[[::[%~%%%#@i${$f@@@@@++@+@++&+&&=77+&7&7=&7&=+7&+~()k}!}}<_/3{f3,333/:/f:/%[%|%:%%%%####@@@,*:@@+@&&++7&&+&+7+77b7&&b7777&7&&&@~]))96]]61<3{/,33/f/::[/:%%#$%[%%#%@@$$+@+~:%#0&+&+&&7+++&+&&77-7&+-&7&&7=&++&~]))]__}!6</{f/f/:f:~%:|~%%$#@##$@@+@+@+++$/*[07+&&&&7+++&+&&7&77&+&+&++&&+",
"@&+++++&++0&+#6()(_}}}6,{,{4441<43,/:f/ff:f:/%[%%%:/:$$:%:%@#@@@#@*$#%%#@+++@@@=+&&&&&&-&7+%!])2g}]2!3<4144{4<3///:f[/,[,:::%|:|~::##%:[[%$@$+@@#@@@$+++&&7&+&+&&&&=&&07&%']]g!(k}'/4,3{p3{1<{{f::,|:[:[:[%#[#%::%#$[%[[@@@&&+@&+@@&++&=7&@&&7&7&=&&+77%]))gh}]}',14{343,41/,~[%:[:|[#:[@@#$%%:di@[#%%$++&0@+&@@@+&&+&&&++7&&&&&&&@+&%]))k^^}g2{,,,,{33{<3/:%d:|[|%%%d#$$@@#[#+&%#%%#++&+++&@@$@++@++&@++++&++++",
"++$%##+@&@@&+~6}]}_]g]^/1145{{f,,,f4{,//,f,/:%:/::#%##%:##@$++@#@@@++@$$@&+@+@&&+@@@0@&+@&&~^))}2kg]2314{{43,333,3{,////:/:~f,[/###~#:%@$#@@@@+@$++++++++@&+7&&@0@@@+&$0&~')]k_2}}}33<{5{f/,/33,4,//:::/|[%~[:$@@#@$@&+%++&+++7&&+&&++&0&+7&&@0@0&&++77~]))k'2}}}<f1{{,{,:/,ff,,/:|~|[%%#%|%#@+@$dd@&@+07&&+7&&&7&++&0++&&&@$#@0@+@#7~]))kn_}2}![1{{33/::/::3,:~%:%:###~%##@+@&@#@+0&&7+++&+&&&@+@&+@+++&0#%@@@@",
"@+[#@$++@+$@$|^}]k(2222,{31!1144<1{,/:,3{,3f,[[:|[%@####%%#%#@$@#*%$$*#@@@0++&++@+++@&@$$@@%_])k}(g}}3f{{a114{<3{~[:{3534f{::m%%$+$@######%#@+@@%@@#$@@+@&++&7@++&@&@&@@+|']]}2222}<:{{6614451{,f/f3{f{f:/#|%|$*$*@#$@$#%@@&@+@@@@$@@++&&=7=+++&+=&&[=+|]))k('(22^#4,<<45,4{3f://3{3{/3:#d###+$+@++@$+$@0+++@$++i+@+@+&&&=&@$@$++@++@[]))}(_2(2'[f,4!{43{44//#%://,/~:#@%@#+&+++@+@+@+0+++@$@+i@@&+++&+&++$#@++$",
"%%%%##i@+*0@+%6]]2'((2g_{611<6<51{{1//,{{f4,:3,3m:/[:3//%[[[/f[%$~:/|m//%%#*#*@#%%#@@@+#$0+%^))}(2(]}'{144<e<6<4{3,/,{f,3{,{/:[/%@#f/|[*#~///@@[%[::%|%%:@#%@@i#@+@@&@@0+%')k]^((k}(1<<4<<<1543{{4f{f{34m{3//////,::[%%%%/:@@%[%#~[:|~+@@#+@$%%@+@+@%@+%}))k_((}}2<{1[361<413{{:3,:f/{,ff[:://:[:*@#%%%/:[%%%%[[@@@[$@@%$#$##*@i+@@@+~]))]^_'((26{<44<1<31f,{~%//,:4:/,::%#%@%/|%##%#::%@*[%%~[:[%%%@##*@%%#@#@@",
"#@$@#$i@##m+@[<})_h(222(4,<<<114,,{{{3{3{ff33/,|:/:%%%::%%%$##%$#%%d@$$#@##@@@@+@@$@@@##:0@[^))('2'(22!,<1<15<14{{{33/,/:///:/|/:%%##:[####@#$$$$$$@@+@@+@+@%$@@@@@@#+:+@[']]}<((g2(_[<<{3<,3{3,33{,f//:/://:/~%|$%[%%i@@@@+@$$@$@@@@++@&&+@@+@@@#%$:#@[}))}!2((}2(/1,{{3,4,,/,,3,f//%[t%[%#:%#$##%#$@@@@@@@@@$@++@++@@+@@@@@@$@$##[@:]))]<!((2(({,1<14{{:f,{,/f,//:f[%:[%[##$##%$#+@@@@@+@@@+@@#+@+@+@@@+$@%%##",
"$@#$#@+$#$+i@:6])'_(((g2!,61<1<<{{55{{3335,{{,::/,///::/:[j/~::~|f[%##@#$%##+@###@$@+@@$+&+:^))2(((2}22/1<<<1<514{3{{3,{/{33:fjf/f/[[//::::%#%|/[###@$@$+@+$%%#@@%@@@$@++:')]k^((((}'{1<{11135{{{{3,f{f,33:fff:/3~%/:::/[*@%%%#@#$@#@@+@+@+#@@+#@@@#+0+~}))]'2'(}}26j61<41543{,143fff//3[[:/:[|%%/%~%[[%%#@$%#@$@*@@@%$@@*+#@#++@#@@@:]))]!''((}'!/6{<4<13,4{3ff//3/f{/~|:::/:%|[:%[:|%%#%:%$*@@@$@$@@@%$%@#$#$#",
"%@%#%@@@#@##$[!})s('''}2}<{11<<3{{443355</33<11{,/:,f[//3/[%:[:[[[/##$$#%@%#@@#@%@#+@@@@@+$[h])2h('(}226,<416{{{4{{,{3<f//11<,,/:://f:,:|%:%%%[|/##%#@%%%@+@$+#$@+@++@@+@[']]k^2''2}('/61r<,33{{{f43<,:,4154/:[/f::[//:#%###%%###@@@$@$@@@@@$@$+$@@@$*$[}))]l(''2}((,444<4{3{3{f3f13[m,153/[[%/:[[[[%@$%%#%%%%@@@+@#%$@@#@@##@@@@@###~]))]!''_'2((4,5{14//,,3:,3{{%//1{,:%%%/%#[|%%*#*#%%%%[@@$@@$#%#+$#$##$@@i$",
":%{[%%#%%#i%*:6})(6g'(2k('!6^2'!6!6!^''^!<<6^'h^__<6155<66<{/,,,/,3/:,,/5{,/#%%#/~##@###$##:^))2<}('2k2'!!6('^6!6<6^_!6<1<^'_^^'<<<555<<15///,:://:/3/{5{,#%#$j/@@@$$*@@$:')k]e'(((}2(!^62(_66666_'_!61<6_^h!'<11{,5<<15[:[%#[[:%~:~/5//%%##|/#@$$$##%$:}))]6h}h'}}'^!1^(_666!<!^^66156_h_!_655{:{315{:%%~%%#:%~[:/{{,[%%%%,###$$%%%%/])))!62''2}''!6^('6<<<<!h'66{11!^^6!!{4,[/3555/#%%%%#~%%[::{{,/%%%#,~%#%#%",
"'^'^^_!!!66/,3!g)(<^2_(}}}g_''((''(h'''_h^''_^^!hh^h'_'^^!!!!^^^h^'h^^^!6^!!^_^hh_^^!!!<<4/f_])2<6}''}}g}(''''('_^__''^^h''^^!_h^^'__!!^666!!!^!___!!!6<^^6!_^^h6h!6!665/,(]]]!<2''22}}(_'''(_(_h(___^^''^!!hh!!__^!!^6666!!!!^!!!^!66^66!_^__^6!6!661/f]))]!1'(_(kg}2''2(('''('_'h!^_'^^!h^!!_^!!6h6<6<66!!^__!^!!<6!6!__^h^!_6!!6</3]))]_1h(h'}g}2'_(((_('^''_'^!h(h!!^^^<^_^^!!!6666<6!!^_!^!!<!6^!_^___!_!!!",
"^__h''__^^61{<!})]n(]k}]}]2}k}(g2222(2(((((('(2(((2((('('(_''('(''__'_^__^!n''^hh^_'__!^!<{<_))](((]}]}]}}2g2222gg22(('((('((((2'((('('n'''(((''n___^_h^!h_'_!^^h'__^!e<1<()k]''2]9k}k}2}}2222g222(('(''_'2((('2(('(''('''(('('___^_^^6!___^h^__^'^!!61<])))'n(]}k}]}(}2222222(((2'('(_(2('(22'2''n''__'(('(''_'hhh^!^'''!!^n(''h^!656])))((']}}}]}2}22222(}(2(('((('(2('((('2''_'''_''(((''_'^__^!^'('^^h_'___^",
"g(((((g}}2(h!_(}))]]]])]))]])])))])]]]]]]k]k}2]])])]]]]}2}kk]}k}]]]k]}k}}2}}}2g'('(2}}k2(h^'2]))]]]])]))]])])])])]]]]]]]]kg(]]]])]k]]g2}]k]}]}]]]k]}]}g}k}k(2'('(22gk('!^']]a)]]]])]))]k)])))])]]]]]kk]k9(]]]])]kk]g2g]k]}]}]]k]]}kk}}}kk(2'(((gg2}(2!^2))))]]]])])))k)])])])]]]]]k]]k}(]]]]))]]]}2}]kkk]}]]]k]}]}}}g}k}}'((((2gk22^h]))))]]]])])))])])))])]]]]]]]]kk(])]]))]]]22}kk]k]k]]]k]}k}}}2}]}}'(((2}gk2",
"]]])]]k]kk])]]])))))))))))))))))))))))))))))))))))))))))))))))))))])))))])])])])])]]k]]k])]]])))))))))))))))))))))))))))))))))))))))))))))))))))])))))]]))])])])])]]kk])]]))t)))))))))))))))))))))))))))))))))))))))))))))))))])))))]]))])])])]]k]kk])])))))))))))))))))))))))))))))))))))))))))))))))))))))])))))]]])])])])]]k]k]])))))))))))))))))))))))))))))))))))))))))))))))))])))))])))))])])])])])]]]]kk",
")))))))))))))))))))))))))))))))))))))))))))))))))))))))))))))))))))))))))))))))))))))))))))))))))))))))))))))))))))))))))))))))))))))))))))))))))))))))))))))))))))))))))))]i])))))))))))))))))))))))))))))))))))))))))))))))))))))))))))))))))))))))))]))))))))))))))))))))))))))))))))))))))))))))))))))))))))))))))))))))))))))))))))))))))))))))))))))))))))))))))))))))))))))))))))))))))))))))))))))))))))",
"))))))))))))))))))))))))))))))))))))))))))))))))))))))))))))))))))))))))))))))))))))))))))))))))))))))))))))))))))))))))))))))))))))))))))))))))))))))))))))))))))))))))))))b())))))))))))))))))))))))))))))))))))))))))))))))))))))))))))))))))))))))(9))))))))))))))))))))))))))))))))))))))))))))))))))))))))))))))))))))))))))))))))))))))))))))))))))))))))))))))))))))))))))))))))))))))))))))))))))))))))",
"^^^^^!^!^!!!!^___^h______^^^_^^^^!^!^^^^^!!^^!^!^^_')))))('''''''''_'__^_^h^^^^^^^^^^!^!!!!^_____^___^_^h^^!^^^!^!^^^^^^^^^!^!^^_')))))('_'_'''''_'__^h__^^^^^^^^^^!^!!!!^__46^____^_^^^^!^^^!^!^!^^^!^!^!^^h^_()))))('''_'''''''__^_^^^^^^^^^^^^!^!!6<6___^_^___^_^_^^!^^^!^!^^^^^^^^^^^^^^_2)))))''_'_'''''_'__^h^_^^^^!^^^!^!^!!!!^___^_^___^_^h^^!^^^!^!^^^^^^^!^!^^^^_())))]''_'_'''''_'__^_^_^^^^^^^^^^!^!",
"[|#%#%##$###$$@$@*@$+$@@@@+@+@+@+@00+000+0@@+00@+00$5)))_,,{f/f3/:///~%~%~%%#%%##%##*###$$@$**#%@@+$@@0@+@+@+@+0+0&0+0+0+0000@@$0i<)))(333,{//f:/1//::%%%%%%#%%%##$##%#@@$*$@$$@@@+@@@+@+@+0&000&0+@+0&0&000&00@6)))2,/,{{,:///,[//~[[%%#%%%*#$#$*$$@~*@@*@$@$@@+@00+@+0&0+0+000&0+0&@+0+@00+i^)))2{/,3,/,[~[{//~%#%#%%%#~%$$#$$@$@%$@@@0@@@+@@@+@+0+0+0+0000000+@0@+00@0@@@!)))2<:,,/:,,/:/~/#%%%###%##$*$$@$$$",
"%##@#$##@@@+@$@@@+@@@++&+&&&+++&++&77&&7770777cc77c7$6))6%,/,#[:~~[%:%%##:,~$%#$#$%#%@$+@+@@@@@++++@+&+&&&+++&&777c7&7&7777b77&&77$_))h|/:,:::[%#[:~[%%:,:$##@$@#@#@@+$++@$@@+$+@++&+++&&&+777c&777&&b7b77c77777$}))'::/:[:|[::%%~[##$~%#$$*$$$@#$@+@$@+$@@&++++@&&777&777c777c777cb77c777&777#})]',:,:::%##[%|:%*$#/:~#@$$@@@@@*++++&@+@++++++&77&7c7+777&777c777c777cb&&+7#])](5%/::#%:%[*%%#@#@[:%+#++++@@$@+",
"####$$#/%$@@%///%%*:~@&0&070&0&0&07c7&7c7c7c7c7cccc0#<')!%6{/:[~%[%%,<3{,:::##i#$$$$*%%@@@$,%~%~%%**&0&0&0&0&&707c7c7c707c7c7cbc70*6))^/{/[:[~%~%%:<,5,[[~#%#$$#$@#%[$@@@/*~~%**%#70c0&07&7&7c7&7c7&cc7c7c7&ccb0*}))'[,!%[[:%[|%%135{/%~%#$#@$$@$[~#+++~%:#%$*%#+&707c7c7c7c7c7c7c7c7c7ccc7c7&#]))(/%1#:[[%[%%#{,/{:%~#*@$@$@@+#[%+@&#%~~%$@*%+07c7c7c7c7c7c7c7c7c7c7c7c7c70%)))({#6/:%[%%#%i/f/,/#%#$@@@@+@+$%%",
"##%#%@#${3~*,~/~#@@*$+@@@++++&+&&&&7&&&&c7&7&7&c&bc7@5')^~61:::3/|:~:,/{3#[~[%%#%*#@$@,<,*~/:%#@@+@+@+@++&&&&7&7&77&&7c7&7&7&7c7cb@6])_/5:/%[f3%[%[:/35#[:%#%####@#$[{/%%[%%#@++@+++@++&&7c7c7&7c7&7&777&7c7&7cb@2))'/,!,:[[,%[[[:,f1%%[%*$@$*###@$15*$%~[$+@+@+&&+&+&&7c7&7&777c7&7&7&7&7c7cbi})]',:4[[[:{%[%%%3[<%#%%*%@#$$$@@@,3*$~%%#+++@&&&+++7&7c7c7c7cb77&7c7&7&7&7c7#])]({~<4|[[,|%%%d/:,m@$#*#@#@@@+++/",
"#[[%[#%:%,:/###%*$@@+$@*@#@$@@+++0@@c@+0c0&0&0&0+0cc@<()_,!1/33/,[[:[,/%f/~,~~#%%|#%%/[{{~[###$$@#$@+$@@+@+0+0+0&0c0&0&0&0&0&0&0c0@6])'3,///ff,~%::,3%/,:,/~#%%%[~@:#/6/%%#$$$@@+@+@+@@@+0&0&0+0c0&0&0c0&0&0+0cc@_k)'1,_///,3/[~[/,[%:%,~%%%$|%|@:%:5/@***@@+@+0+@+@@@+0c0&0&0&cc0&cc0&0&0+0cc@}))'</6[::::f*[[/{f${%//#[*#%$%@#%#4{$@@*@@+++0+0+0+0+0&0c0c0&0&0&0&0&0&0&0&&$]))'</!{//,[/%|%%:~@/%%~%$@@$@@@#%*",
"%[%%%[%##:/$~%:#%%[$$@@$@@@@@+@+++@+&&*7c&0+0&0+&7c7@5()_1{,/~,,/:/::%/:::/,~%[%%[[[%#%~f@:#|*%*%#$+@$@+$$@++++&+&&7@&c7+&0&&&&&c7@<])'1{,[:f,:[::/%://:::,~~%%%%%%##%1@%$#@#*#%@@@@@+@++++&&&0&cc@+c707&&07&&&b@>b]'1{6:,//,//[:%[/|[:[f[[#%###%$$%/#@@@$#$$$@+++$++++&&&0c&&&700cbc707&&+&c7@}))(1{{[/[[/[[[[#%/[::[/*#@#$#@#@#+:,&@$*@$@@@&07+&0&+&0&&c0&&7c0c7&&+&0&+&+7*]))(11f[:[:f[~%[%#:|%[#~@$$$@#@#$@@",
"%[%|%/,{%%,%:/[%%~:,@@@$@$@*@@+@+@+0+000c0@$$@&0cc70*1()_{f:f/://3:~:,[{[:[:[|[~%[:f{[%%6~[|#%%%%1@@@@+@@@+@++++&0&00070+@+@+070c0*6])'5<4f/:::/[[[f:{[/[|::[[%%%%,/,%~:[%*%%%$,%@+0+@@@++&0&0&0c&c@&0&0+++0&070$>>)(13![/[:::[[%/[/3/%%[~%%%%i%3/{$/5#%$#@$$//@+0+0+++0&0&0&0c0c@&cc@+0+0&0c&*]))(<<5[/[:[[:[%[:f/%%%#%####$$#/,%@,$*$#@@@#/0&0+0&0+0&0&0&0c0c0&c7@+@+0+0&0#]))(63/%/[[[:[|%%/%,##%#$@##$@#%,:/",
":[[%[~~//%1[%%[::[/<#+%@@@###@@+@+++0+++070+$+++0bc&%5()'{3,,/,:/,::f3/33:/:%[:%|%|/:::[,[~*%%%%~!#+@++@@+++@++70&&&0&c70&@++7&7&7%6])(46{/{{j/f/::,3m,//%:::##%%[[~:%:{%$#*$$#{f&+&+++@@++++&+&07&&07c++++&07c7%>b)21{!~f,/ff,%|:,[,/::f:|#[##[|%:$|5#@$*$$#3<+@&+++++&0&&&07c7&c+7c+++@&+&c7%}))(5<1:/::f:/%%[3%:[%:/%##%$$*##%*${%+@@#@@*1@c+07++@++&0cc707&&07c&++$+0&&7%]))26,4,[/:[[/%|:/%/[%%%@%#$@@@%$%#",
"::[:%/[##~%%[~$~[##<,@@@@*@$@$+@@@+*+0+0&#00+@+0&0c0@<()2!{{3,:,,{,f::/,,,/[%/:[[~%:[::~%%[:[~%*#35@@@@$@@$@+0+@+@+0&0ci00+0&0&&00$6])(616/,,,,{3/[/f,,:%~/,:[%%%%%|%%%%$%#%$$$:<#+0@@+@@@+0&@+0+0&0c0@&&0&0+0c0$bc)(^16:33,f3,/::/f:~|,,f[%%%|%#%%$@$@##$##@%4%&0@@+000+0&0+0+0c0c0@0&0+0+0c0#]))2646//f,/f3f::::::%//~#%###$##+@@$+#$0@@+@4,0070+0&0+070+0+0&070@0+@+0&@&0%)))(!64/,:~:/,/[~|:[:%[#$%%@i@@@$$*",
":[[%%%[#%#%#[/%###*~,/@+@$@+++@@0@*@+@00c0070&0&+cc&%12)}'6{/f,f,3,,,/,://:%[[[::%%d%[%#%#%/[##$$@/{#+@@@@@+++0+@+++0&0c0&070707c&%<])g^<<,3f/,33,,:///:[%/:%::###%%%%%$###@@#@@[3#+0+++++07&c@+0707&c@+c7070c&+#>i)((^</3{//f{33/,:::[|/~[~%##$###@$@$@#@*@@+#f/+0&+&0&0&070+070&@70+070&0+&&%}))2'<<,f3,3://,f/%::[[/%%#%$$@$$@@@+@@%+++@&d:f+0&070707070++&07@c0&+&0&++0&%]))(!(<,:/:/:/:/:[[|%[##@*@#$@+@+$@",
"~::~%%|/[[[[[[%[#%#*#,:$$$@$@@+@@0@#$@+dc0+@+0&@+&c@:!()(^'{/3f,,,,{333,,,[/::::::[|%:[[%%%%%%##*%#/{$@@+@+@+0&0@*@@+@c0&0c000&0c0:!])(_^634f3f33f,,f,,f3/:/:~:[#%%[|%$*####*###%%,$0$@@00+0c00$@@+0&0+0c0c000c0~bi)2h_6/{f,,,{1{,/,////:/[[~[###%[*#%#*#$@@@@@@,[+0+0c0&0c0c@+0+0#&&0+0&0+0c0[]))2_!_,3/f/,/333/[%::[[:%%#%*$@#%$@#$@+@@0+@+0|:+0&0&0c0c0c0@@+0i0c0+0&0+0&0:)))g^^',:/::/:///:/|:[$##$#$$#$@@$#",
"[|:::|%[:~[[[#%#%#%#%%@@$@##@+@+0+++0+0+0&0+0&0&07&&/62)(^'{,3,/,,,,,33/f//:///[:::[##/:%#[%%##%#*%#$%@+$@@+@&0+070&0&c70+07070707:!])(!'</{,f3333,3,://,////%[[|%%%:|%#%%#*@@#%%@##@+#@0c0&07&707&707c707&707&7~>i)}!(![{ff,,{,,,f//:,//m:%%%%%%%%$##%%$@0+@@$@$@@&0+0&07c707cc070c07+&070&&7|}))ga_^:,/:/jf://,::[/:[|%@##%##@##$@$*@+@+++@+@00&0+07&7&7&7&70707&7@+0+0++&[]))g!^h/:,::m/:::f:[%[###%%$@#$$+@$",
"[~[::/[[%:[[%%#|%|%%#%##@#$%$@@@+@+@+0+@&0+0+000&000%!2)('(6,{{3,3{13{{/:,/::/::[~:/#%%:%|%%%%%%$%#%#$@@@$0@+@+0+0&0&0&0+000c0&000%^])2^'_3{333334,3,//3//::[:[:/~#%#:%##%####+$$#@@@@@@+@+0+0c0c000&0&0c0c0c0&0%bi)2^(_{q3,33{43,/,//:::~[[%[[%#%#$#%$#@$@@@$@$00@0+@+0&0&0c0c0c0+0c0c0&0&0c0|]))2h^(53,fff,,f///:[[~::%#$##%#$@$$$@i@@@@@@+@@@+000+000&0&0c0c0+000&000+000[)))2!_(<,f,///f3///%%[%$%%%$#$##@+@",
"//:://::[:/|[%%%%%~%%%%#$$*$@@$+@+@+0+@+0+@+@+0+0&@+%!g)'^22!:5q{{4{{f3,f/3/f/,,::/[~::::[[%%#%%[%#$##$+@$@+@+0&0+0c0+0&0+0+0c070+%!])2!_g_,33{3{/3,f,,,{/ff/f::/[[%[:[#%##$#$#@@@#$@+@+0+0+0+0c0c0c0c0+0+0&0&0+%>i)2<2'2:333,{3{//,f/3:/:::[%[%%#%#%%#$$@$@@@@+$@@+0+0+0+0&0c07c&0c0+0+0+0&0+[}))g<^'2<,33,{f{/://:::::[%[%%%|#%@##$@@+@+@$@@@+@+0+0+0&0&070&0c0c0+0+@+0+0+:]))}<^'26[3,f3,3/:[:[%:|%[%%###$@#@",
"3/:3/:[/[:[m~[%[[%%%~|#%$#%%#$@@@@+@+@+@c@+@@@+0+00@:!2)__(2!535{{{3143,/,,,f,,,/3:/:///[[[~#%%%%%##$%#$$@$@+@+@+@0000c00$+@00&00@:h))(!((61,43{{{3553/,///{f,/:[/://:|::~#######$@#i$@$@0+0+0+@00c000&@00&000c0:bi)g62''1,4{{{535{3///,/f:/%%//[[#%[%#%#$$#@@@$@@#@@@+000&000c0&0c00@+000+0+0[]))g<_'_<,33{{{f{,f[m:f:/[:#%%%%###$#$#@@@$+@@$@@$@+@+@00&0+000+000&@@@+0+@+0:]))k1^('!3/3ff3:3//[%[/[~%:#%%####|",
"{/////f/:|:::[[|%###%#%#$$##%#@@@+@+@+0+0+@+@c0+070+:6})'_(_'{{{{3445{3{3/,f,f3////:/::|[[[%[|#%*%%$#*$@#$$@@@@+0+@+0&0+@+0&0+0c0+:^))(_}!h4{4{3<53343/:,:33f::[:%~|:%[#|%%%$$@$#@$@#@#@@+@+0+0+0c0+0c0+0+@+0&c+~>i)}!(''<315{{{{{{f{|:/f/:,:|[[:#:%%%%#%$$@i@@@@@@+@+@0@+0+0c0&0c0c0+0+0&@+0+:}))}6k_!<{/4,4f343/3:::/::/~|%%:[[$$#d##@#+@+@+@+@+0+@+@+0+0&0+0&0c0+@+0+@+0+/]))k^^'^_3,3/f33f/:,:%[:|~:%#%#d###",
",3f//,//[::/::|,%,%$#%%%#%%%###*$$@$@@+@+@@@@@0@+@%%:_})((]!^641{p{545{41p,,/,,,,,/,:/:~[/%%%:%:|#####$#####@$@$@@000@0@+00@0000d~:'))}k}_1(354351{4333,,,,,/ff,:/[:::||%%%|/%f@@$@$@###$@@$@@0@000@0000+@00+@@%:bi)g^}21'{w454<{43,3,ff,,////[[%|:[%|####%if@@$@*@$@%$@+$@$0@00+0000@0@+@+@@~/]))2!k}{_<,4,3{313f3{//f,//::%%|%%#$%%##$%dj#0@@@@@@#@@@@+@0@+@00+0+@+@@@+@@#/)))k'']<!6{{3,33{3/f4,:~~[[%/[%|%%#",
"f,,://///:://%~/1/{/[$%###|%###@$$$@$@@@@+@+@+$@@$$@/!])22]}_651<111<1<53,333f{,3/,f:ff[~:/%%|1|3[[$#$#%%$$@$@@@@+@+0+0+0+0+@000@@,_))k2}k^_,55111<<654/3{{,{ff/3/:/,::[:%##4/{|/$$$%$$$$@@00$@+@+0+@&0+0+@+0+0@/>i)}_]}'^515{<<<1653,,{4,ff:/:/[:f%%%[%#$/3:~[$@@#@$$@+@00+0+@+0+@+0+@+0+@@@@,]))k'2}(!1f411111<43//3{3f[/[|[%%[%%$%%i$%4[:%i0+@+@@@+@000@+0+0+@00+@@@@$@@@/])]]h2}2!<{415415<13~::/:~/[:|%[#:%",
"{33{,{3,f//,{,[/,//3[[||%:::%[[~%%%%###%$%%#$$@%$#@i:^])(2}]k_4666114<<13,{{3fv/,4:,33///f{{3/:~:,:%%%##[[#[[%%%|#$@@#@#$$$i#$ii0@/_))g(2]](3<<e5141<1{54<{{//,{/{3f3,/~,,[[[/|//%#%%%%%#[%%#%$#$@@##@@##$#i@#0@/bi)g_}]k}4<<{{14x1611{1{3[,f,/,,,f[[,,f:%%/::j%[%#[[[#[%%###%##$i#i#$@#$$$%$@:]))k(']}]5{1<5<{{1<{{/{33,/f//f3,::%[:,:%#m%m:#@#$$#%:|#%%%#%##@##$###%@%%%#@,)))k^(]}}!3<5{13{{1{,/,:/|:::f[:::~",
"4{{3{3,f3ff/,:/,,:::,:[|[:/~%######d##$+@$@000$##*@|f^])]2}}}(,11<6<511153{4{3334333ff,/f://3f/::|/f:*%%::[##$##$@%@@+00@@@0$d$##@/'))k((}}}531<64<5115{3w{{3,33{3,:3f,:/::f{|%#/j|#[%%#%@#@$@$@%@@+00@0@0@%$$@@/>i)k2}}}}1f<465<{51133333,f33f3,[fj///%[[/::%:[[#%d%%[d$+@@@0#$$@00i000@%$%%@,]))k('}2g_m<561111{5{,f3,,f,f/f,::::[[[%%/:%%[:%##*%d:#$@$@$@#$$@00@0@0@#:*$@,]))]'g}}2':53<153{{13/,{ff:/f/~/%::",
"{<161{{f4{{{4{3,//,ff{3/:3,3:///%//%#~###/#@0#@*0i@%/_])kk2}}]646<666^6!1<<1{6<<46414/33{333//[:f3/1{///ff////[/,:@%$#$@@#0@@#[/$#/'))]](}}]^5a{166a<!1<<61111{e<{{/34{3{{33/::/:{3/:////::::|::@%#@@|[#0i@iif@#:bi)kk((2}'3<6<e<!6a6<144{6541144/:/33,3f~%%[,:/ff::///~[,[:[:i@##@#[%@0@i#f#%f]))k9(2g}({<646<!6<<454{{{445<4,f[{f3/{//[~%/[~,f[~:/::%::%[:%@#$@#|%@0@$#@$#,)))k'}22}2<,64e166e6{413,11{31{{,%f",
"15{3{{4343333,{3,f:f,f///:::/[~:::%:~%[[%/:%%[[@#|*#/!])('22}}26e<<<6<611551141{{,/f<43{4f{/4{{{,//3//:[::::/[/|,/%%:%#d%%%%~##%|#/_))k(2(}g2<1116<<<1<56<<3{,4f151{f,3{f///f/3//ff/|%///::%[[~#%%:%##~[[[%@df##:>i)k!2(g}2^16<1<<<1<1<1{3{{{3{3{1{3f{4//q{[/%,/:%3:m::#[%##:[[#:[%%/:[$%%%:|%f}))k^g'2g2_1<11<1<1<33{,{3{4f3{,3f3f//:/f/::#///|:[~%:%[#~:~#/%%#|%/::#[|[%%%,])]]!'(2g}'<<<41<1144151{{33,f/f5{:",
"514{44{4{{4{3{33/f,f,f::////:|%%%%%%##%%#%#%#%@*%/#%3^])2(g22k2^{a6!661<<<{1<1454{3{{5{543{,,{,33/f,//:~//%%#%%%#$###%$[####$#@%%#,'))g22(g]2({a6<4<<<r<514{{{q{{1{{33{3,f/,ff3{,/f/::::[%###i#%##$%@#####@$#[|#/bi)k_2}(]}2{8e!1<<<1145{3{44{{5444434{3,33//,//:%|~[::%##$#@###@#@#######%[:#f]))](g2(k}211e6r6e<1144{{3{443{,,3{3{,,://~:/:/:[%[%:[%##$d$%$*@%#*%##%##%|[%3)))]n'}(2}2!{ee<<<51<1{41{{{{,33{33",
"<{{{545{f3{33,3////f33,/f/{,///|::jd%%:%%|%[:|%%|*|#,^])2s222}22{<<e<<<<<w141411{{4{{3,{{,,/33,:/:,3fj/f33://::[:#%%:|%[%[~%%%%#%%,'))}(2'(2}}<1a5<1<<<1151154,3{443f/,3{/3//:/:,,f:f/,/|%:::[:%%d[[#d%%:#d%%##%:>i)]_2'(2}(!f6<<w1<<114444{33{4{,//,f,/ff3/::/f,:j:/f/[::[[|#%%[:$#[%/[[%%#%%,}))]_}'22}((/a1<<111513{4{433{{{,/[333/:/[[~%:/,/:|/3,:/j~[[:@$%[%#:%:~:d[%%%3]))]h((2(k'2,11<1141114{4{{{f33{/:[",
"<6541!^^<6<{{{33{155////:/,{:////3/:%%3~#,%%#%#%#||[,^])g(2((}}2!5<6!^1<<<<<<6<65p{!^_66<{3{354543/://://,::~/:,[:%#f:$,~%####$##:,'))}_k((2}2'<66_^<6<<16<6161{{6^_6<<{33,,f{3{:~::[///[[%:://~%#|[$/:####d$%~[:bi)k_92'2}2'x<<6^11<<1<16<{{{31!^!51{/,/3{3,,:%//[:[/[[#~|::[##[:i|/%:[#%###[3]))]h(2(2}}'!16!^<1<1451<<5<3f56!6515j/:/://,/~:/:~%,/[%|[:/:#%#:#%/[%%%%#%[[3)))]''2((2}'!4<<663{1{1{x<{13f3<6^<",
"'_^_'''_'(_^'_^^^_^^!<666<6!66!!!6^6<46<1<{{{,44{/:~{^])g<(('(gg2('_22(''(('(((_^h''(''''!'_!^^!!^!<<<6<<16<6!66!<64611513{/3{{,::3'))]e_g((}}2(('g22'('''2((_^^'''_''(^^_!66^_!!115<<1<<<<<<1!66415115,{,,{{3/[/>i)]6l}n(g22((^(22'__(_((('^!_''_'_(!^_!<^<^!!<151555<51<6<6661<<151353,35{,:{]))]!62('gk(2('(22''___(((h^6_'____(^!^!<<<^!^<5515{5<11<6<666<5111135{3355{~4])])_6s(_22g((__(2'__'''(2'h6!^'('_",
"h''(22''_'_''('(''___n_((('2('_'_^^''('('('('__'h^<11_})}l^}((}}k}2('((((2((_'''_'(2('h''('2(('_h^^_'((((_'2____!h'('''''''_____!<1())k^!2((}k}}2('((('2('''_n''(}''^_''_((('_h^^__h'('('('^!!^^_'''_''''_^_^h<1{bi)kh6(2(g}}k(2'''('(('___'^_'2''__n''((''___!_^''('('((h^^^!_(''''''_'___'!<1]))]'a'g(2k}]22'(((((('_''_'''}((hhn(_'(((('_^h_''('(((('__^^_''('''('(h__n!<<)))](!^2((k}]g2(''((((('__'_''22(h_",
"k2kk2'2k}k]]kgk(g'22}22}}g}2((((2(''22(('_''((('(_6<^']))}kk]]]])}k]]]]]]]]kk}k2]k2'(]kk]]}g](g'22}}}}}gk9((((22''222''_'(((2(('6<^()))k]9]]]k]}kk]]]]k]]]kk](g9g_']k}k}k2}(2s'g}22k}2}2((''2('_(2('h^h'''(('_116>i))g]k]k]k]}(]kk]]]]]k}}]((2(h_kkg]k]2}22'(gg22k]}k2((('22(_(}(('__(((2(('6<())))k]k]]]k)k2]k]]]]]]}kg]2g9g'']]}]]]2]22((2}22g]}}92(((2(('(22('__'('((('66}))))}]k]]]])k}]]]]]]k]k]g]g}g}('kk}",
"))))))]))))))]))])))])]]]))]])))]]])]]}]}]]}k]}}2]}2g]))))))))))))))))))))))))))))))]))))))]))]]))])k]]))]))))]]])]]}]}]]}]]}]2]}}})))))))))))))))))))))))))))))])])))))]]])g]]]}]}]k]]k])))](})k}2g(k}(g}((_}2((bi)))))])))])))])))])))])]]])])])))))]]])}]])]]])))]])))))]])]]k]}]]}k]}k2]}]))))))))))))))))))))))))))))))])])))))])])])))]]])))]]))))]]])]]]]}]]}k]kk2]g]))))))))))))))))))))))))))))))))])))",
")))))))))))))))))))))))))))))))))))))))])))])])])))])))))))))))))))))))))))))))))))))))))))))))))))))))))))))))))))))])))))])])))))))))))))))))))))))))))))))))))))))))))))))))))))))))])))])))]]]]]]])]]]]k]]]]]>i))])])])])])])])])])])])])])])))))))))))))))))))))))))))))))))])))))])])))))))))))))))))))))))))))))))))))))))))))))))))))))))))))))))))])))])))))])])]))))))))))))))))))))))))))))))))))))))",
")))))))))))))))))))))))))))))))))))))))))))))))))))))))))))))))))))))))))))))))))))))))))))))))))))))))))))))))))))))))))))))))))))))))]))))))))))))))))))))))))))))))))))))))))))))))))))))))))))))))))))))))))k>i)))))))))))])))])))))))))))))))))))))))))))))))))))))))))))))))))))))))))))))))))))))))))))))))))))))))))))))))))))))))))))))))))))))))))))))))))))))))))))))))))))))))))))))))))))))))))))))",
"]}]}]}]}}}]]])))))]}]}]]]]]]]}]]]}}}]}]}]}]}}}}}}2}}]]]]]}]]]]]]]}]]]}]}]}]}]}]}]}]}]}}}]}])))))]}]]]]]]]]]]]]]}]}]}]}}}]}}}}}}2}}]]]]]6g]]]]}]]]}]}]}]}]}]]]}]}]}]}}]]])))))))))])))])))])))])])])])])))))))])]k>i))])])])])])])])])])])])))])))]))))))))))]}]}]]]]]]]]]}]}]}]}]}}}]}}}}}}2g}]]]]]}]]]]]]]]]}]}]}]}]}]]]}]}]}]}]}]]))))))]}]}]]]]]]]}]}]}}}]}]}}}}}]}}}]}}}]]]]]}]]]]]]]}]}]}]}]}]}]}]}]}]}]}}]",
",3,,,,/3,3341_]))]!666<6<666<6<<1<115555{555{5{{{{{{{555{{{{{5{{3{33,3,,,3,,,,,,,3,,f3,,,{1()))]6666<6<6<6<6<<111155454555{5{5{{{{{545{{3{{{3{33,,,3,,f,,,,,f,f,,,/,3,,{52))))))))))))))))))))))))))))))))))))))9 d))))))))))))))))))))))))))))))))))))))))]6!6!<666<6<<<<1<115545{5{5{{{{{{3{{5{5{{35{{3{3333,3,3f3,3f,,,,,,3f,333{<))))]66<6<6<6<6<6<111154545{5{5{{{{{3333554{{33{{3{3333,{,3,3,,,{,,,3,3/,33",
"00@@00000000@:6})6f3{3/,//:f,//[[[/::[%:~%%#%%%%%*#@##*$%@$@$@@@$@@0@0@000@000@00@00000000@~())!f,33,,,/,/4f/:/[:::%%%%%%%%*%%#%#$#%###@@@$@@@@0@0@@000000@0@0@00c0000@00%2))))))))])))])))])))])))])))))))))))]o 0))])])])])])])])])))])))])))])))))))))))_//3{,f{:/3{/,:[[[:[[[%[#%@#*#$%*%@@$%@$@@0@0@0@00000000000000000000000@00f)))'4:,3,:f~/:3::~:%%[[%%#%##$#**@*$@0@@#0@$@0@0@0000000000000000000@00000",
"000i000i@i0i@~<_]!/<31:,/f//[{1{//{5,%%~%%%%|,3~%#*%/:[~%%|:%#@#@@@i$@@i@@0i000i0i0i000i00@~6])_/{/{/,//{3/{43//{5,%%%%%%%%/:~%%%#[3/~[~%%%i0@@i0@@i0@0i000i000i@i0i000i@#6))))))))))))))))))))))))))))))))))))9>  y))])))])))])))))))))))))))))))))))))))]'3/,//////,//{3/:/{{%#%%###$%::%##$$/~%*%%%|#0@0i0i0i000i000i000i0@0i0@0i0~]))(1/<,4:/::,%#,4/:%,{:$###@i$#:,#$0ii:%~##*%%#0i000i0@0i0@0i000i0i0i0@0i",
"@000@000@000$%6_]6/63/ff3//::35{!{//:~[[:%%[[[,3~%#[,{{/~*/~#@$@$@@@@@@0@000@000000000000c@~62)^/1f/f/,/,//f<{6<[:/:~%[%%|%%:3/|#[{,{~/%:~%$@@@@@0@000000c00@000@0000c000@,ydidididididididididididid0i0ici0ici>    00i0ici0ici0iciidii0dci0dciididididiik]',:r|,/,3/:::{{56,%/[[%[%%###%:3|%@,~,~%*#~%000@0@0000c0000000000000000000|]))(4:6////f/[[%34,6,::%%#%##@%#%:3%#@%~//~*$%~@@0@0000000000000000000@0@0",
"$i@i@i@@@i000%<_]_{6{{3{1,,,/,5{3{///,/~//::%/%{!3:{/,~~%%%%#%#[%#$i@i@@@i@i@i@i@i0@0i@i0i0%<])'4!z{3{{{///,,3,{:,,/,,~[:/%:%,_6/,/~[%%%#%###%##@i@i0i@i0i@@@i0i0i@i0i0i0i,b                                                                            >))'456~,,{1///f/5/3/://~/[[%%[d:~<^3://%#@#$i@@@i@$@i0i0i00@i0i0i0i0i@i@i@i0%]))(<3<{{,,5,//::{/,,::/[~#:%%%#|%,!{~:~##$#$$$i@@@#@i0i0i0i0i0i@i0i@i@i@@",
"$0#@$@@0@@000#<_)'164{{{3{f/:/4{/5f:{,,:/:/:/::|11:,/::[//[%%#%##*#@$@$@@#i0@@@0$@@@@@@0000%6])'{<4{{{3f3,//3{/,5,4,,//://,/::,<~/:%~%~|%##$#*#*i@$0@@@@@0i@00@@@@@000@c0@/c                                                                            8))'636:333/3f{/,{,[{:3,|/:%~[%#%[[4{######$#@i@@@#@@@@0@0@0@0i0@000@0$0@0@00%]))(!16,3f3,{:::/,3[4%%/~:%%%#%%d#$3<#:###$%%@@@@@@@$0@0i0@0@000i0@0@0$@@@",
"@i$#@#@i@i0i0%1')_1<1,3{{3/3,,:4{,/,,f/,://///,,,6%,//[,/,,%##|%$%%%$$$i@i@i0%@i@i@#@i0i0i0%<])'{6<3{{{{,3f,/35/33,3/,:/://3///1%,::~:[~/##%%#@#$i@*@@@i@i0d#00i@#@i@i0i0@[1                                                                           b])](<<!,4,,{/,f,/:4,://3::[:[:%:%/:,,$#~[%#%[%@i0#@i@$@i@i0i0i0i#i0i@@*i@@0i0|}))(<<4{/3f{/:/,/~3{[~[/%[%%%%%[%,[[<#[%##%%%/@i0*@i@i@i0i0i@i0i##0i@i##@*",
"i0$%%*#0*000i~<_)_<153{,,/,,,,1/3,,,3//,,:/,,/<,[63////://6%%#%##%%i#@$@$@$@$0#0@##$*0@000@~6])'1_6,3/,,,///1f333/f///,/::,/://,,/::/:[|6m#*i@####i@$@@0@0@0#00@#$*@@00@@$/e>                                                                          p)])'<<'/{,,///,j3{/{,//,:[/~:%/%%4,:<%#%[*%*/<i@@@@0@@@0@0@0@0@0@000***@@@@00~]))(615f,,f:///m,{:/:://[%:%%%:%[5:@<,[*#*%*%<|0@@@0@@$0@0@0@0@00@@0$*#**@",
"$iii@#ii$i0i@~<'](<615{{3{{{3541533{3,,3///,3{,/:3/,//f//3^/$%%##%|i#%i#@*i#$i@i@ii*#i0i0i@:6))2<_!33{3545,{{1{{,3,,,,,,//,,:/:,3,~:::::<{$##%##$#$%ii@i@#@i@iii#%#i0i0i0#/!b                                                                          s)))266'{/3,3,5f/,4{{3,3,///::::%%:[[{%%~%~[%:6%i@*@i@%@i@i@i0i@i0i0i0ii%@i$i0:]))2!<1{33,,f,f,{{f,~///[::|%|%/[~#%#d%%#%#%[!/i0#@i@#@i@i@i@i@i@i@i@##%i*",
"@@/$$$#@$@i0@%<']}!6115{{{{{{{544333//{,///:///f//,/,//|::,<[$#####%#@i@#*#$#@i0|#i@$0i000i%6])2^!^34{4{{5{3445{f/3,{,,://:/,3/:/:3::[[%/6f@###@i##$i0*@*$i0@0%#i@i0@0i00@~6b                                                                          u)])('6'{3{43{443{{{,,:3/::/[::[%|#%%##:/%##%#x1@@@i@@@i0@0i@@@i@@0i|#0$@@@#0@[]))(_6634{3,3,3f33,//:/[[::%%%%%%#|###%~#$*$#|1di0@0i0$@i00@*@*@i00d%0$#i@",
"fi$#@i@*@i0%#/6(]k^_1<11554545{43{{{f{{3{{:////,//:/f/~~~[%/1/$####%#i@ii~*#*i:i@%@i@i0i0##,!])}'_!115{{51{45{{3,,35{3,/:/:/,,/:[:,f:[[%#:1{|%$%$#$i@i@|#*@id%0#@#@i0i0i#|/!b                                                                          u))]('_^1441w{5455{{{3,f{/,://[%~%[%[%%%[##*%@m/<%i@i@i0i0i0i**@i@|0i$i@i@i@ii/]))g'^^4154{{{33333//,://f[::%#%#%%%%%#[##$#@i%1:i@i@i@i0i0i*d**@/ii%#$#@*",
"|0@@i0$@i@00#,!')(_'5<144454{45{4{{333333f,//f,:/%m:[[[[[//~/3%*%##$$@#@$@%d%@d0i@*0i0@@i0$,^])(__64544{4{4414145{33{f,f/:/:/f,[:|[m[|%:[|~3:@%#i@$@i0@@d%#0i@0$i@@0i0@0i~,6b                                                                          u)])(h__{44{{441553,,3:,3//,//:%%m:[#/%###*###@*%3@@@i0@0i000i*%@ii00i@@0i@$0if]))g^^_{<5{,{{{/{3,f,f/:/:/[[%%#[%#*i$#@i@$@%###3ii@$0i0@0i0@#%#$ii0i$i@$@",
"$i#*i#$i@i@i@,!(]2'251<w{5514444{4f3,3,3f33,////f/:{///:[///[~:%%%%%###i$#@i@*@i@*@i@i@i0#@f^))2^264<1554115{4443{3{3{,,,f/f:,,/[3,::##[:/[[:%%#$#$i@i@i0i0i0i@i0i@i0i0*0~,6b                                                                          u]))2!''{15{{{1{{{{{3{3ff/////f[~%[[/%[,%#%#%$#%%$%$i@#$i@i0i0i0i0i0i@#@i@i@i@f]))}h(({{1{{{4{{,3,3,~:::::~:/%%%%d~%#/:#|#%#%%d#%@i@i@i@i0i@i0i@i@i@i@#$*",
"i0##i#%@i@i0i:!')'_2^1444414<55{4{,/,,33/f,/,//:3/:[:[/::#[~[[[:[#%##*i$i@i$i$i0i$i0i0i000i:^])2'(}<{5555114{{5{433,,{,/{/f//://:|:[:d##||%##%%$#@#$i@i0i@i0i0i0i0i0i0i0i#3<b                                                                          o)])(^'2'{54{{5444{{,33f////[/[j:[%%##%%###%####$i@i$i$i0i0i0i0i0i0i@i@i@i0i0i/]))g!_2!13{3{{{5{,,33:/::[:%~%%[%##:%$i#####i@#$i0dii@i@i0i0i0i0i@i@i$ii#@",
"#i#%%%#d##@i*,!2]'h22'41411151{445{4{{3{,,,3,3ff,,:/:/::/:::://,[%[%#%#%#d##$#$ii##d#i@#@i$fh))(h(}_35{5{<1<53{154{{34,,3,ff/,//::[:[:[~:%#[[~%%%#d%%d##$*@i@i$ii##iii@#@|3<>                                                                          u])]9!('k<{5151511{3{3{{,f3///[/,/:|~[:|%%%%:%d#%[#$#i#$i@i@i@i@i@i@ii%##$*#*$f]))k!h2(^{4{{5{{53f3,33,/f/~|::::[%:%%#%###%##id%%%d$%i#$#$*$#ii@##*i%#%##",
"%$##%#d##$ii%3!g)_(('6<515<1<1<44,{3{3{3{ff,{f3/////f//::::::|[[~%::%%[%~%%##@i@*$##d@dii@#3^])(^((^11<145<5<3{3{3{333{ff,43f////://:[~[:%[:[#[%~%#%%#####i@i@i$#@i0#@i$i|{<b                                                                          u)]]g6'''6<1451<51{{3f{{,3ff:::f:::[:[%%|~#%%[#:%%#%id*%##@#####@i$i@#######@if]))k<'(^65{4{551<1{,/,/jf/f/[|:/::|d%%%%[###%#d#%#####%@###d%#d@$$#$#%%%#%",
"##%%##id##i%#,!}]((}^(15<<<<1<11<<{{{5{3{,,{333,f,[/f,f[/%/:[:[:%~:|%~%:%%#%#%di#%#i@###@d%,h))(']^(!<<e5<11151<3{{54{{3,3,zf3f,///,/:/[||:/:~%[[%d[#%##$#@i#i@##i@i$#id#~{e>                                                                          u])]2!}'!'65<55<e15{<333{,f,,3,,:/,/::[%:[:#/#%%%%%%%#%#%#%#d$##*$#i|##ii$%##i,]))]6((!'{{<511x55{<{//33,/,:///::[[%##[[~#:#%#%%%%##%##d#%%####i%###%###%",
"#$#%##%###%//4h2)2(}^h'<<5x1<1<1<4{4{{4{{3{3{33f,//:f/3{f3:::[::[[/|%%[%[d%d##%@#%%@#$##i:54'])(2}2<h<<<<1<1<1<4{{545{33{333333f/:://1/4%%:|:[[:::|###%##ii$#@i%%@#$###%//<<b                                                                          u)])(^}]6!6<111<1<111{354{33/33ff/f/::[%|[3f3:#%###%#%%%$*#####%$i*ii%#####%#[3]))k(']!^!411451115{3f33{ff,ff///::[[#d[[:3jf#|###%#%[[#####%#%i#*##~%#%%#",
"[d%[%%|%#%#|%3!}]}']k}^6<<16666h6<153151154153,{33413,f1f3{5f/:/f::///[[%%##%%i##%##%dd%##:{_))k}]]2^6<<6!66e!6615{14<14{45{,{{{{53j/4,5{4f:///:[:%:[%#%ii@##i#[###dii$%d:46>                                                                          u])]}']]}_66<<666<666<433511{{/54:,3,,{3::,{/{3f:[%%j%%%:%%ddii@#iii%%##di##%[{]))]''k}261111<e<a!615334{45,33{|/f/:3{,[:{/[,3:%%[/%%~:%%#%##i###i%[%%|%%",
"/:3//:[jd|,m:{h})g(}k}_46<6<<<1411<<154{x4<34f34{{3,ff44{,3:~[/:/[:|[%:::###%#%%[:/::[||m#|{'])}}}}}(56<e1611<61<<<153{45{4{4{3{f/,3{{33f::|f//|[#%|:%%#|####i|/||~:|i[d%:1<b                                                                          u)]]g2}]}]<<6<41<<1141113{33/{3{3,/,,,jf/::f/ff|#|%%%%%[|[[:#%i###i|f/:/||#[ff3)))k'_]}k^{<<e<54{4111<{{3,3{4ff:/3/,:/|/33/:/|#%||%%#%|%|[%##%#%#%|///:/|",
"[~//,:%///,/f{_]]]2}}]21<6a^66<<1<<<111<1<115{34{1333{3{33,f///ff//::/:[:|#|%::%~/:,[|f////4'))]}}}]}<1!6!66<6641511<<<44<<{34{43f,,,{3,:/:/:f//::%/|~|%%~%~|%%:||%|f:f/|/<6>                                                                          u])]kk}}]}'f!<6<6<6<53141414{45<{/3f{,3f/://,//[[[~[/[:%%|dd%#d%%[~%::3:[/,/{/{]))]}2g]}2,<<a!6<<4<1455{4{{{{{3/f3{3f/f///f/:%~[[:/[[%%[:|~##%%::%|/f3/:{",
"ff5,//,|[/:||,^})}(2g}]^6l6!^!^6!<<641<5<16{165551141<1{3f441{3f344{4,4{{::[{/::5{f:/|%3f%[,'))kg2}}}_1a6e^6!6!<<<1{<<<1<<<<55{3{{{513{,{{<3{:,5{31333{/fd3,::{{/[/:%:f[[[16b                                                                          u]])92g2}}2<16<!!6!e<<<<{<11151<1<f{4{3{313f,,,543//3{3{4{[f3:[:{/:f{{///[%/::{]))k('22k}!<^<6!!6661161<1{141{5<,{{4{3{13,//3{4{//f{3{{33{{/:[33/f44,/f/|",
",j//:/f,////f4!])('g}]}}<<6^!!<611<6<<1<111<511{51{4{{3{3p33,,f,f/{4,{f,/f33//:[:///:/3//jf5'))2(}(}}}!<!6<a6!<6<61<<<11{<1<1<{415{{{{3{/3,/33/3q,:f//://3[,3::/f////jf~[/<6b                                                                          s])]khk22]k246a<66<<6<11<111153f{5<{4{{,,q43{/f/ff,//[,/:3{ff/3,//f:3:,f33/:3/5])))!'2}}}2<16a!a<<5{<<61144{454{<3p{{{3z,f{3////f//:3{,3,ff/33/:,://{f3f{",
"3:::f:/[:t[[:4h})((2}g}2^5^6^<6<<1<<6<<11511<114144544{{33{3{3{33,{{{{,/3ff,///:/[/:[|3,f:[4'])2(2gg]224a6!6!<<<<<<<<1<51w6<111414{{51{f3,{3q{{3{,{{,f,/3f:f,ff|f/::/|::~/<6b                                                                          u)]]k(g2(k}g61!^6a61<<4<<61114{4514144{{,{1{,3//ff/{/ff3/3,,f//,f//:/:f/:/:j:/{]))]''22g}2!5!6!66<11<<<<5141411{{{4{{5{{3q,3f/f,33ff,4,{//,f/,//://:3f/:3",
"ff{3/////f::/5h])922(2}}}66!66<<<6<6<66!61<<<!61{55<15443{,3{{{4{{4/f333,/,,/{//3/,/:f/,//:{'))k(2(2}}}!1^666!e6<6<<<6611<<66<{451111w{,/3{33{3{4f/43{,f3,:///3,:///:/::[/1!>                                                                          s])]]n}(2g]224!!6<61<<6<<<<6<411<<<,3{w5441{,:/,3,3{{{{:,/,f/f//,3//3,///:ff/:5])))_2(((]2}1666<<1<<<<1<6<64511<<,,3{413{3////{3{{{{4:/33,//,,,f,/3,,//ff",
"3/4,///:f:f|/{^})('k((}}2'!^''(^!^^!^^'_^666'''__!6661<<!^!54{43{{13{4<3<1{,/f,:3//:::/:f//{'))g^}((}k}'6!^'(_^!^!^!_!666<''(__^<661<16!!533{3,34{3{1{<13,::/:3,::/[[:/j[:<!b                                                                          s)])]^'}'g}k(^6!h('!6^!!^!!6<<1!'''_^<1<4{116!<{,,///,{,f33{1{//:f//3,:/:://f/4]))]h_]'(9k('6^_'_!6!<6!!^66<5<_'_^^6{15335<!<{f,///,3,/3{35<33//f/33/////",
"'_^!^^6___6116h])2!(g(2]}]}}(((g222((('(((2]2(__'('2}222(__'_''(''(('(''_(2(''_'!^^^<!_'!<16'))}6hk22k}]]k(2(g(2}(''(('((k2''''('2g(((('_'_''(''((('''_((2''_'^!6^6!h_!<4{<^b                                                                          s])]]h62g2}k]]]2((2(22}'(_''('}}(_'_('(22'('(^____'___('''(_'((('_'_^6!!!^'_!5<])))'!'g(g}]]]g2'2222g(2'''('}}2'_^'''(2'(((_____'__h('''('''2(('''^^^^!!'",
"'_''(''''_h<6!'})k((]}}kk}}g}2gg}2}(2(((((((((2'2(2(2('(''''('22((('(''''h_'(''(('('(''__66!(])]('}}}kkk}gg2}g}2}22(2(((((((2'(22((('(''''''2((((''''_'^_'(''_''(''''__e<<6!b                                                                          s)])]('(kg}}}k(}2g2}2g22'((''('''2'((22((('('(_''(((22''('''__'2'''''2'(''_'!6^)))]2((}}gkk}2}2g2}2gg2(((('((((g(((22((('('('''(22(('''''(__'(''_''2('''_",
"}2(22]}}]k2(_(})))))])))))])])))))))])])]]]]k]])))))])]kg]]]]]k]])]]k]k]k]]]}]}2222k}]]k2('2})))])])))))])])))))))])])]]]]kk])))]]k]]}2kk]]k}]k]}]k}}]g}k]gg2((((}2}g2(h^_^hb                                                                          s])))])])])])]]]]])))])])])]]]]}g])]))]k]]}g]k]]]}]])k]]]}]}]k]}]}2222]}}k}g'()))))])]))))))]))))))))])])])]]kk])])))])]]}]]]]]k]])]]]]k]}]k]}]}22g2k}kk}",
")])))])])])]]])))))))))))))))))))))))))))))))))))))))))))))])])))))))))))])))])])))])])])))])))))))))))))))))))))))))))))))))))))))])])])])])))]]))])]]])]]]]])]]]]kk}]]]g'hb                                                                          u)])])])])])])))])])])])])])])))))))])))])])))])])))])))))))])))))))))])])])))))))))))))))))))))))))))))))))))))))))))))])))))))))))))))))))))))))))])])]",
"))))))))))))))))))))))))))))))))))))))))))))))))))))))))))))))))))))))))))))))))))))))))))))))))))))))))))))))))))))))))))))))))))))))))))))))))))))))))))))))))))))))))))g(b                                                                          s])])))))))))))))))))))))))))))))))))))))))))))))))))))))))))))))))))))))))))))))))))))))))))))))))))))))))))))))))))))))))))))))))))))))))))))))))))))))",
"))))))))))))))))))))))))))))))))))))))))))))))))))))))))))))))))))))))))))))))))))))))))))))))))))]a)))))))))))))))))))))))))))))))))))))))))])))])))])))])))])))])))))))])}b                                                                          s)])))])))])))])])])))])))))))))))))))))))))))))))))))))))))))))))))))))]])))))))))))))))))))))))))))))))))))))))))))))))))))))))))))))))))))))))))))))))",
"^__'______^_^__'_'___'''_'____h_^_h_____h_h_^_^^^_'(}))))2'((((((2(('(''_'_'_'___'h_____^_^_''''_'^6''______^_h_^___h_h_^_h_^^h_'()))))))))))))))))))))))))))))))))))))))))o>                                                                          i))))))))))))))))))))))))))))))))))))))))))]('((((((2((((''''_'_________^!_^^^''''____'''___'__^_^_h_____^___^_^_h'_}))))]2'((((((2(('(''_'''_'______h___",
"{33,3,3/,f{,,///f//:[//::::[[::[|||[[%|%~|:||dm||d//<())(1<1<1<11{141{{{{{333f,f3,,f,/,ff/,/,f,/:[///:::[||[m[||||||||:||%%d||[|j:<}kk]k]k]k]k]k]k]k]k]k]k]k]k]k]k]k]k]kk]a>                                                                            ik]kkk]kkk]kkk]kkk]k]k]k]k]k]k]k]k]k]k]k]]2<6<<5<1{4554543{3{,33,33/////:////::[//:::::[:|~||%[||%|%|||d|%~[|d||[[:j_))]}614<1545415{{33{,{f,,,///,//://",
"{,//////://:|//:[~[::[%%%%#%d%#d#%idididi#*diiididi#/!2)^{11{{31443{{{3,f3{{:3,///////:/[[%/f~~:|%%~%%%%#d*%#didididididiiiii#d|iidvb>>>>>>>>>>>>>>>>>>>>>>>>>>>>>>>>>>>>>>                                                                              >>>>>>>>>>>>>>>>>>>>>>>>>>>>>>>>>>>>>>b()'5{5{4{{/{f33{{,:/f{//:,::%~[:[[%~dd|:#%#%%|#didi#i#idiiiiiiidididiiiiid*i/)))(6f14{f3{{33/,f,::/{f|::%|%~|/%|",
"/:/:::{1,//[,{{{,~,{5md#%#d#di#idi#i#iiiiiiiiiiiiid|,6(]_3^15{{3{33,16115{53///:/m/:/,,m:[/{{///,~//#id#di#i#iiiiiiiiiiiiiiiiiiii*:,[>                                                                                                                                                        b()](44<,4{3,3,/,1151f,{:[:~[[[%[f5j|ddm3,:[|~,/|iiiiiiiiiiiiiiiiiiiiiiiiiiiii,])]2<,65{3,,f,//4<{1,,{f%[||%%%%|//",
"/,,f,,,f6<{f555{,,:3,~[:|[|[%%%dd%dd#|ddiddd#ddd#did:!()_5^63{{<{{{{{61!<{{{33,,,f,::/<6{/{55{/f:f3/|:[%%|dd#d#d#diddd#ii%#d#didid%31p>                                                                                                                                                      0])))(<{6{{34<,{{,{<463,{//:::/:/[:[653[{,3/:|%::ddd|#d#diiidididddidid#d#d#did/)))(6{^<,,353,3,3146{:f//:/::[:d|%1",
"333,{/{3{!65,/f/,//[/:::/:~[[%|%%d:di%%###d#%#dddiii:62)(1h6451413{3351f1{45{,3,3,,/,{4665{//:f:://[~~:::%%#%dd#d##dd#d#d#dididiiid,5(w>                                                                                                                                                    0])])](<5!{{{5143{3{<{35,{{/3:////|/3/!<3|[||%%dddd#%d%#%#di*i##did#di#id#d#dddi/])]264!<34{3{f,,/4{:{f,{::[:::[[:33",
",43333/3,<133,3{/,f///:///%[%[[~%|[~i%ddi|d%d%d%ddid:62)(6<<111<55{{{{45{44<43{{,{{{/3351/{{{f:f,/::[::://[|%|d%ddidddid#d#%d%idiid,5^]i                                                                                                                                                   b])))))'!<631{{41{{{{3435{{{/////::::f:4<d|[/:|[:[|ddd%d%ddid#didddi|#didd%d%%%dd/]))(!<!1{{55{33,,f3,3,3{/://:://m:/",
"{3{,33{<{,5/{{{33,{3:[:j/::::|[[[%|%dimddd/~:%dddiid/<2)(15{11w514{{{45<{{{{{,{{3,{4<{5{!/{,,f,,31~[:|[|:%|%|d|%%#did*id|%[%didi%i%/5!]t                                                                                                                                                   >]])])](6<1{44{4{{,33{44f3f,/f////[f{1,:{:://:|:/{dd#%ddd%dd#dididi#ddid%[|[d%*ddf]))2!16<{w{{{{,,/3,1:f/f:::/[[/3454",
"45{{{{354{!13{35{{{!/::/://,:~[~|[%:|[||#d:/~~d|#d#%,!2)(<<<511551{{1<{1<541,{{{{{35{{4{!6{,,{{3,_{:[~:::/[:||%dd%d%d%id|~[~%ddddd~346gj                                                                                                                                                   b])))])(616{w1<154{3{<{{43{{,f3,,/,/,3,:64,::,/:/6/%%d%d%%%dddd#ddddddd#|:::~d|d%f)))2^1!<3{{3443,{13{1,,3::,//::f,f3",
"{{{{{44,/,{,{,,{{/3!{[://:[:||~[::[:[%%dd[d~[[dddid#/62)g!6<1{45<<<44{1115144{4{{33{{33,33{3{{{:,<1|/:::/~//[%~[|dddd#dm%||dd#%id#%/5<}t                                                                                                                                                   >]])])]2^<!14<11414{34{1{{5w{,/,/,/3/j::/[::|//|m!3%d%d%d||%#dd|*%#d#dimd:||%%|d|3]))gh!!<{{3{5<{{f,3{{{33f//f::|,//|",
"543{3{{33{,3{53{3,/1!,[::/~/:m[:|/~/~~dmdf~dd|d%dd#%,!2)}'!61<1<1<1<5511154<14443{,{{{3{,3,1,,f//:<1[[:/~:::|[d[|m|m|md:/%#dddddd|[,46_v                                                                                                                                                   b])))])((6^1<11154155{{{{3{4{3{f/////:,:::/,:::||46{dd%d|d|dddd|~||%||dm,|%d%%[d|3)))2___151544{4{{3{{{,3{,/,/::::/:/",
"5443,,{1{{{{{3{{,fff334:,/:::m[%m|f,/[%3d*:|md|[[id[5^2)}_'<<11111<111<554{5144{4{3,3{5{{{{f33f/::/4<:f|[|[%|d|dm/:~%3md|d%#%%did[,441^t                                                                                                                                                   >]])])]2n^'1145545115434{{3{{{33,/[:/3:ff/:///|[|||44||%d%#didddm:|~d3dd|||%|:|%d5]))k_'_5{4{{3{44{44{,3/,3,f///:[[/,",
"{155{{45{{{4{,,333{{3{{f:f//[:[~[:|::~||d||:||%||dd|4_g)2((e<<111<111<<<1<141<5541{{f3543{f,3,33/,f,//::::[[||%|dm||d|d|%~%dd|ddddf<4<!y                                                                                                                                                   b])))])g_((5<1151115<45<1{5{{,,3{,,/3,////f|~::[f[::/d|||ddddddddd|ddd|d||||||~||{)))}_'(1144{545{1554{4{/{{3,3,,:[:3",
"5{44{3{{{{4,13,{,,3f3f33:////|::[||||d||dd|i|d|ddi||3^})2_g6<<<1<1<<<1<1511{555{4{{43,{{{33f,3,ff/,,,/[::[~[:[|d|d%#d%d%|dd#dddidd:451!i                                                                                                                                                   >]])])]9_'(<1<w11<115551{,,{333f,3///,:,/:3/[,[m:[~:m:dmd|%%d|dd#dddd|d%%d||||%|d{]))}^n(611114111455{,43f,{fff,/f:::",
"554x55{4{54{{{33,3333,f3/f//:/:/[[[[:|[:d|::||||||::{_g)('(}^166<6<6<11<111<111<5545{4{54{{3,3f3{3ff/,::::[::[||||||||d|||d||ddd:|/<5<6d                                                                                                                                                   b])])])2^_2261<1<<1<<41414{45,3,3333,,/,{:f/:[||/~/|m:||[d|d|||d|d|d||ddm|||:|||:{)))k^_(2^4611<<<131{{{{{{3{,,,,f/f,",
"1{451{4{{{43{3,33f3,{,,f//,f/:/::mm|[|:||/:~/|[||d|~4^})('22'<6<<<6<6<<111<1<4<1415{{44{{,{,f,3f3,3//3:[,:/::[::[|||[|d|:[:||d%d|d31116i                                                                                                                                                   >]])])]}!((2^4<<<<<<<13{4111w{33,{3,f,:,,/::[/:::/::|/|[::d||[d|d|d|||dm:::~|[|[|4]))k6'(2'<1<11<<<5{{{415{3{,/3///,/",
"1<551151{444{53{,,f3f3ff:3,{3,//::::|:[[d/:~/:|:[|d:{_})((22_666<6<e66<<511<1<<1115545{{{{{{{4,,/{,,3,jf/3//:/mm[:[||m|~|:[|d:dddm,11<!d                                                                                                                                                   b])])])gh}('_<<6<e6<e<45{4554{41{3{{{3,,zf,,//:::::::|::://[~[||[|||[||[::/m|::||4)))k_'('^<<<<<11<1443{44{{4{{3{f{,f",
"511454444{4{{{{4f1,f,,3,,,{3f/3/,///:~::m::[/:[[:[q,1_])g(]^(!<e<<e<6<<<<<<111<11551144{44{3{{f43:3f3f,f,/,/f//:/:m|[[[mm|:|||||3{{<11!i                                                                                                                                                   >]])]]]9o]26'!16<<ee6<1e115111{4{333,3,3,3f3/3:4mm::/::/ff::::::[:[||:[:|:/:[m[:f1])]]((}!'!1<1<1<1<5<1144{444{{3{,3,",
"415x115144{x4{{<<4<{333{333{33,,ff//:/:/m::,::::/:f31'])}}}}n_66666!6!6<1<r<1w1<115<5155{44{3p<,1{{{,z/33/f3,f//:j[::j|/:/::[:/:/336<<!d                                                                                                                                                   b])])])}_(]'^^<<!<66<66<<1<1<1{{4{w3{{{,3{{f,4<313z//////////:/:::m:/:m:///:j/,/f1)))](g]2^^!<6<66<<65{1541{{{4{54{{{",
"11<5<<144451<1441461{{33{4444{1{{{433,{{z3,//f,f,j:f1_])}2]}]_<!!66<6!_6<<e1<1111<{<<15444<<1414<<{{{3/,44{{4{{{433f3q,f3//jff/j/|f<<1!i                                                                                                                                                   >]]]]]]k(2kk}6<66!6<<6^6<68111{4141<4{,334113{{{<<33f3/{3{3{{{33{3f,3{f3f//z,{f,j1]))]s2}]}^1!66e<<6^<111{154441{<4{{",
"166<<65<<<<<1<1111415534{44533,3,3/3ff//://f//{33{/p1(])kk]]k21la^6!<!!l<<<6<6<<<6<<<ee<111<<<114541{{3{45{3/3/f:f,/:::://f/,{m3f:,6<<!d                                                                                                                                                   b])])])k}(]}]_<!^!666e6<<<66611<<1<141<15{451454{{{3{333{{qf/f,f/f,//:/://f/{{,3f1)))]2}]}](1!!!6e<6!!<1<<<111<<1111<",
"66a66<<w<1<55414141{{55334143{4{{,,:,3,/3{{,33f{f/{{1'])]}}}]}!<!6(^!!!!!66<<66666<ee1<11{{54{{{15{543{{44335{,33j/,f/f{{3,,/{ff4:,66<^i                                                                                                                                                   >]])]]]kg2}}225a66_^6666e<1<1<<61<<<5414{{{{{{{{33{3ff/3{{,3{{{,//f3//,43{33/4f,{<])]k(]2}}}<<66'^6!6!66<11!<6e61<154",
"!6<e66e6611<1<<e1<5<<45<{45<{1,{5{{<5144{145,33f/ff{5'])g22k}]2!!^6!h!!!!!6!<66!66<6661<<141665<1<1<4<{{5<{{411{4<{51{f45433{f/333f!66ld                                                                                                                                                   b])])])}(}2gk}'1^!!!!6!a6!61<<!6e<6<6<<1<<15<141411341334134,{<3{1441{35543343f,31)))]n2g}]}(6!666h6!6^!!6<<6<<1<<<11",
"6<<<6<<6<1<<6<11111114444{41{3f,4,{4{,{33,,3{,35{4f{<_])}(}g}}}_6!h^h!66l666!e<66<6<6<<<6<<5<w111{1{444{1{4{{3,/{f3/33,,3,3,,/313f{!!<^i                                                                                                                                                   >]]]]]]](}22}k266^!!6^!6<!66<<<<1<<<161<<<1<544154{{{4,{{4,,/,3f3{3,3{,,,{33,4{13<])))'(}}}}}_<!^^^!<6!6<666<<<<<<16<",
"6666666e1e6ee6111<1<<<1<51<<44{444{{{{{<443133{5{3f31(])g22}g]}21^!hl^!!!!666!66666666<e<<<61<<<11<<111<<<4<4{q{33,3{5{5333{3{{3/f3!6!^y                                                                                                                                                   b])])])](k22k}](<h!!6^^666a66<6e6<66<151e<6<141<w1<1<144<54{{34{33{34445{4{3{45331)))](222}]}21^^^^!!6!6a<66666<6<<11",
"<<6<6^'_!6<1<r<1166151<114<r4{5444{{{{13{133{f{,,{{{<_])}2k2g}]2'e!!^h666666666<6<6!_'^6<1<1<<<6615411516<5{444533331{31{f,/3,3,z4{6!6_d                                                                                                                                                   >]])]]]]'}222k}}^!!^h^<6<<<6<64<11<^_h<<441545{<<43x<14411{{343{,{3{13353{{333,43<]))]'2}g2k}2_66!6^<6<<<<r65<111!^_6",
"''h^_((((2''_'h__'_'^!!^!!!_!!6!!hh^!<<<1<1<15<6<645<'])ghk}2}}]}2''2}''('_((2'('__((((2(h^'^'_(_'^!!!!!!!!!!^!^h^!6<611<<4{5<<<1146a!_y                                                                                                                                                   b])])])]_h}(2}]}](('2(''''h_((____''2((('^^!!!^^h^!<666<666666!h_!!<<1<1<<<5<<6616)))](^]22}k}}'_^22(_''__(('__^^((((",
"('''2'''('((((2(2''_('(22(222('''_'(2(2(2'((2'(((_!6!'])kh'}22k}]}2(((22g(((('((('((('('(''22(2('_''((2(((2(('(_'(2(((2'('2'('('^<66!!'d                                                                                                                                                   >)]]])]]'^(}(g}}}}g((2(}(2'((('((g}('''((((g22('_''((2(2(}(((''('222(2((((2('(('6!])))(__}(g}kk]}2'2gg2}(((('((22('('",
"}]}]}}}]}]k]}]}}22}}g}g}}}}}2}222}222}22(2(2g222('hh'}]))]k]]]]]]]]]]]]]]]]]}]}k}]}}}]}]}]}k}}2(2}gg2}g}}}(22222(222(('('(2((2('^!!_^h'y                                                                                                                                                   b])])]))]}]]]]]]]})]]k]k]k]kk}k}k292]}kk]}}}}22}}2}g}}k}}2}g22}222}22(((22}22((_n}))))]kk]]])]]]]k]]]k]]]k]]k}]}g2]}k",
")))))))))))))])]]])]])]])])]]))])])))]]]]]]k]]]]]]]}]])))))))))))))))))))))))])))))))))))))])]]])]]]]k]])k]])])}]))}]]kk]}]kk}g}k2g2('(y                                                                                                                                                   b)])])])])])])))))])])))])])])])])])])))))])]]])]]])]]])])))])])))])]]]]}]]]]]]]]))))))))))))))))))))))))))))))))))))",
"))))))))))))))))))))))))))))))))))))))))))))))))))))))))))))))))))))))))))))))))))))))))))))))))))))))))))))))))))))))))))))))))))))]]}y                                                                                                                                                   b])])))))))))))))))))))))))))))))))))))))))))))))))))))))))))))))))))))))))))))))))))))))))))))))))))))))))))))))))))",
")))))))))))))))))))))))))))))))))))))))))))))))))))))))))))))0c8]])))))))))))))))))))))))))))))))))))))))))))))))))))))))))))))))])))]w>                                                                                                                                                    i])])])))])))])))))))))))))))))))))))))))))))))))))))))))))))))))))))))(pc9)))))))))))))))))))))))))))))))))))))))))",
"}]}]}]}}}]}]}urtiyn]}]]]}]]]}]]]}]}}}}}}}}}}}}}}}}}}}]}]}]}]_yidq'k]}]}]}]}]}]]]}]}]}]}]}]}rdvvqytytytytytytytytytytyqvqvqvqvqvtyyyyty>                                                                                                                                                      ityyyyyyyyyyyyyyyyyyyytytytytytytytytyqvvtyq(}]}]]]]]]]}]}]}]}}}]}}}2<tiip}g}2}}]]]}]}]}]k]}]}]}]}]}]}]}]}]}]}]}}}]",
"<1<11111<1<<6^n_wt^^^^^^^^^!!!!6!6!6666<6<6<666<6<6<<66<<<<<666<<<<5<1<1<1<5<1<5<1<111<1166<xc>                                                                                                                                                                                                                                      >0r9}_^^^^^^!^!!!!6!6!66<6<6<6<6<6<6<<<6<6<6<<<6<<<<<<1<1<1<1<1<1<5<<<111<1",
"mmmjmmm:mmyjm5!2]_1<<<161146<<4{{445{5354{3{33,{3,f,,3,,3f/,,f:/f/://:::mmmmmmm/mfmmmmm/mjm3<(}pb                                                                                                                                                                                                                                 >i8]))]2<11<111{45<144{33{3{3,33f,ff///fm/:///:/m:m:mmm:mmmmmmymytymm/mmm:mmm:",
"mdmd:~m|:|ym:3!']^16<<51141{511154<<<344{33{{{53,//f{3{{3/333/j:/m::/m:mj~mdmdydmy:mmdm[mdyj11'])t                                                                                                                                                                                                                               >g))))])(6561<{5{44{,<<5,{1<4/33//:f/{4/:mmj3{33///3/mdmdydm|mdm~mdydy|mdmmm~mm",
"mmymymym[mymf{^()_5_1<111155566!6<114444{{3{{51<33/51<<1{{51,/j/m/:jm/mmmmymmmymymmmymymymm31<!}])t                                                                                                                                                                                                                             b]))))))]2<4^111414{{{<6<61{{{,3,3//f,{15f/m35553,/{{fymymymymymymymymymymymymym",
"/mjm:m:mmmyyyf!')_<66<<<61<1116<6<x4111{144{3436_<55<<<{,,{,ff33,j/:jt:m:mmm:mjy:mmmmm:ymyym516_)]9>                                                                                                                                                                                                                            v])])))]](!56<61<<1{444<1<133{43f{3f,j{j<h<{5{5{/m/jjm:m/jmmmymymymymmmmmmmm:m:m",
"jt//:j:jjjyym3!()(<_<666<6511<665611<<155145{4<{6^<1454{{{33,,,3ff,f//j/:f:mjjmm:jm/mmmjyyy/4<6^}](>                                                                                                                                                                                                                            v)))))))]2!6^<<6<<<55446<{<{{1{5333{,f3<f<!5,,,,/f//:jmj:jmjmmmmmmmjm:mjmmm///j/",
"md/jj:/j/myymf!()'!!61<16511<116<5<1<51544<5<41,1!{115411543f/{ff,{f////j:jm:3myjm/:mmjmmmym{16!2](>                                                                                                                                                                                                                            v])))])])(!6!<w1<<11115{61{{41333f,4{{{{34aj{f3f3,33jmmj:mjjjm:mmmmmmyfmmm/:/j/j",
":m/5f,f/jjytj5!()(6!66<<1<<<1<6<611<<<11551<<6!e{_1<115151!3f,3,f33,f,/f//j/:/f:j3f,/j:mmj/34<6!_](>                                                                                                                                                                                                                            v)))))))]2^!6<<<111<111<5<{455{{{{,{{4<6<,^5{33,f,,!f/mjmjj/j/:jm/mjmjm/m/f3,,//",
"fmj3,,fj,mmmj{!()(!!6<6<<<61<<666<<<<1<11515<1<11<1155<451'3/33/3,{f3f,/:j/:/j/mtjff,/jmmmff51<!^}9>                                                                                                                                                                                                                            v])])])])2h!6<<<<11151<<141554{{433,3{{{{{{3{/,,,/4^{m/:mjjjjj/:jmjmjmjm:mjf{,,/",
":fxf33fff/mjj{!2)g!!6!66<666<6<6<6<611<<1<1111{<111<4{{{{5<^33,333f{3/j/ff,fjf:j{f:fj/m/mtm/4<<!^((>                                                                                                                                                                                                                            v)])))]))9^!6166<<<6<<<<<<1<1{344{{{3{3f{33{3{jf/f3<!z:/:/jjf/:jm/j/////m{fjf,/f",
"xm,/fm//f/:f,5^()}'_66666<6<666<<<<11111<15454445454<4{353{<!4f,3/,,fjf:/,,ffm4:jjjmjmjjmm/{11<6^_(>                                                                                                                                                                                                                            v])])])])22_h1<<e<<<<1<1<41143{{{{4,,,,f,/,,,4,j//jm5<pmj~j:/mjjj~fff//{fmf//jf/",
"{j/fff///fmj,<_2]}'26!6666666666<6<<<<1<11115111554451{{{14116,3,33,f,f/f3{53/zjm/fjj/j/mjj1<<<!^_h>                                                                                                                                                                                                                            v)))])))]k''(6e6<6<<<<<e11<1{1{{{{3{333{,,fff{,fjf,3,p<fj/f/:/jjm//{5{jzjj/3/fff",
",j,jff,j/jjjf1_()2g266!<6<666<66<<<1<1<111<11411<4x14{1514154{5f33{33,fjf//jjjjm/jzjj:jjjjj{6<66^ha>                                                                                                                                                                                                                            v])])])])g'22<66<<<<6<<<<5<55444{{4{{{,,4{,,43,,3{3,{,33/j,f/j/m:j/mjmjmjj/ff/fj",
",/fzj3,f//m3f1h}]g'}^6666666!666<<<<<<<<1<5<<141<15144415{45453{33{{33fzf///jffjf,jfjjj/j/f{66<!^_6>                                                                                                                                                                                                                            v)])])])]}_(2^<6<6<6<!<<<<111541{45551,334,333,33{f3,{,ff//,/,////j/:j/,/f/fff/,",
"{ff,{,,,3fjff1_})((g](666666a6<<6<<6<<<<<1<<<1<1<5111545145{1144{,4333,,,,3,fj3fff{,3ff,jff{6<66^_a>                                                                                                                                                                                                                            v])])])])}_'}2(<6<666e61<<<1<41114451444{4{{{3{,{{{,f3433,/33,,,,/,,fj/,3jf33{3,",
"3ff3{333,3fz{<_}](2}(_!66!!!6^66<666<6e6<e<<<<<<1<1<1<5151515551{545{{3{{3{3,ffff3{{{vf3f/f5666!^_a>                                                                                                                                                                                                                            v)])])])]]^22(h!<66666!!<<1<<<<<<<5<515154{5{53{{{{{{{3{{{3333f3,{,{,,f3,f353{,3",
"fjq{33z,3,f331'})(g2(268!6!!!!!<!<<<6<6<6<<<<<<1111111<{43154{44{44{4{{{3,333f,j333fff,f/jz{!66!^_!>                                                                                                                                                                                                                            q])])])])}^(2_2<<666!6!<<6<1<r<1<11155115{4{{{443{33{3334,{333333,,,3,,ff3{3,,33",
"3v3{3{{3,{311!'})}2]h'^^l!6!!^a!!!66e66666<666<<1<1<11<<1141444145514{{{{{3{33,f,43f33f3,x<<!66^^'a>                                                                                                                                                                                                                            q)])])])]](2]^^^6!6!e!!!6!!6<<<6<6<<1<114445{4{14413{{3{{4{54{3{3{3{{3,3,34{3{{{",
"{3{{{{33{{{3{<_})}2k]2'6^!!!!l^^h6!666666<66!<6<<1<<<1<^<66444{5<1145433{333{f3f3{{3{3{33f{4!66!__l>                                                                                                                                                                                                                            q])])]]])k((]g2h66!6!6^!^!666<6<6<<1<<1<14111441^ra<5{{34455{{{{3,{3{,333,{{{{{{",
"{{11{13{{1x346']]k(]])'!^^!^!!!^666!6666<6!6<6<6<6<!66<1<661{<111<<11<55{{{{33{{4{{5{4{<1z{1^^a^_(l>                                                                                                                                                                                                                            q)])])])]]'(]]]_6h^!!66!!!<e!66e<<<!<e<<<<5<66<11<<6{4<5451<{11<433{3{34{5{45545",
"4{1{544111<41<(})]}}]]}6^!h_h!!66666!66666666<e<e<<<<<<1<1111111<1544{4{{345441{{{5554<{{111h!!^''^>                                                                                                                                                                                                                            q])])])])kk2}}]2<!!!h^a6666<6!6<6<e<6<<1<<<1<4<1<1x{1{5{554{{{{{{33{1{15{345151<",
"15<15{{{{331{<_])]2}}]k_^_^'h'__'_^^!^!^h^h!!!<a66<!!6<<<66666<<<666<66666<14{41411{3{4q34{5^^!_'(o>                                                                                                                                                                                                                            q)])])])]]2}g]}]^!h^_hn_h'^^!^6!^^!h6!6<e<<<66<<5<<6<6<<1<<6<<e6<6<<45{5441<{{45",
"<554<{5<1414<6_])((g}}]}^!hh_^^!!666^!6a!66666^6!6666<666<<<6<<<11<1<<<<6<615{4441<551<444<1^h^_''h>                                                                                                                                                                                                                            q])])])])]_'}}]}}!!^hhh!!6!66!!6!6666<6!a66<6<<<6<<1<<6<<1<1<1<<6<<6<455141<54<<",
"<<5111155<<x5!(])}2]k]]k_!'_'h_!!^!!lh!!!!6!6!a!!!66<666<6<6<6<e16<61<1<<<<<1<451111411614{<_'h''2_>                                                                                                                                                                                                                            q)))])))])'2}]k]}'!'h'^_6^^!6^!!!^666!666^66<<<6<<<<<6<<<<<<<<<11<<<11114<1<111<",
"1161<<11114w<6'})2}g}g]}}!h!^hh!h^^^^!!6!6!6!^^66<6666e<6e6<6e6<666<6<<11111<<11<1<<<1<11411_'_'((u>                                                                                                                                                                                                                            q])])])])](2}}}}}}!^!!h^!!^^^!!866666!!66<<<6<61<<<<<66<6<66<<6<<1<5<1611<<<<111",
"<16<115x11<<16_])}(]2}}]}2h__2'hhh^_h____^!^((''__!!!66!_n!6<<<<<666<<<<!e<<51116<111551<<5<^('((g_>                                                                                                                                                                                                                            q)])))])])'2}22]]}(_^_((!!!^!^h_!h!66(''__!6<6<<6^^!<<115w16<<1<16<<<11<16<<1<5<",
"_!'h_^^^_^!<6^'})g_2}2}k]}}222}22gg22g}22(2222((2}((2(((('(''_'''_''('(''(((_^h^hhh^^!^h^<66h((22gs>                                                                                                                                                                                                                            q])])])])](h2g2gk}]}2(}}2(}222}}22((2(g((2}'('('('''(^__'___'''(''(((_h^h__h_^^_",
"2((22}2((((_^_(])](2]]}]]]]]}}}}}}}}2}g}2}222}222}222}2222(2(222222222(((((222(2(22}22((''^^'22}}](>                                                                                                                                                                                                                            q)))))))))}(2]}kk]]]}}}}}}}kg}g}2}2g2}g22}222}222222(2222}g22}22(((22222(22}222(",
"]gg2}}k}]}g(22]])))])))])))])))])])])]]]]])]]])])])]]]]}]]]}]k]}]]]}]k]]]]]kk}]222}}}}]}g((2]]]]]]v                                                                                                                                                                                                                             c])))))))))])))])))])])])])]]])]]])]]])]]])]]]]}k]]]]]]}]]]}]]]k]]]kk}]}g2}}k}]}",
"]]]]]]]]]]]]]]]]]]]]]]]]8u(kk]]]]]]]]]]]]]]]]]]]]]]]]]]]]]]]]]]]]]]]]]]]]]]]]]]]]]]]]]k]]]]]]]]]]p                                                                                                                                                                                                                               0k]]]]]]]]]]]]]]]]]]]]]]]]]]]]]]]]]]]]]]]]]]]]]]]]]]]]]]]]]]]]]]]]]]]k]99o9]]]]",
">>>>>>>>>>>>>>>>>>>>>>>>   >>>>>>>>>>>>>>>>>>>>>>>>>>>>>>>>>>>>>>>>>>>>>>>>>>>>>>>>>>>>>>>>>>>>>>                                                                                                                                                                                                                                 >>>>>>>>>>>>>>>>>>>>>>>>>>>>>>>>>>>>>>>>>>>>>>>>>>>>>>>>>>>>>>>>>>>>>>   >>>>>",
">b>b>b>b>b>b>b>b>b>b>b>b>bbb>b>b>b>b>b>b>b>b>b>b>b>b>>   >>b>b>b>b>b>b>b>b>b>b>b>b>b>b>b>b>b>b>b>bbb>bbb>bbb>bbb>bbb>bbb>bbb>bbb>b>                                                                                                                                                              >>b>b>b>b>b>b>b>b>b>b>b>b>b>b>b>b>b>b>b>b>b>b>b>b>b>b>b>b>b>b>b>b>b>b>b>b>   >>>b>b>b>b>b>b>b>b>b>b>b>b>bbb>b>b",
"^!^^^^^^^!!!!^_hh^^^h^_hh^h^^!^^^^^!^^^^^!^!^!!!l^__h'9sho'_'_'_'''___n^h^h^^^h!^^^^^!^!!6!!^!!6!6!6!6!6666<6<6<6<6<6<6<6<<<<1<<!6xft0                                                                                                                                                       bqrlh'!!al!^^^^l!!6!6a6666<6e6<6<6<6<6<6!^!!6!!^^h^h^h^^^^!^^^!^^^^^^^!^!!!^^_8((k}g''_'_'''''____^h^hhh^^^^^^^^!^!",
"6<<6<6<<<<<6<<<6<<1<1<115145454445{444{4{444{p41{p1<6(})}^!^!!!!!!6!66<6<6<6<6<<<6<<<<<<1<11<<11454154{{3{3{3{3pzq3qzq3{33zz3{3p{p4<<^i                                                                                                                                                     c)))]]2!!!6666<6<!66<<<<<11<1<11114<{5154441414445444444{p{4{p{44{q444p5{{{1445<')))}_!^!!6!6!6!66<666<<<<1<1<<<111<",
"61141414<114{41{{45{4{{3{3qz3zzzzzzzzjzjzjzjvjvjvfvj1^2)'<666<666<<<6<<<<1<<41<1545454154{{4<{{{{zq3{zq3zfzzzfzjzjvjzjzzzjvjvjvvvj31<<!0                                                                                                                                                   >]])])](<6e6<<<1<<<<<<554<5<1454{{{{{{3{{qf{{qzzz3z3jzjzjvjvjvjvjzjvjzjzfzjvjzjzj1])]}!<66<<16<<1<1<15{155354{zq333{3",
"11515<<6115516<6111<<5q{3p3q3{z3z3zzzzvzvzv3vzvzvv341_2)'e_!6666<6<<6^66<!!651115151<6115556<<111111zq33zzz3zzzzzzvzvzvzvqvzvzvvvp{11e6y                                                                                                                                                   b])))])(!<^<6<6<<<<<!66<666<1{5{{q{{1<4{{zp111p3{5<{zvzvzvzzvvzvzvvvvvvvzzzzzzzvz1)))}^1h<61<<<<<46!6<<<6<p{pqpqq3<14",
"11151111!<<566!<615<<{{{{q{333{zzz3zzz3zzvzzzzzzzvvz1^})'<'^<<666<6<6^!_^<<<<11115<{11!6<4<666615<<{{3{3q33z3zzzzzzzzvzjvzzjzvzjvvq1<<!d                                                                                                                                                   b]])])]26<^<<<<!<<11<!6'11<<55{5{{{4{46<5{<<<<543143vzzzjzvzjvvzjvvzvzvzjzzzzzzzj1])]}!<_!1<<6<<11<!6_615544{{{{{33pe",
"<6<<<1<<6_!!66<<1<55544515{4{{qp3q{pz{z{z3zq33zqzzvz4_})(^'h6!6666<6<66666<6<6<<<<<<11<'^6<<1<11454444414{zq33zqzzzqz3zqzzz3z3zzvvz1<6!y                                                                                                                                                   b])])])(!6_<666!!66<6!<<616<<<11141{<1<^6<<15{4{p3{zq3{3qzzzzzzzqzzzzzzz3zqzp33zz1)))g!6(!6e66!<<1<<<165<<55144{4{{{<",
"<<<<<1111<61<1<<15<5144414{{{3{{{343z3{zz{3zqz3z3fzz4^})2^h6!6!66<6<<6!<!66!6<6<<<<<151<6w<1<111<45{4{5{5{q3{3q3qzzz3zzzzz3z3zzzvj34<<!d                                                                                                                                                   b]])])]2_!^<6!<<66<<<661!<165<4151{{{5{!!{{{{43{{{33z333z3fzzzzzz3jz3zj3z33q3q33v1]))g^^_!<666<<115<<1<<165551{4413{{",
"<6<<<<<!6661<6<<<666154<144154{4{{{p3p1pzp44{p3pzzqq1_})(^hh6!6!!666<66^<6666666<<<66!6<^16<<<<<<645414{{p{p{p{p{p3zqpzp{p{p3pzqqq31<6!y                                                                                                                                                   b])))])2^^^<66666<<<61!6<<<<11<11514<6616{5514w4<<p3q{pzq3pq333zq3qz4{33p34{{3pqp1)))g'!^!666661<1<16611<<<4155{5<6<<",
"6<6<6<666<_<<<6<6<6^14445411144{{{{{4{{{qz555{q33vq{<_})2^_!666<666<6^66!666<<6<6<6<6<6<'!<1<<<<<'<44454551{{3{q{3q3q{qz{44{qz3z{z41<6^d                                                                                                                                                   b]])])]g!_h<6!66<6<6<!<6<<<6<<<<111116<4^<{15<544^4p3q3q3{3{z3zqz33qz{z3{5{5{{3p3<])]}_!_!1e1<<<1<<!1<<<1<441<155<<11",
"66<66666<<6<<<<6<66'r{4<454<514545{54434qpq144zp3qzp1_})g_^!666!!!66aa6!666!66<6e6<66<1<<<<6<6<66'e45145454544{p3p{pz{zpq434zq3q{q3<<6^y                                                                                                                                                   b])])])g'^_666a6666<66!6<<666<<1<<<<<154<41451116_<zpppzp4p3p3p3p3{3p{p3p{{4p343p<)))}'^_!<<66a66<66666<6<111<151<155",
"6<<<<<<<6<<<6<6<6<1!hw4{x154<54{4154544{q14q{333qz{z<_})]('^^!!6!6!6!6!!!<666666<<<<6<6<<<<6<<<111h64{54{{5{4{{4445{p3q44z33qz{zp3p1<6^d                                                                                                                                                   b]])])]g(^_66!6666666666<<<6<6<<5<111111411<1144{a^1zq3{3p{{3qzp{{{{{{z11p3{3{{{{<]))k''_!6!66e666<666<<1e<<<<4144111",
"6!6<<6<6<666<6<6<61<<h<55<515w{4{4<545{<3p5pqpqp{p456(})k22^!^!!6!!!!^!!6!66!!666<<<<666<<<6<<1<151^!1444444{p{p41{43<4p5p4p3pqp3<<6<!^y                                                                                                                                                   b])])])g2'2!^!^!!6!!!66666666666<5w11111<51<1544441!<qp{pqp{pzp{144{p1pz5{p{p{4{46)))k(2(!!!!<66a66!6666<<66<<1554111",
"!6!66<!e<<<<<1<1<1<<<<6151444{444{4{4{p4p3p{p3p3{zp{6'k)}2g!!!^6!!!6^!!!!!!<!666!66<<<6<<<<1<1<1<1<161444{4{{{{3p343q{p34{pzq3pzq{<666hd                                                                                                                                                   b]])])]k'2(!!!!!a!6!!6<!6!66<6<6<<111<114154{41414{114zp3q3pz{3q3p{pz{3p{{{p3{{p{6]))k'22!6!a66666!!6666<<<6<<<<115<1",
"!66!66e6<66666<6<<<<<<1<515<144144{44pp4qp{p{p{p{pp1<'})g(}^!^!^!^!^!!!^66666!666a<666<6e<6<<61<<<<<<<4<444545{p{p{p{pz4{q{p{p3ppp566!hy                                                                                                                                                   c])])])}((26!!!6!!!6!666!<<<<<6<66<11<<<<1611<11141411p{p44{p{p3pqp3p{p{4{4{4{4{46)))k((}!!!!!!6!!66!66<6<6<<1<<<1<1<",
"!<666<6<<66<<<<<<111<1<1<<1114554{4{x{4{p{144{{q{z{46'})g(}2_8^!o!^^^6!!!6666<!666<<6<<<61<1<11115<1111154444{4{pq43p{{{4q{{pzqzpq1666_y                                                                                                                                                   b]]]])]}'2}2!!6!!!6!!!6!66<<<<<1<<1<115<11{w5144{454{411{4{{{pq{3p{{{{3p{4{5{{{{{6]))]'2g2^6!!6!!^!666<6<<<<<11<51115",
"66666666<666<<<<<<<<<6<<<<<<411151544454{<111x5p4p{16(k)22}]2!!!!^^^^^6!!^!!!6!!<!66<6<6<<<<1<<<16<<1<<11<515151pp{444{15114{ppp{4<!6!_y                                                                                                                                                   c])])])ks(2}(6h!!^^!^!!6!!!66<6<<<6<6<<<<1145515111111<5114p444p4q4{5p4115<5xp4446)))k_2}}26!!l!^6^!<6!a!6!<6<<6<<<11",
"6!!666!6666<6<6<<<<<<<<1<<<1<1<1111x1454p1151x5x5{116'])2(}2(!^^^^^!^h!666!6!6!666!6a66<6<6<6<<1<<<1<1<<<<<5111414xp4444541{p44zp4<6!!_y                                                                                                                                                   b]])]]]k_k22_^!^!^^^l^66<!6!6666<<<6<6<<<<1<1111111<5551511w5141554444p1411<415p46]))]'(22'!!h!^!!!^e6<6<6e666<<<!e<1",
"6!6!!6666666e6661616<<<<<<<6<<<<<<11111<5<114p4<5441!2])}}](2h^_^^^^^^!h^!6!!^6!666!666666e666161<<6e<<<1<1<<11<1w554145514p4154<<1!!!_t                                                                                                                                                   c])])])}']}^2^^^^^h^h!!h^666!66666!66ee<6<<<6<1<1<11<1<41<<511<115141<x111x4111516)))]g2]'2^^^^!^!^!!l^666!666<<666<6",
"!66!!6666666666!^6!<<<<<<<<<6<<<<1111w<<x1<11451<111!(])k}]2('h^h^h^^^^!!!!!!6!666!6!666686<6<^<!<<<<<<1<<6<<1<1<155<<11111411<1<<<!!!'y                                                                                                                                                   b]]]])]k(]]'''!^6!^^!!6!6!!!6!66<!6666<<<61<<!!66<w<1<115<<<1<1111411<411<115<1<<!]))](k]2_(^^^^^^!^666!6!6666<66686<",
"^^!!!^6!!!!!!^66!!!^!66<<6<66666<6<<16<<1<<<1<1<<<1<6(])}]]]}(h'^__'_'(_h_!!^!!^!!!^!!!!6!^!66!!!^66<666<666666<<<11<<5<1<11415<1<<^^^'t                                                                                                                                                   c])])])kk})]}__h_h'h^_(^^!!!^!^!!6!!666666!!6<!6!!a<<<6<<<666<<<<11<<111<1<1<1e<<!)))]2k]]]'h_hh____(^h!!6^!!!!6!!!6!",
"!^^!^!66^!!66<66!66<6<<<6<<<<<<<e<<<<1<11<666161<<11!2))]}]}]2!_hhh^h^h^^^h^^!!!^^!!!!^!!66e66!6666<1<6<<<11<<<<<<<<<111e66<<111116^^^'m                                                                                                                                                   b]])])]]g}]]]'!'__^h!!!^!^hh!!6^!!!!<6!!6<<<<6661<<14<<<1<1<1<<<1<<<<1166a<<<<<65!]))]2k]]]g6'^h!^!!!^!^^^!!6!!^666!!",
"hhh_^^6!!!!a66e!6666!!<6<66!6666666<<<<<<!666<16<6<e!2])]]}]]]hhhn('_n_'h_^!!h^hh_^_!!!a!6<66666666666<66!666!<6<<1<<<1<<6<6<6<6<<<_^h'j                                                                                                                                                   c])])])k]}]}]}!_h'(''^__'^!!^^h^_^^!66!6a<6<6666e<!<<<6666<<!<6<6<<1<<<6!66<<6666!)))]}k]k]}^^^_2h_hn'h^^6!^h^h^^^!6!",
"^^^__^h^h!^^h!h^!66!!!!666!!^!!!6!!<666666666<<1a<<<!'])]}}}]}2h'__'('''_^_^!hh!^_^^_^^!!!66^!^!!6!^^!66^!!^!!!!!!<6!<66!6<<6<66<1<^_^(t                                                                                                                                                   b)]]])]k2]}}}]'h'h_'_(h_^h_^h^!^^'h^^!^^^^^^^!!6<!6^^!6!!!!!!!6!66<!e66!66<6<<661!]))](}}k}](^'_h'''_'^__!6h^!!_^hh^!",
"h_^^^^!^!^^^6!6!6!!!6!66<!6!!!6666666666<66666666^<6^2])}}k]k]k(h'''_'_h____h_^h^^^hhh!!!^!!66!!!!66<6666!66e666666<6!<66666666^<66'__(j                                                                                                                                                   c])])])]2k]k]k]_'_'hhh'^hh_hh^h^^!^!!^!!^!!666!66666666666!66<6<666<666666666!!!e!)))]22]}]]](_''_'__^_hnh_hh^^!^^^^^",
"h^_^^h^!!!^!^!!!!!^!!!^!66^!!66666666<666666<<6e6<6<!())]}}}k]]2!''''''___n^_hh^_^hh_!^!^^hh!6!!!!^!!6!!^!!666!6666<6!66<<6<666e<<6___(t                                                                                                                                                   b)])])]]2]}}k]}(^(_'h'__^_h'hh^^h^^_^!!^!^^!6!!!!^!!!!6!!!66e6666!66<!6!<6<<<!66<!])))2}gk}]}}!'_(''___nhhhh^^h^^_h^!",
"''!hh'''^^l^^^!^!^^!!^!!!!!^66666!6!666!6!6!e6666!66!(])kk}}}]}]'h_s''^_hn_hh__(^h^'''h^^!^h^^^^!!6^!!!!!^66666!6!666!6!66<66666<6<__'(v                                                                                                                                                   c))])])]2]}g]]]}(_''(h_^hh_^hh__!^hn'^!!!!^^!!!!!6!6!6!6!^666<666!6<6666!66<6666!^)))]2g}}k]]}'^'_n_^^h__^^^hn^^^__^!",
"((''((22222''___''('_!^^^!^^^!^^___^!<666^666<666<66h(])]']}}}]}g(''}}('((((22(('''2}22(2''___''('_!^!^!!!!!^^^__^^<666!^66<6<6<666_''2d                                                                                                                                                   >]])])]](2k2}]]22('2}}'((('((2'('''222(2(n__^^_'''^666666!6!!^^'_^66666^666666666^])))2(k}2]]k((_'2}'''('((2'(__h(2g(",
"2}2}}222(}g22}g}2}(((2222}2}}222((2g(22}2}22(2(2((^^'2])]((]2]]]]]}}}]}}}]g}}}}g2}}}(2(2222}g}222((2222g2}g}222222g22222222((2((_^!''2r>                                                                                                                                                    d)))])]2'}k}}]]]]}}k}]}k}}}}}}222k22(9gg2}g22222(2(2(2222}2g22(222(g222222(2(2(^'))))}'2}}}]]]]k}}}]}]}}}}}k222}2222",
"k}]}}}]}k}]}k}k}}}}g}}kg}}k}}}}2}}}g}}}22222}2}2g(('(})]]}k]]]]]]]]k]k]k]]]}]}k}k}k}k}k}k}}}k}}g}2}2}2}}}}}}}2}g}g}2}2(((2}2g22''_''nv>                                                                                                                                                      iu9]])k}k)]]]]]]]]k]}]k]}]}k}k}}}]}k}]}}}k}}gkg}}}2}}]}}}}g}}}}}}}g22g2}}}gg((']))))kk}]]]]]]]]]]]k]]]}]k]}]}]}k}]}",
"wrrrrrwrrrrrrrrrwwwrxrwwwrrrwrwrrrrrwxxwpppxxxwrxxpxtycc>vrrrrrrrrrrrrrrrrrrrrrrwrwrwrrrrrwrrrpwxwxrxxxrrrxwwwrrw8wpxwppqxppxwppqp0b>                                                                                                                                                          >bit8rrr8rrr8rrr8r8r8rrrrrrwrwrwrrrrrwwwrxwwwxrwwwrrrwwwwrrrrwxwwpppxxxxrxxqib0itprrrrrrrrrrrrrrrrrrrrrr8r8rrwrrr",
"                                                        >                                                                                                                                                                                                                                                                                                                                                       ",
"gkkkgkkkgkkkgkkkgkkkgkk9ytwo(kkkgkkkgkkkgkkkgkkkgkkkgkkkgkkkgkkkgkkkgkkkgkkkgkkkgkkkgkkkgkkkgkkkkt                                                                                                                                                                                                                               c(kgkkkgkkkgkkkgkkkgkkkgkkkgkkkgkkkgkkkgkkkgkkkgkkkgkkkgkkkgkkkgkkkgk9s8pyukkkk",
"]}}}}}}}}}]}]}]]))]}}}]}]}]}}}]}}}}}}}}}}}}2}}}g}2}2}}]}]}]}]}]}}}]}}}]}}}]}}}]}}}}}}}}}]}]}]))))]t                                                                                                                                                                                                                             bk)))))))]}}}}]}]}]}]}]}}}}}}}}}}}}}}2}}}2}2}}]}}}]}]}]}k}]}}}]}}}}}}}]}}}}}}}}}",
"!!!!!!6!!!!hh'(]]](('''(''''''_n_____hh_^hh_hh^_^^^_^hh_^^^^^h^_^^!!!!!!!!!!!!6!!!6!6!!!!^^_'2])])9>                                                                                                                                                                                                                            p)))))))]]'('''(''''_'______^h^_^h^_^^^^^^!^^^^_^^!^^^!^!^!!!!!!!!!^!!!!!^!!!!!^",
"xxw114xx14x416_2](!!^!!^!6!^^!!66<6<66666<6<6<<<6<<<<<<1<w11<11w<11w141x1wxpx4xxwwx4x51114x<^^'})]9>                                                                                                                                                                                                                            p])))])))g^6^!!6!e66^!!<<1<<<<<1e<<1<w11111w1xrw1wx4x4x5xxx4x4x4x4x4x4xx14x4x411",
"xxx1x1xxxxpxx6_2](!_^^!!6!!!6!!!66^^!66!66<6666<<<1<<<<e<<1<1<1rw11111xxxxxxx1xxxxxxpwxxxxxr!^_2])9>                                                                                                                                                                                                                            q)))))))]}^!^^!!666!6666<e<!!!1<<<<r<<<<w1xxxr1xw1xxx1xxxxxxpxxxpxxxpxxxxxxxpxx1",
"xpxpxpxpxpxx1<'2)'!'!!!6!6!66^'^_!!!!e6<6<<<66^6<<<<^!!66666<w1xxxx4xxxpxpxpx4xpxpxpxpxpxp11!6h_]]9>                                                                                                                                                                                                                            p])])))])g^8'6!666666<h^!^!6!e<1<1<w116!6w14<66<<<<1<1xpxpxpxpxpxpxpxpxpxpxpxpxp",
"wxx1xxx1xwpxp<_})(!'^la^_!!!!!^^'^6!!!666666<6<_^!6!!^66<<<<1<r<1111x1xxxxxx1wxxxx4xxxxxpxp16!^'2)2>                                                                                                                                                                                                                            q)))))))]}h!h!!!!h6a6!6^6n!<66<616<<<11<^_6<666611x11wx1x1xxxxpxpxpxpxxxxxx1xwx1",
"141x1x1x<wxpx<_2)2^'^l^^^^a!!!h^6^!!^6!6!66666!6_^!66<6<<<<<<<<<<1<1111x1w1x1x1xw4xxw4xxxpx166^_(}9>                                                                                                                                                                                                                            p])])])])2'^'6^!!6^6!66^^<^<6666<<<<61e<6__<61<w1xww1xwx1w1xwpxxxpxxxxwxw4xw1x1w",
"xx11w<111rxxx<_g)g_'h^!^^^!^!!!h!h^^^!!!!!!!!666^'6^6!666!66<<<<<6<<1<1<1r1xx6wxwr11x111xxx16!^''g9>                                                                                                                                                                                                                            q)))))))]}___^!!!^!!!!66^!!!6^66<6<666<<<^hr66<<1<<e11x11111x1x1x1x1xxr1xx111<1<",
"1xr<<<rw1xxx16'2)2'!!^^!!!^!!!^^h!!6!!!6!6!!^^_^6'6!!666!!_<<<<1<<<1<1<1111xwwxxr<<<<x1xxx<<6!^_'((>                                                                                                                                                                                                                            p])])])])g'_66^!!!!!!6!!!!6<666<<<6<66^h^1'<6<<1<<6^rx1xxw1w1w1w1w1xxxwww1<1<<11",
"<ww6661r<1xr16_})g__h^^^^^^^!^h^!^!^^!6!!!6!!!^^!_!!!!!!6^26<6<<<666<<<<1<1r1rwww<<6<<w1xw1<!!^''(h>                                                                                                                                                                                                                            p)])))]))k'_!!!^!^!^6!!h6!6!6!<66666e6<!66^^6<<6<<6261111r1<1rwr11w1w1wr11<6<6<<",
"rw6x6<<w<wxx1<_2)}''_^^!^^_^^!^!^!^^!6!!!!!6!666a6!!!<!666n^<<<<6e<<61<<61<1<w1xewr<111wwwww66^h''^>                                                                                                                                                                                                                            p])])])])g(''^^!!!^^^6!6!6!!!<66666<<e6<<<<<6<<<61<h^w<wr1<r6<1wr<r1111x1rrr<1<1",
"<1eer<<r<6wrr!'}])2(_^^h^^^^^h^^^^^!!!!!!!!!6!66666!!!66666^^6<6<6<e<e<r<6<<<r<r1<11wr1<ww16!^^_'(^>                                                                                                                                                                                                                            p)))]))))kg2'^!^^^!^!^!!6!!!6!666666<66e<<<<<!<<<<<<!h<r1<1<<<r<1<<<rer<1rr<1r<<",
"lx<<<<<1<<wr6^(g)}22_^h^^^^^h^h^^!^6^^^!!!!6!6!!!6!6!6!6666<^^66<<6<<<<1r<6<<1!wr1<11r<1ww<6^!^_''h>                                                                                                                                                                                                                            p])])])])}2(2^^^^!^!^^^!!6!!66^666666<666e666<6<<<<1<a^<<1r1r1rwrw<<<<<6<1<<<1<<",
"<r1<<<1<<<1r<^(})}g}__^^^^^_^hh_^^^^!^l!!^!^!!!^!!6!6!6!!66!66<6<666<<r<<<r<<<<r1<<<1<1<11wa^^^n'(h>                                                                                                                                                                                                                            p)])])]))k(}2h_^!^!^^^!h^!!^!!!!666!66<6!6<66<<6<6<e<666<<<6<r1<1<1<<<1<r<r6<<<<",
"ew<11r<r<1r<<!(})}2}'^h^h^h^_^h^^!^^^!^!!!!!^6!6!6!6!6!6!666!66<6<6<<<<<<1<wr1<w<111r1<1rw<<h^^_''h>                                                                                                                                                                                                                            p])])])])}(2k_^^^o^^^h^^^!!!^6!a6666!!6<666<6<<<6<e<666<<r<<<<<<<1<1rw<<<<<w<1<<",
"<<<6<6<6<er6<^(])}2]}2h_______^_^h^_^h^^^^!^!^!!!^!!6!a!6^!!6!66<6<6<6<<re<<r<<rr6<<<<r<16<6__^''(h>                                                                                                                                                                                                                            p)))])))]]'2}](^__h_h_^^^^!!^^^^!!a!!!6!6!!!666666!666<6<<<<<e<<<<<<<<<<r<<e<6<6",
"<r6<6<<<<<<r6!(})2g}}('h_h__h___^!^^h^^^^!^!!!^!!!!!!6!!!!!!!6!666666<<<6<er<<<wr<6<<1<<<r66_^^_((u>                                                                                                                                                                                                                            p])])])])k'2}2(hh^_h_^_^^!l!^^^!^6!!!6!a!6a6!66666!6!6e66<6<6<<r<<<<<<<<<1666<<<",
"<<e666<66616<^(])}}]22h____'_'_h_h^h^^^_^^^^!^^^!!!^!!!!66!!6!666!6!6666<6<6ee<<<6<6<<<6r<<!__^'(2_>                                                                                                                                                                                                                            p)])])])]]_}}2(^^'h'___h^_^^^^!^^^!^!!!^!!6!!!6!66<!6666666666<6<6<6e6<6<666e6<6",
"6<6<666<6<6!!h2})}}](2(h'h_____h___^h^h^h^^!h!^!!!^!!6^6^666!6!6!666!666686<e<<<6<<<6<<<<6!!'^h'((s>                                                                                                                                                                                                                            p])])])])k2g]'2'h_hh_h__hh_^^o^^^^^!!!!!!6!!!66!6!!<6e6666!666666<666<<<6<6<666<",
"666666<a6a666^(])]}]}}('s'n''''(_^^h__hhh_^h^^^^!^^^!^!'!_!^6!6!!!6!6!666666<666<666<!66666!_'_((2s>                                                                                                                                                                                                                            p)))])))]]g}]k2(_'''_'''''^^^_hh^h^^!^!^!!!!aa!!_^h!!6666!!66666<666<666<666666!",
"!6!666!6!66<6^2])}}]]]2_('n's_'''h^___hhhh'!h__^^!h__!^!!^_^!!!6!!h!!!!!!!!6a6!6!!!6!!!66<66('''(2'>                                                                                                                                                                                                                            p))])])])]22]]](_''_'_n_''n^_^h^h^h_!^h^^!^^_^!!^!^^^!!66!!^!!^!^!!!!6!66!!6!6!!",
"<666<66^6!!a!_2])]}]]]}h''((''''''h''_h______h^_hh^h^^h^^^!h^^!^^^_^!!6!!6!^66<66a66666!666!(''(2gs>                                                                                                                                                                                                                            p)])))])]]}k]]]}^''(''_'_'_h_'__h_h_h_^h^h^^^^!h^^!^^!!!!^^_^!6!!!6^!!6666<6e!6!",
"!6^!6<66!<66!!(])]}}]]]''('(((('(''''_'''_(_'_^_______^^^^h^_h^^^^h^^hh!^^!6!666^6!66<6<6666'''(22'>                                                                                                                                                                                                                            p])])])])kk}]k]]'_('('(('''''s_'''_'__h!_^_^___!^!^^^^_^^^hhh^h^^^^!66!6!!666666",
"^^h^^!!^!!!!!_(])k}]])]]'(((((((''_'''_'''_'_'''_'_h^'__^^h__h^^^^^^^h^_^^^^^^!!h^^^!^!!^!!^'2(22}(>                                                                                                                                                                                                                            p)))))))])2}}]]]}'(('((('('''(n'_'_____'_n__^h_'^h^_h_^^^^^h^^^^_^!_!^^!!_^^^^^^",
"a6!6!6!6!!h6!h2])}}}]]]}(_((2((''''_'''_'''___'_'______^^hhhh^^^^hh!!6!!!!!6!!!6!!!!!6!!^!a!(((2}}2>                                                                                                                                                                                                                            x))])])])]2}]}]]]'''((2'''(''''_'_'_'_____'h___h^^h^h^^!^!h!!!!6!!!6!6!6a!!6!!!!",
"!^^^^^^!!^!^!_2])]}]]]]]}'((((''''''n'n(''_'_'_h_n__h_^^^h^___^hh___h^^h^^6!!^^^^^^^^^!^!^!^'g(}}]p                                                                                                                                                                                                                             0)))))))))2]}]}]}]_('('''('(''''''_''_hh^___h_h_^^l^h_hh^__'^h^^^^^!!^^^^^!^^^!^",
"^!^!^!!!!6!!^^(])}kkk}]]]('(2(('('''''2'(___((2(('___h__n__^h^^^^__^^^h^_!!6!^^!_!!6!6!6!!!!'g}}]p                                                                                                                                                                                                                               c]))])])]2}]}k}]}(_(((('''_'''(''_h_'(('_'^h^h__^_^^^^^^^__h!^^^^^!!6^!!h^!!!!!",
"''''_'_'''^^^(2])](]}k]]k]}k}]]]2}}}}]}k}2g}}]}}}}2}}22}2222(((('((((22((2((_'''_'__^'''_^^''}ksi                                                                                                                                                                                                                                 bqk)))))2(k]}]]]}}}]]]}}}}}]}]}}2g2]}}}]}22}(22}2g(('('('('((2(22(('''_'_'___'",
"}}}2}}}g}g2('(}]]222]}]]]]]k}}k}k}]}k}}g}}]}}}}g}}}}]}]}}2g2}}k}k}]}k}}g22}}}}}}}2}}}g}g2(''(r0                                                                                                                                                                                                                                     >0a])]k2}]]k]]]]]}k}}}]}}}}g}}k}]}k2}g}}}}]}k}g2}}}}}}}}}}}g}2g2}}]}}}}}}g}}",
"]]}k}]}]]]}}}]]spr])))))))))))])))])))])])])]]])])])])]]]]]]]k29k)]]]]k]])]]]]k]}}}]}]]]}}gk8yiydydydydydydydddydddyididididididididdi                                                                                                                                                       cyyyyyyyyyyyyyyyyyyyyyyyyyyyyyyyyyyyyyyddiwk)])])))))))))))))])])])])]k}k])])])])]]]]]]]]]]])]]]]]]]]]]]]k]}k}]]]]]",
")))))))))))))))))))))))))))))))))))))))))))))))))))))))))))))q0r]))))))))))))))))))))))))))))]]]]]]}]}}}}}}}}g}2}2g2g2222(2(2(2(2(2(2(t                                                                                                                                                     c])])])])])])]]]]]]]]]]])])])))))))))))))))))))))))))))))))))))))))))))9pik)))))))))))))))))))))))))))))))))))))))))",
"))))))))))))))))))))))))))))))))))))))))))))))))))))))))))))))])))))))))))))))))))))))))))))]]]]}}}}2}2222(2(2(((((('('('('('((('('('((i                                                                                                                                                   bk)))]]]]}]}]}]}]}]}}}}}}g}g}}]}]])])))))))))))))))))))))))))))))))))))))))))))))))))))))))))))))))))))))))))))))))))",
"]]]]]]]]]]]]]]]]]]]]]]]]]]]]]]]]]]]]]]]]]]]]]]]]]]]]]]))))]]]])]]])]]]]]]]]]]]]]]]]]]]]}]}}}}g}22(2(((('('('''(''''_'''___''''('('_^h_'t                                                                                                                                                   c)])))}}2g2}22222222(2(((((((((('((((222222}}k}]}]]]]]]]]]]]]]]]]]]]]]]]]]]]]]])))))]]]]]]]]]]]]]]]]]]]]]]]]]]]]]]]]]",
"(((2(((((('2(((2(2(2(22222(2(((((((((((((((((((('2222}]))}222g2}2}22222222(2(2(((2(2(('('('((('('('(((''''_'_'_'_'___'_______^^'''^^^h_j                                                                                                                                                   c])]))]}('''((((2(('(''''''_'_'''___'___'_''('('((2(2(((2(((((((2(((((((((((((22]))))]}22222}2}2g222222(2(((2((((((((",
"h^^^h^^^_^^^^!^^^!^!!!^!!!!!!666!6!6a6!66666!8!!666!_(}]]''''''_'_'__h____hhh^h^h^^^^^h^^!^!^!^!!6!6!6!6666<6<6e6<e<6<ee6<e<66e<68!!^^_t                                                                                                                                                   b]])])]}''__^h^hh___h^!^^h6!^!!!6!!!!!6!6!6!!!666a666a6!6a66668!666a666!6a666!6!!2))]]'_''_'_____'_h^h^h!h^^!^!^!^!^!",
"^^!!!!!!!!^!6!!66!6!6!66e666e6e6<6eererere6ereeeee<e!(})2hhn_hh'_^h_^^^^!^^^!l!!!!!!!!!!666!!66!e666e6e6e6e6<6<ererer6<ererrree6rre!!^_j                                                                                                                                                   c])))])ghh_h_^_!^!'_^!!6!!!!^6!66e666e66!eee6<eeereeererererrrerer8rrrerererer66e!)))}'!h__!^h^^h^^!!6!!!6a6666e6e6e6",
"^!!6!!^^!6!6!^^!!!^!^66e6eee666<eeerererere<ere<ere<!'])2^'_'^h^^^^!_'_^^h'^!!!6!6!!h^!666!^h^^6!!!6ee6<ere<eee<ererrrrrrrrrrrerre66!^'t                                                                                                                                                   b]])])]}_h_^^^^!!^!^__^!!__!6!66e6e6!^66eee!6!666666<ererererererrrrrrrrrerereeer!])]k'^_hh!!^!^66^_^!!^^^e6e6e6e6!!8",
"!^!!!!!h_!!!^___^^!^^6e666e6e6eeeererererererererrre!(})2^('^h^h^h^^_(_2'h^^!^!^!!!!!^_^!6!'^_^!!^!^66e6eereeererererererrrerereree!!hnj                                                                                                                                                   c])])))gh^(!^^^^^!!!n__(^!^!!6!66666a^h66e^!^!!6a!!6erererererrr8rrrerererererere!)))}'!2_^^^^^!!!hnh(_!!6a6666e6e6!h",
"!^^!^!^!n(_^___!!666!6!6!6666e6ee<6ee<eee<eee<ererrr!'k)}_2'_hh__^^^h^hh_^^^^^^^^!^!^!_2'!_^^!!6!66666!66eeeereeerr<e<reererererrre!^^'t                                                                                                                                                   b]])])]}__'^_h_'^^o^l'!h^^!^!^6^6!66!!^(^!^!!aeeeeeeeeee<erererererererere<eee<er!]))k'_('^^^_^^!^!^!^^!!!6!6!666666^",
"!^^^^^!h!('h!^^^!^!!6!!!!!6!666666!6r666eae686eee8rea(k)}'((__n'__^^^'_^__^__h^^^^^hh_^__^h^!^!^^^!!6!6a66e6e6e686e6eee6e6eeeeeer8e!!_'j                                                                                                                                                   c])))])}(_(^___^_!h^h__!'^hh!^!!!!!6a^!''!a6!6666e6e6e6e6eeeeeee6e8eeeee6e6e6e6ee!)))}('(__h_^_^^!^hh!_^!^^!!6!6!!^^!",
"^^^^^^^^^__6^^h!h^h!!6!!!6!!!6!6686eee!eee686eeeerer!'])}'('h____^_^h^__^^h^h^h^^^^^^^^^'a_^^!^^^^!!!!!86668686e6eer!8ee6e6eeeeeere6^h't                                                                                                                                                   c]])])]k'('h_^^_^^^h^!__!^^_!^!!!^!^!^!^^66!!a!!!!86eaeee6eeeeeeeeeea8reee66e6e6e!])]k('''!_^_^^^h^!^_6!!^!!!!6!6!^l!",
"hh^hh^^'^^'h^hhh^^^'a!6!!!!^!!6!6!66668!e66!66e6eeea^(})}'((h_h_h_h_h'^h^_h_^^h_^^^_^'_^(_^^^h^^^2!!6!6!!!!a66e666e6e6e66!e6e6e66e6^^_'v                                                                                                                                                   c])])])}(((^'_h^^^h^__^^^^^^^!^!!!^!^_^6'!!!^!!6!n!ee66ea66e6eee6e6e668e6666666e6^)))k2_('^h^^^^^^^_lh^!^^!!^!!!^^^!^",
"_^^^h^h_h^'^^^^^^^h(l6!!!6!!a!!6!86666668e66!6668r88!'])k'('____'___'_'____hhhh^h^^__^^^^^h!^^^^^(^6!!66a666!6666e6e6ee886a66e6eee6!^_(t                                                                                                                                                   c]])])]k(((_h_^hh_^^^'_'^^h_^^^!!!!!!^!^_!!!!!6!!(!ee6e66!e666eee6e6e6eee!6!66668^]))]('('^_hhh_^^__hh^^^^!^!!!!!^^^!",
"h_hh^_^^h_^h^h^^!^!''!!!!!!!!!6a6!6!6!66e^6a!!6666e6!(])]}2(''_'_'n'_'''____h'_h^h^^h__h^h^_^^!^!h(l6!a!6!!!6a6!6!!!66ela66!8666e66^^'(v                                                                                                                                                   c])))])k}'(___'_n_'hns'__^'h^^h!^!^!^!h!!!^!!6a!!'(a686668!66e6666!66e6la6!!!6!66^)))k222''___'__h_____^^^^hh!!!^!^^^",
"h__^^^^^h^h!^^^!^^^_n'l6!!!6!6a666!aa6al88!8666e6ea!h2])]2}''''_'_'_''_____hn____^^^^hh^h^^_h^^!!!^'h6a6!6!66668!6a66^a8!6a66eae6a^hh_(j                                                                                                                                                   c]])])]kg22'_'_'_'_'___hhn__^h^h^!!^!!!!!!!^6!6!6l^'!8ea6666e6e66a6a8^86666a66666_]))]2}2'''___n____^h^h^^^_^^!!!!!^!",
"__hh^hh_^h^h^^^^^^^h^h_!!!!^!!6!6a!^^^6!866!6a6a668!_2k)}}}''(n'n'''''n'_'____h_hh^h^_^h^h^^^^!^^h^h'l6!!!6!6!6a6^^^6a6a6!6!666aea^'_'(v                                                                                                                                                   c])])])k22}_''__'''n'__h'h__h^h^^^^!^^!!^!!!!6!!!!^!n6a6!6a6a666!^^!!a68!!a6!6!6a_)))]22}'''n_n_'_'_'__hh^h^h!^!!!!!^",
"_^__h^^^h^h^n^^hh^^^h!^^!6!!^!!6a6a6666866a6!668a8a6_(])]2]''''_'_'n'___'^_h___h_hh^h^hhh^_h^^^!^^h!^o!!!!a6!666a8686e866e666e66ae!___(j                                                                                                                                                   c)])])]k2g}__'_n_'___s___^^h^^^^^h^^!^!^^^h^!^!^!^!!!^666!6!668666e6668a6!6a6a6a6h]))]2g}'_'_'_'__h_h_hhhh^h^^^^!^!^!",
"_hh_huh^^_hh^h^h^^^^^^^^^^!^!!!!a!6a!aa!6!!!6!6a6a6!h}])}}}}'''''''(''_'__h_h__hh_h_^h^_h^^^^h^^!^^^!^^^!^a!!!a!6aaa6!6!6!6!6a66a!!'_'(v                                                                                                                                                   c])))])kgg]2'''_'''''''_'h_hh^h^h^hh^!^^^!^!!!^^!!^!!!^!!!!6!6!6a6!6a6!!!6a!!6!6!h)))]2g]g(h'_'''''_____h^h^h!^^^^^!^",
"nh_^___hhhhhh^h^h^h^^^h^^^^^!!!!!!!!!6!!!6!!!!!6!66!_2])}g]]}_'_''''(___'_'___'hhh_h_^_hh^^^^^^^h^!!hhh^!^l!!!!!!!!6!6!6!!!!!6!6!a^_''2v                                                                                                                                                   c)])])]](g}](n''_''('__'_n'_h__h^^hhhh^h^^^^!!!h!!!^^^!^6^!!6!!!a!!!6!!!6^!!6!!!6_]))](2}]g__'_'n''_^__'__hh_^^h^h^^^",
"_'____h'hhhhh_h_^h^hhh^^^^^hh^^^^^!^!!!!!!!^!!!^!a6l_2])}}}]2('('''(((_'_'_'_n_'h_h'__h_hhh_hh^h^h^^^^^^^h^!^^!^^^!!6!6!!^!^6^!!a!^''(2q                                                                                                                                                   c])])])k2kk}('''''(((''___s_'____hhh__h^^^^^_^^^h^h^^!^!^^^!^!^^^^^!!!!6!^^!!^^6!_)))]22]}2''(''''(''______h__h^___hh",
"n___'____h_^hh_h^h^^h^^^h^^h^!^^^!!!^!!!!^^!!a!!!6!!'2])]}]2}'''('(''''''___''___h___h_hh^^h_h^h^^^^h^h!^^^!^!^^^!!!!!!a!!!6!!!6!!^'''2v                                                                                                                                                   c)])])]]()}2}(_''(''''_('_____h____hh_^^^^^hhh!h!^!^^^^^!^!^!^!^!!!!!^a^!^!!!^!!!_]))]}}}2g''(''''''s'_____'__^h__^h^",
"_'_'_'_'h___^_hn_'_^^h^h^h^_^^^^!^^^^^!^!^^^!^!!!^___}])]]]}2g(('((('('(''''''''_'_'_n__hh^hh____^^h^h^^^_h^^^^^!^!!!^!!^^!!!^^^h'^''(gq                                                                                                                                                   c])))])]}])(22((('('('(''_'''_'_'_'____hh^^hh_n__!^^^^h^^^^!^!^^^!^!^!!!^!^^^!^^h')))]kk)22(('('('(''''_'''n'______h_",
"(''_''__'_'''__h'_(''__^h_h^h_h^^^!!!^!6!!^!!l^!^!^^_2))]])]]2('''2(((g((''_'''''_''n_'__''_hh(h'''_h^__h^h^h^^!!a!!!ll!^!!!!!^!l!^'((}v                                                                                                                                                   c)])])]]}]]]}('((('('(2(''_'''''__''^__n_''_^_'_''__^^^_^^^_^^^^6!a^!a!^^^!^!^^^^']))]2]]]}2'('(((((((''__''''___'___",
"'''(''__''_____'___'hhh_h_^_h_h__^!^!^l^^nh__hhh^h!^'}])]]])]kn2(('((('('(((''_''(_''''''n_'''''n'^_h___hh!h^_^h!^!^!^^h^_^hhh^_l^h((2}p                                                                                                                                                   c))))))]]})])('(((('(''_''(_'n''''''n_'nnhnh____''h^hhh^___^hh_^^!l^^!^__h_^_^h^^')))]k])])}'(((('('((('('(''''''_'n'",
"'_''(_n_'_'_n________hh^hh__h^^^^!^!^^h^^^h__^h_h^h_'2))]k]]]}''((2(('(''''''''''''''_'_'___'____hh^_^___^^^h^^^^!^!h^^^_h^^^____^h(22}q                                                                                                                                                   c)])])]]k]k]]]_((2((('''''''''''''''___'____h_h___^^^h^_^_^^^^^^!^^^hh^hh__^^_h_h']))]}]k]]]'(((2('('('''''('__'''__'",
"'('((((''(''''('''_''(_'_''''(h__'hhh'___(''__^^'_^^'}))]]]]])}(22222222'((('((''('((''''(_''(_'_''(n'_''''('(''_'^'__h''_h_h^_'^h^(2}kv                                                                                                                                                   b])))))]]]]]]]2'2'22222(((('(''('((((_('('''(''_n_(''_''''''_'''h^_'__'''___h^'__n)))]k]]]]]}'2(2(2222'(2''((_''(((''",
"('(''n''''(''''''''___'_'___'h'''___'_hh___h___h____'g))]}]k]]]2((2(2(('((('('''''('(('''''_'___'_nh___h_''h'n(___'h__h^__'^____^h_(2gs>                                                                                                                                                    t))])])g]}]]]k((((((((('('('''''''''('(''''_'''_'_n____^'___'''_''_^_hnh____'__^'])))g]k]]]}2'2(((((''((('('''''(((_",
"(('('('('('('''(''''_'n'''_''_''_'_'____^_h_h_h___hh'}])]]}]]]]]'22}(2(((((((('('('((('('(''''''''_'''n'''n'''''______hn^'__h'_'_hh22(b                                                                                                                                                      t))))]]]]k)]]2(g2(2(((('((2'('('''('''('(_'''_'_n_'_'_'_'_'''nn_'___h_______'__')))]kk]]]]]}'22g2(((((((('('('((('(",
"2'''('((''''(''''_'_''''''''____s_'___'______h__'__h'2))]k]}]]]]((2(((((((('((((''('((''''(''s'_n__''_''''__'_'___'h___'n_hh_h_h_h_(2c                                                                                                                                                        d])]]}]}]]]}]'2(2(('((((((('('('(((___'''''_____'_'s'''_'_s___n__'_h'_n______h'])))}]}]}]]](((2'('((((('('('''('('",
"22((2]}}}}2((2(((g22'''''''('('''(('n_h'h'__h_h__'__'}])]}]]}]]]}22g}]2222222}22(2(}}]}}2((2'((222'''''''('''('('''_h'h___h_h__n__'2i                                                                                                                                                          i])]g}]}]])]]22}]}222222g2((((2}]}}2('((''(2g((''_'_'''''n'((''_____'_____''''))))]g)}]]]]](22}}2(2(2222((2((}]}}",
"}}]k]}kg}}]}]]]}]}}2}}}}}}}}}}k}}}]}k}}g}2222(gg}2('(}))]2kkkk]]]]]}}}]}]]]}}}]}k}]}}}}}}}]kk}]}}2}}}}k}}}k}}}}}}}]}}2}(g22(22}2('(}2((s(s(s's's'ss_sns_u_uh__uh_huhhhuhh_v    qk999999999999992929(9(9((((s(s(s(s(s's's's'nsns_n_u_uhuhuhuhhhuhhhu<>   i999999999999999929(9999999999999999999s]))g2}]}]]]]]]]}]}]}]}]}k}]}]]k}}}]}k}]}k}]g}}}}}}}}}}}}k}k}]}}2}g2(2222}}2'2))))}2}]}]k]]]]}}]}]k]}k}]}]}]]]}}g",
"]]k]]]}]k]]]]]k]}]}]}]}]k]]]}]}]}]}]}]}]}k}]}k}]}}22}))))]k)]]])])]]]]]]]]]]]]k]]]k]]]}]]]}]]]}]kk}]k]}]]]}]kk}]}]}]}]}]}]}]}]}}22})]]]]]]}]}]}]}}}}}}}}}}2}2}2}2}2}222}2}2q  q)))))])])]]])]]]]]]]]]]k]]]}]}]}]}]}]}k}]}}}}}}}}}}g}g}g}2}2}2g2g2g2}a> i])))))])])])]]]]]]]]]]])]))))))))))))))))))]k]]]])])]]]]]]]]]]]]]]k]]]k]]]]]]]k]}]}]}]}]}]]]}]}]}]}]}]}]}k}]}]}]}}2}]))))]k]]]])])])]]]]]]]]]]k]]]}]]]}]",
")))))))))))))))))])))))])))))])])))))])))]]])])))]]])))))))))))))))))))))))))))))))))))))))))))))]]9)])))))])])))))])])]]])])))]]]]]]}k}}}}}}g}g}2}2}2g222222(((((((((((2(22cb)]]]]]]}]}]}]}]}k}k}}}}}}}}}}}}2}2}2}2}2}2}2g2g222g222222(2(((((((((((24 s))]]]]]]]}]}]}]}]}k}k}}}}}k}]])))))))])))))))))))))))))))))))))))))))))))))))))))])])))])))))])])))))])])]]])])))]])))))))))))))))))))))))))))))))))))))",
"))))))))))))))))))))))))))))))))))))))))))))))))))))))))))))))))))))))))))))))))))))))))))))))))))))))))))))))))))))))))))))))))])]]}k}}2}g}2222(2(2(2(((((('('('((((((((((}cp)]]]]]}]}]}k}}}}}}}}}}g}2}2}2}2}2222222222(2(2(2(((2(((((('('('(((((((((c())]]]]]]}]}]}k}}}}}}}}}}}}g}2}}}]]])))))))))))))))))))))))))))))))))))))))))))))))))))))))))))))))))))))))))))))))))))))))))))))))))))))))))))))))))))))",
"]])]]])]]])]]])])))))])])])])])])])])])])])])])])])]]])]]]]])])]]])]]])]]])]]]]]]])]]]]]]]]])))))])])])])])])])])])])])]]])]]]]}]}}2222(((((((('('('('(''''_'_'_''''''('('(}0(]}}}k}}}}2}2g22222222(2(2(2(((((((((('('('('('('('''(''''''_'_'_''''('('r()))}}}k}}}}}}2g2222222222(2(2(2(2(22}2}2}}]k]]]]]])])])])]]]]])]]]]]]])])]]])))))])])])])])])])])])])])])])])]]]]]]]]])]]])])])]]]]]]]]]]])]]]]]]]]])]]]",
"}]}]}k}]}]}]]}}]])]]}]}]]]]]}]}]}}}]}}}]}}}}}}}}}}}}}]}]]]}]]]}]}]}]}]}]}]}]}]}]}]}]}]}]]]}}])))]]}]k]k]]]}]}]}]}}}]}}}}}}}}}}ggg2g}g}2g222}2}2222(2(2(222(222(2(((2(22}('']t]2((22}gg2g2222(2(((((((((((('(((((2}222222g}2}2222(2(2(222(222(2(2(2(22}'])))](222}}2}2}2222(2(((2(('2((((((((((2}2}}}}}k]]]}]]]}]]]}]]]}]]]}]}]}]}]}]])))))}]}]]]]]k]}]}]}k}]}]}}}k}}}}}}}}}}}]}]}]}]]]]]}]}]}]}]}]}]}]}]}]}]}]}]",
"'_'_'__''_''((2}]]2(22222(2(((((((((('('('('('('('('('('''''('''(''''_'''_'_'_'_'_____'_''((}])]2(222(((2(((((((2(('('('('('(''''''''__________^_^^^_^h^h^^^^o^^^l^^^lh_'_']uk((('('('('''('''(''_'''___'_'__________^_h_____^h^hoh^_^h^^^^oh^^^^^^^h_'')))}((('('('('''''''(''_'_'_______'_____'_____'''_'''_'___'''_'''_'''___'_''(})))]2(2(2(2(2(((((((((('('('''('('('''''(''''_'''''''_'_'_'_'_'''_'''''_''",
"alo^!la^lla^l'2}]}'('('('''('(''_''__'h__'__h_h_h_^_hhh_^^^^o^^^^^l^!ll^!^ll!lal!^!la^^la^l'2])k'((('('''('(''''n'____h___h_h_h_^h^h^_hh!^llalllal!l!lalaaa!alaaaaaaala!a^()]]_('('(_''''(''_'_'______^h^hh^^hl^!^^h^^!^aaalala!aaalaaa!alaaaaaaaallaaah]))]'('('(''_'''''h'hnhhh_h^^^^^^^l^^hl^l^^l!^!lalal!lalalal!la!al!lalal^^!l!()))](''('''n_''('___h_^_hh^_^^^^^^^^^^o^^^!^!l!lala^!lalalall!alal!^!lall^",
"aaaaaaaaaaa8a^(})2'''_'_n_'_'''__h___h___^h^hhh^h^^!h^^!hll!^!l!la!a!a!aaaa8aaaaaaa8aaaaaaa^2])2_''''_'''_'''__h___^_hh^h^h^^^^^l!^_^^^!ll^!!!laaalaaaa8aaa8aaa8aaa8aaa8a!2]]}'_'''_'''_(''__^____h^h^h^h^h^^^l!l^^!^^!llaaaaaaaaaa8aaa8aaa8aaa8aaa8aaal]))}'_''n_'_'_'____^h_'^h^h^^!^^^!^!^!ao^aaal!laaaaaaaa8aaaaaaa8aaa8aaa8aaaaah)))}(_'''__h'^_h'__^hh__^!_^^!^!^!^!!aa!^aa!a8!aa8aaa8aaa8aaa8aaaaaaa8aaaa",
"aaaaaaaaaaao^_(k)2_2'(''n'_'_((('''('_h_hh^_h'(_hh^_''____h'hl!o!lalaaaaaaaaaaaaaaaaaaaaaa!_2))}_(_'''n'n'_((('(_'__h_^_^h^_n_^^^^_'__^hh_hlalaaaaaaaaaaaaaaaaaaaaaaaaaal^2)]k_(''n'''_'_'((''h''_hh^^^^^_''^^^^___h^_^_h^aaaaaaaaaaaaaaaaaaaaaaaaaaaaa^]))]__'_''_nn'__'''(_''^^^^^^^!^_'^^lll__^ll^_h^aaaaaaaaaaaaaaaaaaaaaaaaaaaaa_]))]''(''_____h_'(''_''_l^^^!^l^_(^^!lo_^^l^l^^^aaaaaaaaaaaaaaaaaaaaaaaaaa",
"laaala!alaaal^(})2'('_'_(_'_''('2''''__h_hh__hh((_h''''__^__^!^o^!l!l!!aaaaalaaaaaaaaaaaaaa^2])}'(s_'_('n_'_('((__'____hhh^^h'(_h_'''__^_h^!o!l!laaaaaaaaalaaaaaaaaaaaaaa!2]]}_'(_'_''__'_''((__'__h_^hhh^h_(_h!__'hh!h_h!l!la!aaaaaaaaaaaaaaaaaaaaaaaal]))}'_(_'_''____'''(___hh^^^h^^oh^('_l'_'^h^^h^aaaaaaaaaaaaaaaaaaaaaaaaaaaaaa^]))}(_(___''____n''(_h_^h^^^^!^lho('hl____h^^hh!aalaaaaaaaaaaaaa!aaaaala!a",
"lolla^llllalah(k)k'2'''('(''_'((_(_'''''_'_'_'_'2(''____^_^h^h^h_h^^l^lll^lllllllla^alllaoah())]'2'''('(_'_''(_'''''_'_'_'h__'22''h_h_hhh_^^^^^^ll!l!lalalllalalalllalala^2)]]'((((('(''_''(_(''''_'_'___h'_'}'_^_^^^_^^^^^^l^ll!lalalllalalalalll!lala^]))]((2''''('''''(_''_''_'____h^__'}''^^^^lh^llll^l^alalalalllalalalalllllllah]))]('(''''''n___(__'h_'h_^_hh^hhh_2('hh^^l^lllllllhllalalalalalllallll^l^",
"lahll^^!l!l!l^(})}(2('('(''''_''''('(''_'_'_'h'_((_''______^h^h^h^^!^l^!^l^alalal!l!lllalal^2])}(((_''(''''_'''_''(''''_'_'^__'(__'_h^'_h^^^^^^^^o^!^!lalalolalal!lal!laa^g]]}2'2_('''(''''''''n''''__'_'^_h'2'_h^_^_h_l^l^!^ll!l!l!l!^aallaa!l!l!lalaao]))}2'2_'''''''''''n'''______hh^hhn'(hh!^^^^^^^!ll^!l!lal!lal!aloal!la^!l!l!lh)))}2'2''n''(_'___'_'n''_hhh^^_h^^^'(^_^^^llh^^!l!^l^!l!lal!l!lalalal!^l^!",
"lllh^^l^llall_(])k(''('('('''''(('''''_'''_''(((_2_(''_'_''h^hh_^^^h^^^^^^l^a^lll^^h^^ll!^l_2))](}(''''(''''''('''''_'_'_'_'''_(h'___'_n'h^^^^^^^^l^l^l^lla^^l!^l^l^lll^!_g)]](((''('(''n'''(__'''_'_n___('(h(''h_____'hl^lh^^l^l^loll!^!ohl!^l^^lll!l!h]))]((g''''(''_''''(''_'_n_n__h__(_''hh__h^__'l^l^^^l^l^ll!lllalh^a^^^^^l^lll_]))](2__'(''''_n__'(_'_n____hhh''('_(h_h^h^hh(lll^^ll^lll^lll^ll!^l^^^^^^^",
"^aoh_^^l^!ll^_(})}('(s''(''''s('''''(__''''_'_'''((''_'''_}__^^hhh_^^!^^^!^l^!oal^_^h^l!ll^_2])}(}2'('''('''(_(('''___'_'_'_''''(_______2s^^^o^^h^^l^^l!o!oalal^^^^^^!l!oh}]]k(((s('''''''''n_'''_____'_'_'''_2'___h_^((^ol^^!^o^!^ll!ll^!o!llh^^^llla^h]))k((k'('(''''''''''s''_____h'___'_2'___^_^'2h^lo^l^^lll!l!l!^ll!l!h^^^^!o!^_]))k2(('_'('''__''__'_n_h^___h_h_''h('_hh_n^h2no^l^!^^^!ll^!ll^!llo!h^_^h^",
"^^h^^^^l^^l^l_(])]22(('('((('('('('(''''''''''___'_'_n''_'2'^^h_h__h^hhh^^hh^^^^o^hh^^o^l^^_2))](}g('('((('''((('(''''''''''''''''_'''_n((^h^_^h^__h^^^^l^^^l^ho^^^^lhl^lh})]]222('('((('''('('''(''_'''_'_'_''____'__'2o^^h^^^hl^^^^^l^l^l^o^o^l^o^lllh]))]22}('((('('''('('''(''_'_'_'_'__'___h'___g_^^_^^lhl^^^^^l^^^l^ohlh^_^^^^^']))]g22('''('('''''(''''___'___'n_____h_h____2'^^h^^^h^^^^^^^^^^^^lho_^_^^",
"hl'^ll^l^llo^_g})]g2('('('('('('(''''''''_'_'''_'_'_'_'___'('^^^_^h^h^hoh^_^h^hl_h^l^l^olo^_}])k}22'('('((('''('''(''''s'_'_'''_'_(_____n2(ohhh^hhh^^l^^h^^o^^h_^l^l^^^l^_}]]]k(2'('('('('''''(_(''_'''_n___'_'__^hh___'(h^^^^h^^^^l^^^^^l^oo_^lll^o^l^_]))k}2}'('('('(''''''_'''''_____n_n___''__'_h'2h^o^^^^ho^l^^^^^^^^^_hl^o^^^l^_)))kk22'('(''''''''''_'''_'______^_________hh^('^l^^^^h^^o^^h^h^h^^__^^^^^",
"'l^_lh^hhhlh_'2])]g](('('('((('('''''('(''''_'''''''''''_nhn'(hnhhh_h^^h^___h^'^^_^h^hhhl^h(}))]}}2((('('('((('('''(''''''_''(''''_'_'___n'(hnh_hh^ho^^h'_^h_hl^^^l^^^o^h'})]]}}2((((((((('('('(''''''''___'_'_'_n_'__h'_(_hh_hh^^^^oh__^hh'l^^^l^^h^l^']))]}}g((''('((('''('('''('('_hn''_'''_'_'__^h_('hhh^h^^o^^h__^_^nl^_h^h^hh^o']))]}}}((('('('('(''''_''(''_'___'''_n_'_nhh^h^''__^^_^^o^^^h'h_^'h^^hh^h_",
"ho^^ho^^h^llh'g})}]}((('('('('('('(''''''''''''''_'___'_''__'nhhh^h^h^^^h^h^hoho^^h^^oh^^l^'}])k}}2'('('('((('('('''('''(''_'''_'___n_'____''^hhh^h^^o^oh^^o^l^oh^^^^o^^^'}]]]}}g'('('((('('''(''''''''''_'''___'___'_____'^_hh^^^^^^l^^^o^o^l^^^o^^^o^']))]}}}'('('((('('''('(''''''_'_'___'__^_^_h'___'hh^^o^o^o^^^o^o^o^oh^^^h^h^^')))k}}k'('('('('('''(''_'''''''_'s'___'ohh_h_hhh'_h^^^^o^^^o^^h^^^^^h^h^hh",
"^^^h^_^h^hlh^'g])]}](((((((((((((('('('('(''''''''''_'''_'_'n'_h____^_hh^_hh^hh^^hoh^_^^oh^'}))]}]}((((((((((('((('('('''(''_'''''''n'_'_'''____h_h_hh^h^h^^^h^_oh^^^h^^^'})]]}]}((((((((((('((('('('('(''_'''_''_''____n'_'h_hh^_hh^h^^^^^h^h^h^^^h^^^']))]2]}2(((((2(((('((('''('''(s'_'_''''n_'_'_____'h_h_hh^_^h^h^^^_oh^hhh^_^^^()))]}k]('((((((('('(''''''''''_'s'_'_n'n_'_____''_^_hh^_h_^h^h^h^h^hhhh_hh",
"hoh__^hhh^^^_'}])}}}k2((((((((((('('('('''(''''''''''_'_'''___'h_hhhh__^h^h^h^ho^hh^h^ho^h_'}])k}k)g((('((((('('((('('('('''''(''''_'_'''_n_n__hhhhhh^^^h^h^ho^^h^hh^^^h_']]]]g}]}2'((((((('('((('('(''''''_'''sn_____'___'___hhh^h^^^h^^^ho^^_oh_h^h^h']))]}}]]((('((((('('('''(''''''''_'''_n____h__'____h_^h^hhh^h^hoh^^^_h_hh^_oh')))]}g]}2'((((((('('('''(''''''''_'''_'_____'______^hhh^_^h^h^h^h^^^_hhh_^",
"hh_'___n^_^h_(2])k}]k}(2(((2(2(('((((('('''(''''''''''n'n'''''n'_'________^hh_hh___'hh^h^hh(}))]}]]](((((2(2(('((((('('('''('(''''''''_'''_''hh'_nh_h_h_^h^_hh^n__h_hhhhh(})]]9]]]2((((2(2(((((((((('('''('('''(''_'_'_'_'n__n_n^hh_hhhhhhh_h_____hh_hh(]))]g]}]2((((2(2(('((((((('(''''''n(''_'_n_'_n_'_'____h_h_h_hhhhh_^______hhhh(]))]2]]]}((((2(((('('((('(''n(''n'_'''__h'___'_n_'___'h_h_h_hhhhh_h__'__h_",
"ho_h___h__^^_'g])}]}]g((2(2(((('('('('('('''(''''''''''_s_'_'_'_'_'____hhhhh_^h^_h__h^hh^oh'}])k}}}}2(((((2(('('((('('('(''''''''''''_'_'__''___'__h_^hh_^hh_hhhh^hh_^^^_']]]]}]}}2'2(((2((((''(('('''''(''''''''''_'_'_'________h_hhh_hh^_hh^hh__hh_oh']))]g}}}22((((((2(('''('('''''(''''''_'''___'_________'__hhh_^h^_^^__h'____^h')))]2}k}2(((((('((('''('''('''(''''_'_'_'_'___________'____^hh_^_hhh__'^h_",
"___n_'h__'_('2}])]])2]2((2(((2(((2(((((((('('('('('(''''''_'s'''''''_'_'_'__h______n____h''(}))]})}}22(((2(2(2(2(((((((2(((('('('''''(''_'_'s'''_'''_'_'__h__n______h__''(])]]}]}}}((2(222(((((('('('((('('('(''''''_(h'_''''(''_'n'_'__h'_n_'________'(]))]})]2}2(2(22222(((((((('('('''('('''''(_(_'_'s''''(_n''sn_'___'hn_'_n_'__'())))}]]2}2(2(((2(((2(('((('('''('('''(''''_(___'''_'''_'n'_'_'___n_'___'__",
"_hn_'_______''}])]]]k}}(2(2(2(2(('((((('('''('('''''''(('('''''_'_'_'_'_n_nh__nh__'_______''}))]]]]2}22(2(2(2(('((('''('((('('(''''_'('('''_'_'_n''_'_n__h___h__n_n___'_'']]]]k]]2](2(((((2(((((((('('((('('''(''''('''_'_'_'''_'_'_n__h__n___'_'_____'']))]k])}292(((2(((((('('('('('(''''''''_'(('(_'_'''_'_'_'_'_______h_n_'h__'_n')))]]}]}}g2(2(2(((2(((((('''('('('''''''''('(''_'_'_'_'_'_'_n___'___n_n_n_",
"''''_'''''_''(}))]})])g222(2(2(}22(2(((((((((('('('((('('2(('''''('('('('(''''''''_''''__n_(}))]])])}22222(22}(((2(((('((((('((('((((((2(('('''((('('''(''_''''(''''''''_(k)]]}]])]2(((2((2}g2(2(((((((((('('('((((((((('('''('''('('('(''''''_''''''__(])))k]])]22222(2(2g2(2(((((((((2'('('((('((((('('''('('('('('''''(n(''_'''''_(])))}]])]}(2(22222g2(2(((('((((((('('((('((((2''n''''('('('('('''(''''''''",
"__'_n__''''_'(}])]]]]]](g22(2(2(2(2(2(((((2(('((('('((('('(((''''''''_'''_'''___s___'''_'_'(]))]]]]]](222(2(2(2(((2(((((((((((((('((((('''('''''(''_'_'_''_____''__'''(n'']]]]]]]]](((222(2(((2(2(((((((((('('('('('(''''''''''''_'''''''_____'_'_''(_'')))]]]]]]g(222222(((2(((((((('((('('('''('(''''''''''''_'_'_n_'_'___'___''''n')))]]}]]]}(2922(((2(((2(((((((('((('('('('(''''''''''''_n''_nn'_____'_n_''",
"_'((_''''''('(g)))]]])]2222kg}222222(2(2222((2(((('''('('('('('''((''((('(_'''n'''''''('_('(})))]]])]}(2(]g}2222(2((2222(222(((('('('('('((('''((''('(''_'''_''('''''('('(]9s)]]])]k(}2}}}222}22(2(2(2(2(2(((('('('('('''(_''''('('('('n'''''(''''''(''(])))]]]]]](22}}}22(g22(((2(2(222'('((('''('((('''''''('('(''n''''''('''''('''(])))]]]]]](222}}222222(2(2(222(2(((((''('''('('''''('('('('(''_''''(''_''(",
"('('(''''_'''(}])]]}]]]}22g2ggg22(2(2((2g22(((((((('((('('((('('''('''((''('('''('(''''_'''(}))]]]]]]]22g222222222g2222(((((2(2(((2(('((('('('''('((((((('((('('(''''_'''']xu]k}]]]]g2g((2g2222222((22(22(2(((2(((('((('((''''(''(('((''''(_''(''_'''_'']))]k]]]]]}(g222g222222(((g2((2'((2'((2(((((((('((''(('''_''('('('''(''''_'_'()))]]}]]]]k(g222}2222(222(222(((((2((''(((((('('''''((''''(''(('('''('''('",
"'''''('('('''(}))]}]]]]]22g}ggg}222222(222(2(2(((2(((('((('('''('('''''('('('('''''('''((''(}))]]]]]]]}22g2}g22}222g22(2(2(222(2(((((2(((('('('((('''''('(_''''('(''''(('(]io)}]]]]]](2g222g22(222(222(2(((2(2(((((2(((((('('('((('''''('''''('('''((('(r)))k]]]]]]22g2}2222(222(222(((2(((((((((((((('('('('('('''''('''('''('('('('(])))}]]]]]]}(}}}2}222222(2(2(222(2(((((((((((((('('((('''''''('''('''''('(",
"('''('''(''''(}])k]k]k]]](}2}2g22(222(2(22222(((((((2'((('((('('((('('''''''''('(''''''''_'(]))]]}]]]]](g222g2222(2(2(2(2(2(((((((((((((((('('((('('''''''''('(''''''''_''kt9]}k]k]]]22gg22222222(2(2(2(2(((((((2(((((((('('('('('''('''''''('(''''''_'(w])]]k]k]]]}(gg222g22(222(2(2(2(((((((((((((('((('('('('''('('''((''''''('(''()))]}}]k]]]}(g2222g(222(2(2(2(2(2(((((((((((((('('('((('''('''''''('''''''",
"'((('('('''''(}))]]]]]]]]}2}2}}22222(222(2(22k}}(2((((((22(((2(((2(('((('('('(''(('''('''('(}))]k)]]])]](}2}}222(22222(2(22k}}2((2(2(((2(((('((2(((('((('('('((('('''('''(])))k)]]])]]2g}]}222222222(2((2}}}22(((((((22('2(((2(('((('('('((''('('''''('(])))})]]])]]299gg}22(222(2(2((2}}}2('((((2(2(('((((((((('('('('((('('('''('('2])))}]]]]]]]}22}g}(2(2(2(2(2(((}}}22(((((((22('((((((2(((('('('((('2'(''''",
"2(2(2(((((('(2}])k}]]k]]]]]}k]]}}}k}}}]}}}}g]}]}]}}g}g}}k}}222g222}222}2}gg(((((((((((((2((2]))]}]]}]]]]]}k}]}}}}}}}]}}}}}]}]}]}}}}g}}}}}g22222222g222}}222(((((((((((((((]))]}}]k]]]]]}kk]}}}k}}}]}}}}}}}]}k}}2}g}g}}}g222222222222g}g(2(((((2(((2(2(((]))]}}]}]])]]}]}]}}}}}}}}}}}}}}}]}]}}}}9g}}}}}g(222(222222}}}22(((((2(((((2((())))kg]k]]]]]}}}]}}}}}}}]}}}}}}}]}k}]g}g}2}}kgg2222(2222222g}22(((((2(((((",
"k]}]k]}]}]}22}]))]}]]]])])]]k]k]]]k]]]}]}]}]}]}]k]}]]]k]k]}]}]k]]]]]k]}]}]k]]]}]}]k]}]}]}g2}))))}k]]]]])]]]]]]]]]]k]k]}]}]}]}]}]}]]]]]}]}k}]]]}]]]}]}]}]]]}]k]}]k]}]}]}}(k))))}}]]k]])]]k]k]]]]]k]}]}]}]]]}]}]k]]]k]}]}]}]}]]]]]}]}]}]}]]]}]]]k]}]}]}}2]))))}}])]]])]]]]]]]]]]}]k]}]k]]]}]}]k]]]]]k]}k}]k]k]]]k]}]}]}]]]]]]]k]}]}]}k2k))))k}k]k]]]])]]k]]]]]}]k]}]k]]]}]}]k]k]]]]]}k}]}]]]}]]]}]}k}]]]}]]]k]k]}]",
"]k]k]]]]]]]}]])))))])])))])])])])])])]]])]]]]]]])])]]]]]]]]]]]]])]]]]]]])]]]]]]k]}]]]]]]]}]])))))])))])])])])])])])]]]]])]]])]]])]]]]]]k]]]]]]]])]]]]])]]]]]]}]}]]]])]]}]))))))])])])])])])])])])]]])]]])]]])])]]9k]]]]]]]]]]]]]]]]])]]]]]]}]}]]]]]]]}]))))))])))])])])])])])])]]]]])]]])]]])]]]]]]]]]]]]]]])]]]]]]]]]]]]}]}]]]]]]]}]))))))])])])])])])])])])]]])]]]]])])])]]]]]]]]]]]]]]]]]]]]]]]]]]]]]]}]]]]]]",
")))))))))))))))))))))))))))))))))))))))))))))))))))))))))))))))))))))))))))))))))))))))))))))))))))))))))))))))))))))))))))))))))))))))k))))))))))))))))))))))))))))))))))))))))))))))))))))))))))))))))))))))))]cp)))))))))))))))))))))))))))))))))))))))))))))))))))))))))))))))))))))))))))))))))))))))))))))))))))))))))))))))))))))))))))))))))))))))))))))))))))))))))))))))))))))))))))))))))))))))))))))",
")))))))))))]]])]]])])])])])])])])])])])])])])])])])])))))))))))))))))))))))))))))))])))])])]]])])])])])])))])])])])])])])])])])])])))))))))))))))))))))])))])))))))])])])])])])])])])))])))])])])])])])])])])])])bv))))))))))))))))])))))))])))))))])])])])])])])))])])])])])])])])])])])])])))))))))))))))))))])))])))])))))))]]])])])])])])])])])])])])])])])])])])])])])))))))))))))))))])))))))))))))))])])]",
"]]]]]]]]]]}]k]]]]]]]]]]]]]]]]]]]]]]]]]k]]]}]]]]]]]]]k]])))]]]]]]]]]]]]]]]]]]]]]]]]]]]]]]}]}]]]]]]]]]]]]]]]]]]]]]]]]]]]k]]]]]]]]]]]])))))]]]]]]])]]]]]]]]]]]]]]]]]]]]]]}]}]]]]]]]]]]]]]]]]]]]]]]]]]]]]]}]]]]]]]]]]cv))]]]]]]]]]]]]]]]]]]]]]}]]]]]]]]]]]}]]]]]]]]]]]]]]]]]]]]]]]]]]]]]]]]]]]]]])))))]]]]])]]])]]]]]]]]]]]]]]]]]]k]]]}]k]]]]]]]]]]]]]]]]]]]]]}]]]]]]]]]]]]]]]])))))]]]]]]])]]]]]]]]]]]]]]]]]]k]]]]]",
"}2}}}2}2}2ggg2}}}2}}}}}}}g}g}2}2g2}2}2}2}2}2g2}22g}}}}]])}}}k}}}]}}}}}}}}g}g}g}2}g}g}2g2g222}g}g}g}}}}}}}2}2}222}2}2}2}2g222}22}}}}})))}}g}}}}k}}}}}}}}}}2}g}2}g}2g2g222gg}g}2}g}}}}}2}g}2}2g2}g}2}2}22222}2gg}}kcv))}}}}}}}]}}}}}}}}}}g}2}g}2}2g2}2g2g}}2}2}2}}}}}g}2}2}222}2}2}2}2}222}22}}}])))]}}}}}}}}}}}}}}g}}}g}g}2}2}222}2g2gg}2g2g2g}}}}2}2}2}2g2}g}2}2}2}2g2}2}g}})))]]}}}}}}}]}}}}}}g}}}}}2}2}2}2g2}2",
"(((((((((((('((((('('('('(''''''''''_'''_'_'n'''_''((}])]}2}22222222(2(2(2(2(2(((((((((((((('((('('('(''''''_'''''_'''_'_'nn'('''((k])]g2}g2222222(((2(2(2(((((('((((((('('('('''(''s'''s'n's'''_'''_''nn'n''''((iv)]}2g22222222(2(((22('((('('('2'('('('(''''''''''''n'_'_'''_'s'_''nn'n('''(2)))]}2}22(222(222(((2(((('((('((('('''('('(''''''_'''_'n'_'''_'''_'''s'n''''(g)))]}222222(222(2(((2(('('('((('(((",
"(''''''''''_'''_'''_n''_n_n_n_uhuhuhuouhhhuouhnhhhnh'2])}(((((2(('(((((''''''''''''_'_'''_'_'_'_n_'_n_n_nhu_u_uouhuouhnouououhuhuh'}))]'((2(((('(2('('(''''_'''''''_'''_n_'_'_'_n_non_uhu_nouhuouhuhuouououhuouo'0v)]'((2'((((((((('(''''_'''_'_n_n_nnnh'_nhn_nouhuouhuouhuouhuouououhuou_uhuh']))]((((((('''(('(''_''''n''_n_'_n_n_nhn_n_nhuhnhuouououououhuououhuhuhuhu_nh'])]](''2(('('(((''''''_'_'_n_nhn_n_",
"'''''''(''_'_''(''''''_n_nhn_n_n_nhuhuhuhuhuhuhnhuhn'}])}((2(((((('('((('((('('''''(('''_n_(((''_'_'_n_nhnhnhuhnhuhuhuhnhuhuhuhnhu'}))}((((((('((((2(('((('''''''''(''''_''(''''''_nhn_nhuhuhuhnhuhnhuhuhuhnhuou'iv)]((2('(((((((2(('(((''''''''''_'_'_'''_n_'_'huhuhuhuhuhuhuhuhuhuhuhuhuhuhu')))k2(2'((('('''2(''(((''''_'n'_''nhnhn'''n_'_'_nhuhuhuhuhuhuhuhuhuhnhuhnhn_n')))]2'2(('((('''((('''('n''_'_'s'_n",
"'''''''((''_('((('''(___uh_huh_huohouohououhuououohh'2])}'}(('((('('((222'('('''''''('(''_'(('('''''nh_huhhhuohouououohououououhuh'g))}'2'('('('('(2(22'(''''s'''_''(s'_'(''('''('_huhhhuohououhuouououououououh'cv)]'2}('('('('(2222''''''''s'_''(''__'('''''''nohouououououououououououououo'])]]((2''('('(''(2(2''''s'_'_'_''('n_us''(_'_''nouououououououououohououououh(])]]('g(s('(''''(((2('''_n_s___n'('",
"'((('(('2}(((((('''(''''''n'_nunhnunh'unhuhuhnhuhuhu'}])}2}}(2(2(((((2(2(((((((('(''''(k((((((''''''n'''_nunhuunhuhn_uhuhnhuhnhuhu'}))k222(((2(((((2(22((((('('('('''}(((('(''''''nnn'nnhnhuhnhuhnhuhuhuhuhuhuuu'iv)k2(](2((((((((2(2('('('('('''''}g('('(''_'''hnunhnhuhnhuhuhuhuhuhuhuhnhuhu')))]2(}(((22(((((2(2('('('''''''(_22('('(''nnn'un_nuuhuhuhuhuhuuuhnhuhnhn_nuu')))]2(}22(((('('((((2'('(''''s'n'n(",
"''('('(((2g(''(''''_'''''''''_s_n_'_u_n_u_nhn_n_nhuh'2])](}2222(2'('((2'2(((('('('(''(((2((''''''''_'''_n_nhn_nhn_u_nhu_u_nhnhnhuh'2))](22((2(2(((((2'((((('('('(''(((}((''n'''nn_'_n_'_n_uhn_n_u_nhuhuhuhnhnhuo'0v)]22}((2(((((((2'((((('('''('''((2((''_'_n_s_n_s_'_n_u_uhu_nhnhuouhuhnh'_uh']))]2(g((((((((((2('(((('(''''''s('22(n'_n_n_nhn_n_nhn_uhuhu_nhnhnhuhn_n_n_nh']))]2(g2(((((('''2('(''(''''''_'n('",
"'('((('((2('((((((((''s('''(''n'''s'un'nhn_'nn_'nuhn'g])k2g}(2(2(((2(((2(((2(((((((('('(2'(((((((('''(n'''''n'_nn'_u'nhnnn_nnn_nuu'}))k222(((2(((((((2'((((((((('('('(2'(''('''('''(nn_'n'_nns_nuus'hn_nnn_nnnhu'iv)]g2k(2(2(2(((((2'((((((((''((''((''('('''(s'n'''nn_nnn_nnn_un'hunn_nnn_'uu')))]}22(2(((((((('2(((((('''''(''''(2n('(n''(''_nsn_'ns_nnn_nnuu'uu_'n'_'n'_n')))]g2}2((2(((((('2(('((('('''('''(",
"('('((22('2'((('('(('_'''''''_'''_'_n_n_u_'''_n_nhu_(2])](}2(((((((((((2((((('('('((2(('}'('('('(2sn'_'_'_'_'_s_shn_n_un'_'_n_nhu_(}))]2}(((('((('((((((('((('('('((2'((('('(''((_'_s_'_'_'_n_nhnhunn_'''_n_nhuh(cv)]22}((((((('((((2'('('('('''((2'((''(''''((_s_'_'_'_s_n_n_uhusnhs''_n_n_uh(]))]2g2((('((('((((('('('('''''((2('(('''''''2_n_s_n_s_n_s_n_nhunshn''''_s_n_(]))]22g2'('((((('('2'('('''''''((((",
"((((((((((2((((((((}'''''('('(''''n'n'''nn'(''''nnu''}])]2}g(2(((2(((2(222(((2(((((2(2(((((('('((]''''''''''''''n'nsn'unn(''''nnn''}))]}}}(2(222(((222(2(((2(((('((((((2(('('((}('''n'''''''n'nsnnnnnnu''(n''nu''iv)]}2k(2(((22((22((2(2(((((('((2(((}(('('('22'''n''(''n'n'nnnnn''nu('(''''un')))]}g}(((2((((((22(2(2(('('('('((('2(('('('(g'n'n'''''''''n'nnn'nnn''(''''nn')))]k2}((22(2((((2((2(((((('('(((((",
"((((((('((('('('('(92'''''''(''_'''''''_n'sn'n'nn_n_(g])]2}22(2(222(2(2(2(('((('((((((2(((((((('((}s''''''(''_'''''_'_nssn'_'_'n'_(}))]2gg((2(2(2(((2(2(((2(('('((('((('''('('((}''_'''_'''_n''_'_'_'s'_'''_'_n_(0v)]}g}((2(2(2(((2(((((((('('('((('''''('('''g(n''''n'_'n'n'_'_n_'_(n'''''_nn(]))]g2}2(2(((2(((((((((2'((('('('''('''(s''''}2'_'n'''''_'''_'_'_'_(n'''''''_(]))]}gg}(((((2(((((((((''('''('('('",
"(((((((((('((2'('('(22'''('''''('''('('(n'''n'n''sn'(}])]]}}22(222(222(2(2(((2(((('((((((('2(('(''(g'''''''(''n'''''s(ss''_n''''n'(]))]]}}(222(222(2(2(2(((2(((((('((('((((('('((2('''''''''''''''n's''(''''''u'(iv)]]}}(222(22222(2(2(2(((((('('('''('((('('''22'''''n''''''('''''n''''''''n'()))]]}}2222(2(2(2(2(2(((('((('('('''('(((''''(2(('''''''''''(''''''s'''n'''n'()))]]kk22(2(2(2(2(((((('('((('('(''",
"('((('((('('('('('('((2''''''''''s''('''s_'''_'''_''2}])]}]2222(2(2(2(2(2(((((((('('((('('('('('((((2s'''''''s''''(''ss_''nn'_'nns2}))]}]}222(2(2(2(2(2(2(((('('('((('''('('('('('2'''(''''n'_''(''n'_'''''_'sn'(cv)]}]}2(2(2(222(2(((2(((((('('('((((('('''('''(('''s'''_s_'s('''(n'''''_'''_(]))]}]}2(2(2(2(2(2(((('((('('('('('('('('''''''(('_'''s'''_''(''''_sn's''''''(]))]}k}2(2(2(2(2(2(((('('('('('('('",
"(((2(2(((2(((((((((((('('((('('''('''''''('(''''''s'(]])]]]g2}222222222222(2(2(((2(((((((((((((((((((('((('(''''''''''s''(''''''''(]))]k]}2g22222222222222(2(((((((((2(((((('((((((('(((''''''''''''''s''('''(''(iv)]]]](}222222(222(222(2(((((((((((((((('('((((('''('''''''''''''''''(''''''()))]k}]22(222(22222(2(2(2(((((((((((('('('((('((('('('('''''''''''''''('''(''()))]]k]2222(222(222(2(((2(2(((((('(",
"((((((('((((((('((('((('''('('(''''''''''''n'''''n''(}])]}]}222(2222222(2(2(((((((((((((((('((('('('('(''''''''''''n'''''n'''''n''(}))]}]kg2222(222(2(222(2(((((2(('((('('('('('('('('(''''''''_'n'''''n'''s''''(0v)]}]}g(2(22222(2(((2(2(('((((((('((('('('((('('('''(''''''''_''('''''''''''(]))]}}]}(2(2(222(222(2(2(('((((('('('('('('('('('''''(''''''''n''''''''''''''(]))]}]k}(2(2(2(g(2(((((((('((((('('",
"(2(((2(2(((2(((((((((((((('((('('''('''('''('('('''((]])]]])}222222}22(22222(2(2(((2(((2(((((((((('((((('('('('('('''('('('('(''''(]))]]])k222222g22(22222(2(2(2(((((((((((((((('((((('('('('('('''''''('('('('((iv)]}]]]222222gg2(222(2(2(2(((2(((((((((((((((((('('('('('('''('''('('('('('(()))]}k]]}222g2222(222(2(2(2(((2(2(((((((((((((((((('('('('('('''''('((('('('(()))]}}]]](222222g(222(2(2(2(((2((((",
"2(((2(((((((((((((((((((('((('('('''('''''''('''('''2}])]}]]}2222222}22(2(2(2(2(2(2(2(2(((((('((('('((('('('('('('''''''('('''''''2}))]}]}}22222222g2(2(((222(((2(2(2(((((((('((('((('((('''('''('''('''''''('''2cv)]}]]]222g22222222(22222(((2(((((((((('((((((('('('('('''('''''''''('''''''2]))]}]}]}g(2222222(2(2(2(2(((2(((2(((((('((((((('('('('('''('('''('''('('('''2]))]g]k]}22222222g22(2(2(2(2(((2(((",
"2222(2(2(2(2(2(2(((((((((((((((('('('('''((('('('''(2]])]]]]k22}2gg}2}2222222222(2(2(2(2(((((2(((((((((((((((((('((('('('('('('('(2]))]]]]]}2}22g}2g2222(22222(2(2(2(2(2(2(((('((((((((((((('('('('('('('((((('(2iv)]]]]k}2}g}222}2222222222(2(2(222(2(2(((((((((((((((((((('('('('''('('((('(()))]k]]}]22222}g}2222(222(2(2(2(2(2(2(2(((((((((((((((((('('('('('('('('('(''()))]]]]}]22222}2}2222(2(222(2(2(2(2",
"22222(2(((2(((((((2'((((((((((('('('('('''('''('('((2}))]])}}}}2g2g2g2g2222(222(222(2(2(((((((((2'((((((((2'((('('('('''('('('('((2}))]]]]gk22g2g2g2222(2(222(2(2(2(2(2(((((2'2'((((((((((('('('('('('('('('('((20v)]})]g}22}2g22222g222222(2(2(2(2(((((((2'2'((((((((('('('('('('('((('('('((2]))]}]]g}}(g2g2ggg2g22222222(2(2(2(((((((2(2(((('((((((('('('('('('((('('('('2])))k]]}g}2}222g2g2g22(2(2(2(2(2(2(",
"222222(2(2(2(((2}2g2(((((((2(((('((((('('((((((((((((]])]]])]]2}2}2}}}}}2g2222222222(2(2(2(2(2}222(((((2(2(((('((('('('((('((((('((]))])])}]2}g}g}g}}}22222g22(222(2(2(2((((gg2g2((((((2(((('((((('((('((((((('((id)]]])]]2}ggg}g}}}2g2}9g22(2(2(2(2(2(2((2}2g(((((((2(((('((((('((((('(((((((()))]]])]]}29}g}g}g}22(22}222222(222(2(((((}2}22(((((2(((('('((('((('((('((('(2)))]]])]]}}g}2g2}}kg22g222222(222(2",
"2(2222222(2(222(2(22((2(((((2(2(('('('('((((('((((''2}))]]]])}2}}222g9}222g22(2(222222g22(222(((2(((2(((2(((((((('('('('('((('((('2]))]]]])]gg}}}922}229}2222(222(222(2(222(2(2(((2(2(2((((((s''('('('('('('((('2ci)]}]])]ggk9g2g2}g2922g22(2(2(222(2(222(((2(2(2(((2(2(((('('('('('((('(s((('2]))]]]]]]}2}}}9g2}92(22g2222(2(222(((222(((2(2(((((((2(((('((('''('((((''((('2])))}]])]]2}g}2g2}}2(22222(2(2(2222",
"22222g22(222222222(2(2(((2(2(2(((((((((((((((2(2(2(22]))])])])2}2}}kg}gg2g2}2}222222222222222222(222(2(2(2(((((('((((2(((2(((2(((22]))))])])}}}}}}}}g}9g2}2}2g222g222222(2(222(2(2(((2(((((((((((((((((((((2(2((2ic)])])])}2}}}}}}g}2}222}22222g2222(222(222(2(2(2(2(2(((((((((((2(((((((2(2(22)))]]])])]2}}}}}}2}2g2ggg2g222}222222(2(222(2(2(((2(((2(((((((((((((((2(222((2)))]]])])]}g}}k}}g}2g2g2}gg2g222222",
"}}}}}2g(g2g2g222222(222(22222222222(((((((2(((('((((2})))]]]]]]2}}k}k}}}}}}g2g}}}}22g222}2222(2(22222(2(2222222(22((((((2(('((((((2})))]]])]]2}2}}}}}}}2}2}2}}}}}2}(22}2g2g2222(222(2(222222222(((((((2(((('((((20c]]]]]]]]2}}}}}}k}}}}2}2k}}}}2}2222222222(2222222(22g(222(22('((((2(((((((((2])))]]])]]g}}g}}}}}kg}2}222}g}g}2222222222(2222g22(2(222222222(2(((((('('((((2])))]]]]])}2}}}}}k}k}}g}2}}}2}22222",
"gg2}222}gg2}922g2222(22222(2222222(}2((2(((2(((2(((22]])]]])])]]}}}]}}g}9}g}gg222}2}g}2}2g22222222(22222222222222g(222(((2(2(2(2(22]))]]]]])]]2k}}}k}}2}g}2}222gg}g}}g2}2g222222222g2222(22g(2(22((2(((2(2(2(2(22gk)]]]]])]]g}}k}}}}gg2}2g2}2g2}2}g}2g2g222}22(22222(2(2(2222222(2(2(2(((2(2(22)))]]]]])]]g}}}}}}}g}2g2}2}2}222}}}2g2g222g22222g22(2(2(2222222(((2(222(2(((22))))]]]])])}}}k}}g}g}2}g}2}2g2}9}gg",
"}2g2g292g2g2}2222(222(2(2(222(2(2(2(2(2(((((((((((((2}))]k]]]]]}g}}}k}}9}2gg}2g2g2g2}2g2g222g2222(222(2(2(2(2(((2(2(((((((((((2(((2k))]]]]]]]]g}k}}g}g}2}2g2}222}g}2}2g2g222g2222(22222(2(2(2(2(2(((2(((((((2(2(2])))}]]]]]]}gk}k}}}}2g2}2g2}2g9g2g2g2g222}222222(222(2(2(2(2(((2(2(2(((((((2(2])))k]]]]]]}9k}}}k2}g}2}g}2}2g2g2g2g2g2222(222(222(2(2(((((2(2(((2(((2(((((((2])))}]]]]]]]2k}k}}}}2}2}gg2}2g2}292",
"2}2g2}}}2g2g222222222g2222222222(2(((222(2(222(2(2(22]))]]]]])])2k}}}]}}}k}}g}}}2}g}g}2g2}2g2222222g22222}222222(2(222(2(222(2(2(22]))]]]]])])}}}k}}gk}}}}}}g}2g2}}}2g2}2g2g22222g222g22222222(2(222(22222(2(2(22)))]]]]])]]kg}k}k}}}}}}2}g}2}2}g}2g2g9g2}22222g222g2}222222(2(222(22222(2(2(22))))]]]]]])]}}k}k}}}}}}g}2}2g2}}}22222g2g222222222g2g222222(2(222(2222222(2((2))))]]]]]]]]}}}}k}}}}}}g}}}2}2}2}gg",
"}}}2}k]}}}}2g2g2}}}g2(2(2(22222(2g2(((2((22((((((22(}}))]})]]])]]}}g]}}}}}}}}}}}}2g}]}]}}2}222}}}}g(2(2(222(2(222(2((2222(2(((2(22}k)))}]]]])]]}k}]}}}}}}}}}}}}2g}]}k}k2g2g22}}}g(2(2(222(2(22}(2(((2(2(2(((((2(g])))}]]]])]]}}2k}k2}}}g}}}}}gg}]}]}}gg2g2}gk}}22(2(22g(2(2(}22(((2(g(2(2(2(2(g])))}]]]]]]]}}}]kkg}g}g}g}gk2gg]}k}}}22g222}}}22(2(2(g22(((}(2(((2(g(2(2(2(22g])))k]]]]]]]}}2}}]2}g}g}g}g}}g2k}]}",
"]]}]]]]]]]]]]]k]k]}]}k}]}]}]}]}]}]]]}}}k}}}k}}}k}}2}})))]k]]]]])]]]]]]]]]]]]]]]]k]]]]]]]]]]]k]k]k]}]}]}]}]}]}]}]}]}]}}}}}}}}}}}}2g})))]]k)]]])])]]]]]]]]]]]]]]k]]]]]]]]]]]}]]]k]kk}]}]}]}]}]]]}]}kg}}}}k}}}}}k2g}))))]})]]])])]]]]]]]]]]]]]]]]]]]]]]]]}]]]]]]]}]}k}]}]}]}]]]}]}]}}}}}k}}}k}k}2}))))]}]]]])])]]])]]]]]]]]]]]]]]}]]]]]]]}]}]}]k]}]}k}]}]}]]]}]}]}}}}}]}k}k}}}g}))))]}]]]])]]]]]]]]]]]]]]]]]]k]]]k]",
"]]]]]k]]]]]]]]]]]}]k]k]]]]]]]k]]]k]]]k]]]}]]]]]]]}}}]))))k]]]]]])]]]]]]]]]]]]]]]]]]]]]]]]]]]]]]]]k]]]k]]]]]]]}]]]]]]]]]k]k]]]k]}k}]))))]]]]])])]]]]]]]]]]]]]]]]]]]]]]k]]]k]]]k]k]k]k]]]]]]]]]]]]]k]]]k]]]k]]]}}}]))))]]]]]]])]]]]]]]]]]]]]]]]]]]]k]]]]]]]]]k]}]]]k]]]]]]]k]]]k]]]k]]]k]]]]]}]}]))))]]]]]]])])]]]]]]]]]]]]]]]]]]]]]]]]k]]]k]]]k]k]]]]]]]]]}]]]]]]]k]]]]]]]}k})))))]]]]]]])]]]]]]]]]]]]]]]]]]]]]]]",
"))))))))))))))))))))))))))))))))))))))))))])))))))])))))))))))))))))))))))))))))))))))))))))))))))))))))))))))))))))))))])))))))])))))))))))))))))))))))))))))))))))))))))))r]))))))))))))))))))))))])])))))))])))))))))))))))))))))))))))))))))))))))]]))))))))))))))))))))))))))))])))))))])))))))))))))))))))))))))))))))))))))))))))))))))))))))))))))))))))))))))))))])))))))))))))))))))))))))))))))))))))",
")))])))])])])))))))))))))))))))))))))))))))))))))))])])])))])))])))])))))))])))])])])])])))])))))))))))))))))))))))))))))))))))])])])))])))))))])))])))])))])])])])])))])))]dk)))))))))))))))))))))))))))))])])])])])))])))])))))))])))])])])])])])]))]])))))))))))))))))))))))))))))))))])])])])))])))])))])))])))])])])])])])])))))))))))))))))))))))))))))))))))))))])])])])])))])))])))])))])))])])])])])))]",
"]]]]]]]]]]]]]]])])))])])])])])])]]])])])]]])]]])]]]]]]]]]]]]]]])]]])]]])]]]]]]]]]]]]]]]]]]]]])))))])])])])])]]])]]])]]])]]])]]]]]]]]]]]]]]])]]])]]]]]]]]]]]]]]]]]]]]]]]]])))p)])])])])])])])]]])]]])]]])]]])]]]]]]]]]]]]]]])]]])]]]]]]]]]]]]]]]]]]])]]])))))])])])])])])]]])]]])]]])]]])]]]]]]]]]]]]]]]]]]]]]]]]]]]]]]]]]]]]]]]]]]])))))))])])])])])]]])]]])]]])]]])]]])]]]]]]]]]]]]]]])]]]]]]]]]]]]]]]]]]]]]]]]",
"]}]k]}]k]}]]]}]])]]k]}]]]]]]]}]]]}]}]}]}]}]}]}]}]}]}]k]]]}]]]]]]]k]]]}]k]}]]]}]]]}]}]}k}]]]}]]))]}]]]]]]]k]]]}]}]}]}]}]}]}]}]}]}]}]]]}]]]]]]]]]]]k]]]}]]]}]}]}]]]}]k]}]]]}]]o]]}]k]]]]]]]}]]]}]}]}]}]}]}]}]}]}k}]]]k]}]]]]]]]]]]]k]k]}]]]}]]]}]k]}]]]]]])))]]}]]]]]]]]]]]}]}]}]k]}]}]}]}]}]}]}]]]}]k]}]]]]]]]}]]]}]]]}]k]}]]]}]}]}]]]))))]]k]k]]]]]]]]]k]}]}]}]}]}k}]}]}]}}}]}]}]}]k]]]]]]]]]}]]]}]k]}]k]}]k]}]]",
"(222(2(2222}g}}]])}k}]}]}]}k}]}}}}}}}}}}g}}}g}}}2}g}2}2}2}2g2}2}222222222222222222(2(2222}}}})))}]}]}]}k}]}k}}}}}}g}}}}}g}}}g}g}2}2}2}222g2}2}222222222222222222(2(2222}g}])})k]}]}]}]}}}]}}}}}}g}}}g}gg2}}}2}2}2}2222222}222222(222222222222222(2222}}]))))}]}}}]}k}k}k}}}}}}}}g}g}2}g}2}g}2}2}2}22222g22222222(22222222222(222222}}]))))}}}]}]}]}}}}}}}}}}2}g}2}2}2}2}2}2g2}2g22222}22222222222222222222222222",
"'s(s(s(s(s('(2}})}g2}2}g22g2222(2(2(2(2(2(2(2(((((((2(2(((('((('('(s('(s('(s('(s(s(ss'(s((((}])kg2}gg22222}22(2(2(2(2(2(2(2(((2(((((((((((('('(s('(s(s(s(s(s('(s(s(s(s(s(2]]]]gg}g}222g2g222222(2(2(2(2(((2(((((((((('((('(s(s(s(s(s(s(s(s(s('(s(s(s(s(2)))]gg}222g2g2g22222222(2(2(((((2'(((((s((('(((s('(s('(s(s(s('(s(s(s('(s('(s(2)))]}2g2222(22222(2(((((2(((((((((((('(s('('(s('(s('(s's(s(s(s(s(s(((s(s('",
"s(s(s(s(s(s(s(}])k2}2g2g22222222(22222(2(((2(2(2(((((('((((((('(((s('(s(s(s(s(s(s(s(s(s('(s2}))]2g2}222g22gg222222(2(2(2(2(2(((((((2(((('('(s(s(s(s(s(s(s(s(s(s(s(s(s(s(s(})]](22g2g2222222g22(2(2(2(((2(((((((('(s((((('(s(s(s(s(s(s(s(s(s(s(s(s(s(s(s2]))]222}2222222g22(2(2(22((((((((('(((s(((s('(s(s(s(s(s(s(s(s(s(s(s('(s(s(s(s2]))]g2222222222222(((2(((((('((('((('(s('(s(s(s(s(s(s(s(s(s(s(s(s(s(s(s(s(",
"(sss(s's(sss((}k)}2}22222(2(22}22(g22((((((((2g(((((2(2(((2(('('(s(s(s(s(s's's's's(s(s(s's((}])}2222222(2222}222g22(((((((((2(((('2((((((((s(s(s(s(s's(s(sss(sss(s's'sss((]]]}22}2222(2222}2g222g(((((((((g(('('2((((((((sss(sss(sss(sss'sssssss(sss(s'(]))]2(2(2(2(222(}22222g2('((('((2((((s((((((((('(sss's(s(s's'sss'sss(s(s(s(s'()))]g(}(g(2(222(222(22g(('('('('22(s(s((((('((('(s(sss(sss(s's'sss'sss(s(s",
"s(s(s(s(s(s('(}])]2k222222222}}}}}222222(2(2(22}22(22}22(222(((((((('(((s(s(s(s(s('(s(s(s('(}))]2k9222222222}}}k(222(2(2(2(2(g22(222222((2(('(((s('(s('(s(s(s(s(s(s(s(s(s2])]]2}}222222222}}}k2222(2(2(2(2(2g2((22g2(2(2((s(s(s(s(s(s(s(s(s(s(s(s(s(s(s(]))]22k2222}22222}}]2222(2(2(((((222((222222(2((s(s(s(s(s(s(s(s(s(s(s(s(s(s(s2]))]g2}2222}22(22}2]22(2(((2((((((g2(((222(2(2((s(s(s(s(s(s(s(s(s(s(s(s('(",
"(s(s(s(s(s(s((}})}}}}2g2}2g222}22222g22(2(222222k222222(((((((((2((s('(s(s(s(s(s(s(s(s(s(s((}])k}}92g2g22222g22222g(222(2(2((2]}222(2(((((((((('(s(s(s(s(s(s(s(s(s(s(s(s((]]]]}9}2g2gg222(gg2222222(2(2(2(2(}}22222((((((s(s(((s(s(s(s(s(s(s(s(s(s(s(s((]))]}2k(g2gg2(2(2g222(2(222(((2(2(}}g2222((((s(s(s(s(s(s(s(s(s(s(s(s(s(s(s(s(()))]}2}2g22gg22(22222(2(2(((((((2(2}}(2(2(('(s(s(s(((s(s(s(s(s(s(s(s(s(s(s",
"(((((('(((s(((}])]}]g}2}2}29229}2}29g222222222(2g}(}22(222(2(((2(((((((((((((('((('(((s(s(s2}))]}}g}2}2g2g222}2gggg}22222222(22](222(((2(((((((2(((((('(((s(((s(((s(s(s(s(})]]}}}22}g}9g222}22g2g}2}22222((22k22(((2(2((((((((((((s(((((s('(s(s(((s(((s2]))]}}}2g}2g22222}22g22g(2(222(((2(}g(((((((((((((((((s('(s(((s(((s(((((((((s2]))]}}}g22g22222(}g22g2}(2(2(2(2(((}}2(((((((((('(((((((s((('(((((((((((((",
"(s((('(s(s(s((}])}}g}2gg}2222222}222g2222(2222g22}222(22222(((2(((((('((('(s(((s(((((s(s(s((k])]}}}2}2g2222222}(g22222222(22g22g((2(2(2(2((((((((s(((s(((s(((s(((((((s((((]]]]}g}2g2g2222222}22222222(2(222g292(2(2(2(g((s(((((((s(s(s(((s(s(s(s(s(s(s(()))]}gk2g2g22(222(}22(222(2(2(2(22(2g(((2(2(2((((((s(((s(s(s(s(s2s(s(s('(s(s(()))]}}}222g2g(2(2(g222222(2(2(2(222(k(2(((2(22(s(((s(((s(((s(((s(((s((((((",
"(((2(2(((((((2}])]}}2}gg2}222}}g2}2g2g2g29222gg}2k2g22222g}2(2(2(2(2(((((((((((((222(((('((2}))]}]}g2}2g2}22}}g}2g222g2222222}2}g2222222}9(((((2(2(((((((((((((((2(((((((2])])}}}}g}2g2g2}2}2}22222222222g2k2g}2(222(2}}(((((((((((((((((((((((((2(((((2]))]}]]2g}222g222}2g2g2g222222222}22}2(222(22](((((((2(((((((((((((((2(((((((2))))}}}}2}2g22222}2g222g222222222}22}g2222(22](((((((((((((((((((2(((2(2((",
"(((s((2s(((s((}])]}}}2g2g2}2gg}2}2g2}2g22222g22(2222222222]2((2(((2((((((((((((s((2(('(((s((}])]}}]2g2}g}gg2g2}2g2g222g222g22222g2222222}g((((((((((((('(((s(((s((2s(((s((]]]]]}}2g2g2}2g2g2}2g2g222g22(2222222(2(2222k}((2(((2((((((((s('(((((s((((((((]))]k}]222g2g2g2}g}9g2}9g22(2222222(g(22222(g}2s((('(((((((((((((((s(((((((s(2)))]]}}gg2g2g2g2}2g222g222222(222(((2(2(2(22g}2(((((((((((((((((((((((2(((",
"((22(((((((2(2}]))}]}}g}g}2}g}9}g}2}2}9}22222g2g222g2229222k22(2(2(2(((222(2((((22(((((((((gk)))]]}}g}g}g}g}g}g}2g}}2}29222}2g22229222(22]2((2(((2(2(((2(2(((((2(((((((((2])]]]k}}9}}}g}g}2}2}2gg}2222292222222222(222(}g((2(((2(((((((2(((((2(((((2(((2])))]kk}g}g}g}g}g}9}229}2g222222222222(222(2(}}9(((2(((2(((2(((2(((2(((2(((((2]))]]]}}g}g}9}g}2}g}29222}22(222222222222222(2}2(((((2(((((2(222(((2(((((2",
"gs(((s((((((22k])]]k}}}g}2}g}2}2g2g2g2}2}22222g22222g22(2(2(}22(2(((2(((((((((2(((((((((((22]])]]}kg}9g2}gg2}2}2g2gg}2g22(22g2222(222(2(2(}22(((((((((((((((2(((((((((((22]]]]]}]2}g}9}g}2}g}2}2g22222222(222(2(2(((2(2(2}((((2(((((((((('(2(s(((((((s(2)))]]}]}}2}g}g}g}2g2}g}2g2222(2(22222(2(2(222(2}2s((((((((((2((((((((((((((((2)))]]}]9}g}2g2}2g2g2g222g2g22(2(222(2(222(2(2((gg(((((((((((2((((2(s2(((((",
"(((2(((2(2(((}k])]]]}]}}g}}}gk}}}}}}2}g}g}gg2}g2222222222g222}22(2(2(2(2(2(2(((((2(2(2(2(2(}k))]]]}}}kg}g}}}}}}}}}2}g}g}g}222}g22g222222(22g22(2(2(2(2(((2(((2(2(2(((2(((}])])]]}k}}g}}}}k}}g}}}2}g}g}g}222}2222(22222(2292((2(2(2(2(((((((2(((2(2(((2(}])))k]]}}k}}}k}}}}g}}}g}2}g}2}222}222222(2222222g2(2(2(((2(((2(((2(((2(2(2(((}))))k]]k}}}}}}g}}}2}g}2}g}2}gg222g2222(9222222(292(2(((2(2(((((2(2(222(2(2",
"((2(((((((((22]])]]]}g}g}}}}}g}9}gg2g2}2g2}292g2g2g2g2g22222222(2(2(2(2(((((((2(((((((((((22]])]]]]g}}}g}}}g}g}2}g}2}2}2g2g222g222g22(2222222(2(((2(2(((((((((2(((((((((22]]]]]]]g}9}g}}}g}g}g}9}2g2g2}2g2222222g222222(222(2(2(2(2((((((((((((((((((((2)))]]]]g}}}9}}}g}g}9}2g2g2}2g2g2222292g(22g222g2222(2(2(2(((((((((((2(2(((2((2)))]]k]}}}}g}g}}}2}g}2g2g2g2}222g222g2g222222222222(2(2(2(((((((((((2(2(2(",
"(((2(2(2(2(((}}))]])]k}}}}}}}}g}}}2}g}2}2}2g2g29g}222222222222(22222(2(2(2(2(2(2(2(222(2(((}])))]]]]g}}}}}}kg}g}}}g}g}2}g}2}2g2}222222(2222222(222(2(2(2(2(2(2(2(2(2(((2(g])]]})]]g}}}}k}}g}g}g}g}2}2g9}2}29222g2222222222(222(222(2(2(2(2(2(2(222(2(((g])))k]]]g}g}}}}}}}g}g}2}g}292g2}222g22(22222(2222222(2(2(2(2(((2(2(2(2(2(2(2(}])))k]]]}}}}g}}}g}g}g}g}2g222}29222g22(22222(222(222(2(2(2(2(2(2(2(2(2(2(2",
"2(2(2(2(2(((22k])k]]]k}}}g}}}}}g}g}g}2ggg2g2g2g2g2222(2222222222222(2(2(2(((2(2(2(222(((((22]])]]]]]}}}}}}}}}2}g}}}g}gg2}222g2222222222222222(222(2(2(2(((((2(222(2(2(2(22]]]]k]]]kg}}}}}}}g}2}}}ggg}2g2g2g222222(222222222222222(2(2(2(2(2(2(222(2(2(22)))]]]]]]g}g}}}}}g}9}g}g}2g2g2g2}222g22(2(222(222(222(2(2(2(2(2(2(((2(2(2(2(22)))]kk]]]g}g}}}2}g}2}g}gg2}222g2g222222(222(222(222(222(2(2(2(2(2(222(2(2(",
"2222222222(22}k))]]]]]}k}k}k}]}}}}}}g}}}g}g}}}g}2}2g2}222}2g2g22292g22222222(22222222222(22}]))]])]]}]}k}]}k}}}}g}}}g}}}2}}}2}g}2}g}2}222}2}22222922222222(2222222(222(2(}])])k)]]}}}k}k}k}}}}gk}}}}g}9}2}g}2}2}2}g22}2g2}2g222222222222222222222222(22}])))}]]]}]}k}k}k}k}}2k}}g}g}2}9}2}2}2}2g2922292g29222}222222222222(222222222(}))))}]]]}}}]}k}k}k}}9}2}}}g}2g2}9}2}2g2}2g292g2g22222g222222222222(2222222",
"2(g22(2(222(2}]])]]]]]}}}}k}}}}}k}}9}}}2}2}9}2}2g2g2g2}2g(2222g222g22222222(222(222(2(2(2(2g]))]]]]]]}k}}}}}}}}}}g}g}g}g}g}9gg}2}2}2g2g222g2g222222222222(2(2(2(2(2(222(2g]kk]]]]k]g}}}}}}}}}}}9}g}9}g}2}g}9g2}2g2g2222222g222222222222(2(2(222(2(2(2(29)))]]]]}]}}}}}k}k}}}}g}9}g}9}g}2gg}2g2g2g222222222g2222(2222222(2222222(222(2g)))]]]]}]g}}k}k}}}}}k9}g}g}gg2g2g2g2g222}2222222g222222222222(2(222(222(22",
"222g2222222}2}}))]])]]kk}}}]}k}k}}}k}}g}g}g}g}g}9}9}2}gk9}292g2g222}2g2g222222222222222g2g9}])))])]]]k}]}k}k}}}}}}}}}}g}}}}}g}g}g}2}2]2k222}222g2}2g2g2222(2222222222g22g}]9s)])]]]k}k}k}k}k}}}k}}g}g}g}}}g}g}9}2g2k9}2g2g292g2g222g222222222222222g22g}])))])]]}]}]}k}]}}}}}}}}}}9}}}g}g}2}g}2}9}}}g22g2g2g2g2g2g2922222g(2222222292}])))]])]}]}k}k}}}k}}g}}}g}g}2}}}9}g}2}2g2}}}}}2g2}222}gg2g2222222}222g2229",
"2(2222222222g2]])]]])]]}k}}}]}k}k}}}}}}}}g}}}2gg}2}}}2g}}9}g}222}2g2}2g2g222222(22222(222(2g]))]]])]]}k}k}k}k}}}}g}}}g}9}}}g}g}g}}}2g2}}}gg2}2g2g2gg}2222(222(22222(222222]8u]]])]]}k}}}k}k}]}}}}g}}kg}}}g}g}2}}}2gg}2}}}2g2g2g2g2g22222222222222(222(22)))]]])]]}k}k}}}k}]}kg}g}}}}}2}}}2}9}g}g}2}g}gg2g2g2g2g9g2222(222(22222222222g)))]]])]]kk}}}k}k}]}}}}2}}k}}}}g}g}2gg}2g2}2}}}2g2g2g2}2}2g222222222222222",
"2gg}g}2}2}922k])))])])]k}]}]}]}k}]}]}]}}}k}}}}}}}kg}2}}}g}g}222}2}222}gg222}2}222}}}2}22222}])))])])]]k]}]kk}]}k}]}k}}}}}}}}}]}}g}gggk}gg}2g2}2}2g2}2}2g2}2g222}g}gg22g22}]82)])])]]}]}]}k}k}]}k}]}}}k}k}}}}}}gg2}g}gg2}2g2}2}222}222}g}2}2g2}g}2g2g222}])))])))]]}]}]}]}}}k}]}k}k}}}k}}2}}}}}2gg}g}2}gg2}2}2}2g2}222}2g222}g}gg2g2}2}))))]]])]]}]}]}]}}}]}k}]}}}k}k}}}}}k}}2}2}}}g}2g2g2}2g2}2}2}2g2}222}g}2}gg",
"g2}g}gg2g2}2}g]])]]]]])}}}]kk}k}]}k}}}k}}}k}}}}}}}}2}2}2}2}g}2}2}g}2}g}2g2g222g2gg}2g2}2g2}g]))]]])])}}}kk]}k}]}k}}}}}]}k}k}}}}gg2}2}g}2}}}2g2}g}g}g}2}2g2g2g2g2}2}2g2}2gg]))])]]])}}}kk]k]}}}k}}}k}k}]}}}}g}}}2}g}g}2}g}2}2gg}2}g}2}gg2g222g2}2g2g2}2gg)))]]]]]]]}}kk]}k}]}k}}}}}k}k}k}}}}g}2}2}g}2}g}2g2gg}}}2}2}2}222g2gg}2}2g2g2gg)))]]]]])]}}k}]}]}k}]}}}}}k}k}}}}g}g}2}2}2}g}2}gg2g2}g}2}g}2}222g222}2}2g2",
"}}g}}}9}2}2gg}k)))])])]]}]}]]]k]kk}]}}}]}k}]}k}]}k}k}k}k}}g}}}}}g}}k}}}kg}g}g}2}}}g}g}2}g22}])))])])]]}]k]k]]]}]}}}k}]}]}k}]}}g}g}g]}}}}g}}k}}9k}}}}}}}}}}g}2}g}ggg}2}9}2}])))])])])k]k]]]k]}]}]}]}]}k}]}]}k}k}k}k}}}}}}}k}}g}}}}}}k}}222}2}g}}}2}2}}g2}])))])])])}]kk}]k]}]}]}k}k}]}]}]}}}k}k}k}}g}}}}]}}g}}}}k}}gk}}2}g}g}}}g}2gg}2}])))]]])])]]k]k]k]}]}]k}}]}k}]}k}k}}}k}k}k}}2}}k}}g}}}}}}k}}g}2}g}g}}}2}2}",
"}2}2}2}g}2}2}}]])]]]]]]]]}k}]}}}}}}}k}}}k}}}k}}g}}}g}9}g}2}2}2}2}2}g}2ggg9}2g2g2g2}g}2}g}2g}]))]]]]])]]}]}}}]}}}k}}}k}}}}}}}}}}}}g}9}}}g}2}2}2g9}gg2g2gg}222}2g2}2gg}2}2gg]))]]]]]]]]}]kk}]}k}}}k}k}}}}}}}}}}}}g}2}}}g}9}2g2g9}9}2g2}2g2g2g2}g}2gg}gkgg})))]]]]])]]}]}}}k}k}k}}}k}}}}g}}}}}g}g}g}g}g}2}2g2g9}g}2g2}2gg}2g2ggg2}g}g}}g})))]]]]]]]]}k}]}k}k}}}k}}}k}}}k}}}}g}}}9}9}2}9g2}9}2}g}2g2}2}2g2g2g2g2}g}9",
"}}}}g}g}g}g}gk])))])])])]]]]k]k]}]k]}]}]}]}]}]}}}]}k}k}}}k}}}k}}}k}}}}g}g}}}2}}}}}}}2}g}g}gk])))])])])]kk]k]k]k]}]}]}]}]}]}]}]}k}]}k}]}}}k}}g}}k}k}}g}g}2}9}}}}}2}g}g}g}2}])))])])])]]k]}]k]}]}]}]}k}]}k}]}k}]}k}k}k}k}k}}}}}k}}}}}}g}g}g}g}g}}}2}}}2}g}])))])]]])]]}]k]}]k]}]}]}]}]}k}]}}}k}k}}}]}}}}}}}}}}}}}}g}}}gk}}2}g}g}g}g}}}2}))))]]])])]]}]}]k]k]}]}]}]}]}k}]}}}k}k}k}}}k}k}k}}}}}}}}}}g}}}g}g}g}g}g}g}",
"}2}g}2}2}2}g}}]])]]]]])])k]}]}]}}}k}}}]}]}k}]}]}}}}}}}}}}}}g}}}}}}k2}g}9}2}2}g}2}g}2}2}2}g}}]))]]]]])])k}k]}]}k}k}k}}}]}}}]}]}}}}}k}k}k}}}}g}}}}}}}g}g}g}g}2}2}g}2}2g2}2}}]))]]]]])]]]k}kk]}}}k}k}k}]}}}k}]}}}}}k}k}k}}g}}}g}}}}}g}2}g}2}g}2}}}2}2}2}g}})))]]]]]]])]}}]}]}k}k}]}k}]}}}k}k}}}}}}}}}k}}}}}}}}}}}}g}2}}}}}2}}}}}g}2}2}g}}))))]]]]]]]]]}]}]}k}k}k}k}k}}}k}]}}}}}}}}}}}}g}}}}}}}}}g}2}}}g}2}g}}}g}2}2",
"}}}k}}g}g}2}}]]))]])]]])]]k]])]]]]k]]]]]]]}]]]]]]]}]k]}]k]k]}k}k}k}k}k}]k]}}9}g}}}g}}}g}}}}]])))])])])]]]]k)]]k]]]k]]]k]k]])]]]]k]}]}]}]k]}k}k}k}k}k}]}]}}g}}}}k}}g}g}g}}k])))])]]])]]]]])]]]]k]]]]]]]}]]]]]]]k]k]}]k]k]}k}k}}}k}}}]k]}}}gg}g}}}}}g}}}g]))))]]]]])]]]]}]]]]]]]k]]]k]}]k]]]]]]]}]}]}]k]}k}}}k}k}k}]}]}}}}}}gk}}g}g}g}}k])))]]]]])]]]]]]])]]]]]]]]]]}]}]]]]]]]}]}]}]k]}}}k}}}k}}}]}]}}}}g}9}}}}}g}",
"]k]]]k]]]k]}k})))]]]]]]])]]]]]]]]]]]]]]]]]]]]k]]]]]]]]]]]}]]]]]]]]]]]]]]]]]]]]]]]k]]]k]k]}}})))]]}]]]])])]]]]]]]]]]]]]]]]]]]]k]]]]]]]]]]]}]]]]]]]]]]]]]]]]]]]]]]]k]]]k]}k})))]]}]]]]]])]]]]]]]]]]]]]]]]]]k]]]]]]]]]]]]]]]k]]]]]]]]]]]k]]]}]]]}]]]}]]]}}]))))]}]]]])])]]]]]]]]]]]]]]]]]]]]k]]]]]]]]]]]}]]]]]]]]]]]]]k]]]]]]]]]}]]]]]}k]))))]}]]]])])]]]]]]]]]]]]]]]]]]]]]]]]]]]]]]]]]]k]]]]]]]]]]]}]]]]]]]k]]]k]]",
"])])])])])]]])))))))))))))))))))))))))))])))])))])))])])])])])])])))])])])])])])])])])])]]])))))])))))))))))))))))))])))])])])])))])])])])])])))])])])))])])])]]])])])]]])))))))))))))))])))))))))])])))])])])))]kk)])])])])])))])])])))])])])])])])]]])))))))))))))))))))))))))])])])])])))))])])])])])])))])])])))])])])])])])])]]])))))))])))))))))))))))))))])))])])])))])))])])])])])))])])])])])])])])])])",
")))))))))))))])])))])))))))))))))))))))])))])))])))))))))))))))))))))))))))))))))))))))))])])])])))))))))))))))))))))))])))])))])))))))))))))))))))))))))))))))))))))])])])])))))))))))))))))))))))])))])))])))))cp))))))))))))))))))))))))))))))))])])])))])))))))))))))))))))])))])))])))])))))))))))))))))))))))))))))))))))])])])))])))))))))))))))))))])))])))])))))))))))))))))))))))))))))))))))))))))])]",
"])])])])])])])])]]])])])])])])])])])]]])]]])]]]]]]])])])))])])])))])])])])])])])])])])])])])]]])]]])])])])])])])]]])]]])]]]]]]])])])))))])])))])))])])])])])])])])])])])])])]]])])])])])])])])])]]])]]])]]])])]))0q)))])])])))])])])])])])])])])])])])])]]])])])])])]]])])])]]])]]])]]]]])])])))))])])])))])])])])])])])])])])])])])]]])])])])])])])])])]]])]]])]]])]]])])))))))])])))])))])])])])])])])])])])])",
"]]]]]]]]]]]]]]]]]]]]]]]]]]]]]]]]]]]]]]]]]]]]]]]]]]]]]]]])]]]]]]]]]]]]]]]]]]]]]]]]]]]]]]]]]]]]]]]]]]]]]]]]]]]]]]]]]]]]]]]]]]]]]]]]]]])))]]]]]]]]]]]]]]]]]]]]]]]]]]]]]]]]]]]]]]]]]]]]]]]]]]]]]]]]]]]]]]]]]]]]]]]]]]cq))]]]]]]]]]]]]]]]]]]]]]]]]]]]]]]]]]]]]]]]]]]]]]]]]]]]]]]]]]]]]]]]]]]]]]]]]])))))]]]]]]]]]]]]]]]]]]]]]]]]]]]]]]]]]]]]]]]]]]]]]]]]]]]]]]]]]]]]]]]]]]]]]]]]])))))]]]]]]]]]]]]]]]]]]]]]]]]]]]]]]]",
"}]]]}]k]}]k]}]]]}]k]k]]]]]]]}]k]}]k]}]}]}]}]}]k]}]]]]]]))]]]]]]]]]]]]]]]]]]]}]]]k]]]}]k]}]k]]]k]}]]]]]]]}]k]}]}]}]k]}]k]}]}]}]}]]]]])))]}]]]]]]]]]]]]]]]k]k]k]]]}]k]}]}]}]]]}]}]}]]]]]]]}]}]}]k]}]}]}]k]}]}]}]]]]iq))]k]]]]]]]]]]]]]]]]]}]]]k]k]}]k]}]k]k]k]}]k]]]]]}]k]}]}]}]}]}]}]}]}]}]}]]]]))))]]]]]]]]]]]]]]]]]k]]]}]]]}]}]}]}]}]]]}]}]}]]]]]k]}]k]}]k]}]k]}]k]}]k]}]]]))))]]]]]]]]]]]]]]]]]]]]k]k]k]k]}]k]",
"}}}}}}}}}}}g}}}}}g}2}g}2}2}2g2g2g2g2g2g22222g2g2g2}2}}])]}]}]}]}k}]}}}}}}}k}}}}}}}}}}}}}}g}g}}}g}2}2}2}2g2g222g2g2g2g22222g2g2g2}2}})))}]}]}k}k}k}k}}}k}}}}}}}}}}}}}}}}g}2}g}gg2}2}2g2g2g2g2g2g222g222g2g2g2g2}g}ip)]}]}k}]}k}]}}}}}}}k}}}}}}}}g}}}g}g}2}}}222}2g2g2g2g22222g222g222g2g2g2g2g}k])))}]}k}k}k}k}k}}}k}k}}}}}}g}g}g}g}2}2}}}2g2g2g222g2222222g222g222g2g2g2g2}gk))]]}]}}}k}}}k}}}}}}}kg}}}2}g}g}2}2",
"}}g}2}g}2}g}2}2g2g2}2g2222222229222929(9292929292929g]])]k}]}}}]}}}k}}g}}}g}g}g}2}2}gg2}2g2g2g2}222g22292929292929(9(92929(9222929g]))]k}k}]}}}}}]}}}}g}g}g}g}g}2g2}g}gg222g2g2922292229292929(929(92929(9(929(9giq)]}}k}k}}}}}]}}}}}}g}9g2}2g2}2g292}29292g222929(9(9(929(9(9(9(9(929(9292929g)))]k}k}k}kg}}k}k}}2}gg2}2}2}2g29222g22292929292929(9(9(9(92929(929(929(92229g)))]]g}}}g}}}gk}}2}2g2}2g2g2g222222",
"}2}2}2}gg2g222g2g2g2g2222222222(222(9(2(9(2(9(9(9(9(g}])]}}}k9}}}}}}}}}g}}}}}g}2}2}g}2g22222}2g2g2222(229(222(9(9(9(9(9(9(9(9(229(g}))]}k}}}}}}}}}}}}g}}k}}g}2g2}2g2g2g222g2g2g2922222229(2(9(9(9(929(9(9(9(9(9(g0q)]9}}k}}}}}}}}}}g}2}gg2ggg2g2}222g222g222222(9(9(9(9(9(9(9(9(9(9(9(9(9(9(9(g])]]}}}}g}g}g}}}}}2g2}}}9g2g2g2g2g2222(229(22929(9(9(9(9(9(9(9(9(9(9(9(9(9(2(}]))]}}}k}}g}9}g}g}2g2}}}2g22222g222",
"g}g}2}}kg}g}g}}}g}g}}}292929292929292929(929(929(92gg]])]}]]}k}}}k}}}]}]}k}}g}g}2}g}g}2}2}g}}}g}g}2}292929292929(929(929(929(9292gg]))]}}k}k}k}}}}}]}]}}}}g}g}g}2}g}g}gg2}}}g}g}2}292929(929(929(929(929(929(929giq)]}}]}k}}}}}}}]}]}}}}2}2}2}2g2}}}2}2}}}2}2}g}29292929(929(929(929(929(929(9g)))]k}]g}}}}}}}g]}]}}}kg}2}2g2g2}}}g92}g}g}2gg}99(929(929(929(929(929(929(929g)))]]}]}k}}}}}}g]kk}k}}}}2g2g292gg}",
"}g}9}2}2k}}g}}}}}2g9}2g2g2g22292229(929(9(9(9(9(9(9(g}])]}]}}}}}}}}}}}}}kg}}}}}g}g}2}2}}}2}}}}}222}2g2g2229(9(9(9(922(9(929(9(9(9(g}))]}k}k}}}kg}}}}}}]g}}}g}g}2}2}2}}}g}}}}}2g2g2g2g2929(9(929(929(9(9(9(9(9(9(gip)]}k]}}}}k}}}}}k}]}}}}2}2gg}2g2}}k2}}}}}2g2}2222(929(929(9(9(9(9(9(9(9(9(9(}]))]}}}}g}}]g}}}gk}]}}}}2g2}2g2g2g}k2g}}}}292g222229(9(9(9(9(9(9(929(9(9(9(9(g]))]}}}k}}gk}}g}}kgk}}g}2}2g2g2229}",
"}}}k}}}}}]}k}}g}g}2}2}2}9}2}9g2g29gg9g2g9929292g2929g]])]]]]}]}]}}}k}k}}}}}]}}g}}}g}}}}]}}}}g}g}9}g}2}2}2g292929292g2929292g292929g]))]]k]}]}k}k}}}]}}}]}k}}g}}}}}9}gk}}}}g}g}2}g}2}gg2g2929292g2929292g29292929giq)]]}]}k}]}k}k}k}}}}g]}}g}g}g}g}gkk}}}gg2}2g2}2g2ggg29292929292929292g292g299)))]]}]}k}}}]g}}k}kg]}k}}}}g}g}9}}}k]}}g}2}2g2g2g2g2g2929292g292g29292g2g2g29g)))]]}]}k}]}kgk}}}kgkg}}}g}g}g}g}g}",
"}}}}}g}g}}}g}g}}}g}g}2g2}2g2g2g2g2g29(g29292g2g2g(9(g}])]}}}}}}}}}}}}g}}}}}}}g}}}}}}}2}}k2}g}2}g}2}2g2g2}2g2g2g2g222g29292g292929(g}))]}]}}}k}}}k}}}}}}}}}}}}g}}}}}2}}]2}2}2}9}}}2g2g2g2g292g2929(g29(92g222g29(}0q)]}k]}}}}k}}}k}}}}}}}}}}g}9}g}2gg}9g2g2}g}2g2g2g2g29292g2922(929(9222g2929(g]))]}k}}}}}}}}}}g}}}}}}}}}2}2}2}2}2}}gg}2}2g2}2g2g2g2g222g222g(929(22g2g2g2g2}]))]}k}}}}}k}}}}g}}}}}}}g}}}2}g}2g2",
"}k}}}]}]}}}}}]}}}k}kg}g}2}g}2}g}2}gg292g2}}}}}gg299g}]])]]k]}]}k}]}k}]}]}]}k}k}k}k}]}k}}k}}}}}}}}]g}2}g}2}g}2}gg2g299}2}2}gg2g2929}]))]]k]}k}]}k}k}]}]}k}k}k}k}}}k}k}}}k}}}}}k}]g}gg2}gg2}2g2g99299}2gg}2}2g2g29}iq)]]}]}]}k}]}}}]}k}]}}}k}}}k}}}]k}}]g}}}g}}]}g2}2}2ggg2g9g2g292}g92}g}gggg29})))]]k]}k}]}k}k}k}]}}}k}k}}}}g}}k}k}]gk}}}}}}}}2g2g2gg}gg2ggg292g29g}2}gg2g29})))]]}]}]}k}]}k}k}}}}}}}k}}g}}}}]}k",
"}}}}}}}}}}]}}}}}}}kk}g}2}g}g}2}2}2g2g2g2g2}g}gg2g2g2}}))]}]}k}k}k}k}k}k}k}k}}}k}}}}}}}k}k}k}}}k}}]k2}2}2}gg2g2}2g2g29292g2}2}2g292}}))]}]}k}k}k}k}k}k}k}k}k}}}}}}}}}}}k}}}}g}g}}k2}2}2}2g2}2g2g2g2g2g2g2}2}2g292}ip)]}]]}}]}k}k}}}k}k}k}k}}g}}}}}}k}}}k}}}}g}}]2g2}2g2}2g2g2g2g2g2g2gg}2g2g292}])))}]}k}k}k}k}}}k}}}}}k}}}}}}}}2}}}}}}}g}}}}]}}2g2g2}2g2g2g2g2g2g2g9}g}2g2g2}]))]kk}k}k}k}k}}}]}k}k}}}}g}g}g}2}}",
"}k}k}k}}}}}}}}}k}}}]}}g}}}g}g}g}}}g}g}2g9}2}g}2}g92}}]])]]}]}k}]}]}]}k}]}k}k}k}k}}}k}k}k}k}k}k}}}]}}g}g}}}g}g}g}gg2}gg2}9g2ggg2ggg}]))]]k]}]}k}]}k}k}k}k}k}]}k}k}}}k}}}k}}}k}}g]]}g}}}g}}}2}g}2}gg2}gg9gggggggg}}iq)]]k]}]}]}]}]}k}]}}}]}k}}}}}k}}}}}}gk}}}}g}k}9}g}g}g}g}2}gg2}gg2gg9g}gggg2g})))]]}]}]}k}]}k}k}}}]}]}k}}}}}}}}g}g}g}}}}}g}]kg}2}g}g}g}g}g}2}2g9gggg}g}g}2}})))]]]]kk}k}k}]}}}]}k}]}k}k}}}}}}}}",
"}}}}}}}}}}}}}}}}}g}}]gg9}ggg}2}g}g}g}gg9g9g2g2g2}2gg}k]))]]}k}k}k}k}k}k}k}}}}}}}}}}}}}}}}}}}}g}g}2k}}2}g}g}g}2g9}2gg}9g9}2g2g2g2g9}]))]]]}k}k}k}k}k}k}}}}}}}}}}}}}}}}}}g}}}}}}}}k}}9}2}9}2g2g2}g}2g2g2}9g2g2}2gg}0p)]]]kk}k}k}k}k}}}k}}}k}}}}g}g}}}g}g}}k}}}}2}}k2g2}2g9}2g2}2}2}2g2}g}2}2g9g2}]))]]]}k}]}k}k}k}k}}}}}}}}}}g}g}}}2}g}}}g}2}g}}k2g2}2}2g9}2}g}2}9g2}g}2g2}2g2}])))]]k]}}}k}k}k}}}}}}}}}}g}}}g}g}g",
"}]}k}k}]}]}k}]}k}}}}}k}}}}g}g}g}g}}}}}gkg}}}g}g}ggg}}]])]]]]}]k]}]k]}]k]}]}]}]}k}]}}}]}k}]}}}k}}}}}kk}}}g}}}g}g}g}}}g]ggg}g}g}g}g}}]))]]]]k]}]k]}]}]}]kk}]}k}]}k}k}k}k}}}k}}}k}}}kk}}}}}g}g}g}g}}}}}}}g}9}g}g}g}}ip)]]]]}]k]}]k]}]}]}]}]}]}k}]}}}k}}}]}k}k}}}}}}k]g}g}g}g}g}g}}}g}}gg}g}g}}}9}})))]]])k]}]}]}]k]}]}k}]}]}]}k}}}}}]}k}}}k}}}}g}kkg}g}g}g}g}g}}}}}}}g}g}g}}}g}})))]]]]}]}]}]}]}]k]}]}}}]}k}]}}}k}k",
"}}k}}}k}k}k}}}}}}}}}}}}2}}}}}g}2}g}2}g}ggg}g}g}2}gg2}]))]]]}k}k}k}]}k}]}k}k}}}k}}}k}}}k}}}k}}}}}}}}}}}}g}}}9}g}2gg}2g2}2gg}2}g}2gg}])))]]k]}k}]}k}]}k}k}k}k}k}k}}}}}}}}}}}}}}}}}}}k}}}}}}2}2gg}2}g}2}ggg}2}2}g}2}ip)]]]]kkk}k}]}k}]}k}]}k}k}}}}}}}k}}}}g}}}g}}}}}}}g}}}9g2}2}2}2}2}2gg}2}g}gg9}])))]]]]}k}k}k}k}k}k}k}k}}}}}}}k}}}k}}g}}}g}}}}}}}g}g}g}9g2}2}g}2}g}2}g}g}g}2})))]]]]]}]}}}k}k}]}}}k}}}k}}}}}}g}}",
"}k}]}k}k}k}k}}}]}k}k}k}}}}}k}}}}}}g}g}g}g}g}}}g}g}g}}]])]]]]}]}]}]}]k]}]}]}]}k}]}k}]}}}]}k}k}k}k}k}]}}}}}}g}}}g}g}g}g}g}g}g}g}g}g}}]))]]]]}]}]}]k]}]}]}]}k}]}k}]}k}k}k}k}k}k}}}}}k}}}}}k}}}}}}g}g}g}g}g}g}g}g}g}}iq)]]]]k]}]k]}]}]}]}]}]}k}]}k}]}k}k}k}k}}}k}k}k}}}}}}}}}}g}g}g}g}g}g}g}g}g}g}})))]]])}]k]}]k]}]}]}]}k}]}k}k}k}k}k}k}}}}}}}k}}}k}}}}}}g}}}g}g}9}}}g}g}g}}}g}})))]]])]]}]k]}]k]}]}k}]}k}]}k}]}}}k",
"k}}}k}}}}}}}k}}}}}}}}}}}}g}g}g}g}2}9}g}gg9}g}g}g}9}gkk))]]]]]}]}]}k}]}k}k}k}k}k}k}k}k}}}k}}}k}}}}}}}}}}g}g}g}2}9}9}g}gg9}g}g}2}9}g}]))]]]]]}]}k}]}k}k}k}]}k}k}}}k}}}}}}}}}}}k}}}}}}}}g}g}9}g}2}g}2}g}2}}}g}g}2}g}0t))}]])}k}]}k}]}k}k}k}k}}}k}}}}}}}k}}}k}}}}}}}}}}g}g}g}g}9}2}9}9}9}}}g}g}g}g}]))]k]]]k]}k}]}k}k}k}k}k}k}k}k}}}}}}}}}}}}}}}}}}}}g}g}g}g}9}9}9gg}2}g}g}g}g}gk])))k]])k}}]}k}]}k}k}}}k}k}}}}}k}}}"};
