/* XPM */
static char * 4_xpm[] = {
"400 400 66 1",
" 	c None",
".	c #000000",
"+	c #F9F4EB",
"@	c #F4E8DB",
"#	c #E6D7CB",
"$	c #F2E0D3",
"%	c #D0BDAD",
"&	c #857A73",
"*	c #24201E",
"=	c #544D49",
"-	c #BAABA1",
";	c #AE9E96",
">	c #B4A59B",
",	c #D5C6BA",
"'	c #CCBCB1",
")	c #C5B4AA",
"!	c #D2BEB5",
"~	c #E1CFC3",
"{	c #EFDCCF",
"]	c #6A615B",
"^	c #000000",
"/	c #41413C",
"(	c #ADA298",
"_	c #BFAE9E",
":	c #BFAEA6",
"<	c #3D3733",
"[	c #8F847B",
"}	c #A3968D",
"|	c #736A63",
"1	c #978C83",
"2	c #49433F",
"3	c #9E8E86",
"4	c #363737",
"5	c #BDB3A9",
"6	c #A89C92",
"7	c #9D9289",
"8	c #E7DED2",
"9	c #7B716B",
"0	c #605953",
"a	c #D8D2C7",
"b	c #7D7D7C",
"c	c #C3C3BD",
"d	c #E5E5E2",
"e	c #6B655F",
"f	c #BCBAB3",
"g	c #AEAEAE",
"h	c #989792",
"i	c #878783",
"j	c #8F8E8C",
"k	c #B2B0A7",
"l	c #A9A8A1",
"m	c #5C5B5C",
"n	c #A09E9C",
"o	c #6D6D6C",
"p	c #414141",
"q	c #92928D",
"r	c #61615B",
"s	c #A2A29B",
"t	c #767571",
"u	c #71716C",
"v	c #82827B",
"w	c #DEDEDB",
"x	c #606262",
"y	c #A2A2A2",
"z	c #B2B2B1",
"A	c #FFFFFF",
"+@#$+@$@@@@$+@++@%&*=-;>,',)!%!!!!!'~%!,)'!,,~~,''!,)#,~~~,~~)#~{~$$$$$$$@@$@@@+@{+@$@$$+@+@++@)]^/(-&!_!':'''',~;,,,,)),,,~~,),%~:!#~~,,~~'{~$$#$$@@@@@@@+@+@+{++@@+@@@+@+++_*^<>-;'),,',!'!%~>'~,!',~~~~~~,!)~~!{%,,{~~,~$+@{@@@$@@@@@+@+++$+++@@$+@@++++[^^<}:};,,'),,'''~)'~~,,##,#~,,!%!#{;{,{~{,~~,@@@@@+@@@+@+@+@+++@@++@+$@@+@@@+|^^<1)>',,,!,,,~!~!)~!,#%,,#~{${%,!{'{~${{#{$!@@@@@+@+@+@+++@+@+@$@+@@@",
"@@+@++{{$$@+++@+$%&*2>3>''%,!'!~,)!!,!,~,,!,,~~~'~'~%%!,,~,#~:,$$$${#{#@$+@+@@@++@@+@{@@$@++++@)]^<;)[!!!!'!',,'!'),,,!,,,,~~~',>,-;,,,~#~~)_$$@{$$${{@+@@@+@+++@+@$@@$+++++@)*^<3;;!!',,,',,!)')~,,,~,~~~~~,!)##),~~~~##~_@@+$@@@$+@@@+@+@+++@++@$@@+@+++@3^^4156>,'!!,'!,,)~)~,,!~~~,#~~,',##3%~{{#{#{}{@+@+@@$@@+++@+++++@+++$@$@@+@+@|^^41_75,%,,,%~~~),,~,~~#~~~##{#,,%#,'~{{#{$$'~@+++@@$@@+++++@+++@+++{@",
"$$@$+@+$${@@@++@$_&*/;[3!>)')_)%!)-))'!,!'!,,,~%%!~,'>,,~,~,~6)$$$$#{{$${$@$@@@@@@@@+$${+@@+++@_]^<3-&,)'')_),~'-,!)!''%,,,,~,!%!,,>#~~,~,~>3$$$$$@{{$@@@@@@+@++@++$@@@@++++$>*^<[;3'!'''')%~!__)',))!~,~~~,~~~~~>~~#~~~~,}8+$$@@@{@@@+@+++@+++++++$$@+@++@&^^<&>}-'))!))%,):''%!',~!,~~~~,,~~#,~~{###{~1,+@@@@@@@@@+@+@+@++++++@@$@+@++@]^^<&>3>,))!))',,,_'!~,~,~~~#{{,~##{,)#{{$${{-_+++@@@@$@@+@+@+@+++@++@$",
"{@@++#$+@@@+@+++@%9*4631'':)))_%'):)),!)'%%~,~,,,,,,~~~,,~~{~,1,@@{$@@{$$@@$$@$@@++$#+@+++@+++$)0^<[>[!'_))):)'')%'!,%''!,~~!~,~,{###~#{~{~{-'@@$@@@@+$@@+@@@+++++#+$@++++++@:<443>[:,))'':)'%))'%,):~,,~~,#,~{#~{{~~@{@#{(>@+@+@+@@@+++++@+@+++#@++@+++++@[^^4[63-''%'))%%%)%''!,~#!,~~~{##~~~{{{~##@{{a>8+++@++@@+++++@@@+++8$++@+@+@+@|^^*&;;},!))%'),~'%'!~~),,~#{{##{{{#$$@{{{@@@,6a+++++++++++@+@@@+++@{@@",
"$$@,@@#@@@@@@@@$$)9**93[)_))'_-:)))'!%!'%',!,,~,~!~,#~~,,,~~{~!-,{$${$$$@@@@{{$$+@@@{@@@+@+++$$_]^<0&[!)-))):-:_:5')')'%%%,,~~~,~~~~#,~~#~#$#)5$@${$@@@@@+$$@@+@#++@+++@+@+@{>bc<]7&_):-:))::-))!)'')!,,,,~#~~#~~~{#,#$${$~':#+@@@@@+@+++$@@@+#++@+++@+@+@$&^^40|&))')))))))'',%!,~,,,,,###~~,#~${##$$$@+~-a+@@@+@+++++@@@@+#d+$+@@@+@++$]^^*9[3}'))'')_%'!!,,,,,,,~~~${{{##{$@$##$@@@@#)c@@+@+@+++++$@@@@+@+@@@",
"~$@@++@@@+@+@+++~>|*4|&7::)'))-'55:))'_'!!!,,~~~,,,~~~~~~#~#~~~#)~$##$@@@@@+@{~{++@+@@@+++@+++#>0^*99['')'))>>-)5)'))!'!,,,~~~,~'~~~~#,##{#{#{'#@@$@@@@+++@@#{++$+++++++++++#6ec*999:):f)):--:),!)',',,~,~,##~,##~~{#{{$$$$$~'@+@+@+++++++{{$+@+++@+++++++{9^^*|9|)):')'))'')'''%~,~~~~~~##{~{{$$$@@@@$${{{)@+++++++++++@{$+@+++@+@+++@+$0^^*&9[6':''')'!''%'c,,~~,~~##${$#{{$$@$@@@@$@@@%~+@@@+++++++@{{++++@$+",
"@@+@+@+@@@+@++++{;|**&|1)>)::_->)))_))))''',,!~!,,,!'!!!~~{##,,~~~{{{{@@@@+@@@+++@+@++++++++@+{60^490&'-))):-:)))_':5)''!!,!,,,,~,,,~,~,{$$~~~#@+@@$@$@@+++++++++++++@++++++$}=g*&9])))))))_)):_!)''!!~,~,,,~##,~##,$$#~{$@{$@$@+@@$@@+++++++++++++++++++@$|^^*]90))(5))):'))'!),,~,,,~,,~#{{~#{$,$${#$$${@${@+@@++++++++++++++++++@+++@@=^^*|3|6!-)'))_)',!!!,,,,~!#~#{##{###$~{$@@@@{{@$$@+@+++++++++++++@+@+@",
"@+@@++@+@+++@+@+{-|*4[|]}-:5:)--5%))):)'',!,,%',,~~,!~~~~~#{##~##${@$$@$$+@+@+@+@+@+@+++++++++$;0^*[]|}):)::---'))!!)%',!~,,,~!~,#~~~####{###{{@@+@@$@@+@+++++++++++++@+++++$;*h*&90&5:))':)5)))',',',,~,~~,,###~{##{${{#{{${@@@@+@@++++++++++++++++++++++$&^^*&&][-))))))>%'%!!,~~~,~~~##,{{{~{$@$$$$@+@@@@@@@+@+++++++++++++++++++++++{]^^*9[9e;:))f):5!,,!,),,~#~~#,~#{$@{{$$$@@+@+@@@++@@+++@+++++++++++++@+",
"$@@$@$@{$$@@@@@@$;]*/&e<|))5)):>;_'):-))'')',''!,,,!~,~,~~~~#~#~~,~###$#${@#@@@@+@@@+$@@+@+@@+@;0^*1==<:):::--(_!)))))'%'%,,,!,,,~~,~,#~#,~~##~~{$$$@{$$@$@@+@+@@++@+@+++@+@$}*i*[|0<})-)--_>-%)))')!''',,~!,!,~~,~~{~{##~{{##@$@@@@+@+@+@+++++++@@@@@+@+@$9^^*[&=2&,:):)_--'''',),,,%,~~,~~#~~#{{${@${$$@@{$$@@@@+@@@+@+@+++@+@@@@@@@+@@0^^*9[92]')')!5)>!,!)'!,,~,~~~~{#$#{$$$@$@@@@@@@$$$@@@@@@@@@@+@+@+@+@@@",
"$@@@+@${${@@@+@@{-]*<&=]9:)>-):--;_'')!'))')!,'f',c,,,!,,~~#~#~#~#~####@$@$@$@$+++@+@@@+++@+++{>=^*1=|e;>>>->>)-:)'!)))))',~'!!,,~,~,~!~~~~##~,{,{${$${@@@@+@+@+@+++@+@+++++8;*i*j0|]7>:55>>:-))'!))''''!~c,,~!~~#~#~##{#{{{{@{@@$$$@+++@+@+++++++@+@+@+++8&^^^[|]]3>)-5-:-;;)c,'!!,,,!~,~!~,~~{#{#{$$$$$@@@@@@+@@++@+@+@+++++++@+@+@@@+$0^^*&&]|&-'-)):5'>'!~c,,~,~,{#~,~##{{{{{$@@@@@@@@@@@@@+@+@+@+@+++@+++@@",
"$$@$+$@$+@+$++@$~6]^42/&|656>:(>:>-::'')5_'_'!!'!!!!,!,,,,#~#~#~~~###~{{#$$$@@@@+@+@@@+@@@@@+@#32^4&=]|1'((--:5>-::'')f)):''!'!!'!~!,,,~##~{{~####{{${#$@@+@+++@+++@+@++@@+@#3*b*&<][&;:>:-;>>5)-'')'!,)''!',!,,~,~~~~~$~${$@$$$$$$$$@@@+++@+++++@+@+++@+@#|^^*9|=&e))>k->_--)))!c!)'!,,,,~~~~##$${#{@#$$$@@@$+@@@@@@@+@+@+++++@@++@+@+@{=^^*&e<3&})>-f>:)))')~!,'!,,~#~~~{~{#{#{{$@@$@@@@@$@@@@@$@@+@+@+@+@+@@@",
"{@$$+@~$@@@@$+~,#;0**2<0;]>>(->>-----':':5)')''!'!'!!~,~,~-~-{#~####~~~{{$$@$@@+@@@@{@@+@@@@$~#;2^*&<=69>>>->->>>5-::)-))f''','!',,,,~~~!{'{#~#{{{#{{@$@@+@@@+@+++@@@+@+@+@,~(*i*]/<}[3'-_l->6>-;:)):))')''~',,~~~~#~{!~'~@#$@$$$$$@@+@+@+@@@++++@++@+++@{~&^^*&0<[11l>5:)>--)-))'!,!,!,!~!~~##{{${{#~~~@$@+@@@@{$@+@+@+@+++@++$$+@@@@@{,]^^^19<]:|)>:)5-):))),!!%',,~,~~~#~~{{$$${'#'@@@+@@@@$$@+@+@+@+@+@+@$$@",
"${@$@$$$@8@$$@@$#}0^****]]:;(}}};6}}(_:5->-:)))'!'''!:5'~,-)>_)~#,~~~,~{#~$#{$@@@@@@@@@@@@@@@@#}2^*]2*2]>6;-;6;63}>>-:--))!:!,!''c,c''~~'_,),~#{#~~####{@@@8@@@@+@@@+@+@+@@$#}*b*=2*=]65>66;(6>66-)::-::)',))c,!~,~,#,,>,>',${$${#{{{8@++8@@+@+@+@@@+@@@@$~|^^*|=*<0}-(-:>>;63>-:)'5!'!','',,,~~~,~##>~',a$$@8#{{$@$@@@@+@+@+@+@@@@@@$$$~0^^*|/*<9&!->;6->>6__!)!_''!,~!#~~~~~,,#8$',)''@@$$@{$$@8$@@@@@@@@@+$@$",
"$$$${${$#{{$~~@@,}=**2<2*0:7}};6--6(:(;>_:'')))')'),'':))!'''!,#,!,,,!#{~,#@@$$+@@$+@@#$#@{~@+~1<^*|2<*/>(3>->--66-;>-))''),'!))5~,')'-,,~,!!{,~~~,,~#~~#@@8$+@+@+@@@+@@@##@~1^i*]0<<<;l7};(>)>;)'))'))''')'))!~,~,')',#~~!$$~{${#,{#~$@@#@+@+@@{@@$+@@{~+~|^^*9=<<<&'13}_-5(6_':-''!,!,)~,'',~~,')',~,~!${#{{##,@${~$@+@+@+@@@+@{$${{,@{0^^*0==2<]!}66-(':->'>:-''~,,!,~~,~##,,!,~~,~,{$~~{~#~$$#~@@+@+@+@$@+${",
"~##~$$~~~#{c${a#,}2^^<0<<*6>363}7>((5:5>:>5:'5-_'))))'c%!''',,~,,~,!~~{##{{$@${$~#$8$#{{{,#~a#~3<^*/=</<3)6(13}>>>--5-5>-:))'_)!),,'',,!'!,~~~~~#~~#{$$#{@@d$${#$$${{$@a~,~#~1*b*/0///e'}6(}}>>>)_))):5_%)'-'c!,!,,!,,~,~#####{##{$@@8@$@@@$@{$@$$${@#,##a#|^^*=222<]'>6}1}>5-)5'5)5-)!)!,,,,!,!,,~,,~~~{{$$${{$$@@8@@@@@#@${@+8##$8,##a#=^^*0002<<>)3>7(6--5'!'5')'!,,)!~~!,,~,##~,~#$$$#{##{@$@$@@@@@8@8#$@$#~",
"~{$#~#,##{${#{#$~62*^<0=<2|-6>113771;)-5(>6};6}->'_)-%-':5!'',')'%!,'%),!,!,',{~~{{~,{{{$@$~##~}*^*=00/20>}}}73[111}3>(f766(;)>)'':5)':,!#!''%'!,~!')~,',~,,~@#~$#,#@@$@$~{$~}^i*=00/2=>;}>1;63}16;->>5>6>6>:)!5)%':'%!,',,,5,~~,,'~,,,,,,~{~$$@{{#@@@$${{~9^^^m=022<7-7;76i171}7(>'>66-6,'',,f:!%',,{~,!~!,~#~~!,~,,~~!!$$${$$#~{$$$${#~0^^^m0]=22[)6>}36}67k!))k:>;k>>)'~,!',',,'#,~,~!~,~~~,!~~,,,,!#{{~{~,~$",
",~###~~!~~~,#'~a~;2^42=02<2[-7}6}7}-->(>>-:_:5>>>n(_5>::)'))',!,,)',,',,!'~,!'!~~!~~#,~~~,#!8~,6<^*[==2<=](}}}[76>(>-(--:-:--_)>--'_)),))_5,,,,,,,~,~~~,,a!,!#$~~##,{$#,#,~#~}^b*9200*20:}66>6;(>_)::>)-)---))>-))'5!'''!,,,'',,#~~~~c~~!,',$$##@#,$@~~{#~~9^^^99==<==3(6}67>;-:->>-'_!')))_-'))%),,!'!,#a~,~,#~~a~,~,~c!,${{~{#,~~,,{~~~0^^*e0=|22=3>66>((n-_)--_'5')'-5->-)')''c~,,,~~#~,c~~~~#!!,#,,){#~~{~,#",
",~~~~~#~#{#~!!~$,62^4=202</0(71};6}(((((>->-::>6(l>-:-:5:':'''!'''')),!,'~,~~,,#~~,~8#~##~##~$,}*^*9===220>}i1161}(>>>>->-(5:>-)--_-:))'-)!!,!,~,,,~!,,!,~,##~~{~##{~@$$8~~{~1^i*e/=0/<=[>1}}}7>(>>-(>---))::):5-:))'!'~,',~,,,,,~~~#~#{~#~{#{#@$$~{{{####,|^^^oe=2=2=&)i7161>>->-((--)'5)-))':'''!!'!~~,~,,,,~~~~~###~#~#{{{{~$###{~~~~~0^^*0==0=<=0:76;-(;;----)::5))f;:5)f')'f!!,,~,~,~,~'!~,,,,~##,~##~~~{~~",
"~,',~'~,,~~,~##~,}2^<==0=22<161}}}77}6;((6(-)--(66-_'-:):5')''%)'''5))~!!!,,~8#~,,#,~~,~#~#$#,,}*^*e=e]=2=9:}}n3}666(>-(--)-:>(6-:)::)55:'!'!)''!!':'c,,~,~~{~,!{,,~,~##{8@~,3^b*|/00=p20-1}}q6(66(>>>):)))->;-'')))!c!,!!,!!!,!!),,,,~~#~@{~,{#~#~,#{#~$#,|^^*e00r0/=0->6}17;s66h(;>))):5->:''!')!'~,,,~,%!,,,'f,,~~,#~@##!~~~~~,~~~~#,,=^^^m0=0==2=3-1(};>6}>(-l-:''f)->)!,,,),!,,~,~!!!,,!',,~,~,#~{#~,,~~,~'",
"!~~,~%!~~###~~,~,}=^4[/e0=<==1[7e|[717}7117}}>>[]9&[[(>>-::61}:,,,,,,)',%!!):~!#~~~~!{#{{{##!#,}*^*[==]=/==71;&|[;777}317;6(-7|&931;-_:)>;36-,!,,~,'',,,,!-,,#~#~#'#~{{$#{,~,3^i^[]0e=<20937&|&67}};}3}>}>:69&[31;_:)%')};-~~#~~~~'~,~,,),~##{~#!##{$$#{,,,9^^^|t<]]220966}9&>6}}}}3[_6>::&[[3};:)',!%;;-,~~~##~!~~~,~)'~~~#,#!,#{#{~{~,,0^^^][2|]=/00}7}99;;66>;61>-_%)1&13}6)%%~,~_>>!#{####,,~~,~!f,~~#~~~,~~",
"|&[[3}136;}1[3-%:1=^*[&/0=2/2<=]0=000=]]0=0]|]=]99900]|0||9|9&&[[&9&[99&1&9&&]|&11}}3;;;>33})'51<^*[12e0=2/<=]|r0=|00900]]||]]999|0]9]|9|9&[&&[[[&1&&&[9[&[&|93}66}};>-}}3;''[^b^93=0==42<=0|0=]]00||]]999]09]9900|e|9&991&&71[[31[[1&&[19||1}66}6>;-;736_%|^^*03e0e0=2<20|]0=e]0]|00]99|]]r&&90&9|&99&[1&711[13[&[[[&[[9|[3}}7}(6;;7[1),=^^^=7&=00p222=|000|]0e|=0|&9909&&&9099|9&&&&[[}33[33[&[[&&[&||[13373}}",
"|&]|&9|90|9[&[[(}1=^*9[p202=<220=00]000]00]]]|]0]|||e||]]||9]|9&|9|||9||9&&[&&&&]9[9e90e9[[1[>61<^*|[]2m2<//=0]]]]]00|0]e|e||]0|]|]|||]9e&0|&9999||9999&&&&[&&|&&&|[|]9[11&;;[^i*]&9<0==/220000]000]0]e9]||0=]|9e|99]9e[|&9&9&&|99||9&[[[[&&99&[9|]09&[1[};]^^^m&&/00<22200]]]]r0]00]|e||9=0|9|999]9]&|]&&9&&9|999|&&[&[&&||9[9]|]|9&&&1>=^^^=&1/===2<2=000]00=]]0]9||||=||9||99||]&9|9[&999|9]|9&&[&[&&9||[99|]",
"0<22||9]====0][1[90^^*4**^****<^**4*******</4<20r***4**<4<2==*<////</2=2=00==]022=]]9e====0][719<^^*<**^***^/**^********</44<0e4**4**<44/=022<p//2//====0=0]022=]e||====0][3[e^n^**44^***^/**^4*******</4<4=u2<**<<4<<p=02/<<</2<<===00=0]]=22]|||==0=00v1[<^^^*444^***^<**^***^****4/<<40924**<*4<4220<<<24<2<<===00=00]=2209||=20=00&1&^^^^*444^***^2**4********4^*p*0|2**4**4<*2p0</<2*<<</===00==0]=2/09||02",
"*4<<4/*/244/==/2==<^^^^*^*^*^*^*^*^^^*^*^***^*^*^*^^^*^4***<****4*****^^^**<<*^4*<</*//<</=2<2=2*^^^^*^*^*^*^*^^^^^^^*^*****^*^*^*^4^4*******4<**4**^^^**<<**44<<2*///22=2/2=<^f**^^^*^^^*^*^*^^^*^*^*****^*^***^4^4******4*/**4*4*^^*^44**4<<<2*/2//222<=2^^^^*^*^*^*^^^*^*^^^^^^^*****^*^*^*^4^4***4**4*/**<*4*^^*^4***4<<<2<<*<<2=2/0*^^^^*^^^*^^^*^*^*^^^*^^^**^**^*^*^*^*^4***4**<*<**4*4*^^*^4***44<//<2<<",
"*^^^^^^^*^^^*^*^*^*^^^^^^^^^^^^^^^^^^^^^^^^^^^^^^^^^^^^^^^^^^^^^^^^^^^^^^^^^^^^^^^^^^^^^*^*^*^*^^^^^^^^^^^^^^^^^^^^^^^^^^^^^^^^^^^^^^^^^^^^^^^^^^^^^^^^^^^^^^^^^^^^^^^*^*^^^*^^cp^^^^^^^^^^^^^^^^^^^^^^^^^^^^^^^^^^^^^^^^^^^^^^^^^^^^^^^^^^^^^^^^^*^*^*^^^^^^^^^^^^^^^^^^^^^^^^^^^^^^^^^^^^^^^^^^^^^^^^^^^^^^^^^^^^^^^^^^^^^^^^^^^*^*^^^^^^^^^^^^^^^^^^^^^^^^^^^^^^^^^^^^^^^^^^^^^^^^^^^^^^^^^^^^^^^^^^^^^^^*^^^",
"^^^^^^^^^^^^^^^^^^^^^^^^^^^^^^^^^^^^^^^^^^^^^^^^^^^^^^^^^^^^^^^^^^^^^^^^^^^^^^^^^^^^^^^^^^^^^^^^^^^^^^^^^^^^^^^^^^^^^^^^^^^^^^^^^^^^^^^^^^^^^^^^^^^^^^^^^^^^^^^^^^^^^^^^^^^^^^^wr^^^^^^^^^^^^^^^^^^^^^^^^^^^^^^^^^^^^^^^^^^^^^^^^^^^^^^^^^^^^^^^^^^^^^^^^^^^^^^^^^^^^^^^^^^^^^^^^^^^^^^^^^^^^^^^^^^^^^^^^^^^^^^^^^^^^^^^^^^^^^^^^^^^^^^^^^^^^^^^^^^^^^^^^^^^^^^^^^^^^^^^^^^^^^^^^^^^^^^^^^^^^^^^^^^^^^^^^^^^^^^^",
"*^*^***^*********^*^^^*^^^*^*^*^*^*^*^*^*^*^*^*^*^*^*^*^^^^^^^*^*^*^^^*^*^*^***^***^***^*******^^^^^^^*^^^*^^^*^*^*^*^*^^^*^*^*^*^*^^^^^^^^^*^*^*^*^*^*^***^*^*^***^*^*^*****^^ce^*^^^*^*^*^*^*^*^*^^^^^*^*^^^*^^^^^^^^^^^*^*^*^^^*^*^*^***^***^***^*******^^^^^^^*^^^*^^^*^*^*^*^*^^^*^*^*^*^*^^^^^^^^^*^*^*^*^*^*^***^***^*^*^*********^*^*^*^^^*^*^*^*^*^*^*^*^*^*^*^*^*^*^^^^^^^*^*^*^*^^^*^*^*^***^*^*^***^",
">>>_-_---:-_-_-))_-_-::)_::::))')%)))%'')%)%'%)'''f)))>9^^^*&33}}}}}}}1}7;;>(>>>-_>_-_---:-:_))_-:-:)):::))))%)')%)''')''%'')%'')'))-|^^^^&3133}3;}}16}>;>>>>>---:>>>_---)>)):__-:)))))))%)%'%')'!%')%'')')%'')'))-|^^^^93333}};}}1}}>;>>>>->_>-->-_-:_)_))_-::_)))))))))%''f%'''!'%'%)')%'')'))k]^^^*93333}3}}}3}};;>>>>_>_-_---:_:-)-:))-:_):))))))%)''%)''%''f%'%)%''',''))-0^^^*|}37}}}6}6}7};;>>>>->:-_-_-:",
",,,,~~~~~,~~#~###!{~#~{{{{${$$@d$$@@@d@@@d@@@$@d+d+@+d@~[^^=,')_)))):):')-)!,%,,~!,~~,,,~~~~{~{~{~{,#~{$@$@$$$@@@d@@@d@@@d@$+d+@+d@@+~9^^2)')-)')')')_'%,,,%,',~~,~~#~~~~~~#$,~{{{{{{{$$@$$@@d@@+d@@+d@@+d+d+d+@+d+~|^^2;)):)))%'''!,',,~%,!~~,,#~#~~~~~#{$##{$~{8${@$$$@d@@+d+d+d+@+d+@@d+d+d+@+a0^^<7c'_)''_))!_'',!,,,!~,~~{~#~#~##{{${,{$${$$$$@@d@@+d@@+d@@+d+@+d@@+d@@+d+a<^^2[!!)))!)'),),'',~,~,~#~~{~~~",
")~,~~~~#~,',,~~#%%,~,,,,!@$$$@$@$@@@@@@+@+@+@+@+@+@+++8{>=^=!,')'%'!))')6_>):>-~~~~~~~~,>%~#~#%%%~~,,!!{$@$@@@@+@@@+@+@+@+@+++++++@+8#6*^/_!_,)')!'%!!>):)):-,,~~~~##~%,,#~{~%!~~~,~!#@@@@@@@+@+@+@+++@+++++++++++@{[^^/(%3'>,)!!),~--:))>>!~~~#~#~~'_~##{~%!%~#~~,~@@@+@+@+@+@+++@+++++++++++++@$9^^/3,:,),'%!')%:_):)%-%#~~####{~~,{{{{,%~#{~#,~$+@+@+++@+++@+++@+++@+++@+++@@]^^p[!!%),%,,%',';))),'%#{~{#{#{",
"%',!,,~,~,,_-!~%____%,,)~#{#{{$8$d@$@$@d$$@d@@@d@@@d@@+#-|*/)'))''!)!)!%;>63,))',,,!~,~,~)>%~,)_>%%,~)~{{#{{$$@d@d@d@d@$@@+d@@@d@d@d@#>*^<:)h,'')-''!!:;([),)!,,,,~~~~~,-)~~_)))%,~%~$${{$$$@@@d@@@d@@@d+d@d@d@d@d+#[^^4('6)'''_''!!)6_['''!,,~,~~~,~~>_,~%)_)~#{,,8${$8@$@d@@+d@d+d@d@d@@@d@@+d@89^^47)6f!''_'''!!>-7;~!!,,~~~~~##~'),~,_%%~~{,,#@$$$@$@d+d@@@d@@@d@d+d@@@d@@+80^^<&!)-!!,!%,!!,>);6~,%~~#~~~~~",
"_%'!!,!,,~,)[3_%,,,,,~~~~~~#~~#{{${${$$@{{{@$@@$$@$@$+@@-9*=>-;:-5:>)'',)>'-),)))!!!!,!~),;}_%'',~,~,~~{~{###{{$$@$$#@$$$d@@$@$$$@@@@@-2^2;-[,:):-'%'%)(')',:%!'',!,!#'!6[>),~,~~~~{~{#{~{{{{@${$@{@@@@@@+@@$@$$$+@@3^^p})}):)_;>')!'-)':,')%%,,,~,#%,'6>%,~~{~{#{~{{{{##{$@$@@@$@@@$@@@d@$@$@$@@@&^^/3:15))))-,!,,)-,),)%,~,~,~,#{~'13%,{{#~{#{~{{{$${$$@@@d@@$@@{@$+$@$$$$$@@@]^^/[5->))))-,,,,!-~:,,%%~,~~~~~",
">_')'c')',~,'3,'!%,,,%~,~~~~~,~#{###{{$8@#$d@8$#@8{$@d+8:]^<1;}))>-_:)))'>))>)->'_'!'))~,!%[')!,~,,!,~~~~~#~#~#{{#${{8@#@$@8$8$8$8dd+8_*^<[-1'>>)):)))'-:):)'_!)!'!!~,,!')'~~,,,~,~~~~#~~#$8$8${$8{8+8$d+8@$@8$$@d@83^^<[}7::):--)'!!_>'>)'-%',!,!,,#,~>},!,~,#,~~##{{{8{{$$$8$$$8@d@d@d@$$$${$$+8&^^*[>;-)_:_')''!):!!)'-%,!!~,,%#~#!7~~~~~{,~#{{${$8{$$8d$$8@8@d{d@d$$$8@8$8@d]^^4[7>;!)::)5''!%:'!_!))!',~!~,",
")'%''!,!)::!%;,)%,%,%!5#~#~###~{#{#{{{{d@@8@{{{~#$$@$$d{_|^/7>;5:))-)')')'}')))''''!!,'>)-!;:%!,'!!,-~#{{####{#{{{{${$d@~@$$#{{@$@@+@{><^/};&)-5:-:!'')!;))'''!!'!'!,,'5!))#,,',,,',#{{##{{{{{{$$@$@@@a@@@#{{$d@@+d$3^^<1}''):-5:%'!)!>-''''!,!,,~,,'-),3~%,,~,~!'{d{{8${{{$$$$@@@d+@$d@{{#{$$@@$$&^^<[>[>)-:::''!%')>,'!!%~!~,~,,)!,~;~!~~~~~~'8$8@$${d$@$@d@$@@@8~d@{{#{${{@$@]^^<[;>-''''),!,!'!(,!!,,~,~~#~~",
")',))'!%))')';>''%%)!![)#~#~~,~,~##~{{$8$d{8d##~~{@8@$@~-|^<}};-:>)))))_:-)-))')''''!!'))6'_6)!%%%,,>;{~{~#~~{{#{#d8${@$$8@8~~{{d8@d$~>*^4630)-;-:):))5;)))_:-''!'!!)!!>))3,,%!,,,:[8#$#{{{~{{{8d$@8d$@d+d{~##@8@d@#ff**36)')-::))!');'))'':%!''!!!%!)',6),%,',,,3~#$8{{{#$8$$dd@8@8@$@d$##~{$$8@#9^^*&(|}':)'')'''6'_:'!'~,!!~,,'',,,->~~#~,~#['$$8$$${${@8$d@d@d@8$d@~~~{8#8@80^^*&;>>)))'!''''))')!,,,,~~~~#,",
")%)':''!))%!!)'!%!)!%%7-#~~~~#~~,~#{#{{#{@{@8@#{~{${@d@8>|^<[635::_---)')--_))):)')%',)'))'%)~,,%%,!}}##~###~~#{#${{{$$$$@d$d@{$${@+@{;<^<[}e_)--5_:)%:->-)%>>:''!''',!'!,:~!,,!!,)},$###{{~8d{${{${$@@@d8@${$@@@@{{#+4<&}}_:):):::'-5::)):)),'!!,,''~~~~~,~~,,~'3%@d#{${{#$$@${8d$@@+@8d@{{{@{@8{9^^<&6&3''))---%)':5)!)%,,,!,~,,!~~#,~~#~~~#~(-${@$@$@#{$$$$$@$@@@{{8@8{{$#@{{0^^<97;;'%)):):!,,)%',,,'~~~~~#~",
";-):))''!)))%'%'-'!!,%![)##,~~~,~~#8#~~#{8{8{~88{8$8@8$#:]**|31):->->;_5:-:_:)>5''))''%!!%%'%,'~#,,,~;;~#~#~~~{#{8{#{~$8d8d,$8@8$8@dd#>*^*][9>->-->>->:_:_:':_')))!),!,,!%,!,%,,,,8>},{#{~{#{8$8@~{8@8@8@c{d@d@d@d$#w+**|[1>>;--:__-::::'))'')''~!~,,,,,~,~,,,~~#'6!d8$8@8{8@8@8{8$#d8@a#8@8@8$8@#9^^*99[7)-:_:_-_)5::)!!>'''',,~~,!,,#~#)~~{~#,}:d8$8d8{8@d@8{8$8@d@a,#@8{8{8@80^^*99}7!:)-)--)!''!!%,:,,~,~,~~",
"---5)''!!')))!%!''!,!~,~>>~~~~~##{8{{~,~~$,8${8#8$8@@@~~6|^4e9[:;>;>>>-:->>_>:::)))')!c,!'',!,!~,~,~,,)6~~~~~{8$$${{~~~@8add8@d@d@d+8#}<^409&(6-;>>(}>>:_:->-55)')),,,!!,,!,,!,~~~#~!},$##8$8d$@@@~~~{8~d+8@@@d$$+d~a+^4|&|-;>>--:>_-::)'))'5)))'~,~,!,~,~,,,~~{##~-5{#@$$$@d@d@#~~#da8+#{$@$$8@@~]^^*||&}(--)):>):-_))'c':'',,~~~,,!,~#~~~{#{8$#)(@{d8@d@d+d@8#~#8{{@8{8@8$8$d8=^^4|9&75----:-''':')'!,'~,~,~~#",
")-:_:_))'!!-)''!~!,!,!,,,),~~~####{8{88~88{8$8$8d8@8@$@,}0**|01>;>->>>6;>>----)-:::-:)'!!5'%!!,,,!,,~,~%'##~~8{8$$d88#88@$@d@d@d@d@d@~7*^*9]9>(;>>>6;;;>:>--:_)5)_))!!'),,!!,~~~~~~,~,'#{#{8$$@8@d@88d@8@d@8@d@d@d+~ad^*90|-6>>-->::>>)>:_))))':)',,'c~,#,~~~~~~,~#~,#$8$8@d@d@d@88d@d@dd8@d@$@8@~0^^*|9|[;--:)_)->>5:))'!')!''',,#~'!#~##########~~$8$8@d@d@d@888@8$d@8$8@8d8@#=^^*|9]3:>::::5_)5))')'!!!~'c!~~",
"55_))))')'!')'''!,'#~,,,!'~#,###~###{{{$d@8@8@ddd@d@d@#~7]*4&0&_---->>>>(k-5-):'))))5))!!,''!''~!,,~~~!,~{~#~{##8{$@$@d@$@${d@d+d+@+d~3*^4[]]>6(>->;(->_-:>))''')):)!,!,!%','~,,!~,~,~#~#{{#8{$dd@d@d+d@d@d@d+@@d+@#a+^*990-->>k>>>>-5:__')')')!'',,!,~!,~'~~,#{~{~#~#${8{$@d@d@d+d+d@d@d+d@d@d@d#]^^*|[03>>>--:>_-)-%'5',)'!,,,,,,#,~~#~###8@{{#{~{d$$@d@$@d+@@d+@@d@$@d@d@8@$#=^^*e[01)')f5)-f)5)''',!~~,,,~,~",
":_'-:):)')')')!',!!,~!,,~,,,~~~~#~#8{8{8d8{d$8d8{8@d@#8~}0**&==&>(>>>6>;>>-_:>:5)_))))!)'''',',,,,,',,~,~~#~8~{#{8$8d8@8d8@8#8$8@d@d@~3*^*&0==_>->>;>;(>--:-)5))f'')')!!,',,~,~,,,#~~~~~#~{#{8$8@8@d@d@d+d{8@8@d@d@~ad^*&e=]}>->>(>6>-->:5'))''!!',!,,~%,~~~#~{#########$8d8@8@d@ddd@d@d@8@8dd@d{~|^^^9|0<15>>->>;-)))):')'')),',,,,~!~###{#{8#8{88#$8d8@8dd@d@d@d@d@d$#d8{8d8{#0^^^|&00[>::)--5:5))!''!,!,,~,~~",
"--)-_)k'''))'!!,,,c,,,%,,~!#~,,~~##{~{8$8{8@###{8@8@ddd#}0^<[==01>6;(;>(6>-)>(--_::')!)5:'',''!~,,,,,!!,,~~~~{8{{{8d8d8@$$8{#{8dd@8@d~}*^*[0]21-6>(6}>;>-:-l>:_)5'',)')!,'!,,~,~~~~#~~,##{##$@8$d@8@d@$@d$8$8@8@8@d#a+^*[|=09-;->((:(>:)-::5:')!!'',!,~,,~~####{#~~#{~#$#{8@8$$@d+d+d@d{8$#@$@d@d#]^^*99e=|->--:(-;-)):5-))!:'!',~~~,~~##{8##{###$8{8@8{8@$@d@d@d@d@8@#{#{8$8{8#=^^*e3=]]}:->->f:-)'!)-''!%,,~#~",
"--:>--):::))))')):'',!,,,',~~,,,~~~~##{#$#{8{#{8@d{8@8$,6=**&2|]1-}6>67;>;>::(-->-):))))')''')''',,,,!,',~#,,~#~##{#{8$8{#{8d8$#$d@d@,7*^*10]0616;>6;66;>_)>---_))')))')!)!!,!,,~~~~~,~,~~{~##{8{8{8@8d8@8@88#@8$d8,ad^^10]]&;-6>6(((6:-)-):5:)_,'):'',,,,~,~~###~#~{#8~8~#8{#@8$8@d@d@8$8{8$8dd@~]^^^9&]e[;}6(->6>6):':5:''))''!'!,~,~,~,,,##{~{##~d8{~88$8d8$8$8$8{888{8##8#@~=^^^|30&|3'6-:>;):::!':)!)!,,,~,",
"-->---:5-))))':))')!',,,!!!~,~,~,~#~~##{8{#$#{#$8$8{8~aa10*<|2|[&-66((}(((;7>--:_::--)>)::)')'''',,!~,,,,~~,~~~~#####$$$8$8##@dd8@8@,~1*^4|2=[|666;(}6}>>};::k-))))):!'))'',,,!'~'#,~#~~,#~~#{#{#{8d8$8{d#8@8+d$8+8,a+^*]02}|->66;}(;l-6s:):-5)),,)'!!,,,,~,,,#,####~##8#{#$#$#{8@$@8{d@8$$@8{8{~,]^^*|023|1>>;->>---l6))')))f)!c'!,,~,a~~,~~~,{8#~#8{8{#{{d#{8$8@d{8@8{8@#{#{#~=^^*|&2[13'>(:---:--})''!,!,'!,,",
">>:-)::---)-))))!''3%;',!c!,,!,c,,~,~~##8,~8~~#~{##,#~,,3=^*|<<[0>6};}(6}}>>>;>>)_):)>:))-))))c'!}'>%c,,~,,,#~~~~,~~##8####88#8~8#88,!}^^^e**9[[67>66}(;>>>->>-:)):-::):'''',',-5)',~,~,~~#~~~~~##88$###@#8#88$8###!ad^^9]*|&[-66;6;(6>-:>-:::f)!))''',!,c,,~)(c:,#~~~##{~~~#~#888$8#~8#8##88#~~~)|^^^|=<=}[6;(;;;>(>_::--:))!''!)'!%!,,~~~,6c5~#~#~8~####8###8888#~##8#####~~#,=^^^]|/<}]->;>>>->>_':5))'!!!!',",
"-(->;:>->-:)-:->>))5---5'!',!')'!!',,,,##~,8~~~~~###a##,1=^40/*<=>76}7}6}[[66(>-;--:>->-))-))>>:))-)->'',~~,!~,'!~,~~##~~~~######~,d8~[*^*0<*<=;1(;63}61[(6>-:>--->)(>''5):_>5)'-)-)!,,#,!~#,,~~#~~##~~~88#{#8#{~~#~a+^*9|*<<};66}7}}7&};>-)>->-5-:5)''!!)-)',:'):'~~#~,~~,,!,,~~###~####{#{#{#~#~]^^*|=<<21;1}}h6}6[>;-:f>'-_):)))!'!!':)#~'f)f)~~~#~,~,~,~~~,~##,~,#~###~#,~~~=^^*09=<=|:6>(};(;17>-)'5-))'))f",
"}6>>>>->>-;(->))):)-)!')'!!'!!',,,,,~~,,~~##~!,,,,~#ca#)[<**=</<<}}[777;;;>6663;>>>>>;:_:-->)'c)!)',,5,,,,~!~~~,~~~a~,~~8##,,,~~~~!w8![^^*0<<<<[6};76};>(66;66>>->----!)--f!!!'):!~',,#~~,~~~~{~~##a~~##8,,'!~a#~!8,,d^*0]<<<9-177}7(>>(>>}}>>:>->)))-55)!,!!'),,,~~8~~~#,8a#,~,##~~##8a!'~,~~8,#,]^^*0/<<<=>1n}(}>;(6->>6-:5)5):)'::'),~,~,)!#,,~#~~###8##~#~#a~~~##~,,~,~,~,~,=^^^002222(63666:--_->-}-:))))5%",
"-k}}16767k->:5',','))))5))!!!':'!)'!,,,~,~~#!,,~,#,~!,,%12^*2=2/<&>}}&[[376}7;;(;}};7;>>)_:_''')!))!'):!!~,!!~!'',,,,#~###~~~#~{a~5{a%[*^*==222|)76[&1363766>>;}7}}(}>'5)5)!',,!!!'%),,~,,'',,'~,~,8#####,~~,#a~,,,,,+^*20/=2=_661973}711;;5:>6;6;>-)':'),!,,,,,!,!,a~~~,!,~!,~#a##8#{#~,,,~~,,,!,0^^*=<22</>-};9}76}1;;)')6;};;>;)!)!'~#~~~!~,~!,,~~~,,,~',,~,a##~#~~,,,~~,,!,,=^^*=0=2/21)6(&11;}-;>-5-_>>-(-5",
"(>6}(66(>7;>:>)');>_-))->>>'!--->>:5))-,')!!'),~!c~,,a~,}<^*r==4<=1[[1&[[[}[}}77(};}}1>}6(>>(;;6>5:):_-(l!!:-''-->:-,,,f#,')),a,~,)a~!3^^*0==</2[h1>}&[&3[}77>66>6(}666-->(>>->)!')::(:))5:):-'''_,#~),!!''!a,~~,,~,ad^^=====<9}[11v[[}1;6}>-(6;>1>->>>)->-->_:)':)--),')):)5-)''','!,,)'',!,,')~%]^^^0==2<<|}3}6[[[776}>-:6(--(>(;-)):'#'-:')~,'-->~!:))_:))))-,'',,''',%,,,',%=^^^0|00<2]731}[1[}67}(66>;->(}:",
"}}}>;(>>((>>->-5:))-:))')!)''')''!,,,!,,~!),,!,,,,',-~,'32^492=/2=]-[&7}[;}1};}}};6>>>>->}-->:-':>:)''''!,,''!'!,,,,~,,~~,,)),,')!-!a'1*^*|2==<22;1677}6766;66};;(;:->--:5>5)')-)''!'!!!!,,!!,,,!~~~,~,,~,,,,,,'%5a%a+^*|]2=2==}61&17}7>;676;66(>l6-5(-5>5)!')5!',!,,,,~,!'~,~c~,~,~,~~~,,,,,')-,']^^*]r20222&(17}}}}63;6;6(-->5>:-)-'_'!!''_'!,,,~,,~,,!,,~~~',,#,''~,,!,!',-!,=^^*01202=0|-[[177}67(>>;(>--:--",
"6}}66}(}}6>(>6>;}>-(>>->>5):->>:))!''',,,'))),,),!!!,~~)1<^*e0=22<0}1[}111}1}7}}}6;}66(6>6>(>(}>:;>>-(-)'))_5'''!',',!,!,'!'!'~,,!~,~'[^^*020=<<2[>&[[31j76}617};66(;}->>>>>-::(::5-:5))!%:)c!,',,,)!,,!~!~'~~~%,,a'ad^^|00==<09>&}[7[1}63}}6;((};;6--:>>->-'::_)--_::')-)!c,,,,,!,~,),'~,~,,,,!,%0^^^0=0==<==:11[1i777}66;6>((>;6;l->-->-)---)5:_!!%)5-'',,,,!,~,,)'',,!','%!~%=^^^=9e=02=]61373376}666(;-l(;>>",
"6;}}[(>([1[}6(>>6;;>6>-:>)):-:()))'':):',!',)'!,',,,,,,'12^*e=0=2<2=;[3[[;6}7}}(7}[6>63[13;>->;>>->;>)5)))>-)')'!,''!,,,,~''!~,,,,!','1*^*|=002<2=(337[3}}}}76}6[}>>61136>-:;l---_5)))))5))5,,!,!)f!,,!,,%%!,~,,,,''a+^*e=00=/=21613[7;6}6}(6}73_>;136>::)>:)):--'''))))):,,,~,'!'!~,!,'!,~~!,,,,%0^^*0|=]=<2=&-1631366}}(>;;3-->736>::)::--:-)'''%')%):',)',!)f!~,,!''!,,!,!,!'=^^*=&=e==<00:[617>-(66>-6;7-f(6",
"9|]|&&[[|0]]|0&&[[1[[&[[;;;6>;66(;6;3136)_)'>;')%''),'')1<^*&==0=</=||92=]9&&99]]]9&[&9]|]|0&[[3}1[&[1>(>;>>>>->>>63(;))'':>'!!!!'')!:[^^^9e<]=<<=|9[]=0&999&|e]&&[1&0]]9]&[[1633[11>-->-_:>:_->>3};:'))'6'!!!!','))ad^^|9200240]99e=0&&&&&9]09&3[[|e]9|931}>;}[11>))_)))>)):-:}6;-)%'c;)'!!!'''!_]^^^r&p002/2]9[[0=|&&9[&9][[733|e]99|333>;;3736)':))'_)):;-6}}>)')'>-)''!)))!)=^^^=[0=]=/2]|9&==|[[&1&90|[1}3&",
"]0=0||]00|e9]ee|0]0||e[&9|||e|0]]||9&&|]9|0e|]9]|99&&3;-[2^*9[20022<<=00=0=00]]=]]]||00|||]e|90]e99|&99&||||e||||9&&]9&9]|]||||&|&&3;-&*^*|10=m=4<42002==000000099|e0|||]e||]]||&]9[&&|9||]]]9|99[99&9]]9e99]&9&&[>>c+^*|1e=]0<p<=0]00=0=0e0000||]=]|9e||&||||9|9&9&&&999|]9|&9[9&99]|]|]&]&99&&3>0^^^=1&200<<4<=]=0=000]]0009||0]99|]|&|e||9&|[&&9&999|]||99&&9|&]]0|]&]|99993-2^^^2v[20]2=<2=|0000000|=]0e|9=]",
"/20=0=0=00===2=2==0=0000]0000=00]]|]ee9e000|||]00]||9&31&2^^=04*/4<*<2<<222/22=2000===002====2==000000000]0=0]]0|]ee&9e0]|||e0e]e99&}1&^^^=0=4<*4*<2/22222=<=2======002=====0=000]]r0=000=00]0||]|9|]0]e9|e00||||&}[cd^^==04<<<4<*<<22222<2/=]]20=00===2===2000000]=00000]e0|e]|99]=0||]]0]]]||&312^^^/00*<<<44//<22222/=2==0=0=]0=2==02====0r00]]000=00]0eeee9|]0|]0]|=0ee||&11*^^^4=r/4</*42p<22=2=<22====0=]=",
"^*4*****<<***^^*4**<22*4*<*/4**4*<4<4/<4*2<=====2===2]e|=<^^^***^*^^^*^***^*^^^**<4***</***^^*<**<22*<*<*2<*^**44<</44*/<=====22<22]|]2*^^****^^^^^*^***^*^^***4*4**4=4**^^*44*<2=4<*<*2<*^**<*<4/<4*22==00=<0222]|]c+^^^***^*^^^*****^*^****/44**4=4**^^*4**<<2*<*/*/<*^**4*<<<*<4/<=====<2<22]9=^^^^^***^^^^^*****^*^^^**4*4**4=<*^*^^*4*<42*<*/*<4*^**<*<4<4<422=2===<022/]9<^^^^^*^*^*^^^4****^*^****<*4**<2",
"^^^^^^^^^^^^^^^^^^^^*^^^*^^^^^^^^^^^**^^*^*^*^**4*<44^***^^^^^^^^^^^^^^^^^^^^^^^^^^^^^^^^^^^^^^^^^^^^^^^^^^^^^^^^^**^^*^*^*^*^**4**^***^^^^^^^^^^^^^^^^^^^^^^^^^^^^^^^^^^^^^^^^^^^^^^^^^^^^^^^^^**^^*^***^*****4*^**cd^^^^^^^^^^^^^^^^^^^^^^^^^^^^^^^^^^^^^^^^^^^^^^^^^^^^^^^^*^^^^^*^*^****44*^*^^^^^^^^^^^^^^^^^^^^^^^^^^^^^^^^^^^^^^^^^^^^^^^^^^^^^^^^^^^*^^^*^***^****4<*^^^^^^^^^^^^^^^^^^^^^^^^^^^^^^^^^^^",
"^^^^^^^^^^^^^^^^^^^^^^^^^^^^^^^^^^^^^^^^^^^^^^^^^^^^^^^^^^^^^^^^^^^^^^^^^^^^^^^^^^^^^^^^^^^^^^^^^^^^^^^^^^^^^^^^^^^^^^^^^^^^^^^^^^^^^^^^^^^^^^^^^^^^^^^^^^^^^^^^^^^^^^^^^^^^^^^^^^^^^^^^^^^^^^^^^^^^^^^^^^^^^^^^^^^^c+^^^^^^^^^^^^^^^^^^^^^^^^^^^^^^^^^^^^^^^^^^^^^^^^^^^^^^^^^^^^^^^^^^^^^^^^^^^^^^^^^^^^^^^^^^^^^^^^^^^^^^^^^^^^^^^^^^^^^^^^^^^^^^^^^^^^^^^^^^^^^^^^^^^^^^^^^^^^^^^^^^^^^^^^^^^^^^^^^^^^^^^^^^",
"^^^^^^^^^^^^^^^^^^^^^^^^^^^^^^^^^^^^^^^^^^^^^^^^^^^^^^^^^^^^^^^^^^^^^^^^^^^^^^^^^^^^^^^^^^^^^^^^^^^^^^^^^^^^^^^^^^^^^^^^^^^^^^^^^^^^^^^^^^^^^^^^^^^^^^^^^^^^^^^^^^^^^^^^^^^^^^^^^^^^^^^^^^^^^^^^^^^^^^^^^^^^^^^^^^^^dd^^^^^^^^^^^^^^^^^^^^^^^^^^^^^^^^^^^^^^^^^^^^^^^^^^^^^^^^^^^^^^^^^^^^^^^^^^^^^^^^^^^^^^^^^^^^^^^^^^^^^^^^^^^^^^^^^^^^^^^^^^^^^^^^^^^^^^^^^^^^^^^^^^^^^^^^^^^^^^^^^^^^^^^^^^^^^^^^^^^^^^^^^^",
"|||||9|||9|9||]]2^^^^2000]00000]0]]]]|||]||||||9|9|99999]]]]e|]|]|]||||9|9|||9|||9|||||||9||]]*^^^^<=0000000=]0]]]]|]|]||9||]9|9|99999]]]]||]|]|]||||9|||999|9|||||9|99|||]]*^^^^200000000=00]]]]|e]]||9|||9|9||999|q7]]]|||]||||||9|||999|||||||9|||9||]]^^^^^20]00=000=00]]|]|]||||9|||||||9999|]]]]]|]|]|]||||9|||9|9|||||9|||||9]|]0^^^^^=000000000]0]]|]||||||||||||9|9999|]]]|]|]]]|e|]||||9|9|9||||||||||",
"~,~,~,~a~a~a,%,,-]^^<}66;}>>>>>1>>_-))))))')')''!))'%,,!%%''%!!!,,,,~,~,~,aa~a#,~,~a~aaa#aaaa,>2^^*;-;6};>>>(}->>-:))))'))''%'''!%!)%!!%,%!!,,a,,,~,~a#a~aa,#,aa#aaa~aa,#a~,>*^^*1;;6};;:--}>;-))))))_')))''%!!'%),,,,,,,!,,,,~a~,~a~a~a~,aa#a~a#,aa#,aa~,(^^^*&>;6;-;;>-;->))))))))')'''%!!!'!',,,',,,,~,,,~,~a~a~a~aaa#a~a~a~a#a#,a,,,6^^^4&;6(>6;>;:-7>)_:)''')!!,''!!!,',',,~',!,,,,~,~,~,~a~aaa~aaa~a~aaa~a",
"8##8~##88888~#88~;0^=_>-;---:)':-_:)'>;_')),!!',',!~'~,,,!!,!~,~~~~,~~~#~#w88#w88##d888d88w888~}*^25:>>--_:--5__:))!_)'!!''!!!)%,,,,,,%,,~,~,~,~~####8#88##8w8w888w888w8#888~[^^/6->::-5))-_:-)'')>::''''%!,!,',,~~#,,,~~~,~~##8#8#8~##8~8wd88w888w888#8#8~9^^<7);;>))-)-))5)''!->_~',,!,!'%,~~#~#,~,~~#~~,####8#8#888w888w8#8wd88w8##~8#0^^<[::)>_5-)',::_')!->_,),~~,,,%!~~,a#~~,~~~~~~##8~##8#8w888#888~888#8",
"8#8w8a8w8w8w8w8a,69*=(}>:-:-):))-[;36::-))''!'!,'):!,,,>)___))_)~~#a~a#a#a8a8#8w8w8a8w8w8w8w8a,}0^<_695-:-)_:))[}3}>)_)'!'!'!,'->',,~-_>)_%)_)aa##waw#8a8#8w8w8w8w8w8w8wwwda~1^^<;)1'-:_):5))};;7-)-)'!%!'!!,'_),,~))-__%%)_~a8a8w8#8w8w8w8w8w8w8w8w8w8www~|^^<7)96>::5)))';166>:-)'!!,!,!,!):~,~!>'%)!%%),a8#8w8w8w8w8w8w8w8w8w8w8w8w8w~0^^<&>-':):))))'-7>};')'!'!,,,,~,%)~,#a_%%)%!,%!a8w8#8w8w8w8w8w8w8w8w8w",
"##~##8###8#8w888a>|<=>1->):;6):5:k>}1':-)%)''!'!)!-7;))_-_)!,~!,,~,~,~~##8###8w#~##8#8#8#8#8wd~;0*<>;|>_:>65-5:>;(1:)-)'','')%','[})!)_-),,~'~~~~~~~#8###8#8w888#dw8#8w8w8wda;*^<}>3:_:>7:--:)}-[:)::%)!)''',,!6})'-_)),,~,~#~~~~#~8#8w8#8wdw8#8w8w8#8#8wd#&^*<3-[3k-56-:5::6_}>!')))''!!,,,,([_%)_)'~~~,~##~~~##8w8w8w8wdw8#8w8#8#8#8#8#]^^<[;))-));>'))':_66!')%''!,,,,,!)3_')),),~8~~~8~~~##8w8w8w8w8w8#8w8##",
"wa~~#a~a~a~a#aww#>|*/66:-(;((_:--;6)>;-;>_))))::!>)>&;)))''%,'!,,%,,,%~a~a~~~,#a~a~awa~a#a~aww~;0^<[60:->66(:-:>6-)5)6>):)':)-'>)>1>')''!%,!,,,,,,,,~,#a#a~a#a#a#wwa#a#a#aww~62*<[>&:>->-;)k-(};'}:;>)-)):)5,):'13)!,%,,~,~a~,~,,a~~#a#aw,~wwa#w8a#a#a#aww~[^^<9(|7>;6-;':::->!;:_>_)'')'%!':%>1')!%~,~~,,~a~a~a~a#awawa#awa#a#a#a#a#a~a#0^^<9(67>>>:()))_>>,->:-_%%,!,')c)!5&)',!,,~a~a#a~a~,~a#a#a#a~a8a#a8a#a",
"#8!###a~~#~~##ada_|*/13;:>(;>_-->:>>>->-;_-)5):5)'):1,:%)%))):%,,!,~,~,~~~~~~~a8,~#w~8a#####w8a>0^<[79-((>6>>->):>_)--6--):')):'%:;c'%%')'')!,,~!~,~,~~~~#a##8aaw8a8w8a#~#wda;lw<173-(-:>--:-):(:>>-;)5'5')%)!)!(>,)')%%%%,~a#,~~~,#~#aw##a8w,wdw#a8w8a8#8ak*^4v1}>::>;-_:-))>-:-:>%'')')'5!!!)(,)!%,!!,!~~#,~a~,#a##8a8#8w~a8####a#~#~8#]^^4&3}6)-->:))::))-:-))_)'!!!,'!!,'3,,,,,~,,'#~#~~##a##8aw~#a8w~~8w#a#",
"~aaaw,,,,,~a8a#a,;9^<3[3->->>>:_:;-7:>:_--::):):;;;___:_)_:5)6',,,,%!!,,~~~a~a#a#!#a~,~~~awa8wa;0^<[6t->--->-::(:>;>::--:5):':}(3';3):'_!%';>,~,,,,,,,~a~a#a#a8!~a#,~~~a#a8wa}ic<[61->->-->-)--;(::_::))))'))(6)!>'))5!%'5(,~~~a~a~a~a#a#a8awa#ww,~a~a#aww~&^^<9}>);--:>>-)->:6))5))')f)')-}):'&)),%,!,%3,~a~a#a~~#a#a#awawa~a8a~,~a#a#a~0^^4t6[6>:-:>-5')>:6):)')%)'!,!,>:},):),,,%,,-)#a8a~~~a~a#a#a#a#a~a#~,,",
"a~~~##~~%,,#a8#~,;|*<7&1>6}>(>>->66(6>>:---))))----:>}:))%'%)3;~,~,,,,,,,~~~~~~#a#~8a~,~a#~8w8,6=^<1}9-;6>(;;5:>;-6>>-(-_)-))-_->)-75%)))%)3[~,~,~,~,~~~a~~#a8~#a8w~,~~#a8w8,}0c*3}[>->>;>>:5-}:>-_>;5)):')):)-)'75%'%)'):1,a~~#~~!~~#~##8#8#w~8w~~~,#~#w8,9^^*96}6>>>--;:->6-;-_:_%-))''%-)5)'-5%,,%,!'9)##a8~#a#~~aww8a8w#a8w8~~~~a~#8,0^^*&}[}:66-->:55(>>>:)'%))!~!,)%)%%56!,~,~,~6;a8#8a#~~a#a#a8#8w8a~#8,,",
"~,~aw'aa~,~a~aaa~;|*<&1&>;;;;}6>:>;;;>:_-;-::_:_)_:55_'5-_')%>['~,!,,!',,,~!~,~a~aa,,aaa#a~a8a,}=^<]19-;6;;6;;->>;>-:;;(-_::__)::)')!_)'))':7:~,,,~a,,~a~,~~~a#a8a,a~a~a#aw#a}<h<939(>;;>;6;->->->-6(-):5::)5:,%'),)','','1;~a~a~aaa#a#a~a~a8aw#,aa,#a#a8a~9^^4|&&};->>;6;--:>>>->))::')''))')!'!'''!!~c>}aa8a~a~,~a8a~a~a#a8a,,wa~a#,#a~0^^*e[11:>;>;;;)):>->)''_:),!!%,'!'!!,,~'!,~,_1!awa#aa,#a#a~a~~~a#a8aaa",
"~,,,a#a~a~a#,wa8,;]**e[[;6;(;66;;>;>>-:)>-:->)))):)))'))_''','>}',,~,,,,,~a~%,,~awaw!~a8a#a8w~,60^*=9&>(6>;(}66>(->-:_>---:')')))!)%'')%))%~'6>~a~,~~~a~~w,~~#a#,w,~a#awa#ww,}*i40&&};};6>;;66;:>>>->:::5))!))'!',c'-,!,,~5>(~a#~#a8##a8a~~8~8,wa#a8#8a#ww,9^^*00&}->>;>;>;>-----))')')''!!,'!,,,,-,,~,~a)},a#a#a#a8a8a#~#a8a8a#a#a#a~a8,0^^*e931-6->>6>--:5:5:'')),)',~,,',,~,~!,,~,#,'6'a8##a8a8a8#~~~a#a#w~,#",
"!%~)aa~,~a~a~awa%1]**]|9}}(6;66;;;;;;-((->---_):)-_:)))5)))))):_6',)%,~,~a~aa',%~awaa,wa#a#awa![=^4]]9>};6;673}6(;>;;>-(----))):-)):))))'''%''6)a,,,~a~a#a#,,,w,'w~,aawaaawa'[*t*r|]}}(;;;(}}};>->>>-;-_::)'')-)':)!!'!,,,~,--~,~a~a#awaw,,,~acawa#awa#awa%]^^*0|0;;;>>(>;;;(;->>)5:))')))!!)'!!,,~,,,~,,,)}aa#a#awawawa~,~aaawa~a#a~a~a,=^^*]||[;6>>>>;>;->->5>))')')!,,,%%,,~,,,~,~,~%,6,a~a#a#awawaa,~a#awa~a",
",~~~a#~~a#a#a#a#'30**|0&(6;(6;66;66>(k;>>>;5-_:5))>-:):))'!'):-')'!!)',~,~~~a#~#a8a8a#a8a8a8a8!1=^*|=9>7;;66};;6;>(>6(>>>):::5:::')5:))),,!)5%'%,~,,a~~#awawa8#8a8#8a8#8a8ww![*b*90];;;>(>;>;;6>>-;>>>:)55:))')))')),,!,,,,,'a~~a~,~aw#wa8w8a8aw#8a#a8#wa8,]^^*]00;;6>>>;>>>6>-->5))-5)):)'~,)),,f!,,,!~,,,~!#a~,8#w#8w8w8w8a8#8awa#a#aa,=^^*|9]15;l>>(>}-;--::_:)::!'',!~,'!,,,!~~#,~,,,,'~a,,wa8#8a8##a8a~a8~~",
"~a~,~,~a~aaa~a~,,30*4e00}}66;6}1666(>};>->--:>(-)))-:))))))),)')''',!'~!,,,,~aaaa,aa~aaawa#aaa,[=^*]=]}66666}3;;(6((>>>---:---):))::')%'''')'),,!,,,~,~a~a#awaaa~a#awa#awawa,[*t*e]=[3};;666;;;;>>>>>>:)):5::)')))!)!,!'!',,,,~a~,,,#aaawa#awaaawa#awa#awa,]^^*r0=[;66;((6}6;6-:--)::_))%):!,''!!',!,!,,~,,,~aaa~a~a#awawawa#aaa#aaa#aaa,=^^*r|0|6;(>((6;>->:_(-))))''':',,,'!~,,,~,~aa,~,a,aa~a~aaa#a#awa~a#a~a",
"~~a~a~,~,~,#aw,,%30*4|0<];66}6};};;;66}(;;((>>(--:---5:))')%)''')'',',,,,,,~,~a#a~awa,a~a~awa~,12^*&2=<>66};7}}((;6(6>;(>--:---):)_:)))!)''!!!)!!,,~a~,~,~a#awa#awa,a#a#a#a#,1^b*&]0<[}n}67676>;;>(>((>--:::-5:'):)'!!'!!'!,!,,~a~,~a~a#wwa8wwawa~a#a~a8aa!|^^^9]=2&k}}6}}};>>;-->----:f)))')')''',,,,!!,~,~,~a#a~a#a#awawa8a#awa~a~a~a~!0^^*|9|2]6>(;(6->>->->>:->)-')f'!!!)!,,,~,~a,,~a~,~a~a~a~a~a#awa#a~a~'~",
"~,~,aa,',,~,~aac!}0^<|0=91;3}}}}}776>;>;(6;6>>->>>(>:>>-))))))))')''''!,~,,,~!~aaa~a~,aaaa#awa!32^*&2=0[n7}}}761}}>(>6(}>;5k>(>-::-k::5)')''')'')!!',a~,aa~aaa#aaa~,aa#aaa#,'1*t*&00][}}6}}36766>>>6>;->::---)5)))')'!')!',)!,c,~,,,~a#aaawaaawa#a~aaa#aaa!]^^*9]=09};66n}(7;(---;>>->5:-)5)::)'')!,,!,!,,~,,!~,a,#a#a~a~awa#awa,,~a~a~a,=^^*|&009}>}6(}(;6;-:---:>-_:''))):'!')!,~,~,~,~a,%~,~,aa#aaa~aaa~aaa,,",
"!~a~aa,,a#a~awaa:1=*40<|]3}7}6[16676(l;>66;>-->:-->--):5k5'''))')')')%!,!~,~,~,~a~a~,~a~,~a~a8'[<^*9200[631}7}}77;}->>66(6>--->5>:_-:):)'!'!'''!',c,!,!,,~a~awa~a8a~aa,#,~aa'[*b*&4]|[763676}7};}>>>;->;>-:->g>))5)))%',%,,,!,,~,~,,,~a~awa~a8awa~a~a8a~a#%]^^*e]0e]66}66}}}6>}>-g>->>_::))):''''!!''~!~!,,~,,a~,~a~a~a#a~a#a8a~,#a~a~aw%=^^*e0/&|7>}(;17-(>>):>:->::))))''''!,,!,!~,~,~,~,,,~,~,~a~a#a~a~a~a~,~",
",,,,~!,,~,aa~,)>'[=^**<0[=}37}11}7666;;;(;;;;;>>->>>:k:5)-();!''')')55)'!',c,!,a,,,,,,a,a,~,,_'[<^*|<2[0}1337[7766};;;6;(;>;->-->>--5)))5';!''!)'''''!,',c,,~aaaaaa,~,aa~aa>)1*t*=*<3]&;3}}7}1}6}7;;66(;>>-----))_:)))-f(f~,,',,,',,,!a,a,~aaaaaa,a,aaaaaf:|^^*|0*[|&37}6}}3}6}36>>--;>>-_-)5)'))'!'''f5~',,~,,%~,,,~,,,~aaaa,a,~,,,~,,))=^^*&0*930;}}(7766>>>>;->-k:-:55)')''!',!!-c(a,~,,,,',!,,,,,,,,~,,,~,,,",
"!,,,,,,,,~!,,a,!)12*^<<<|]}33111[[&17>6}}6}(;(6(>(;->->5))3(3-;''':'))'!',,'!,,~,,!~,~,~,~,~a,)[<^*]<<=]111711[1&1}6;77666>>>-_>;--5-:)'(6(--''!)'''!,!,,,,~,,,~,aa~,~a~aa,,)[^b*2/<=|[631[11[v1}((}7}6>>>-:-->-5)_5''-7->:'a,!,,!!~,,aa,~a~aa,aa~,~a,,~,,)]^^^]2<2|&}1113[1717>(>;>>6;>-:>'-:)'))','}::)',~a,!,,~,aa~,~a~a~,,,~,~,,,~,,:=^^^]=2*&|-771}7311};_>(;>>>::>5)-_)'))',!;>()k,a,!!,!,,,,~!,,,,~,,a~,,",
"'!')')'''''cfcac-&2^*2<**=}&[[3171[17[3[76(>6}(}};66(-66-_-;-;;:--5::-':::':''!,!''!!''c',!fa,)&<^*0<*<<3[[}71711&1[}1}}>666;;(66-:(6;>::(>(()-:)---f::)'!')')'c'!',~!,!!'',)&*t*==*<*13[[1[7h1[7763}}6;;;>>66>>->>6l))>:->)''c)5:'''))'')''!!'!'!!',c''!,'0^^*e0*<*9}[&[1}71[}}>}>;->>>6:->>-):-66>555:>'!',!,)''')))')'!a!'''!!''''')''=^^*==2<*];1[171}7[}66h7;>>;;>-;-)>::);-5')5):>c'c'')'')5f))'''!''),','",
")!,,,a,',,'5aa)'-[<^*22<<<1}1i&3[111[16}}}66}6}}6l666->>>(}-:);(6k-_-5)'),''',)!'~,,,,,a!),''%-[*^*2/<<<[([391[}11[}}}}}66}}666-;>>>;-->(l>:>>-):5::-'',!,,,f!!,aa,aaaa)!%)%)[*b*2=<</e>[1&1[1[31}66}666}6;66k>6>---:5>>-5:>-')')))'!a!,!,'!!~aac~aa,,''!,)]^^*=2<<<0k13&[1}1717;6766>;6;k;_>l-_:_->>-:))->f'!)5-),,!,,,!',~a~aa%a,~'%:f)=^^*m=0<2<6671[17771}6>3(;>;(>(;:)>>-5::':>)c'->%'')%''c,,,!,!'',,,,,,a",
"!)'''_))ac,'):'')[<^^*=<<*|7971&&9[9[[1[1111}&[}7(}7}}7};}>>l;>77}>>;((>>>>_>>!)''':_'a,,c'-!):[*^*4=22<=}&&[&&9&9&v[137&11[1}7(>(}66}6>::-6;}6;>>>>>>-;->--!c'',55'aa,,'('))[*t*4=2/<2}[&1&v9&v[1137}771[[166-76}(}>;--:>--6;:_>>>5)>-):>',fc,')),aa,,,,')]^^*2/22*<[}&1&[&&&&11176113}[}76)(>6>;(-)))>-_}}:-:>--:>:---5c'','')',,,a--'f=^^*p2=2<<&693[[&&[&3376}776611;6)66}>6;;--)--:6}---(-(-_->)--'')!))>:,",
"):>:)>>::)-))))')3<^*/2=<<2[111&[[&1[[[[[}};7;13q}66}}6(>;6>}(;(;;_)>>;>-:::-)))>:''--:-),)(''_1*^*92=<<2e[v[1v[&1v1[17}7}7677117}671;;}7-(:6>>56>->---'''l:5'-5))>-:,)))>)')3^b*e<=2//0}v[1[[v1[}h}6}}716}}6};66;(>>;;->)(>>:>--:-)5'-5)'>fk::f>--,)))')):|^^^|0=/<<=[[v1[[[[1373[}}}66;(;7}>}6>(>66>(--:;:-)))::--:-:5-':-)'>)5)::)'-)_0^^^0===<<=&1[7[31[177j33;(>6>}7}6-((6-->(5-(>:>-()):>--:::-:)):--)5->-",
")'')'-)))'')!)''>[2^*42=<42=1t[[3[[[[[311}}}}}}17}}}766;;}6;}}6;;>>->>-:))))':)f'),f''')!'f-5'-&*^*02<=*<2}&&9i[[[11717}7177}[7373}3}}6}6(;6;(>:-----:''!'!)')!),''''',')5-'5[*t*0/2=4<2[[v&1&&[[11177}77763}6}}}7s66;>->(->-:)-:>:)''!)!'!',)!'''c!'!'))):0^^*00<22<29}&&&&[11[177[7}}36}6}}6}}>6>;;>>6--->5:)-5)''!)!f,'!'''f)')!'',5>-2^^*2220<</0}v[[11[1[1377;}(6(6}6(6;}>(:-l--6;>-(::)-:-)'!'!'')'')%')')",
"5)--:k:--:5:)'):>1<^*p20=2<<[191[1[[[1[113776}}73}6;66}(}((>(>66;l;>6>:k>>-:>5))-:'):)-))))!))_[*^*]20=2<=96&[[[11[117313}677776;;66}(;6}(>>(;6>>->(>k--)::)))--'':)-))))''))1*b*m<022<2=;9[v[[1[11}7771}6}}76;-666(;(>--5>>;>>->6(->-::::,,)))'_'_:-'))')-]^^^r==2=4==;[j&[[3[113713776}}};>-6;;>->;l:)--;---(>;->_-5:-''):>):)-:)):''5:=^^^m2==022<17&1111[117}}}}}-;s};>:>l;6>>->-->-(>--(>>5-->):-c'::-'5:--",
"));-'6-)))))')'->[2^404==2<20[&te|[&[&[&[&1&17}&|]9[&3}}666373(-->>;(;>-:>>;>>5':_';l'''')!'):-&*^*0/2=2<<=1[&9|[[[[1[[&[1136[9e9[[36};}37}}>->>---;--5>_(>-)))-':>)')''!)'):1*t*]22=2<<09[&9]&[[[111[&1[7619|9[[1(6>;>666;-->::5;;:)_:->-)''-'f>)''')'')_-0^^*=02==2*=97v&9&}1[3[1[[1[};}[9|[11>;-;}6(;>-)-55-6>:))::--:)':)'>-')')')')-2^^*=e*0=240]3[[|911[3737[313>;199[6[(>->>>>;>-)_::-;-:))_--;')'_:)>;))",
"93&[11[77;}336>:>[2^*&rp==<<2==0/220=0=02==]ee=000000|]0|99&||91[[&[[&9&&&&[99&311[116};;776>_>[*^^9|<0=/2/==]=220]0=]2==0||]00]00=||0|&]9|99[[[[[[[&[&&&&9&[33111[6};;6}};--3*b^|&2=0<4=2=0=220]]=]===]e9]0]r00=e|]|&&&e9|[13[331&11[&[&&&371[7[6}6>67}6-;]^^^rv0=r22<==]02200000===0]9|]=00]0]&||[9&&&9&373711[31[9[&&&[3311[76};;373>(=^^^=&]202<<=20]22=000]]==0|99]]00]0099|[[[999&3}37131311&[[&9[11[1[377",
"0=0===000]]0]]9[39=^*e9<2=<*<<22===2=2=000]000=/00|0]00===]]]]9]]]0=0=02=e9||e]===0=0000e]e]&[79<^*0&=2=/<<*2200==0==00]00]0=200]]r=0===000]9]e00=0=0=0]||9||00000]0]0|]e]9[}[<b*0t0/==4<4220=0=00==00]]000<=0|e00]0=00=0]|]]00======0]]9|]00=000000|]e]9[1=^^*29|/==4/*22=00=0=2=00]0]00=2=]]]000==0=]]|]]00=00===0]]||e=0=00]=00]]]0|&3<^^^299<==4<*/<==0=====]0]0]002/0]ee000==0=009|]00=======e|9e|00=0=0=0=",
"=2==0]]0=====09[9]2^^<*4*4*4*4<**4*****44/4/<220=44<***2*22==//22<4/422===22=]=<==0]]=======&[9]*^^<*4****^*<*44*****<4p*2</<0044<***24/=00=2222<2</=0=0==0e=2=00||000===0&1[9*g^<*/***4*424*******442<=<=<0e//<*<*2</==0=2<</4p<<2=20=2=]=/200]0]=02===|[|*^^^4*<******<<*********<*2/2400/4<*<*/<<=/=<</2<*/<<2====2=0=22==|]02=2==0|[r*^^^*44***4**/4*<*******/4</=400p*<*<*/4<=2=//p2p4<</2=20=220022=0e]02=",
"****4***<*4*2<4<2**^^^^^^^^^^^^^*^^^^^^^^^^^^^^^^^^^^^^**^***^^^*^*^*^^^^^^*<^^***4***<*<*2<44/*^^^^^^^^^^^^^^^^^^^^^^^^*^^^^^^^*^^^***^***^4*<*4*4^^^^***/^**4<2/42=<2202<=0<^cp^*^*^^^*^^^*^^^^^^^*^*^*^*^***^^^^**^***^**<^***^^^^^^^*^**4*<***<*<*2*</*^^^^^*^^^^^^^^^^^^^^^^^^^*^^^^^^^^^^^^^*^*^*^*^<^*^***^^^^^*^**4*<**4<*<42*<<^^^^^^^^^^^^^^^^^^^^^^^^^^^^*^^^*^^^^^^**^***^*^<^*****^^^^^*^**<*<**4<*",
"^^^*^^^^^*^*^*^*^^^^^^^^^^^^^^^^^^^^^^^^^^^^^^^^^^^^^^^^^^^^^^^^^^^^^^^^^^^^^^^^^^^^^^^*^*^*^^^^^^^^^^^^^^^^^^^^^^^^^^^^^^^^^^^^^^^^^^^^^^^^^^^*^^^*^^^*^*^***^***^****4**^***^wx*^*^*^*^*^*^*^*^*^*^*^*^*^*^^^*^^^^^^^^^^^^^^^^^^^^^^^^^^^^^*^^^^^*^*^^^*^^^^^^^^^^^^^^^^^^^^^^^^^^^^^^^^^^^^^^^^^^^^^^^^^^^^^^^^^^^^^^^^^*^^^^^*^*^^^^^^^^^^^^^^^^^^^^^^^^^^^^^^^^^^^^^^^^^^^^^^^^^^^^^^^^^^^^^^^^^^^^^*^^^^^*",
"^^^^^^^^^^^^^^^^^^^^^^^^^^^^^^^^^^^^^^^^^^^^^^^^^^^^^^^^^^^^^^^^^^^^^^^^^^^^^^^^^^^^^^^^^^^^^^^^^^^^^^^^^^^^^^^^^^^^^^^^^^^^^^^^^^^^^^^^^^^^^^^^^^^^^^^^^^^^^^*^^^^^^^^^^^*^^^*wy^^^^^^^^^*^^^*^^^^^^^^^^^^^^^^^^^^^^^^^^^^^^^^^^^^^^^^^^^^^^^^^^^^^^^^^^pt^^^^^^^^^^^^^^^^^^^^^^^^^^^^^^^^^^^^^^^^^^^^^^^^^^^^^^^^^^^^^^^^^^^^^^^^^^^^^^^^^^^^^^^^^^^^^^^^^^^^^^^^^^^^^^^^^^^^^^^^^^^^^^^^^^^^^^^^^^^^^^^^^^^^^",
"*<<<*<<<<<<<<2<<<****<*******<***<*<*<*<*<***<*<*<<<*<*^^^^^^<*<***********<*<*<<<<<*<<<<<<<<<*****<*<***<*<*<*<*<*<*<***<*<*<*<<<***^^^^^^^^*^^^*^^^*^*^*^*^*^*^*^^^^^^^^^^^*^wa*^^^*^*^*^*^*^*^*^*^*^*^*^^^*^^^^^^^^^^*<*<***********<*<*<*<<<*<<<<<<<<nv****<*********<*<*<*<*<***<*<*<*<<<**^^^^^^*<*<***********<<<*<<<*<*<*<<<*2<<*****<*******<***<*<*<*<*<*<*<*<*<<<*<^^^^^^*<***********<*<*<*<*<<<*<<<",
"3133}373}333}}}}6333}3}3}3}}}}66;};6;};;;6;;;6;;(;6;(}39*^^^99&&&&[&[&&[[[1[3131733373}333}}}}6373}}636}}}}}6};;;6;;;;;((;;;(6(;66;}}|^^^^^^^^^^^^^^^^^^^^^^^^^^^^^^^^^^^^^^^^^a+^^^^^^^^^^^^^^^^^^^^^^^^^^^^^^^^^^^^^^^9&&9&&[[[&&&[[1[3131737373}3}3}}}}6}}3}}6}}}6}6666(;;};;;;;;(;(6;;>(;};}}=^^^^]&&9&&&&&&[&[[3[113333}373}3}}}}}}6}7}}}6}}}}}6}66;6;;(;;;;6(;;6;6(;;6;}7=^^^*]&&&[&&&[&[&[[111173}3}3}3}}",
"-):)))))))))))),')'%)!!!!,,,!,,a!,,aaaaa,a,a,aaaaaaa,aa'[*^=->;66>;(;>3>;(>----:)::))))))')%,!!%!!''!,,,,,,a,a,aaa,a,a,a,aaaaaaaaaaaa,[^^^^^^^^*^^^*^^^*^^^*^^^*^^^*^^^^^^^*^^^d m^*^*^*^*^*^*^*^*^*^^^*^^^*^^^^^^^^^^^2}>666>;->-}>>>_)5--::f-:'')%)%)'%,,,',,,,,,,,a,aaaaaaaaaaaaaaaaa,aawaa,aa'=^^/&>666>;(>(>6(-_-:::):')!'%'%'%',ca,,),!,,a,a,aaaaaaa,aaaaaaaaaaa,aaa,aaaa'<^^29-(>>>>->>>6-:>-)):)),)''!'!",
";)):)))))>-_)_)'-}>-_-__)!,%,,ac!,ac,,acaaacaaaca,acaa,'3]^<((>}>;>>6;>61}6>63}_):)))))-}>)-5')>___>:>)c,,,c,,,ca,,caaacaaacaaacaaaca,_0^^^^^^^^^^^^^^^^^^^^^^^^^^^^^^^^^^^^^^a  +p^^^*^^^*^^^^^^^^^^^^^^^^^^^^^^^^^^^^/1;167>>>>;5:>}6>>}}>))))''')>6)',!'>5_'''))),,aca,aca,acaaacaaacacacaaacac|^^4[>6-;-(>-}6>;7;>-}}>%)''''!'_-)',',_>-%)')')acaaaca,aca,acaaacacaca,acaaac=^^49;>>;->--;-->3;;:;6;''!'!!,c",
">--5:)):))>6(_)-}}}>>)>>_'!,!,,a,aaa,a,a,a,a,aaa,aaaaw,'3]*/;(;>>>>>(>>>[}[[>_>_-:-:::)5>6>-)';;3_>____,,,!,,a,aaaaaawaa,aaaaaaaawaaa,_7fcfcfcfcfcfcfcfcfcfcfcfcfcfccwcacwcacw    +acwcacwcacwcacwfcfwcccwfaccfcfcfcfwp/7-[>(>(6(--:(}}&6_>:_))))')':>6)),__;>_%!5),,a,a,aaa,aaaaaaaaaaaaaaaaaaaa,9^^<&>1l>>(>>>;-(3}[1':_:))')')!');k),:>>>_)'))%,a,aaaaaaaaaaaaaaaaaaaaaaaaaa,=^^<|k>>>:-->--:-7(1['_-:'')','!",
">;6;--->)-);]&;6>>-_))))')'))'!!,c,,,c,c,c,c,cac,c,cacac60*<337}6}6;->>>;1>}>;;;>>--->-):-[[;}}}>))_)))'')))!c,c,c,c,c,,,cac,c,cacaaac'6a                                                                             m/16[6}661;;>>>1;66>>(->)>:_:)-);&}>>>:)''!'!,,%c',c,cacacacacacacac,c,c,cac|^^*&3&66};};>:--;>>6-->-;:5))))5)>e[>-_'','cc,c,,,',,acacacacac,,,cacac,c,cac0^^49}6366(;-_::5(}-;-:>-_))')))",
"36;>>->>;(--;[->>--)-_:))')))'',!,',!!%,,!,a,,,,,,,a,aa,}0^<&3[;677;};>>63>;7>3}>6(->>;'-->9(;;-5):)_''%)')'%'',!,,a,,,a,,aaa,,aa,,aaa';9d                                                                           +4291[;}6};}>>:>}}-1:-;>>::-::))))7[)>))))::!!,!,',,,,a,,,a,aaa,aaa,a,a,a,aa,]^^<961}}6}>>>>:>(6:;;>;;--::5:-5'5-[')'''!')!!,,,,,!a,a,a,a,a,a,a,a,a,,,a,,,a=^^<9[33>>};(>>::>}:(;-;>:_'))::",
";6>;>(->;;;;;1)6>>->->>)))))')''''!'!',ca)'c,',)!,,c,ca%60**[[[66;6};6;6;;1;;6;};;>>->>}>;>&;>-->>--6))'')!)!'!',!,c,!accca''c,c,cacac%;&r+                                                                          d*<&[7};6;};>>;(>}3>--;->-_:-_-:;->[)--:):-->,c,',c,c,c,cac,cac'cac,c!%,cac,c|^^*&}&7>6;6;;>>>-(35;>>-_-::))----:7)5'')')'-,!,c,c,c,cacacacaa,'ac,%!%,%,!,c0^^*9[[1-;-;6>>>>>:1---_--))))')",
";>>(6>>>;->->76;>>>>>-9;_!''))))'!!!c,!,,a'a,!)%',,a,,,)3]^<&[[66;;((((;6;66;>;>;>;>>:>>;[-6[(>->__:37''%!)'5%),,,,a!,,a',a,),%,,a,w,,)>[<c                                                                          d^<&31;}6;>>>;>;7>;>>;;>->-:->:_1-'[;-):))):[),,,!,!,,,,a,a,a,aa,aac!%!ca,a,,]^^<|7]1>;(>;>>->7>>(>--:)>-:)::->7'}6)!)%)!%[>a,a,a!,!a,a,aaa,aa,,a,%)%','a,,=^^4|1[}>->->->5>}>-(::):))))%!)",
";;;;6;>>6}(>>666->>>>>[}))))))')'_')!'c)c%cc,c'''c,'ac,'30^*&[[;}}}3}16;(}6666;7;;6;>-;;(6>>;->>>>>-1&!)))'):)''!'!c,',c!',c!c'c,',cac_;7<i                                                                          w^4|&[}}}666}6;}37}>;;;>;>-:-->->5_---_)-):-9>c,',c,),c,c,cac,cacaca%c',ccca']^^*e[|&>66}}7};6676(>>>:>:>-:)>__)):>)'')')'1}c,c,c,c!c!c,c,c,c,c!ca'%)cc%%a%=^^*e&71-;6;666>->6>---_-))-))!_",
"6;}6;>>>>;66>-(>}>>--_(&;!'))!'))'','%)%',ca5)c,!,c,,ac'}0^40[&;}73}}176}7}6;>}66>;>>>>>>>-_>5>)):_):1}!'))!)!!!%,'%%%%a,ac'!,'a,,caa,)>72i                                                                          d^<e&&}3776}6}6}}76;(;--(;--::::)-5:::_))'''-[f,ac,,,',,ac,,,c,,ac''ac,,acaa,]^^*]|9&6}}6}67;6}}66:_-->>::))):-_')')>5%'!'5[-ca,,ca,aca,,c,%,ca,'_,!!!,%,c,=^^*]|[[>6766;7>-;;->_:>-:5))))'",
"67}}6;->>>;6(>->6;>--:5(1}')))')''!'!5))%c:f,:cc!c,cacf)1=**0|9311}3}1}}317}}}6};7;(>>l>>;>-_->>::::5);7'''_)'!%,c,)))%c'kac,cac,cac'c>(}]i                                                                          w**]||j[j3373}37}}6;}(((6>6(:)-:-:_:))-')')!)51:c,c,c,cacac'',%a>cc'c,c,c,c,)0^^*]0e&}1}};77}6366;;_>;}--5))))>5:'''-))!',cf36',c,c,cac,cc)%%a'!cc'!c,c,caf2^^*0]9&6176666;(6}6>;:>>--:))')",
"66};6;;>>>;;;---:k--->>->}-'5)'')''!!,):),'cc'c,ca,,ca!:&0^4]09717}}7711777}176}};6;;>>->6;->-:l-__:)%:(l!)'),'!c,,,'))acca,ca,aca,acc>>7|i                                                                          d^4|]0}[17}77767}66}6;(;>;>>-:5>k::'')')''!:)')6c,,c,,acaaacc)'cccac,,aca,ac)=^^*0]]&3}76}6};}}}}766k;>---:5)):-))''c'!),)''%-'c,caca,acacc)',aca,,c,,,c,,'<^^*0|][}}}>6;6}}(6;>;;->k:::))'",
"6}6};66;(;>;66>6;>-))>>;->>_)))''''c!'!c,%,c,cac,c,c,f,)[=**]29}37777113}73}}7}666;;;;;;>(;6>;6->_)::>--)')'''''!',c,cac,c!%ac,cac,c,';(}|q                                                                          w^*e==}7[77}377}}}}6>>(>>(>>;--:-->55;-)-)5f)))'5,c,',c,cacacacacacac,cac,cc)0^^^09=&7[77}}}3}66}6;;(>(>-->:::5:>:)--'','')))'5!',cac,cac,cac,c,c,c,'!c,'c)2^^^0]=9;};66}}};;(;-6;(---:)_):",
"66;};(}>(>(-(;>:>->)))--:))::')')''!c!ccc!cac!cac,cacac'&=^4|==[737311137}7;}}}6>6(>}(>;(>>>>--5-5):-::))''''f)!c,c,c,cac,c,%a',cacac,}(}&n                                                                          d^4|]29177}}7737}}}}(;>(>;->---:):>-'f))))fc')''c5'c!cacacacacacacac,c,cacac'0^^*ee=2&;7}7}737;;666>>>->:->:::))):'''''c,c!'!c,c,c,c,cacacacacac,c,c!',c,c'2^^*09=0[676}}76}>((>((>>:-')-)'",
"}}636;66;;>6((>>--->---_:-->:_:):5:)5)')!'!'''')'cc',fc_[2**&=22[171317[3}}373}7;};;6;(}(;>>>;>------>->-))-))))''''!c,c,','''cc,ccc%'66}&n                                                                          w**&e22|333713}}}6}}}}};6;>->>>>>:(-:):)))_))'))::)!f!c!c,c!c,c,c,c,'cfcc!c!)0^^^e]0<]}}37}737}>66}66>>;--(--:)--))'f')'f')c')5)'c'!'!)%f!c!c,c'c!'')'f')')2^^^0&=2]1}}}}}676>(66;((>-_:-5:",
"}666}(;;36;(;>>>((>->->:->-)-:>:)::):)))c!'!'')cca''c''_[=*4|20|&7[11j[71776}}}676}6;;;((>>>>>(;>--:--;>-'))-'::)'''''c!c'',c,c,%,cac';;}[l                                                                          d^*&0=]&1733111[136;6;;6;;;>->>>>-:-:::-)))5')))')''')c'''ff'',c,!,c'''''',c)=^^*e9=0|[i1161373;(>6>>(>;>-:->-:-):)))-'f')''')''''''!f''c'!',c,','''c%')%')2^^*0&2]93611}77;}6;>>(>>>>(-)k-",
"}13}}};}66;6;6(((6;>(----(>>::-_)-):))')!')%c)'%,'')cff-&2**]*]0|31[1[131[1&}}}}}}7}6}7}}};;6};;>>--)->>-_:-:_:-')')''c%''!''',%!'ccf)(6}&g                                                                          w**02=90q}[1[[1117&36;}}6(6>;;;>;--:))-->'>'))))))'':''')f)!''c!)c'''!cc)'c'-0^^^]=29091[[71373}31(>6}};6-->------:)---f-))'5:))f')'f)''''%c'!'c%')!%')))'52^^^|9/||9;31}33}}731;>(>;>6>>-6",
"7737}}}6}}}66;(->(;1(7-:>->---;>-:5):))''':,f:)''')'f5;-&2^<0<<[27[111[1[[[777777}}}}6}66}6(;>>>>3>}::>g-5-->:5''')')''''!'')!'''''c}:;6}[-                                                                          d^*0=*9e93i[71111[176}6}}6666;(((>--55-->6l>':')')'):)!'''''!',c'c,)'c''')'>;0^^*0=*0[9&1[111q117}(}}}6}>;((>(->>-))f:57-}'f')))':5:''c'')''!'''!:)'')'))_-2^^*=0<2[=771733311}6>6;};;((>>-",
"617[13}31}63}}71}>(3(373;>>;6>-(->-:):''c)'%)_))f)''c)f>&<**02*<=[&&1&v&&|9&[1}137133};}}}}}63}>>}6}}1;>->->:):;-f)-:5c)''':f''',c%'')}3}&g                                                                          w**0=<*2&1[[[[&[&|&1j}673716}}7-;;;>}};->7>-66>:)5>)):-5)c'cc,'ccc)))%)')ff)>0^^^]2**09[[1&&&[&9&[7};7}376;63;>;;>6}y)-6(-;}>):->5)))):''c'cc''c)5)'))f')'-2^^^202*=079[7[[[&99176;}};766->",
"[136731}3}77}76(6}}}66;>>-;;(--):5>--):)))''5>>k-k5'-f5;9/^*=2<<<3&v&[&1[7[1[[&73737}7}}7}676>;>}76-67::>l>-:)-l>5->(>)'''-:5f-)fc:ff5377[-                                                                          d**=0*<*9}[v&[11}71[1[736677366>(}(}>>->n6;->:'55:))%))))))'c'''')->->:-5:-)-=^^*=/*<*07[[[11[3[[11[11}(;}};}66}l6->k;(};-:5))->:)''':-5'f))'''f5>>k->5)_5k2^^*2]2<423[vj[[}771311[}66;;63>",
"[[[[133[[3}7}36(;66}66((>;>;;;>>:(---:5_)--55>>-):(-(>>6&*^^</<*<|7t&|&t[[[113111[177177;3}}66;}6}(;>;>>>>>(->->:-):':)5::)5)k5)>>6>55617&g                                                                          w**22<4<26[&99&[[1[[111}137737}>6}}};;;(;((>>:_:-->:-))5_)5''))--':->;_5;>(->=^^^2*2*<<719&&&[[[&}7}17[71}77[;(666(:>>>(;>_)_:-->-_)):5)5)::):-:_->-_:6-;>>2^^^//=4<*&}&&9&[[1[6}}1}17}>}}6",
"77&[31[1vv11767;}1167>}}[}7>617}1}6;};s)}6-k7}>:>-)->::-[<^*2=/<<=[99[e&9&9131[[7[11[[7[[}}}1;}[17}>6637}-(}}}}6}}}:5)(6-:6}6:>-f-75));13vl                                                                          d^*==22<<9[|[9999&&[1&1&1713[}3v63}3}77[}6l>6}76>>(}6}}(}}}-5:;;->}};l-:)};:-0^^*2/2<4<e}9[&99&&&[1[77[13111[[}}(}66;3}(6(6}166->76}76;}};();65-}3>)->)>(--2^^*2==242=39&[9&&&[17[1[61}171}",
"[[[[[17&[[1[7717}}}76};}6;6}(6};>;(;>;(6-6;k->(;>(>>(>>6&<^*e<2<2<]1&|99&&[&1[[&1[[[7[1}1[}13}76}[7766(;(;>;6;->-(->;6->;;>>(;:>(->>>>6[1&l                                                                          w*^|=2<<<2[[t999&[13[[&[111313}}[}13}}}66;}6>>;>;->>6>>6;>;>6;>->:>>>-6>}>6-60^^^=2<=<*<919[[&t&1[&[[1131}}[111}663}}6}};;>((-6(>-6>->>>>>;6-(;:->6-(>;-;->2^^^29/=<<20}&99&&[1[[1[1371}}17",
"v[[1[111&i1117137}33}6}676}}3}}6}}666>}6-(6(;5;>>k(->>-69<^*=2/2</=3999&&&[[v[[[[1[111[3171311[7}136}6}(;;}666}6(((;;>((6}(:>(:-lk_:-_7[[&l                                                                          d**0=2/<<2&39&9&&&[1[[[&1[311113771}}7}76}6};((6;6(6(6;7>l6(>(>>k->-k->-;6(>>=^^*=222/</0}&&9&&vi[[[1[11177[i1737}37;}71(;;6};;};66;(6(;(>66k((;>-((->(-->><^^*2]22/</01&9&&[&1[1[111131}31",
"1[&&&[i1[&9[}33111[1}};6}663}736;7}}6;}6-(((66>>>>->l>>6&*^*0<=22*2=1|&&[[[[[&[[&&9[71[&&[}7311133}66;7}6}}}}3}6>6;>>;->(;;6>>>>-(>-:>}&[9>                                                                          w**r/===*2<[&&t[&i[[&[[[&[&}11[[&6667116}6;>>>}6}}}67->(6(>>;>>6>l6>;->>((>-6=^^^===22*/<&19t[&[&[[[[1[[&711[[[};677171};->(}666}6h>(}}6;>}(>->>6;;:>>>>(>;2^^^20p==2<=]79&[[111&[[7&[&7}31",
"||099&&[0==]]|&&&[&[9991}}3}}}13}3[7&1}}>>;-66>>>->->--69<^*|<<=2<<=||]==]|9|9||]|9&&[|=000]&[&11[&9|[3}}66677}}3}3[7;>:>>>;>>>--->6:-}&&9y                                                                          d^*r]*0=/*=0&e000|99&99|]9&[[&00]]|&3&1}}1&9[};6>>>;}(>6}631;>-(>>;(>>--->(;;=^^*=|4==/*2=[9&]0|&999&9|&[[3[]=0]993[1773[&&7>;>>-;66>6}}31;;>->>;6>>>>-(;6(2^^*2&42=2422&99=0]v&&&&9|9[[31&",
"=00====*20]00002<222=0]0000=00=2=00=0==20=00||9|&9]0|[q39<^^||<2=4<*<<2==222220200===*/=]00===/2=2==|]]00=000=0==0e0==00]0e99|&&|]e&1639&|y                                                                          w*^]90<=24***/2=22222=2000=02<20]]==0=/==0=]]]]]0]]]=000=]00=00]0]|9|9&9]]|[1=^^^=9e4=2<*<*<=02222<==]===0=<2]0]0]0=<0=0=e]]]e000]00=]0000===000|9||99]]][3/^^^/|9<22<44*<2===2=2==2=0=0=<<",
"2====0====20==2=2====0=0=022===0=0000]]0=00]=0=0000]0&&&]2^^20/<<<4<42<2/2<2<22====0=0==2===2====0=0=000=====0000r0]|]=0000]=0000]]&[1[99|s                                                                          d^*200<</4<42/2/2<22/2=00=0===0/0=======02]=000====2000000]]]==0]0]2=000]0|&&*^^^40=44/*<*/<//2<2/22====0===02====2==2020=000==2=2=000000]]==00=0===00]0|&9*^^^*=0/4/<<*/<//2//222=2==0====",
"*^*^*^*^<**^*^^^4^**<********^****4*444*44<<222<<*<<2=0=/^^^^^*^^^^^*^^^*^^^^^^^*^***^4**^*^^^4**424**444<4^****<*4*<*4/22===22222=0|e]|&en                                                                          w*^*^***^^^*****^^^*^*^<****^4<4**^*^4**4<44**4*44^**********44<2222<<<<4<=]*^^^^^^*^^^*^^^*^*^^^^^*^*****^4**^*^^^4^**4*******4^**4*******4*<<222<<<<<<=]*^^^^*^*^^^^^^^*^*^^^*^^^*^***^4*",
"^^^^^^^^^^^^^^^^^^^^^^^^^^^^^^^*^^^^^*^^^^^*^^^*^*^<*^^*^^^^^^^^^^^^^^^^^^^^^^^^^^^^^^^^^^^^^^^*^*^*^*^*^^^^**^^^^^*^^^***^******<***<<r|]n                                                                          d^*^*^*^*^*^^^*^*^*^*^*^*^*^^^^^^^*^^^*^*^^^*^*^^^^^^^^^^^^^^^*^*^^^*^***^*^^^^^^^^^^^^^^^^^^^^^^^^^^^^^^^^^^^^^^^^^^^^^^^*^*^^^^^^^^^^^^^^^*^*^^^*^*^*^^^^^^^^^^^^^^^^^^^^^^^^^^^^^^^^^^^^",
"^^^^^^^^^^^^^^^^^^^^^^^^^^^^^^^^^^^^^^^^^^^^^^^^^^^^^^^^^^^^^^^^^^^^^^^^^^^^^^^^^^^^^^^^^^^^^^^^^^^^^^^^^^^^^^^^^^^^^^^^^^^^^^^^^^^^^^**=0n                                                                          w*^^^^^^^^^^^^^^^^^^^^^^^^^^^^^^^^^^^^^^^^^^^^^^^^^^^^^^^^^^^^^^^^^^^^^^^*^^^^^^^^^^^^^^^^^^^^^^^^^^^^^^^^^^^^^^^^^^^^^^^^^^^^^^^^^^^^^^^^^^^^^^^^^^^^^^^^^^^^^^^^^^^^^^^^^^^^^^^^^^^^^^^^^",
"^^^^^^^^^^^^^^^^^^^^^^^^^^^^^^^^^^^^^^^^^^^^^^^^^^^^^^^^^^^^^^^^^*^^^^^^^^^^^^^^^^^^^^^^^^^^^^^^^^^^^^^^^^^^^^^^^*^^^*^^^*^^^*^^^^^^^*^^*<j                                                                          w^*^*^^^*^*^*^*^*^^^*^^^*^^^^^^^^^^^^^^^^^^^^^^^^^^^^^^^^^^^^^^^^^^^^^^^4c4^^^^^^^^^^^^^^^^^^^^^^^^^^^^^^^^^^^^^^^^^^^^^^^^^^^^^^^^^^^^^^^^^^^^^^^^^^^^^^^^^^^^^^^^^^^^^^^^^^^^^^^^^^^^^^^^",
"e]]]e]]]|]|e|]0==^^^^*0=0====2==0=0000]]]]]]e]]]]]]]|]|]]000]]]000]0]]]]|]]]|]e]]]|]|]|]||e]002^^^^^^^^^^^^^^^^^^^^^^^^^^^^^^^^^^^^^^^^^^^a                                                                          +x^^^^^^^^^^^^^^^^^^^^^^^^^^^^^^^^^^^^^^^^<0=========0=0000]0]]]]]0]]]]]97||0]0]0]]]000]0]0e]e]]]e]e]]]|]]]|]||]]]=^^^^*20======2==0=00]0]0]]]]]0]]]]]]|]|0]000]0]00000]]]]e]]]|]]]]]e]e]e]",
":55:-::55f5)-5--79<^*[[11113131&[}7}36}6666;6;6;;6;(6>>>(>6>>-;->->-::-::55:5)k55:k5:f)f)f5fk-69^4*4*4*4*4*4*4*4*4*4*4*4*4*4*4*4*4*4*4*44w                                                                            +o*4*444*444*444*444*4*4*4*4*4*4*4*4*44**&31&[11373133}636}6;;;(;(;>(>;(>>>-->-->55k-:k5_55)-_5f5f5)5f555f5f5:55_k[*^^*|[1[1[11337&3}6}66;;>>>>(;->>-->>>-->l>-_-:k:k::555::5f5f555)555):)",
"cfcf')c'cccff)c'5[e*2}73}}}1}76&13};>6}};6>>->>;>>->-55-;>-->:-_))):))'))fcfcfcfc)%fcccccfcfccc;&g+++++++++++++++++++++++++++++++++++++d+                                                                              ++++++++++++++++++++++++++++++++++++++p/&617}667}}}(}66>>;};_>>--:-:>__5)ff:>)))5'fffcf'fc'cfcccccccccfc'ccc'cff'f0^^<963}3}}7}6;1766>-6};>--)):-:-5:)5'ff>kff-c5ffcf'fc'c%cccc%fcc'fc'c'",
"'ccccccccccccccf>3]<2}[}}6}}}6}63&111(}6;>>->--->-;>---}};>>;(6(f'f'f''cfccccccccccccccccccccf)6}9y+                                                                                                                                                        y*<[;|1}}6}66(;1&71}}7;->--:::::;>)))5};>_>_5_>ccccccccccccccccccccccccccccc5=^^*966>6;;6(;6(}&}1};(>k-::):55):>-%f'6>;_-_->>%cc'ccccccccccccccccccc",
"')fffff)'fffcf'f)3]*21[77}}[76}66[1&&6}76;;s;;;>>-7&}6613366->}>5_k:)5ff'ff)ffc))fccc)'f'f'fcf';}[=pd                                                                                                                                                      a^^<&}e&66}1}}}6}[1&3>};;>>>>->)k5[[}56}};>:)k>5ff5'f'fcccfcfcfffcfcfffcf'f'ff=^^<|7177;}17>6;;17[[-;;>->--:-5k)6[}l5>}>--55>fff)'fffcf'f'fcccfcfcfff",
"'))fff)f)')'f'fcf}0*<1913117166663[;3}}}36;;6;66(76[|1}>;>(>>>;---_)-_5f)))')fff)'fcf'f'f')cccc_}[|*4d                                                                                                                                                    +4^^<91|&}33736}6;37>7;63>(>(>>>>>66&&}>:)::5':5)')f5ffc'c%cfcfcf'''fcf'f'fffcf0^^4|1&[}13}36(;;11>6};}6>---->>56>393:555):f5ff')'ff)'fcfcf')c%'f'c')'",
"f))5')f)f5)5ffcff3]^<9&&611[77717673}7711}}};}6}>6;}&;6;;>>}66--->:-_-:_):)5)5ffk)cfff)fc)'fccc>6[&**p+                                                                                                                                                   n^^^<|[|[3711}}}66636}}}16>;6>>6;->;61-6>;_5:-:5f))5f:5)'f'fcf'fc5'fcf')fff)fff=^^4e[[&;}[3}6}}};}66;66}>;>_>>>:->>9>>):)_-_-)fff)f)')ff'fffffc5ffc)f5",
")')'f5-:-5)ffc5f-3]*<[9[3}17[17}777[}}7}76}66;66171;3>};;;}}63l--5-->:::5)))5ffc5-ff5):ffff%fcfk63&=*<+                                                                                                                                                   v*^*49&}}317333;66}6[(6;6(>(;>>(}3};>&>(>--:--[ff')%fff%f'fcfcfccf-cff5)5f)ff)50^^*|[&1}}}}71666};[>6;((>>>:---}}1-6>>-5-_-)7kfcff)ffff%f'f'f'ff-fff-5",
"f:)5'5--_>:)fff5-[]^<&e&1[[11[337[71[q33}}}}6};};}3}3976;}}6(&1--_--->:-:-:5)5ff'5ff5___)))fc5f>61&]*4+                                                                                                                                                   i^^^4][v1}73h13}631;716}}>>};6(;}};}(&[;-->;->|h))f))5))f)ffcfcf'fffc55__5f:ff:2^^*][|131[}37};}76}3;};6>;>->->((6-}&;:_:-5:1[f5fff5fff5f)fff)fff)c5->",
"555)f-)g-:5f)c5'530**99911331[[}6}11[777177}}}}66}76}3};}}6>(1&--5>:>->--)5:5))fff5)5'5')f:'f'f-}3&|44d                                                                                                                                                   i*^*4|99[}}631[376}6777}}6;;}>>-66(--l>>>->>:gi7)f)f5))55ff')'f'f'f'g5))5)):)f:=^^*]&&967}73[36;6}77;;6};>;>>--->>->6--->::)1[zffffff_5ff')f)f))ff55)5",
":>_-5>(5f5f55f55-10^*]9e}11[1[[1331113}&17}3}}6}6}}}6};3};>6(6&&->--->->_5f:-_)5ffck()'ff)fff5f(}3[9=4+                                                                                                                                                   i^^^40]e1311113137}377}}1}6};>>>>;(;->>>}>--5-5[1)f5))f5f)fff555f)5f5>5f'5f5f5_=^^*0|99}37331[7367}};;[}>;;;>>-->>>---;>55::-v[kf)f))k))fff5)_)5f5f;-5",
">_5}kf55-f555cf-;[=**0]|111111[11313[7331}7}77666}3}}66;6;6(;>66&l;>>>-5:f5f-(>_-f)ff)fc)ff'f5k}73[&]4+                                                                                                                                                   i*^**00011173733131176};}7}66;;l>>66;>(>-->5:)5)n1:5ff5%fcf'ff>:_f65ff5fff:f)f(2^^*00|97[}17313}}7}76;}6;;>(;--:>>---:-5-::):k>[-:5f5ff'fcf5>__555ff:f",
"_-5-f_5k555555f5(9=^*=0|1&1[1[1&[[[111111[17717};61366666};6(6;;;}->((:k::5:fk-k55fff5fff5ffffk1}1[9|p+                                                                                                                                                   i^*^*=021[1131313[11131367}}}766(->};>>-->->--5-:>_:f5))fffffffkfff5f)55f5)55f-<^^*=]0&3[17j31[131}3}};}}}6}6;---;>>:-_-:k--:-5>(55_55f)ffff5555f:f555",
"5)5:f::'5f5f)f)5>&=**]=0[1[111[[[[[111377}7}773}6;}}};66666;((;66>>>>>:->:-55)5f55ff5f5ffff'f5_}73[&|0d                                                                                                                                                   i*^**002&1[1[1[1[311q}7}}}76666(}>>>(>>---(--:__>-_fkf5f))5ff'fffcff)fff)f5f5'-2^^*0r0e313j7111711}}3;6;6;;(6;;_--(>-:>----5:5>--5555f555fff)fff55555)",
"-5:-f55:5_:555->;9=^4]0*][[[[&[[[[1[1[[[1[11}13}}7717}}}6666};>;(6(>>-----5:::555:f55-5k5ff55--311[99e+                                                                                                                                                   i^*^*]]=2|7&[[[[[[71337371}}7}666;6;6}>6-----;--:--:55f5f5f5f5f)f55ff5555-555->2^^*=e0<0[[11i[3[717371}73}6;6}>>(;6;>;>-->->:_:_->5:f:5555f5555)55f5-k",
"-:-:55>>>555:fkk;[2**]=/=&[[[[&[&[[111[111[31}}33717}}36;;6;6;};;;->;l>:-:-::::555:5---::f)555-6&3[&|9+                                                                                                                                                   i*^**e==20&[[i[[[[17371113}}}6};;(6(;>>>>->-->>-k5>55-k5555f5fff)f5f55--_555:f>2^^^m0=20&3[11[[[[17}117}}7666>};66;-;;>k-->-->-k>_::-:5f555f5555:55k>-",
"----5----55-55f-}92^42<==9[&[v&9[[[v11[[1[[111377777}}}}}};;>}};66(>6;>>----->:5:---:-55l-f5fz>[&[[9||+                                                                                                                                                   i^*^*002=e1[&v[[[&[11771177177}7}}6;;;>66};>-->>->---->>:55555555:5k5_5-5-5k55><^^*==<]=&[[[1&&[111}}[3773}76}}6;;(;>;(6;--->>->--:>--:-::5-k:5-:-5-:-",
"-:--:>-:>-k5-5n7692**/*0|0&[&[&&&[v[&[[111[1&131771}}776}}76q-};;;;}7(6((>>>>>-5k->:-:-5k::5>6-}&1&&|9d                                                                                                                                                   i****]2*90&1&[[[[[[1[i[3171117}}1}}666};;(6-}s5>>>>->>-->----g-555k:-5__-:k:-;}2^^^|=4e&01[[[[&[[1[[1176}}71j6}(66;(6;>>(;>65>-->-;;>>>->->->::_---_--",
"->>>:>->>>->(->7}92^**<*|2[&&&v&&&[[[[i[[11q11[[j1137j3}6}&}[}6}66(}6;;6;;>;>>-->>k--(->-k---}>19[[9||+                                                                                                                                                   i^*^*=/*=0e9[t&&&&&&131[1[}7717137776;}}(;6[(7(n>;>->;->>;->--kk_>-kk-->---;>>72^^*02*<&0[[&[&1[&&[[3131}171}1}}6766}};((&6[(}>>--(;->>(>>->--->->k>>;",
"}(}}6;6>;>;;;k>>39<^*/44*=[9999v&&9&[[&[[117111[[771[}117111[[}}76;677}}7}6}}}6(}66(6>>(s(;(>k6[|[&9eo+                                                                                                                                                   i****m2<*<|19&&&&&9|&1[[7[371117[17}}671[}77}1[66>(5>6}6}}}66}}((6}(;;;>((6(;>;2^^^22<*<079v&&vj999&[[1111173}[1667};7167731[36;;-;}}6}}}6}6}}6;}6s6;(",
";;>>->>>->6}-6;>6|<^*<<*<*&99|t9&9&9&&[9[&[[1[1v[[[[[1111[116}1[3}}37736;6;(;6;>>>->->(>(};}(66[|&&|ee+                                                                                                                                                   i^*^*2/*<*=799u&&[&9&[[&[[[[[1[111[[11713[117}}h6;;;;}3}(>>y>>>;>>---(>(>6}>66;<^^*/2<<*<[&|9&&&&&&9[[&[[17373133[116}}111}6;}6}6}6}67;>>(>6;7;>>>->>;",
";6;>;7}6>;>}(>3-69*^^4<<*<]19&]e|99999&1&v&[[&&[&3[11717371}}}71366;}}}}76}}6(>6;>;}}666(>6}}>;1]&99]ed                                                                                                                                                   b****p4/4<<[[&t0|99999&[[1&[&[&1[11137;>}}66}}}6};(;6}3;6}};6(>-;>>(}}}66>}(6}62^^^<</4<<919&||9&&&&&11[&1[3[1[[}37}}}66}}}666};6>(>}}}}}6}6}l6((;}}}6",
"}717;313}6}6(66}69<^**2<4*<9&|t|999999&&9&&9&[9&99[&&&[&&&111[1[3[6}}131173113}333s}}7}}66(}66(3]99]]x+                                                                                                                                                   i^*^*=2/<*<2&|9&&e99&|99&[[&&&[[[v[11[7}7[[71331171};31}633163[}}1};717}67>>;}}2^^^22<2*<<[&9999&9&9v&[919&&19[[[i[&[[[[[131111716;6}171711[}}}17;6377",
"}>}666666;;;}1}619<^^4<24<<0&u|99t999&&&&[&[[[[[&v&[&[[1[1&[[j173}771}}6};6;6;7>(;;6}6};6}6}3;7[0&|e0]+                                                                                                                                                   i****==<<<4<][|||||[&9&[&&&[&[[[[[&1[[[3733333}7}}7}}7}}6;;((6;6>;};666;6;;61672^^^p<<2<<2=[|99&9&9&&[&[[[[1[[[j[&[[[11}1[[177}}}}77}}};6(;(666>6>66}6",
"6}}1}1n66}6}}}(679<^**2<<*<*&9|9999999t9&9&&&t&&&&[[[v[&[[[[[[[[111[1[}3}}}}}}n667}7}77}6h7}(66[0|e000+                                                                                                                                                   i^*^*==2/<4<=1||||9|99tt&&&&&&[9&&111[[v[11[[13[13711[13176}66(66}737}(}}}}3n;}<^^^p//2<<<<&t|99&9&9t9&&&&&&&&[&111[[[[[3[117[11711[17}}6}}}n}6}}7}373",
"}}[}61};;(6;666719<^*=*=/<*229|9]]9&&&&&&9&[&[&900|&&1[1[[[[9[1}177[&[j}773776}617677;7;;666}}}10|]]=0d                                                                                                                                                   b****02<<2<</]&&99e[&[[[&[&1[[1[9|]&[371q1[1[[3}711}11[}}6767;66}1761}6(;666}672^^^2=422<<2=&99|e[&[[i&[&111q1&|]&[1}7711}3116}13}77q6}67}6}}6613637}7",
"9&[&[1[[131&[[q[1|2^*e=<2<<*<22=2/==0=]==20]]00====2=]|0]]9000]9&9999||99|9|]|9&[[[1[[133&[&117&0e]===+                                                                                                                                                   i^*^*0|*22<4<<=0]22=]=00]=2000||=2====9||||]]]]|[&&&&&&&&&99|]99[[[11[117[[&[11<^^^2u2/2/*<<=2022=]00]]==0]0|]0=02==||||99]]]|[&&&[[v&&&&99]99&[[&1[[[",
"2=2=2===200==0|&9|2^*]]</=4<*<<22=222===2==0==<2=0=0===22=00=]00==2=222====]0=222======000=0|&[&000=2m+                                                                                                                                                   b*^*^2]]<=/<<4*/=02222<0===0===0=0=0===0/=2==0]0==2=2=2=2==000222=2=====00=009&<^^^2ee422<44<22=22/2/2===0==2/2000=0==2222=0]0==2=2=222===00=22=2=====",
"2<22=2==2222==]e]=<^^*4*************4***4*<*<*</<*<<4*<<<<<//</<24<<<<2/222<222<22===22222==|]|0=22/2=+                                                                                                                                                   v^*^^*<<*^*^**4*****4***4*<<<<<224<*44<<<<2<2<2<2<<<<422/22<22=<22====222/2=0]=^^^^^44*^***^***^******4*44<<</2*44<*4<<*2<2</<2<<<<*//222/22=/22====22",
"^************4*44*^^^^^^^^^^^^^^^^^^^^^^^^^^^^^*^^^*^^^*^^***^^***^*^*^^^*^**^^************<*44**<4<<2d                                                                                                                                                   b*^*^*^*^*^*^*^*^*^^^*^*^*^^^*^*^*^*^*^*^***^*******^***^^^*^^^**************<^^^^^^^^^^^^^^^^^^^^^^^^^^^^^^^*^*^^^^^*^^^*^^****^*^*^^^^^*^^^*********",
"^^^^^^^^^^^^^^^^^^^^^^^^^^^^^^^^^^^^^^^^^^^^^^^^^^^^^^^^^^^^^^^^^^^^^^^^^^^^^^^^^^^^^^^^^^^^^^^^^^^^*p+                                                                                                                                                   h^*^^^^^^^^^^^^^^^^^^^^^^^^^^^^^^^^^^^^^^^^^^^^^^^^^^^^^^^^^^^^^^^^^^^^^^^^^^^^^^^^^^^^^^^^^^^^^^^^^^^^^^^^^^^^^^^^^^^^^^^^^^^^^^^^^^^^^^^^^^^^^^^^^^^",
"^^^^^^^^^^^^^^^^^^^^^^^^^^^mcb4*^^^^^^^^^^^^^^^^^^^^^^^^^^^^^*^^^^^^^^^^^^^^^^^^^^^^^^^^^^^^^^^^^^^^*d                                                                                                                                                    +u^*^^^*^^^*^^^*^^^^^^^^^^^^^^^^^^^^^^^^^^^^^^^^^^^^^^^^^^^^^^^^^^^^^^^pg+z*^^^^^^^^^^^^^^^^^^^^^^^^^^^^^^^^^^^^^^^*^^^^^^^^^^^^^^^^^^^^^^^^^^^^^<ol*^",
"<*<<<<<<<<<<<</<<*4*<*<*<*<ncfy92*<*<*<*<*<*<*<*<*<<<**0qygfb*<*<*****<*<*<<<<<<<<<<<<<<2</222/<<<<<jcffffffcfcccfcccfcfcfcccfcccfcfcd                                                                                                                     +zgzzzzzzzzzzzzzzzzzzzzzgzgzgzgzgzgzgzgyyfi<<<*<*<***<***<*<<<*<<<<<<u>ccfx<<<***<*<*<*<*<*4*<*<*<*<*<***<*<*<*<*<*mzgzj0<*<*<*****<*<*<<<<<<<=vycct<",
"9&&[&[&&&[&[[[&[[[&[&[[[[[&[[[[[[1[1[1[1[1[1[1[113[31[&9etfw&||||||9|||99&999&&&&&&[&[&[&[[1[1[1[1[33113333}3}}}}}}66}}66;66666;6667[}a                                                                                                                                                            +qp=|||]||9|9|9|&&99&&&&[&&&[&&&[[[[[[[&[[[[[[[&[[1[1[1[1[1[3[1[3[1[313[1[[[aym**=|||||e9|9|99&&&9&&[&&&[&[&[",
"77}}6}}}66}3}}(;;}(}6;-;;(-(>>->(>-lk-zk--->kk5kzkklkkk6&2**31[[[[1[1[&[113173}};7}}6}6}666}l;(666(;>(->->-l-kkkkkkkkkkk-k5kzkzk:k5kk-(l+                                                                                                                                                        wt^^<9[[&[11[131[13}3}3}}6}(((6(;(;6;((k>(>llk>k-kkkkkkklkkzkzkzkzlkkzkkkkkk>ks<^^*e11[1113133[77736666;(6;((>(",
"[;1}6;}}}7}666;>}33}}666}kll>-lk>k--l_kfkfk5kf-kkfkfkfk>&0*<131[[111[111&11}[[[66;}6};6}[};66>}}}66}6}}llk>-lk-5k_-5l5k5-5zfkfzfkfzfk566qd                                                                                                                                                      n^^^^<97[7[}1177371[1}}1[7>};k>>;>}66>;lk(76;(((6(kfkfzfk5kfk5kfzfz5kfzkk5k5k5zk2^^<]13}[73}737}3[3767[3>k>>>k>-",
"3377}}}}6}1[}};}[[313331}>>>->-lk>k-kkkkkkkkzkkkzkzkzkk6[=**1[1[111111319&991137}}}}}};}1&}};;[1[[33}[}>k>->k-kkzkkk:kzkzkzkzkzkzkzzk>s}}&w                                                                                                                                                    h^^^^^*91&q111[33771&[9&}}}6};;;;;(;h36;>([;3}};}};kkzkzkzkzzzkzkzkzkzkzkzkzkzkz>2^^*]h337373}3}}791&&}}};;(;>(>>",
"[1[37}7}67}10&13[3[7}666;(666>>->k-k-kkzlklk-kkk-k-kkzzk[=^<[[[[[1[11317[&[&13173}7}77}}}}]&13[31}};66;>(;6(>k-kgklkkkkk-kkzkkkzkkkzzz(67[l                                                                                                                                                   +4^^^*^<|[|j[11[[}}7111[&}}37}}6;;6ln(1]&}3}6}(>>>>kkk>>lkkzkzkzkzkzkkkkkkgkkk-kkk2^^<]1[[[1133}}}}1[3&66}66s;;(;(",
"&[1173717}1[&][17377}}}};666;;;>>>>>>>>l->---l->-lklkkz>[=^*9&9[[&[&&[3[[91[&[[[3[373116[11][17}}}6}6;>;;;;6((>>->->lkklklzkklkkklkkzzl}3&g                                                                                                                                                   +*^^^^^4|&9[[&[113773[[}1[3[}}666}6};13[|16;;;>>l(--k>l>-lkkzkkkklkkkkkkkl-l-l>lzl2^^*]&[&31[[[[3}7[[}3[7[}6}}(6;}",
"[111q113[733[&;117}337}6};7(;6};(>>>>l>kk;lkkll(>klk-kkl[0^<|&91[1[[&1[[11&3[1[[13j17711771913}}77}}[66>6(>(((>l>k>-lkkl(z--lk-kkk-zzzl61&l                                                                                                                                                   +4^*^*^<|&9[11[[11111}[16113}676}}6}}6}79>};;>6>>6lkl>lkl-lkkkkkkkkz(lkklk>kl-llkk2^^4]&&[7711[1171}3&}77}36};}((;",
"1[1[11111&&&391[311[73|}66;;;}66;;>(>yl>-l;k-;;(>>lkk>k6[=^*99&[[[[[[[31[[&&[1111[11331&[|3&&[1333}7[v(;(;6}6};(->lll>kg(>-(;>>>klkkk>(}19l                                                                                                                                                   +4*^^^^*]&09[[11[[133&7&1173}}73}}}7[[&}[16;;66;>9}>-lk>>>ll-lk>klkkk;l>>6(;(>>>k(2^^*]9&&31111[3}}[3[116}6}6}66(6",
"11[11717[[[1[&&3373}33]7;(;(};6666;>>l>>>>>klk;(6llkkk(;&=^<||]1&[[[&&[1[&[[[11[[1113}[1[113[71717779&>6;>6(;l;>>l>l>k--lllk;(6-llkz--}}1&y                                                                                                                                                   +4^*^*^40&=91[[1[[[1[[[[&117}13}666377}}[[6>;(((69[k-k--l-ll>klk-k-kl->kl(6;>l;-kl2^^40&&&1[[3[[[771&}[7361}}66;(6",
"1[[[11311[1[11113[13}1[]}(;}66;366(((;(6(;ll}nl>llk(kll;[2**]||&&9[&&&[[[&[&1[[&[[113[1[1[737717}3}31|1((6;(>(l;(>(;((l>kklhk;>>k>kgk>;319l                                                                                                                                                   +**^*^^*]|]e[&[[[&[[[[[[[177}17}6}}}}3}}6};;}}((;1|}kl>>kl(>llk>l>>>llk66l>;>(((k>2^^^0|&|1[[[[[[17[1[1}n[31}}666}",
"11[1[13337[31777[13}76}[&16;6;;66>(l(}6(;k}ll}(>>ll>lk669=^*=|][&&[[&&&[&[[[[1[[[1[13737177}}7377}76}7&[}((;;>(l(>l66>(ks6k;;k>-lklk;l37[&y                                                                                                                                                   +4^*^*^40=09[[[[[[&[[[1117}}77}77;6;67};;(6}};(>ll3vq--klk>-lkkk;((llklk;>lk(>(lk(<^^*=0|9[[[1[1[1[1[337}}3}776>;;",
"[[[[1[31311[177131}7}11119}6}}6;;}((>6}1}((>-6;>>(l(ll>392^*0=e&&&[&&9&&&&&&[&[[[[1173311[17}171}7}3}1}v76}};(((l>l>63}>lnk((>(lk(>lk63119y                                                                                                                                                   +4*^^^**==]|9t[&[&&[[&[&[[1[77}7}}6}67}}(;;}6((;6}6}&6k((>k>llkll67hll>l(6l((>;;l6<^^^==0e[&[[[v&[[[1[1[17}1}}66(6",
"[[[[11[11311[11[177}77111316}}};;(;l(>>llllk>l>->lllll>}|2^*=/][9[&[&&t[&[&[[[&[[[[1[1[[[1[111[7166}113}}6666l;(>l>ll-l-ll(kll>-l->kk([3[9s                                                                                                                                                   +4^*^*^*=e=9&9&[&[&[[[[1[1[113[}77}66677}6166(>;66}6}}>>;(l-lkl-lklklk>->l(((l(>((<^^*2=<|[&[[[[&[[1[[[71113q6}}}}",
"[[[[[[1[[131[[7371377}737761}}}666(6((>(ls(>((-((ll>-((}|<**=/=9&&&&&9&9[&&&[&[[1[11[[1[113[1j73776}77}}67;6666;((>>l>k(((l>lll>ll-ll(11[9y                                                                                                                                                   +**^*^**002=9&&&[&&&[[[[1&11311173316}}3}6;66}6;l6;6;((>>;ls>>(>kl-l>(>>l>>(l(((l}/^^^=0==&&[[[&v&[11[111[3}7}}37}",
"[[[[[1[[[111[1171377173}7111767}76}6}666((;;;l6;}l;;>;>}92^*]2<<9[&&&&&9&1&&&[&[[[[1[1111117171777377}}11}}}6(7}};};((>l>;(l(((l(l;kl([1[&s                                                                                                                                                   +4^***^*002<=[v[&[&[&[[[&[v111[333177}37}n6;};6666((7}7((;;;;;;6;((l(>6l(;66(66(s6<^^*=|</2&[[v1&[&131&[[1171}7}3}",
"[&[&&&i[[[[v[[[[1[313133}11173776}6}7}}}(((;(6}6;(66>(619<**]*==&&99&9t99t&&[[[&&&[[1&[[1[1[1[[[31337j117[377}6}6666;6>((6(;(s>>(((>l61[[9n                                                                                                                                                   +**^*^*^00=<]|&9&&&999&[1v1[[[1&113[31117373}}6}}}6}}7}}6}66(((};6;(>(;((}66;66}>}<^^^=]<=0|[9&&&&[9[v1[3[1&[[}31[",
"v&&[&[[[[[[[[11111[71}177333}73}}7}}}6}6(;6(;66l666;((67e2^40<=2e[|9t99v9&&&[[&[&[&[[1[[[[[1[1[11776}}17713}7}}7666(;(((;l((6(n;(66l(6[1[9n                                                                                                                                                   +4^*^*^*0=<]=99t&[|&&&&[[1[[&[[[171117177}}}776}}666}6};}666};6;((6(;(((66(6};}6(6<^^*=]<]2|[t9&9v&&&[[1[1[[[ij737",
"[&&&[&v&vv[&[[111[i&3&}[3731311[77}}}}n};}}s63}66}6}67[1e<**=*29=9&9999999&9v&[&&&v&[&[&[&[[1[111&}v}313333133}3}}6}6666;s(}}66};66s[3[&[|n                                                                                                                                                   +**^*^*^0<*=9]99t999&t&&&[[[[&[[[[1[111177}771[7[6n}6}}}}37}6}6}666;;};6}36}6}}}}1<^^^2=<<&0v9&t&9&&&&&&[[[&[[[[11",
"&&&&&b&&9[[[[[[[[319&&&[173111[1777}7}}66(66}6}6}}7}}6}1|<^*2<*2<&99|999||e9&&&99b&[[b1[[[[[[[[11&&&&[7737331337767}}6}66;666666}6}(}6&[&un                                                                                                                                                   +4^***^*=/*<0|9999|t9oe&&[[v&[&1[[[[[1[11117}39[&[1}}}37773}}666}6};;;};}}}}7}}}}1<^^*/=<*==&&9&9&99||&[&[&[&[[1[7",
"&9&&[&&v[9&&[&[&&&[v[&&33&[[[[[371[3}66}6}}76}}1}1}31h}[]*^^=***<9|e|||&&||&9|9&&&[&9&[&&&1[&&&&[[&&[[3[[[[[[11[[16}}}66;76663}7n7[}(7&&&]n                                                                                                                                                   +**^*^*^24***=&0||&9&|e9&9v&&&[&[&[&&&[[1[&&[[1[[&77[[1[1[311[}};6666}766713373[}7<^^^/=<**<&|9|t9[&99&9&9[&1[[&[1",
"&&9&&&&[&[&[&vv[[[&v[[[11111[117777}76}j733}}7113}[71111]<^**<*4*|te|]]|9&9&9&9&9&&[&&&[[[&[[[[1[[&[111111[13}7}}}66}7773}}6}31}[1[71}&&&|h                                                                                                                                                   +4^*^***/4<<*<&&|&e99&9&&b[[&&&v&[&[[[[[v113[1v1171}17113}}6}n}6661}33}}77173[11[3<^^*4<<<**|[]9]99&&[&v&&&&v[[[&[",
"9t|ee|||9&[&&9&9&&&[[&&&&&[&[&[&[t[&1&[31[717[73}h}}73719*^^4/<**290ee]]r]]r99&|&e||e|&u&&&9[&&9v[[&[&v&[[[&&&[&&&[&[1}3171[17}}}7i77}19teh                                                                                                                                                   +**^*^*^/*/*<*]&e9ee]]e09|99&||e9|99&[[&&&&&[&1[[&[&[[[[[&[[&&[[[&7111}[[137}7}171<^^^<<2<<*=&]||]e]|]]9&&9&||9|9&",
"9&&&&[9|9&9&&&9&&&&&&[[[[[&[[1&[[[&[[[&[1[[177[1[j[1v}1[e<^*0</<*<=&ee]ee99&99u9t&t&&9&&99&&9&&[&&&&[[[[[&&[[1[[[1[[[[71[133[771[3[711[99]h                                                                                                                                                   +4^***^*2p424<<e9||9e9|99&o9t&9[&&|9&&&[&&&[[[&[[1[1[&&11[v1[[[1[[[1[1[31[[1[[[171<^^*<e<2*<<0t|eee99&&[999&&&&&9&",
"||99&&9999&9&999[&&9&&&&[&&&[&v&[[[[[[[[3[11[11[3[[[&[7[]*^^=*<*4*29|]]|ore|9|999999&9|9&999&9&&&9&&[vv&[&&&[&&&[[1[[[1[1[111[711111}3[|90h                                                                                                                                                   +**^*^*^24<<4*<2&]e]|]|e9u9|||9&&99|9&&9&&[[[&&&[&[&[&[&[&[[[[[[i&[1111[71111[[[1[<^^^/=<4<*<2&r]]9|]et999&999t9&|",
"|||99&9&9||&&[&&&&&[&[[[&v&[&&9[[[[[[111[[[3[1[[11[117[[|<^*2<<2<<<09e|||ee||u999&9&9&u9|&&[9&&&&&&[&&9v&[&&&[&[[[[111[[[1[[1[11[1q7[7[||rq                                                                                                                                                   +4^*^***22/2<<4<99]|e|||e999999&&&&99&&v[[&[&[&[[1[&&[&v&&[[[[[[[}11&111[1[1[[[111<^^*<=<2<<*20&]9|999e9ut99&&&&99",
"e]]]ee99=2==009999&9e0|9[[[[[&&&[&[[9&[&1[[[[&1113311&1[e*^^0*2<<*<*]0]2=0|]eee]0]|]99]20=00|99&&9|re9[[[[1[&&[[[[[91[71111&1[13311&11[]e0q                                                                                                                                                   +**^*^**==*22**<=|||0=||||9|9]9|9&&0==0]|&[&[&&|e|[[31331&[[1119&[111[1[[[1[7[1[[&<^^^<042244*<e]|==|9||&||]|||&[|",
"//<22=22<2==222=2=222==00]0000===]00=02=0]]||]e||9|]e&&90<^*r0<2<<*<*/2/<2/2/22<<22=222===//2=2===2==00]000]=000=00==00|||||]||9||]&&[&]]0q                                                                                                                                                   +4^***^*/]=<2p*<<<<=<<<2<22=//2===22/===2=====2==0=]]]0]]]00]0=0===]e|]]]|e||e]]9[4^^^4]0<//4<*</=</<2222=<22=2=2=",
"2</22<2/2<2222222<2<22=2=2222<2<22=2===2222=2<2<22===0|]0*^^2=<*<*****<<<<<<<42</22<2/2<222<222<222<2==222222222=====222==222<22==00|9|0]=i                                                                                                                                                   +**^*^*^4=0*<4****<<<<<<<</<2/2222=</2=222=<2<2222=2222<2<22=2=2=22222=22<2<2===0]*^^^*20*<*4***<<<<<<<*<<<<222/2<",
"^*^*^*^***^***^***^<***4***<***<***<*<***<*<<2<<<<*<<222*^^^^*^*^^^*^^^*^*^*^*^***^*********^****<44*<**4<***<*<4<*<***p<22=2<<24<200=22<<c                                                                                                                                                    q^*^*^^^***^*^*^*^*^*^*^***************^****<4**<*<*<***4***<*****<*</2<<4<*<<=2*^^^^^*^*^^^*^*^*^*^*^*^***^*****",
"***************************************************************4ibm44*****************************4***4*****4*****44**4***4*444*444*444**f                                                                                                                                                     +q*4***4***4***4***4***4***********************************************ppoo4*************************************",
"++++++++++++++++++++++++++++++++++++++++++++++++++++++++++++++++    +++++++++++++++++++++++++++++++++++++++++++++++++++++++++++++++++++++                                                                                                                                                        +++++++++++++++++++++++++++++++++++++++++++++++++++++++++++++++++++++    ++++++++++++++++++++++++++++++++++++++",
"+d+d+d+d+d+d+d+d+++   +d+d+d+d+d+d+d+d+d+d+d+d+d+d+d+d+d+d+d+d+d+ddd+d+d+d+d+d+d+d+d+d+d+d+d+d++                                                                                                                                                                                                                                           ++d+d+d+d+d+d+d+d+d+d+d+d+d+d+d+d+d+d+d+d+d+d+d+d+d+d+d+d+d+d+d+d+d+d",
"|||||||9|9|99oe]e]=2=o0]r00]000]r]]e]|e|e|e||||o|||99999eee|||e|]e]|e||9|||9|||||||9|9|999||e]|e=oiyd                                                                                                                                                                                                                                wnjump/p00]0]0]000]]]m|eee||||9|e|9|||999||eee|e|e|]|]||||9|||||||||||9|9|9",
"77}777}7}}}17371&e2**]||&999&99|&9&&&&&&[&[&[[[&[&[[[[[[[[1[11111111717373737773}7}77}}h}17h71190*^^*w                                                                                                                                                                                                                              z^^^^^^^4099999|&9&999&&&&&&1[1[[[111[111[11717113777q77}7}h}7}7}777}h}7}7}7",
"ssssss6lslslsssl}&0<<[&&&&&&&[[9&[&[[[[[[1[1111137173n7}1}7}1}7}}sns6s666lsssls(s(s(6lylslylyl61&|<*^=+                                                                                                                                                                                                                            w^^^^^*^*4|[[&[v[&[[19[[[[7111777}6}}76}6}ssss7ns6}s66(slslslslylslslslsls(sl",
"ssssyssnssssyysh790*<&9&&&&&[&&v&|&9[99&111131311&[[317&[[1[[[[[6h666666ss66ssysysysysysysyyyhn[[|=^**d                                                                                                                                                                                                                            z^^^^^^^^<0[9[&1[[[[[1&9[[&&9[h}}n}}}}h116666111h}3}13hysysysysysysyyysysysys",
"s66ssss6sss(sssy}&=*<&|[[[&[&[&[[99ee1&[[1[1[1[3[1&&[1[&&&[[11&7}}}nn6nsss6sssssssslssslssslyy61[9]<*4d                                                                                                                                                                                                                            c^^^*^^^*4]&9&[[1&[[[[19[|9}1[37}7}}}}}}[&177[3[776h1}sssssslsyslsyylsyslsss(",
"s}6h6}6nn66ns6ys6&=^<9e9&9&99&[&[t9&9&[9&&[[[[[[1[[e|9&&[[1[113373}3776}nnsn6nshnn6s6ssnssssyss3[9|2*4+                                                                                                                                                                                                                            z^^^^^^*^4e&e9&[&&91[11[91&1[[[13737377[[9|[[137hn}6h6nsn6nsnssssss66s6snsnsn",
"6sn66sn6}s}66syy}&=**||9&&9&&[&[&v9[&9&99[&[[[&[111[01[[[11[[37}777}17}}}6}6n66s}s6s6snsss6ssls7[&|0*4d                                                                                                                                                                                                                            c^*^^^*^**]99|[[&&[[[[1[&[[&[&[11171116q71]177}}67}}s6s6sn6666sss6snss6n6ss66",
"6677sh7h7hnhshnn79=^4|e|&9&999&&&&&|[&&&&&&&[[[&&9&&&1[[[&[[[973773737}}}h}}}}6ssh6h}h7h6h6n6ns7[99]<*d                                                                                                                                                                                                                            z*^^^^^^^409|&&&&&&[[[&[[91[[1[1[11773&[&1&q1}h}773&h6h6}6h6n6h6n6n6hsh3hsh7h",
"}}}}n6313}h66s}}19=**|=|9&9[&&&[&&&&9[&[&[&v&[[[[&9[&|&[[[&[[9&}7}371117}}76}}h6s}}s}77}}6hsn6}3[&|]=4d                                                                                                                                                                                                                            c^*^*^*^**0|0&[&&[[&[[[9[&[[1[111[1371q[&11|17}777}&&6s6sn6h}}6}sns}66sh6s613",
"37}76h6q}76h}n}h}9=^*]]0&&&9999&[&&99&&99&[t&&[&[&[[&9[[[&[&[eu711333[1133}h}}}h67}7n7}36h}h6ns1[99]0p+                                                                                                                                                                                                                            z*^*^^^*^*=|]|[[&&9&t[[[&&&[[[&11[[11[1317[[1711131||6h}h6h}76h}h6h6h6h}h6h}7",
"177hh136h6n6}sh}3&2**0e0&&999&|&&&9&9[&99v&&&[[[&[&[[[[&[1[1[i]&7}1131173}}7773}}6}hi6}}hn}sh6}1&&9ermd                                                                                                                                                                                                                            c^*^*^*^**00|][&&9&&&&[&v&[[19[[[[1[111111717[77}h}1|966}}6}}}6}s}6}776}6h17}",
"31}[7h1777}h}h}1[]2^*2==9|99&9|9&999&9&&&9&&[&[&[&&&[[[&[[[[1[[991111177}h7h7173}hhnnh7h6h6h617&&99]]0d                                                                                                                                                                                                                            z*^^^^^^^*2==]999&&&9&&&9&&[[[&[&[[11311[137711}77777[9}h}3}hnhnh6737}h71sh77",
"3}h7h}3}7}h}76h}[|2**22099u&9&99|999999&9&&&9&&[[[9&[[&1[1[[[1[1&[13137}7}h6h}7}n}hs}}hsn6hs}}1&&&||0]d                                                                                                                                                                                                                            c^*^*^*^**===]&9t&&&&99&&9&&v[&&[&&&[[71[[113h7h117h}}1[s}}h6}6h6n6h}}6h}n67}",
"7h}7n3}h}h7h}hh71e2^*=2=999|99u99999&9&9&t&t&&&&[v[&&&[&[&1[1[[[[17[3j713377}7}h}h677h}h}h6h}339&99]0r+                                                                                                                                                                                                                            z*^*^*^*^*=02]t&999&9&t&9&&&&&[[&[&[[[[1[[[1[[131737131377h}h}7}h}h}h}h}7}3}7",
"1}7}hh7}7}h}}s}}[e<**=<<0&|999|9|99&999&&[9&&&&[&[&[&[&[[[11[1[1131317331}}}7}h}h}}}7}}77s}6h}7[9&9e0]d                                                                                                                                                                                                                            c^*^*^****==24]999&999&&&&[&&&[[&&1[111[1[1j17717777317h}77h}7}}nh}}}}nh}h73h",
"7333}[1111h7}h}q[|<^*22<2]9|9|||||999||99999&9[&&t&&[&&&1&[[[&[[[&71[[113173h7h777371[117h}7nh7[|||]00d                                                                                                                                                                                                                            z*^*^*^*^*=02<<|9999|9|9&&99|&9&9[&[11&[[111[1711711[1[1hh1q1h777h7}h7773h[1[",
"1737711317h73n77&]<**2<==e|||9e|99999&|9999&9&&&&&&[&[&&&[&[[[&[&[13[[[1111713173317371}77h}h7[9e9|]0rd                                                                                                                                                                                                                            c^*^*^*^**=2<==et|u99|&9&9[&9t&9&&&&[[[[1[[[[[[[1[1[1[[[h31[111173q3333113111",
"1j3[711137711qi[[0<^***=0=u|||u||||e]|99999999&|99&&&9&&&&[&&[[&v&1[[[[[[11[1137717q117h73317[1&e9|000+                                                                                                                                                                                                                            z^^*^*^*^*02*0009u|9|9999u]99&&&&&9&&&&&&[&v&v&[[i&3[[[[1113[1[3[113133113[11",
"11[[1i[1[7j1[1[[&]<**<*<]/||e||||||&99|99&9&9&999&9&&&&[&[]&e[[[v[[[v1[[[1[1[11711111111[1[11[1&r9e]=md                                                                                                                                                                                                                            c^*^*^***^0<4<92&|||9|9|9&&999&&&&&&&&[&&&[&[[[[e&9[1[1[3[111[1111j11q1[117[1",
"[[[[7[[[[[113[1[&0<^****<<|0]0]]e]0]9||9|9|e99&999&99999[&&|9||&&&[[&&&&&&[[[[13[&1[1[[11[[[111|0e]0==d                                                                                                                                                                                                                            z^^*^*^*^*4<**<2|]]]]]]e=e|999|9|99&9&9&&&9&9&[[&999|[&[[[&[[[&&[[[[[1[[[1[[[",
"&[[111&&&[&11111&0*^^<*<*<|]]]]]||||e||]|9u9|9|&99|99&&[[&9&[[9[[[&[[1[[[[[[[[[1[111[[&[[1[[13[9=|r0=0d                                                                                                                                                                                                                            c^*^*^*^**/<<*4*9]]]|]9|9|9|9]99&99999&9999&[[1&&&[&&[1[[[113[[[1[[[[[[11[[&[",
"[[[[[&[&[&1&[&[v&0<^^*<***0|]]=00]]0]]9||ee]|]||99999&[&&&&t&&&9&&[&&&&&&&&&&v1[[[[&[[[&[[[&[119=]]===+                                                                                                                                                                                                                            z^^*^*^*^*4<4***09]|=r0e]]]e99||ee|e||9&9&9[[[[[&&&[t&[[[[&[&[&&&[&[[[[1[[[&&",
"v&&[&&9&[[&[&&[[&|4^*4<<*<<]0]]0000]]|]e]|e|ee0|]|99||&9e|99&&99|9&&|999999999&&&[&&9&[v&1[&[1[&=]0=2=d                                                                                                                                                                                                                            c^*^*^*^*^2<<<4*2]]]e=]0]0||eee|||9|0||99||e[&||99[&&|9|[&999|9999&9v&&[[&99[",
"[[&&[&&&v9&&&|[&90*^***<4*<2e000]0]]]]eee]|e||||9||9||99&9|9&9&&&&&&&9&&[&[&&&&[[9&&&9&&&9[|&&&|=0=22pd                                                                                                                                                                                                                            z^^^^*^^^*4<*/***2]00e]r]e0ee|]e|||9|999|9||&&&&|99&&&&&&[9&&[&[[[&&9[&&&&9&&",
"&[&&&&[[&&&&&&[[&]*^*44<*<*<er=e]]0]0]]e]ee|]|e||9|9|9|e|t|9|9|99&99|99&&&&[&[&[&&9&&&9[&&&[[[[9=0==2=d                                                                                                                                                                                                                            c^^^*^*^*^/*<4<*<*|0m]e0]]]]eee]|||e|e||9|||9e999|999|&&&999&9&&&&&&[&&9&&&&&",
"&&&9&9&&[&&&&&[&90<^*<4<<***2]0000]]e]e]|]e0|||000e||99e||9|||&|999|9|99&&&9&&&&&&v9&&&&&&&&&&&|===<</d                                                                                                                                                                                                                            z^^^^^^*^*<2*/*<*<2|=]=]eeee]e||e]|9|]0|9&|9|||9999&999&9999|&9&&&9&&&&&&&9&&",
"|&&&&9|&&[&&&[[&|0<^*04<<<*<<==0*<2=====222==]0=<222<0000]]0=00||9|999|9|||]0||&&&&&|[&&&[&[&v9|2=/<*p+                                                                                                                                                                                                                            a^^^^^*^*^<=<<24442=00<<==0=0==2000]]=2/2220]]|||0]0]9&&&&&9999||]]|9&[&&999&",
"<222/22222=2==0e]=<^*=0*<4****<<<<<4<4<<<<<22<<<222//<2<2<2/2==222222<<<2<2==<222<2/2222=2==]||]2<<**c                                                                                                                                                                                                                              y^^^^^^^^*0=*4<*****<*<4<*<<2*<<222422222<22/<222<=2=2=2222<2<2/==/<=2222222",
"<<<2/222<2</<==0=<*^^44************<***<*44<*<*<4<*<4<4<<<</4<</<<<<<<<<</<<<<</</2222</</<==0=2*<poa                                                                                                                                                                                                                                cx2**^^^*4<***********<*4*<*4*<4<*<*<*<4<*<4<<<<<<<<<<<4<<<<<<<<<</<<<2/2<<",
"jqhjqhhqqqqiqqhhhgfcdciiiiiiiiiiiiiiiiiiiiiiiiiijiiiiijijiqjjjhiijjiiijijijijiijqjqhhqhqqiqjhhgfwd                                                                                                                                                                                                                                      +dwzlbiiiiiiiiiiiiiiiiiiiiiiiiiiiiiiiiiiiijjjiqijjjiiijijijiiiijjjhhhqhj",
"                                                                                                 ++++++++++++++++++++++++++++++++++++++++                                                                                                                                                        +++++++++++++++++++++++++++++++++++++++++                                                                      ",
"/444/444/444/444/444/444/444/444/444/444/444/444/444/444/444/44mwcyt=444/444/444/444/444/444/4442p==0=00rm]r]xeeeeee||o|u|uu9o|e|e||99t9ta                                                                                                                                                      y*/p=p=p=p===========p===p===p=4/444/444/444/444/444/444/444/444/444ppthczp4/444/444/444/444/444/444/444/444/444",
"<<<<<<<<<<<<<2<2<<*<<<*<*<*<*<*<<<<<<<<<<<*<<<*<<<</*<*<*^^^*<<<*<*<*<*<<<<<<<<<<<</<<<2<2<=2=22/22===2====0=000000]000]000]0]0000===|9|]ew                                                                                                                                                    y^^^*4<=0======2====00000000]0]00=0=0=0=022<2<<<<<<*<*<*<<<*<<<*<<<*<<<<<<<<<<<*^^^^**<<<4<*<*<*<<<<<<<<<<<<2<<<<",
"]]|]|e|]|ee]|||]|||]||9|||||||9|999|9|99999999&9&9999||0=**^2=0=0=0000]0]]]0]0e]|]|]|]|]e|9|999||999&9&999&9&&[&&&[&[&[&[[[&[&[[[&[999&99]h                                                                                                                                                   +*^^^^**=0]ee]]]e]|e||9||||9&99999&999&9&9999|99999|9|99999999999999999|99999|9||<^^^^2=0=000000]0]]e0]0e]|]|]|||]",
"&v&[&[&[&[&[&[[[[[[[&[[1[111[11j[11j1jq3171qq7q3qhq11hq[]2*49&|9|99999]99&&&&&&&&v&[&[&[[[[[i1[[&[&[[j1q111j17q7qhq3qhq71hq7qhhhq7hhqq[[&|h                                                                                                                                                   +4^*^*^<09|99&999&9|9[&[&[[[[[[1[1[111[1[117[q[1q3q7q7q7q7q7q3q7q7q7q7q7q7qhqj1qq[*^^*=v&9&99&9&9|9&&[&[[1[j[1[111",
"9&&&[&&&&&[&[&[[[&[[[[1[[[1[11111[jqqqqqqqj1qqqqhqq1qjqi|2**&99e9999999999&&9|9&[&&&[&[&&&[&1[[&[&[[1[1[11[i11qqqqqqqqqq11hqhqqqqqqqhq[&&e}                                                                                                                                                   +**^^^**]&999&&|&9[99&[&[999[&[[1[[[[[1111qi[[11qqq1qqqqqqhqqqhqqqhqhqqqqqhqqqqqq1/^^*=9&9|9&&&9[&&9&&[9991i1[1[11",
"9&&[&[&[[[&&&[[[|99&&&&&&j1q1q1q1qqhqhqhqhqhqhqhqhqhqhi1|2^<9t999&9&9&&90|]|999&&[&[&[[[|9[[[[9&9&&[&&&11q1qqhqhqhqhqhqhqhqhqhqhqhqhqqv[&|h                                                                                                                                                   d4^*^*^4r&|b9&t&&&&[u||e|v9&[1[1[1[1[1[i1q1&&[[[[1[[qhqhqhqhqhqhqhqhqhqhqhqhqhqhqq<^^4=&9&9&&&&&&[&]9|9&&&[111111q",
"99&9&&&&[&[90|&9||99[[[&[[iv[[111jq1qjqq11q1qqq1qqqqqqh192^*||9|99|]&9t9|||0&999&&[&&&[&[t]|&&9|9&[[[&[[1[1i11qqqqq1qqq1qqhqqqhqqqhqhq1&&eh                                                                                                                                                   +**^*^^*]|]9999e9&&t&|9]e&&&&&&&[[[ii[90&[&9&9[1q111q1j1qqhqhqhqhqhqqqqqhqqqq1qjh1<^^*=9t99t&9|&&&&999]&[&[[1[1[1[",
"|99&&&&&&b99]09&&&&&&[&[[[[[[[[111111j1q111q1q1q1qqqqqqj|2^40|]9||ee|&99|]9&99|9&&&&&&9[9&909&&&&[[[[[[1[1[[[11q1j1j17jqqqqqjhqqqqqhqh1[9eh                                                                                                                                                   +4^*^*^<090999|&|&9&&99[9&99&&&[[[[i[&&e0[&1[j[j111qqj1q1qqhqqqhqqq7qqjhqqjq1j1jqq<^^*=|||99|||&&&&&][&&&&&1[[[j[[",
"||9|&9999&&&9][9&9&&&9&&[&&[[&[[1[[[1[11q&1qqij[1111qqqi|2^*0]]9||||||9|9|||9||]99&9&999&&9=&9&&&&&&&&[[[[[[1[1i1i1111q[1qq1q1j1q1jjhj1&90h                                                                                                                                                   +**^^^^*0r]e&99|99999&99&9&|&&&&[&[&[[[9][[[[[1&[[11jiq111q1q1q1q1qqiiqqj11i1[1[q1/^^*00|e&99|99&9&&&|9&&9&&&[[&[v",
"99999&999|9&9|999&9&9&][[[[[[[[1[1[1[11j1jvq11[11q1qjqq[|2^40ee9|999|999|9|99999999&9&9||0&||&9&9&&&|&[1[1[[[[[11j1jjqqq[q11[11qqj1qqj[[9]q                                                                                                                                                   d4^*^*^4=|=|9999|9&&99te&&&&&[&v&[&&|9|[|b[[[[&[[|[jjqjjij1j1jjq1qqq1[1j[i[11j[1q1<^^*=]e9t&9&9&&[&9&9&&&[&v&[[[[[",
"999|&9&999999]e9&9&9&9=|[&1[&&[&[&[[1[1i1i11j[[&[[jij1i&e<^*0]]|e]||||9||e9|||9|99&999999|&9e9&9&&&9001&i[[[[[1[i[1[11ji11qi[[1ijijj1[&&907                                                                                                                                                   +**^*^^*=]209||99|999e9||999&9&&[&&9&&&&9e&[[[[[[=ui11ji1[1i1[11j1j1ji1j1&[&[[[iq[<^^*=]|]9|||9|t9&|9&&9&&&&[[[&[&",
"t&|99&9&9&999&9&9&9&&&emv[[[&[&&&[[1&[[1[11jbijj1111jj1[|2^*2]09||||e|999|||9&99|9999&9&9&9&t&9&t&9[90&[[[[[[[i1[j[i[1111q111j1111jq1q[&9]q                                                                                                                                                   +4^*^*^4=0=09999|e|&9&99|&9[&&9[&[&v&&&[&[&vv[&1[9]iij[1[1v11qj11j1j1jii[1[1[1[j11<^^*20]]99|9|9|&t&999[&[&&&[&[[[",
"99999|99&999&9&9|9&&&&&e]&&v[&[&v&[[[&[[ii111&i1j[1[1ii&]<^*<=0||||||]|e9|9|999|99|u&9&9&9&&&9&9&99&[9e9[[[[[[[[1[i&[[ii1[j&[11[1[1jji&990q                                                                                                                                                   +**^^^**2/==9||||e|||99999&9&&[99&[&&&[&[v[|&[i&[vo]v[ii1[1[1iji[[1[11qi&v1i[[[[1v<^^^2<009|999||||999&9&&&9&9&v[&",
"|99999|&9&999&9&&&9&9&&&9e&[&[&[[[[1[[&[[[[j11[111[11j&&0<^*22=e0|e|eee||||||||9|9999&9&999&&&9&t&9&&&9e&[&[[[[[[1i1&[[1v&j[[j11i1[j[[9&9]q                                                                                                                                                   d4^*^*^*222]|||||||||9|||&999&9&9&&[&&9[&[&[&[v[[[[&e[vii1i1ij1j[[[[[11j[[i1[[[[[[*^^*/=20ee99||e9999999|&&&9&9&[[",
"9|||999|9&&|99&9&9&&99&9&99&&9&&[[[[[[ib[[i[1i[[1[1[i[190<^^2<=e]||ee]eeee|e9|||||999999999999&9&&&&99&9&&[9&[i[[[i[i[1[1[1i1[1i1[11jv9990q                                                                                                                                                   +**^*^**222]|]|||e||9e||99999|9&&9&&[&9&[&&&[&[&[&&&&9[[&&ii1[1i1[[[1[[i1v[[[[[[1[<^^^/2/=ue9|||||9|99999u999&&&&&",
"99|99999|&&&|&9&t&9&9&&&9&&&&[&[&[[[[i[1i[[1[[i[iji1i1[&0<^*2<2|e||ee|]|e|||e||99999999&9&9&9&9&t&&[&&9&&[[[&[v[[[[j[11i[[i1ijijijiji[|9|]j                                                                                                                                                   +4^*^*^*22<=e|e|||e|||e99||&9t9&&&99v[&&&[&[&&&[[[&&&[&[[[[[[i[1i1ij[[[1[i[1i[[[1[<^^*/=<=u||9|||||999999t9&9&&&9&",
"|e|ee|||9|9|||9999&9&99&&999&&&&[&[&[v[[iv[[i[&v[vi[1&[&]*^*=4<<]]ee|ree|ee]|]|e|||||e99999|9999&9&9&&&9&&&&[&[&[&[v[[i[[[1[&[[v[[[[i&99|0j                                                                                                                                                   +**^*^*^=2<*2|e]ee]]e||e||||9|||t|99&9&|99&&&&&&&&[&[&[[[[[v[[[[[[i[[vi[[&[&[[[v[&<^^^/=<*2]|e|ee|||9e|||9||99t999",
"||e|e||9|9|||9|99&9&999&&&9&&&&&[[v[&[&[[i[1[[&[&[[[[i&&0<^*=<<=0|]e]e]]0]]||9||]||9u9e||9|9|9999&9&9&9&9&&&&[[i[[[[&[[1[[[[&[[i[[[1[[99|0j                                                                                                                                                   d4^*^*^*2=<<=]|ee|]|0e|999|9|u|9999999|99t9&&v&&9&&[&&&[&[&i[1[[[[[i[i[iv&&[&[[[i[*^^*<0*2=0|ee|e|e]e999|9||999t99",
"|e|e||||||u|9|9u9|99&&99&9&9&9&9&&&&&&&&[&[&[&[[[&[&[[[90*^*2*2<0e00]0]]]ree|e|]]|||9|u|9|9|9|9|99&&&9t9&9&9&&&&v&[&[&[&[[[&[&&9[&[[[&9||=j                                                                                                                                                   +*^^*^*^22<2<00]|e00]]e]|||||e||9|9|9999&9&999&&[&&&&&&&&&&&[&[&[&[[[&[&[&[&&&&&1&<^^^/2<22]|0]]]0|]||99|||e9|9999",
"e||||ee|e9|u|9|9999u99&&&&t&99999&&&t&&[[[&[&[&[&[[[&&99=<^*2*<0<|0]]]0]]ee||||||||||9|9|||9999999&o&&&&9&9&9&&&&v&&&[[[&v[[&[&[&[&[|&||e0i                                                                                                                                                   d4^*^*^*2<*===r]]e0]]]]e0||||u|9e||999|&999&9&9&9[9v&&&&9&9&&&&&&&&[[[&[&[&&&[&[&&4^^*/=*202|]]e0]]ee||9|9|9|9|999",
"e]e]|]|ee|ee9|||9990|r|&&9&99999&9&&&&&&[&&&[&&&[t&&&&&90*^^/**<<00000]00=0r|]]0]]]e|]|||]||9|999r|e9e&9t|9999&&&&9&&t&&[&[&[&&&&&&&&&eee=i                                                                                                                                                   +**^^^*^2***0=000=]00000e||e|ee||||e9||9999t&9]|e9&&&&&9&9&&&&[&&&&&[&&&&&&&&&&9&9<^^^<<**=<]0]00]]==0e||]]]e]9|||",
"eee|||]|e|e|e|e]]]e|]|]9999&99e999|9u99&&&9&999&99t&&[&9=*^*<<***]000]0]00=00]0]]|e]r|]e]]|||e]99o|9ee||9999|9|9|999999&9&9&9&9&&&t[&&]e]0i                                                                                                                                                   d4^*^*^*/<***2000]]0000]0]]|]|e9|||e|9||||]]]|||||9&9&9&||99|999999&9&t&9&9t9&9&9&<^^*42***<]]0]0]]]0=0]]]]e||]]|e",
"0]]]e]e|ee|]e]|e|]e]||9eee||||e|999999&|&9v&&9&&&t9t9tt|=*^^<****0]00=0=]00=]]0r]]ere]e]|]e]|eu||]||u]e|9|9|||99&9&9&999&&v&&v[&9&9999|r]=i                                                                                                                                                   +*^^*^*^<*****e0]000]=0=]]]0]]|]eee]|e|e|||eeeee99|e||9|ue|9&9&9&999&&&&&9v&&|&|&9<^^^44<***0]00=0r]]00]e0e]|eeee]",
"0]000]=]0]|e]]e]]|e|||e|0]||||e|e||||||&9&999&9[&b&&|&990<^**<***2]000===0=00000]00]=0]]e||]]]]]|9||e|]ee||ee|||e||||&9&&&9|9[&&&&e&9&9]0=i                                                                                                                                                   d*^*^*^*4**<**=]=000====]]0]]00]]0]]]9e|]|]||||9e||]0|e|e||||9|9e|&&9&99|9&&&&99&&4^^^*<<<*42e0]=0==0000000e0]]00e",
"0=r0]0e]e=0e]0e]]0]e|]e|]]e||||]e||||]e||]|99|||||&99|9|0*^^2*4***=000====0=020=]0]0e=0=0]e]00]]|e|0|]ee||9|ee||||||9|9||9|e|||9&|e999|002i                                                                                                                                                   +*^^^^*^<*<***<=0=]===0===]000]0]||]00|r]]]r00|eee|r|]|||e]]|||eee9|e|9||||||99|9|<^^^42<***<2]=0=0==000000]]]]]00",
"000]0]]]]00]0]]]]e]ee]]ee|e|||]9999&9t99999&9999999&9999=*^*<<*<*4<e=0=]0000000]]]0]]]00]]0]0]]]]]]]]eee|||||||99&9&999&9&9&999&99u9&&e00=b                                                                                                                                                   d*^^^*^*4<*<***2]=00=000=0r0=]0]]e]e0]0]0ere]e]|]ee|e||9e||99&9&9&9&99999&999&99|9*^^*424<***<]==000=0000]0er]]]00",
"00r0e]]0]0]]e]]]e]]]|e|]]e|]e]]||e|||e9|||||||||999|9|e]0*^^<*<***<20=0=000=000000e]]0r0]]e]]]e]]0ee|]]]e]|]e||e|||e||u||99|||999|999||==/c                                                                                                                                                   +o^^^^^^<*<*<*4*]0==0=0=0=00000e|rr0ee|]]]]ee]]||ee]ee|]e0|e|]||||9|||9|||||9|999|<^^^4<<*<***=0=0000=000000r0e]]0",
"00=0]]]]==/=00]]]]0]0]]|||||]ee||9e|]||99||&e|9&9&999&u|=<^*<*<<***<00=220000000=000]]0=/=00]]]e]]]]0||||ue|e||9e|e||&9||&||999&|&9999|0=a                                                                                                                                                     +u*^*^*<2*<44*<2e=0==000000000e]e]022=]0|e|]0]e]e|9|9|e0]|99|e||99&||9||&9&999&99*^^^*2*<<<*<<]==2=00000000000ee]",
"<*<*/22<<*<<<<2<<222=2/20======2=222=2=20000]0]]e000]u|0=*^^=<*4<***<*<*4*<<<4<*<*<22<<4<<<*2/</=<2<22==0========2=2==0000]]]]e]]0]]|]]ra                                                                                                                                                       +z*^^^<=<*<***<4<<<*<<<<<<<*<<222*<<<*<22<=2==2/==0=0===0==2=====0]000]]]]]000|e*^^^4=/*<*4*<*<<4*<</<<<<*<<=22<",
"<<</<<4<<<<2<<<<*<*/</<2<<<<<<*<<<</22<<<<*<</<<<2<//==0<*=o<=*444*****<4<*<4<<<</</<<*<</<<<<*<<<4<<2</<<4<<<<<<222<<<<<<4//<<2<//==]v+                                                                                                                                                          +z*^*=/**<*****<4<*<*<<<<<<<<<4<</</<<<<*<42<2</<<<<<<4<<222/2<<*<<<<<</<<<2=t2^^^*224*<*****<<<4<4<*<</<<<<*<",
"^^*^*^*^***^*^*^*****^*****4/44***********<*<<<*<***<<2*4bzg*^*^^^^^^^*^^^*^*^*^*^*^*^*^*^*^******4^4p<*//<*4</4<<4*44p222===/=2<<==0y+                                                                                                                    +czzzzzzzzzzzzzzzzzzzzzzzzzzzzzzzzzzzzzffh*^^*^^^^^^^^^^^*^*^*^*^*^*^*4/*4^*^*************^*******^*^****<4<*****<</hlo*^^^*^^^^^^^*^^^*^*^*^*^**44*^",
"^^^^^^^^^^^^^^^^^^^^^^^^^^^=zb*^^^^^^^^^^^^^^^^^^^^^^^^^^^^^^^^^^^^^^^^^^^^^^^^^^^^^^^^^^^^^^^^^^^^^*addd+ddd+ddd+ddd+ddd+ddd+ddd+ddd                                                                                                                      i^*^*^*^*^***************^*^^^^^^^^^^^^^^^^^^^^^^^^^^^^^^^^^^^^^^^^^^^pydj^^^^^^^^^^^^^^^^^^^^^^^^^^^^^^^^^^^^^^^^^^^^^^^^^^^^^^^^^^^^^^^^^^^^^^4tn*^",
"^^^^^^^^^^^^^^^^^^^^^^^^^^^^^^^^^^^^^^^^^^^^^^^^^^^^^^^^^^^^^^^^^^^^^^^^^^^^^^^^^^^^^^^^^^^^^^^^^^^^^p+                                                                                                                                                   n^^^**4*<*<*<*<*<<<<<<2<2<2<<<<****^^^^^^^^^^^^^^^^^^^^^^^^^^^^^^^^^^^^^^4*^^^^^^^^^^^^^^^^^^^^^^^^^^^^^^^^^^^^^^^^^^^^^^^^^^^^^^^^^^^^^^^^^^^^^^^^^^^",
"******************^^^^^***^***^*****************************************************************^^^*^4d                                                                                                                                                   u*^**222<2/2222=2=2========0=0=0=0====22<2<<*<******************************^^^^^^^*****^*************************************************************",
"==========0=0=2/2<<*^*222<2<2<22222222=2===2=============2=2===22222=2================0===0=22==2**^**d                                                                                                                                                   b^^^*20=0=======0=000000]0]]]0]]e]]]|0]00=000====2=2=2=====================22<*^^^*<2<2/2<2<222222=2=2=2===2=====2===2=2=2=2=222=2=============2======",
"9&9&&&&&t&&t9&&t]02**000000]0]000]]e]]]e]|||||||e||9e||9|||9|9|999999&9&9&9&9&&&9&&&9b&&&99&t&|]00<**4d                                                                                                                                                   t*^**=0]]]]]e]]]||||||]||9|9999&99|99&9&&&9&9&9&&&&&&&t&&&t&9&t&&&&b9&t&&&9&9&]*^^*2000]00]]]0r]]|]|]e|9|||999|9|9|99999999&9&t&&&9&&&t&&&t&&&t&&&9&9&",
"ivi&v&vviv[vv&iv&02*<]]]]0e]e]|0e]||9|||99999999&9999t&&99&&&&&&&&&&v&v&vv[v[vivi&iviviiibivivv|e==***d                                                                                                                                                   t^*^*09]]]9]]]|]||9|999999&99&&&&&&9&&vvvtvv&vi&vviviviviviviviiii[vivivivi&&vv<^^*=|e|]eee]||0e||999999&&v&&&&&v&v&vvi&v&v&[viviviviiiviiiviiivvvivvv",
"viviviv[v[v[viiv&]2**|]|]|e||ee|]0]||]0e9&9&999&||9&9999]|99|&|9&v&vvvvvvi&vvvvivvvii[viviiiiv&9|0=2*4d                                                                                                                                                   t*^**0|0]]9|e||99|0||9e]|&&&&&&&999&&[vv|99&&v&&&iviviiiviviviiiiiviiivivivivi&<^^*=|e||9||9e9||0||9ee|&&v&&&v&&9&&b&[t99b&&&&t[iiviiiviiiviviiiviiivi",
"iviviviviviviviv&]2^<e0e|||e|||||0]=0|||9|9999999|]e999]|]|]||||&&v&vvvv[vvviviviviviiivivibiv[||00=4*d                                                                                                                                                   t^^^40|2r||ee|9|9]0]=0||9999&9&9&9|e9&v9|]|9&&99&viviviiiviiibiiiviiibivivivivv<^^*=|0]|9|||9|9|re00&999&&&&&9&&teutvt|99999&9&viviviviiiviiiviviviviv",
"v[vvvvvvv[vvviiiv|2**]=eee]]]||||]0|]|||e||9|9|999|=0]]e|9999&9&t&999v&vv[vvv[vvv[v[viv[viviiiv&e]0=24d                                                                                                                                                   t*^**0]=0ee|]|||||e9|e|9|9|&999&&t9|2]9|9&9b&v&vvvv&&iviviviviviviviviviviv[viv/^^*=]00|||]||999e]||99|99&&&9&tv&9=0|||99b&v&vvivv&[vivivivivivivvvivv",
"v&&&v&&&&&v&vvivv]2^*000e]]]e]e||]0|]=]0]]e||eee9||e=ee|||9|9|99&99999&&v&&&v&vvb&vvv&vvvvvvibv9|00==<d                                                                                                                                                   t^*^*2020]e0e]||9|e]90||||9|9999|||||09|&9&999&&v&v&v&vvvvvvvvvvvvvvvvv&v&v&vvv<^^*2]eeee]|e||9ee]9]]]]|9|999|9&9992|9&9&&&&&&v&v&v9&&vvvvvvvvvvv&v&v&",
"vv9bvb9v&v&vvv&v&]/**0=0e]]]]e]|e|er|]]|]|e||9||e|e|0&e9|9|9|e99999&9&&&&&&&&bvit&vv&v9vvvvbviv&|]0===d                                                                                                                                                   t*^**=000|]e0|||e||e]9|||9|99999|9|9|0999&&999|&&vtvvv&vvvvvvvvvv&&ivvvb&vvv&v&<^^*=]]]|e|e|e||||9r9e|||99999&99999]tt&&&&&&|b&b&bvv&vvvvv&v&vv&9vvb&v",
"&&v9v&9|&&v&v&&&902^*=2=]]|]e]ee|0e0]]|]|ee]e||]e]0|e0]]|e|||0e9&9&99999&&&&b&v&v9&&&9&9&&v&&v&||]0===d                                                                                                                                                   t^^^*20=r]]e|e|e|]0|]||e||9|||9||||9&=]|&99999=|&&&&v&&tv&vvv&v&vbt&vt9&&&&&v&&4^^*202]eee|e|e9|]|ee9|999|||&99||0&|]|9999&9eevbv&&&&9&&v&b&v&v&&tv&99",
"9&&&bv&t99&v&vvvt]<**0==e]]]0]0eee0]0ee|0eeee||]]|||]]|||||||00&9&99999&9&&&&&9v&&&vb&9&&v&vvvvte]00=md                                                                                                                                                   t*^**=0=0er]]]]|e]r]]e]ee9e||9|9e||9|ee9999&99=|&v&v&v&v&&&vvv&vvv&vbv9&9&&&&v&<^^*20==|0]]]0]||e]|||||||9|99&|||99|]99&9&9&00bv&v&v&&&&&b&v&v&v&&&v99",
"999&v|t&&9&&&&v&90<^*2=2]000]000]000]]e0]0]]|]eee]]e|||]||||9|=e&999&9&999&99999&tb&b&&9bt&&v&&9|00===d                                                                                                                                                   t^*^*<2200m0]0]0]r00]]|]e|]]||9|9|||9|9||999&9u=9vbt&&vt&&b&&&&t&&v&99vt9t&9&&&*^^*4=0=]]0]0]0ee]]]]9|]]ee999|9|9|9999|9&9&tu=e&&t&&b&b9&&&9&9&t&&&|&9",
"9&t|&b|&t&tbtvt990<*^2/2000]r00]r00]]e]]r]]ee|e|||e||9|ee|||99e0]&99|99&&&9&999&&btv&&9&&b&vb9t|e]00==d                                                                                                                                                   t*^**<<2000]0]0]r]0e]|]|ee]|]|99|9|9|999]99&9&t90o&v&&&&tb&v&9t&&b|t&ot&9b&&&&9<^^*</22]0]]]0]]e0]]|||]ee||99999|99&9&|99&9&9ur]&&&9&b&b&&&99&t&99b&9&",
"||&9&t&9&9&t9&v9|=<^*<<20000]0r00000000]]r]]ee|e|e]]|e||||||||||]|t|99&99t&9&|||&t&t&9&9&&&tvt90]]0===d                                                                                                                                                   t^*^*</<0=00]000e000]0]ee]ee|e||9|||9|999|999|||u09&&9&&&t&&bt9|9tttb99t&9&9&t9*^^*</<=]]0]r]0]0]00]e0eeee||9|9|9||9999|t9999|9|9999&t&t&t&t9|9t&9&999",
"tbt&&&t&t&&&9&tb|0<**2<=0m0]0]000]r00]r]]]]eeeee]|ee]|]]||99||e|||999&999&&&9&&btb&&&v&&tb&&tv9]]]002=d                                                                                                                                                   t*^**/<<0]0]0]0]r]]]r]]eee]e||e||||9|||e|9|999||99|&9&9&&b&b&b&bbb&v&&&&&&t&t&9<^^^/2<=e0]0]r]0]e]0]e]]ee||||9||||e|||e9|&&&|||9999&&&9&&b&&&b&&&&9&&&",
"9t99&999&9&t&tt9|=<^*<<*=000000000]0]0]0]]]]e0eeee|ee]|||e99|e||9|||9|9|99t9&9tt&9&9&9&9&t&&btt]000=2pd                                                                                                                                                   u^*^*//*2=]0000000]0r0]eee|]|e||||||e|999|||9u9|999|9999t9&9&tb9&9&9t9&999&9&t9*^^*</4<=]0]000]0]]]]]]e]e]|e]||e||||9|99|9&99|9999&9t999&9&9&t&9t9&999",
"9&999999999&9&99|0***2<*<00r0]00=0]]000]r]0ee]]e]|]ee|e||||||||9|||9|999||999t9&t&9&9999t99&9&9|0]0=2=d                                                                                                                                                   o*^*^2/<*2]]0]00000e0]]]]e]]e|eee|||e||9|999|||99|e||9|999999t999&999&99|99999|<^^^/2/*<0]0]mr000|]]0]]]]]e|e||||||9|9|9|9|9|999e99999|9|9|99&9&999&|9",
"|9t9999|9|&|9t&u]=<^*<4*20]=000=0=r0]0]0]0]0]]]0]]e]eee]]]|e|e|]ee9||]||||9||99999999999&9999990=00222d                                                                                                                                                   t^^^*<<*<2000=000=00]]]]]r]r]e|]]]ee|e|||]||||||9|9|||||9|||||9|t99999||99||tu|*^^*<2*<2]0==r=000r]e]]]]]]]]|]]]|e|||e|]|||||||e||||||||||9|9|999|999|",
"|99|99|99&99|&u9e=***4*2<=00=0000000=]]]0]r0r]]]m]]e]]]]]e|||9|e]||||||||9|9|999999t|99&99|9999]=0==/2d                                                                                                                                                   o*^**2<<2<00=000000000]]]m0]r|e]]ee|e||9eee9e9|9|||999|99||9|99999|t99|&99|99t|<^^^24*2p2]=000000000]e]]0]reeer]eee|]e]ee9|u|9e||||9|||||9|999999999|9",
"||9|9|||9|9|||e0e2*^****0*0=0=0=0=0=0000000000]0]0]0]]eee]0e0||e|e|ee]e|||||||999|99||9|9||||0|0===2/<d                                                                                                                                                   u^^^*<4^222===0=0=0=00]000]0]]]]]]]]ee|||ee]e09||||||||]||9|||9|9||99e||9|9||]]*^^^<4*<0<00=0=0===00]00000]0]]]0]r]]ee|e|0|=9||||||]ee||9|9|9|9|999e||",
"99|tt9|999u9|9|9e=*^^***4<====2===2==00]=0000]0]r]0]000]ee0]00=]ee]|e|e|]e99||9&u||9|9|9|t9&99|020=2<pd                                                                                                                                                   o*^*^p***<2==00====2=00]r0000]r]0]]]]]00]|e0]]0]]||e]|9|e||9|t9&999t|9|9|9|||9e<^^^<***<<0=0=======00]r000000]e]]]0]00r|e]r]00]|e|e|||||e99||999|9|||9",
"9|9|9|e]]]e||eu|]2*^^*****02==020=020=0=00]00000r0000r]00000]]]]|]]]ee|ee]|||]|||||e|]e]e|9eu||=2==<<<d                                                                                                                                                   t^^^*4*^*^<0====0=0=====0=00000r]000]0]rr000]0]||]e]e]|||e]e||u|9|9||]e]e]e]e|e*^^**4**^40=====00===0==000r0]0]0]0]0]]]0]0r]e]|e]]e]|||eee9e]|9||]|]e]",
"|9e|||]e]||]]eee]=*^^*****=02=2=2===0m00000000000]0]0]]]]]0]]|]e]|]]]ee|e||9|9||e|||e|e||]e]e||0/=224/d                                                                                                                                                   o^^*^4*4***m===2===0=00000=0]0000]m]00]e]]]e]]e|||e|]ee||||||9||||e9|e]e||]e]ee<^^^4*<***=0======0=00]00000]000]]]0]]e]]]]]ee|e|ee]|e||||||9||||e|||]e",
"|0]]]=0]|]e|00||]=*^**4***<==2=<22=2========0=====000=000=00e00=00e]000=0000]r|0]]e000e]e|e0|e|]222444d                                                                                                                                                   b^^^^******<02=222222==200==0000==000=000=00]00000]r]000000000]|00e]00]e]]|=0ee*^^^****^*402==2222==0=0=0=0=0=0=000000]=00r]]0000]e000000000]e]0]]0=]]",
"0e]eee]]0e]]0]ee0=*^*4*<***2==2===20===0=0=000=000=000000]0]0]0]]]0]0rre]]]e0]0|]]re]]]e]]ee]e00<=<<*c                                                                                                                                                    w*^*^<44****202======0===0000000=0=000000]0]00]]]]0]]]0]]]000]0]]e]|ee0]]e0]0|]<^^^4*44**4202===2====0=0=0=00==0=000=00]0]0]]]]]0]]]0]]]]e]]r]]]0]]e0]",
"]]]]e]|0]ee0]r]e]2*^********0222==========0=000=0=0=0=0=0000]0]0000000m000]r]0]]]000er]]e]|e]|e0/2<*c                                                                                                                                                      h^^**4*****<02222==========0=0===00000=0000r0]r]000000000000r]0er]]]]0]e]r]]]]*^^^********==2===2======0===0===0=000=000=00]000]000r000]0]00r]r]0]e]r",
"0e]]]0]]]e]e]e]]0=*^*<*<*4**<02========0=====000==0]0m00=0000]]00]000m0]0]0]]]]e]]]]0]]]]e]ee|e0<<0w                                                                                                                                                       +p*^<*<*<***===2========0=0=0=00==0]]00=000]]]]0000000]]]0]]er]]]r]0]r|]]]]]e]<^^^<***<***2=22======0=0=0=000=0=0]]00=0=00]]]0]0000000]]]]e0]]]]]r]]e",
"0]e0er00]]e]]0]]02*^*<**<****<2/<*<22<222<22=2=<<*<<22=2===22<=0r000]=000=0==00]e]]e]]]]e]]0]]0=<&+                                                                                                                                                         w^^4/^<**^**222<<222222<22=2==<*<</20===0==2==00]0]0000000==00]]]]]0]]]]]r]]]*^^^*2*<*****222*<<=2222222=2==2*<<22====0==<2=r0]0]00000000=00]]e]e0]0",
"4<</<2<22=22<2=0=2*^^2/**4*****<4<*<*4*<<<*<4<*<<<<<<<*<*<*<<<<<<<*<<<*<<<*<<<*<</<2222=22<2=00=*2=====m=m=m0m0m0mm]m]r]x]xexexe]exeeexeew   d=pppppppppppppppp=p=p=2=2====m=m=m=m=m0m0m0rm]m]r]x]xe]exe]exeeexee]z   +t4pppppppppppppp2p2ppppppppppppppppppp*^<2<*<*******<***<*<*<<<*<***<<<4<<<*<*<*/<<<<<<</<<<<<<<<*<</</222222<<<0=*^^^422*4****^**<*4*<*<<<*<4<***<</<<*<*<*<*<<<<<<<<<<<<<*<<<*<<<<//2<2",
"<*<*<*<*4*<*<<22/*^^^*<^***^*^************4***4*4*4***4*4*<*4*<*4*<***<*4*<*<*<*<*<*<*<*<*<<222*^^*^******<*<*<*<<<<<<<<<<2</<2<2<2/2/2<<2w d4^^^^*^*^*^**************<*<*<*<*<*<*<*<<<4<<<<<</<<<2<2<2<2<2<222<2<2: +e^^^^^*^*^***^*********^*^^^^^^^^^^^^^^^^^4**^*^*^**************4*******4***4*<*<*<*<*<*4*4*<*<*<*<*<*<4<*4*<*<42/4^^^^^4**^*^*^*^**********4***4***4*****4*<*<*<*<*<***4*4*<*<*<*<*<4<4<*",
"^*^^^***^*^^^***^^^^^^^^^^^^^^^^^^^^^^^^^^^^^^^^^^^^^^^^^^^*^*^^^*^^^^^*^^^^^^^*^*^***^*^^^********<*<4<4<<<<<</<2<2<2/2222=2===2=====2222b =********<*<*<4<*<<<<<<<<<<<<2</<2<2<2<2<2<2<222/22222222=2=========2==0+w^********4*<*<*<*<*<<<<<<<****^^^^^*^^^^^^^^^^^^^^^^^^^^^^^^^^^^^^^^^^^*t*^*^^^*^^^^^^^^^^^*^^^^^^^*^^^***^*^^^***^^^^^^^^^^^^^^^^^^^^^^^^^^^^^^^^^*^^^^^^^^^*^^^^^*^^^^^*^*^^^^^*^*^***^*",
"^^^^^^^^^^^^^^^^^^^^^^^^^^^^^^^^^^^^^^^^^^^^^^^^^^^^^^^^^^^^^^^^^^^^^^^^^^^^^^^^^^^^^^^^^^^^^^****<*<<<<2<2<22222222=2======0========2==2<bj****<*<*<*<<<<<<<<<</</<2<2<2<2222222222=2=2=2===2==========0========2==dc^^******<*<*<<<4<<<<<<<<<<2<2<<**^^^^^^^^^^^^^^^^^^^^^^^^^^^^^^^^^^^^^^^x*^^^^^^^^^^^^^^^^^^^^^^^^^^^^^^^^^^^^^^^^^^^^^^^^^^^^^^^^^^^^^^^^^^^^^^^^^^^^^^^^^^^^^^^^^^^^^^^^^^^^^^^^^^^^^^^^",
"^*^*^*^*^*^*^*^***^*^*^***^*^*^***********^*************^^^^^^^*^*^*^*^*^*^*^*^*^*^*^*^******<*<<2<22=2===2====0=0=0=0=0000]000000=0=0=02<*<<<*<<<<<<2<22222222=2=2=2=2========0===0=0=0=0=0=0=000000]0]0]0000=0=0=0aw^*4<<<<<<<<2<222222222222=2=2=2=2=/2<2<<<<******^*^***^*^*******^***^***^*^^^^^^^*^*^*^*^*^*^*^*^*^*^*^*^*^*^*************^*^***^*******^***************^^^^^*^*^*^*^*^*^*^*^*^*^*^*^*^*^*",
"<*<*<<<<<<<<<<<<<*<***<*4*****4*<*<*<*<*<*<*<<<*<*<<<***<**^*4<***<***<*<*<*<<<*<<<*<<<<<<<<22<*<<2<2<2<2<2222=222=2=2=222=====2==2/2=0=2^<2222<2<2<2222=====2========0======<2222222<2<2222=222=2=2=222===2=2=22/=0ca^^22222<2<2<2222====222==============</<2<<<<*******<***<***<*<*<***<*<****^^^^^4*<*<***4*<*<*<4<*<<<<<<<4<<<*<<<<<*<*<*<***<*****<*<*<*<*<*<*<4<*<*<*<**^^^^^<*<*4*<***<*<*<*<<<<<<<<<<<<",
"=====0=0=0=0=0=000=0000000=0=0000]000000000]0]]]]]0]00==2<**<222222=2============0=0=0=0=000=]00=00]]]]]0]0]]|]|]|e|]|e||o||||||e||]0]0=**2======0=000000000000]]]00]]00]]0e]]0]]]]e]]]]]|e|||||e|e||||o|o|||oe||]0]gw^*2======0=000000000000]]]0]]]00]]0]]]0]]]0]000]000]]]r]000]000]000]0]0]00=2^^^*<22=222=2==========0=0=0=000===0=0000000000000000]0]0]00000]0]000]0]0000=<^^^*<2222=2=2==========0=000=000",
"]0]]er]]]]]]e]e]|]e]|]|e||||||u|o|u|u|9u9|u|9ututt9|9u9e=<**0=0=0=000===0000]0]]]0]]e]e]]]e]|e|ee]e|9e9u9|uutu999utt9ut99utttutuuuttt|]2^^000=0=00000000]0]]e]e]ee|e|]|e|]ee|||ee|||9u9utu9utttttu9ttutttut9tt9utut|hc^*=00=0=0]]00000]]e0e]e]ee|]|||e||||||||uutu9ututu9ututuuuuttututututt9|9u9e<^^^2=0=0000000=00e0]]]]ee|eee|e||||e|||||||uutu9ututututu9uuutututu9utuu|9uu]*^^*20000000]00=00]]]]ee||||||||",
"]|]]e|]eeee|e||9|]e||9|9|9u9|9utu99ttttbttut9ttbttttttt9=<^40]000]000]=000re]]]]]e]|ee]|e|e||9|||9|||||9u9u9uttttttbuttbtttttttbtttbtt0<^*0]000]0]000]0]]e]]0]]|]|e|||e9||e|u|e99t|9u9uttttttttttttbtttbtttbtttbtttthw^4=]000]0]0]0]00]|e]0]e|]|||||||||ut99|9u9u9|ttttttttbtttbtttbtttbtttbttttt9<^^*2]000]]000]]0]]e]|]]|||9|9|9|9u9utt9e9u99tu9tbtttbtttbtttttttttttbtttttttt<^^*/]0]0]]]]]]]e]0||e]|eu|9u9|9",
"r]e]ee|]|]rre||e]0]]e]e0]u9|9u9u9ututttttttttttttttttto|0<^*]r]000r000]0====]000eeee|e|]=0||||00]]|]]]]|tu9ut9tuttttttttttttttttttttu|]*^*000r0000r0]]0=0=]00]e]ee|e|e]0e|||e]]e|||0]|tuttttttttttttttttttttttttttt|ha^*00=000r0]r]]==0=]000||||||||r=|e|||0]]|||]e|ttttttttttttttttttttttttttttt|<^^*=]0xr0]0]0]]0=0=0]r0|e||9|u|9ee|9o9]eeu|9||ettttttttttttttttttttttttttttt|<^^*/r]]0]]0]]]e]=]=]]]0e|9|uu9|",
"0]]]]e]]eee0=]e]=00]0|]]eo|||9u9ut9tututu9utututttttttt9=<^*0]000]00]]0]=0==]]0]]e]eeeeee]=]]o]00]]|e]]uu9u9utttttutttttttttttttttttu9]*^*=02]0]00]]0]00==0]0e]ee|e|e|ee=0]|=]0]]||]e9u9u9uttttttttttttttttttttttttthw^*=]=]0]00]]0]000=0]0]]||ee|e|eo=0]u0]0]]||ee9u9utttttttttttttttttttttttttt9<^^*20=rr]000e0]]00==|]]]|e||u|9|o0=]9]]]]]|||euututttttttttttttttttttttttutt9*^^*/]]]0]]]0|]ee000=|]]e||||9|u",
"00]0]0]r]]002200]]]]]]]]|]e||]||u|uuu|uuu|uuu|uuuu9ututu0*^*======0=]0000=]0000=]]]0]0]]00=200]re]e]eee|||||||uuuuuuuuuututu9uuutututu0*^*==20000=00000=]0]]0=]0]0]]]e00=<=0e]e||]||||||||u|uu9utuuututututuuutututuhc^*===0000=0000r=000]00]0]]]]]e]0]2=0]e|e||||uuu|u|uututututututututuuu9u9ut|<^^^2=2=00000]]0]00]0]]0e]]]ee|||e]220e|||||||u|u|9|uutututututuuuuuuu9|uuuutu<^^*2=0=0=0000]]]00e00e]]]ee|e|e",
"=00r0]0]0e]]0=]]0]]e0]eee|e|ee]||o|o|uu9u|utu9uou9u9uttu0<^*2=2]00=0000000000000000]0]0e]]0200]|]er]]|||e||||||9|uu9|9uou9u9u9utu9utt90*^*202]=000=0000r000r000]]]m]]e]]0]0|||]e|ee|e|||||u9u9u9ut|ttu|ttuut|9ututu9hw^*2=200000=00]0]0]=0000]]]e]]]|]e0=e0|e|e|e||9uu|9|9utu9utu9utututut|9u9u9t9<^^*/==000000]0]]]0]0]00]em]e]]]||e]=eeeeu|eeu|9u9u9|9u9ututu9ut|uutu9|uu9|uu94^^*/==0]0=0000]0]0]]0m]0]0||ee|",
"00]0m0]00=000=]0]0]0000eee|e|e||||||||u|9uuuu|ue||uuu|te=4^*2===0=0=000000=0000000]0]0]=0=]=00]r00]00e|||e|e||o|||u|u|9|euu|||uuuutu9|0^^*==<00=0=00r000==00r0]0]0]r]r]=r00ee]]]e]00||ue||u|o|u|uu9|9ue|tuu||u9u9u9|ha^^22]00=0=00]0r00=]0]0]r]]]]]0]=]]=e]]]]e]]0u|u|||u|u|uu9uuu9uu|9u||||u|9|||<^^*2=2=0=000=r0]0m=e0]0]]]]ee]]r00]=eee|ee]|=||u|||u|uuu|uu9|uuoeuuu|||||||||<^^^/=0=000000]0]0]=]r]r]]]]e]|]",
"0]]00]0]0]000==00]000]20e|||]|]|]||||9|u|tu9u|||]||uu9|e=<^*===0=000=000=00]00000]]]0]0]000020]]0]]]==||||e|eo|u||ou|||9|9uo]|||u9ut||=*^*==*000=0000m000]00=00]0]0]0]]00]20r]]e]|02e||||9|||9|uu9uu|9uuu9e|||uuutu|qw^*2=0000=0000]000]0]00]]0]0]]]]00]=00]]]0]]2m||9|u|||uu9uuu9ouu9u9e||||9uu||<^^*<0<=00=0000]0000=]00]e]]e]]]]]0]0=]|e|]||209|t|9|||9uu|9uu|9uuu9||]|]oeuu|*^^*<0=00000000]0m0e0]0]]ee|eeee",
"0=00000000000=00r000]0==|]e]e]]0]]ee|e||||||e||e|e||ueoe0*^^222=0=0===000=0=0=0=00000000]0r00r]]]0]]=2|e|]|eee||||||u|||u|o|oeo|ueuuue0^^^/2<=0=0===0=0=0=000=00]0000000]00r]0]00]02e||e|||e|e||||||||u|oeueueo|u|||hc^^/22=0=0=0=000=0=0=0000]0]0]000]]]]]]e00]]20||e|||e||||||u|||u|ueue|]|||||e<^^^<222000=0=00]00=000000]0]re0rr]]]0]]]0]]]==||||||||]||||||||o||eo||]||ee|e<^^^<2=20=000=00]00000r000]]er]]",
"=000000]00000]0]=00]r]0==|]e]e]]]ee|e|e|||e|e]|u|u|||o||=<^*<=20=0=0===0000000=000000]0]0]0]0]0e]]0]]0=ee|e|e|e||u|||||u|o|]|uuu|||u||2*^**2<0===0=0=0=0000]0000000]]]0]0]]]000]0]e0=e|o||||e||u|e|||||ou]euuu|uuu||jw^*<220===000=000000000000]]]]]]e0]]]]]]]]ee]20|ue|||eo||||||e|e||e]u|o|||u|e<^^*4/2=0000=0=000000]000]0]m]]]r]r]]]]0]|eeee20|o||||e||o||e|e||u|e0|||||e|e|*^^*<<==000000=00]0]00]00]]]]]]]",
"0=0=0000]00=0000]0r0]]]00=e0e]ee|e|e|e]]]e]e|||eue|eu|e0=**^<<2=======0=0=0=0=0=000=00]000r000]0r0]0]0]2]]]]]e|e|||e]]|eerue|ou|||oue]=^^^<</=====0===0=0=0=000=0=00]00=]000]000]]ee]=0e]e|e|e||||]]|e|0u|e||||e|uo0ja^^<<<===0=0=0=0=0=00000=0000]r]00000]000e]eee=0eee|e||o|||e0|]|0o|||||e]||o0<^^^<*220=0=0=0=0=0000]00000]0]]e00r]0]]]r]e|e]0=e]e|]||||||e0eee]|||e|||]|eu]*^^^<<2/0=0=0=0=0000000000]000e]",
"00=000000]000]0]0]r]0]]]000e]e]ee|||e|eeeo|o||e||||||o|]2<^*4<20=0===0===000=000=000=00]000]0]]]0]0]0]]]0|]]]oe||||oe||||o|o|o|||o|||]2*^*<<40=0=0===0=000=0=0=000000]00r]000|]]r]0]]]0]e||||||||o|||o|||u|||o||euo]1w^*<<<==0=0=000=00==000=000000]0m0]]]0e]e]]0ee]0|e||||||o|o|oe||o||e|e|e|e|||4^^*4<*==0=m0000=0=0=00]0000000]e]0]]]]|]e]]e|]|0]e||||||o|o|oe|||eo||e|||e||e*^^*4<42=0=0=0===00000000000000]",
"0=0=0=0000m00000]000]0]000]]]]]]]ree|]|e|eeee]|e|e|e|ee02*^^<*<======2========000=0=0=00]0000000]=00]000]0]]]]e]e]|e|e|||e|e|e|||e||o02^^^/4<2=====2====0===0=0=0=0=0000]000=0]0]00r]0]0|]e]e]e]|e|||e|eu||||||e||o]jc^^<**=0===========0=000=000=0000]0r00m]=]]]]]0r0er|eee|]|e|e|||e|||||e|e|e|]<^^^<<<<====0=======0=000=000000]r]000]0]0]]]]]000|]ee|]ee|e|e|e|e|eee|e|e|]|]*^^^<<4<0===0===0=0=0=0000000=00",
"=0=0=0=0000000000]0]000]r]0]]]]ee]e|e|]|e|]o||e|ee|||e]]=*^*/<*<===0=====0=0===0=0=000000000000]r0000]0]0]]]e]eee|e|e||oe|||]oeee|e|e]2*^*<<**=========0=0=000=00000000]000]0r0]r]]]0]0]]]]|e|]]e|eoe|e|||]|ee]|eoe]jw^*//*<2========0=0=0=0=000000000000]0]]]]]0]0]]]]|ee]|e|eo||eoe||oeee|]|eo]]*^^*<<**<0=======0=0=0=0=000000000000]0]]]]]0]]]]]]|]|e|]oe|e|e|e|||e]ee]|e|e]*^^*42*<<==0=0=0=0=0=0=00000000]",
"==0=0=0=000=000000r00000]00]]0]0]]e]]]ee|]eeer]0e]eeeee02*^^/*4*2==2=2=2==========0=000=0=000=0000]000r00]]0]r|ee]eeeeeee]e]]]]]eeeee02^^^2***2====2==========0=0=0=000=0=0000]0]0]000]0]]]re]e]e]eeeeee|]]]e]]eeee0ja^^2***<=========0=======0=0=0000]000]0]0]0r0]0]r]]]0e]e]e]|e|]ee|r]]]]e]|]e0<^^^<*<*<2========0=0===0==00=00r=00]000]0]r]0r]]0ee]r]ee]ee|ee]e]ee]0]]]]e]e]*^^^4<**<202=====2==0===0=0=000=",
"=0=0=0=000000000000]0]0]000e]]0]r]]]]e]eee]e]eeeeeeeeoe02<^*<4<<202===2====0===0=000=000000000000]0]00000]]00]]]]e]e]|ee]eeee|]]e|e|e]2*^*<<*<222===2=2==000=0=0=000=0000000000]0]0]]]]]]]]00]]]]|]ee|eee]ee]]e]]oe]1w^*<<<<<==========000=0=0=0=0=0=00000000]]]]]]]0]]]]]]]]]e|e|e|e|ee]|]eeee|e]<^^*</4<<=2==0=====m00=m00=0=00m00000]00000]]]0]0]]|]]]]ee]|]ee|]]]|]e]|]]e||]*^^*<2*/4====0===0==00=0=000=000",
"=====2====0=0=000=0000]0000000r000]0]0]]e]]]]r]]]]e]]0002*^^<^<<<=22=222=2=2====0=======0=0=0=000=]=e000m00=00]0]0]0]]e]]0]]]]]]]]]]002^^^<**<<2=2=2222=========0=0=0=0=0=000=0=]=]0]000000=]000m0]]]0]0e0]]]]]r]000jc^^4**2<2=2=2===2=2=2====0=0=0=0=000=000=]=]0]000]000]0]0]r]0]]e0e]]r]]]r]]0=<^^^4**<<2=2===2===2====0=====0=0=00000000000]]000m00000]r]0]0]]]]]0]]]0]]]000*^^^<**424=2===2=2======0=====0=",
"===0=0=0=0=00000000=0=00000]0000000]]]]e]]re]]0]]]]]]]002*^*4*^2*=2=====22=======0=0===0=0=0=00m0=00000]0]00r]0]0]0]]]]]]]]]]]0]]]re00/*^***^</22=2=2======0===0=0=0=0=00000000==0=]0r00000]0]0]r]]]]]r]e]r]]e]]r]001w^*4<^<<<2=2=2===2====0=000=0=0=0=000=000=]=00]0]0]0]0]0]0]]]]]]]]]]]r]]]0]]0*^^^44**222=2=2====0=0=0=0=0=0===0=00000002r=]0]0]000]0]0]]]r]]er]]]]]0]r]0]00*^^**<**2<2=2=====2====0=0=0=0=0",
"====0=====0===0=========0000r===0=000=00000000r0000=0r]=2*^^4**^*====2=22/2222====0====20=0=0=========0=000=000=0=0=0=00000=0000000]]0/^^^4^*^*2=2=2=2=2/2=2========220=0=0===0=====0=000=0=0=0=0=00000=r0]0r00000]01c^^<**^*<=2=22222/2=2====0====2==0=0===0=0==20=000=0=0=0=0=00000=0000]000]0]0<^^^<**^*<=/2222=2<=0=======0==2==0=0===0====20000000=0=0=0=0=000=0000000000]0*^^^***^**=2===2=22<=2====0===02",
"2====0===0===0=0=====000=00000=00]000]000]]]r]0]0000=]00<*^**4***===2=2=2===2=2=2========0===0=0=0=000000000000r0]00000]r]]]0]]]00=]00<*^******/=222222=2=2=2======0==00=0=0=0=0=000=00000000]000]]00]0]]]0]]]0000r0iw^**<***<=2/22=2=2===2=2===2==0===0=0=0=0=0=0000000=000r000r]0]m]]]0]]]00]000*^^*******=2222=2=2========0=0=====0=0=0=0=000000000000]r00]000]0]r]000]000000*^^**<****2=2=2=====2======0=0==",
"==22222222====000=0=0=0=0=000==00=0=0=r000000=0000000=002^^^***^**=<2<<<222<22=2=22==2=20===0=0=0=000=0=]0000=0=0=0=0000]00=00000==00=2^^^******=22<<<222/22==22=p22220=0===0=0=0=====000=0=0=0=000r00000=000=0=0000jw^^*****^=222<<2p222222=2=222=2====000=0=0=0=00000=0=000=000000]00=0000]=0000<^^^*^*^*^2=22<<222<=2===2=2=2=2======0=0=0=0=0=000=0=0=0=0=00]0000=0=]0000=00*^^^*****^<=22<<222222===2=2=2==",
"/22=222===2=2==0===0===0=0=000=0===0===0===0=0=0000]00002*^**4****<2/=2=22222222==2==22=2=====2======0==0000=0=0=0==0000=]00=0=]000]00<*^**4****<=/=22<=22/22===22==20=0====2=2======00000==000]00=000=000=000=]0]=0i+**44*****=/222<2222=22==2=======20=0=0=====0=000=0==00===00==0=000=0=0000]00*^^^*******=2222<2/2/2222=2=2===2===20==2=========00===0=0=0===0=000=0=0=]0000*^^**<*4***222==22/=222=2=2=2=2=",
"22=2=2=2=222=2=====2==0===0=0=0=00000=0=000=000=0000==0=2^^^<**^**4=2/222/222222=2=2=2===2=2=====2======0=0=0===00000=00000=0=0=0=0=0=2^*^<****^*22///2222=222=222===2=====2===2======0=0=0=0=m0000=000=000=0=0=0=0=i 4^<******<=<<<2222222222=2=2=2=2========0===0=0=0===0000000=000=00000=0=0=0=<^^^4****^*<=<2//<22222222=2=====22=========0===0=0=0=0000000=000=000=00000=0=*^^^*<******=/2/222222=222=2=2=2",
"2=2=2=222========0===0===0=0===0=000000000=0=000=0000]00/*^**<*****22/2222222=222=2=2=2=======2========0=0===0=000000000=000=000=00]00/*=**4*<***<=//222/2222=2=2=2=2==================0=0=0=000=000=00==0000000=]00|a4^*<*****<=/2222/2222=2=2=2=2=2========0=======0=====000000000=000000000=000*^^**4*4****=2<2/222222=2=2=2=2=2============0===0=====0000m00000000=0=000=000*^^^*<*****4/=<2/2/222222=2=2=2=",
"=222=2=224<<22===2===2=======2==0=0===0=0==0==000=000=0=2*^^<^***^**2<<4<222=22222=2=22<<<22=2===2=22=0====2====0=0=0=0==0==0=000=000=/^^^4****^**22/</<22222222=2==2<<<22=====2=2==02======0=0=0=0=0===0=0=00000=0=<^^^4****^**<22</<22=222=2=2=2=<<<22=======22=0======2==0=0=0=0===0=0=00000=0=4^^^********<22<2<2222=2=2=2===<<422=====2====0===02=2==0=0=0=0===0==0000=0=0=*^^^*********224<<22=2=2=2===2=2",
"<<*<<<</4<*<*4</<<<<4<4<22/2/2<2/2<2<<<22=2==2====2=====<*^*<<*4*****<*4*<<<<<4<*<</<<*<*<*<</</</4<<<2222222222/2<</22=====2==0==2===<^^^<<*<*****<4<*<<<*<<<*<<<<<<<*<*<*<<<<<<<<</2/222222222<<<22====22=========<^^^4/*<**^**<*<*4*<4<<<4<<<<2/<*<*<*<<2<2<<<//=222=2222222/<22===========2===*^^^*/*******<4<***<*<<<<<<<<<<<*<*<*<</</<<<<<=222222222222<22=====2=====2==0*^^^*2*******<4<***<<<<<<<4<<<<<",
"4*4*<*<*<*<*4*<*****4*<*<*4*******<*<44***<*4*<*<*<*<<22*^^^<<*****^**4*******<*4*<***4*<*<*4*4***<*<*<***<***<*<*<*4*4*4*<*4*<*<*<<22*^^^<<*****^*^********4*<*<*<*<*<*<*<***4*4*<*<*4***<***<*<4<***<***<*<*<*<<2<*^^^*<<****^****4*****<***<***<*<*<*<*<***4*<<<*<*4*4*<*4*<*<***4*<*4*<*<*<*2<*^^^*4<******^**4*****4*<*<*4***<*<*<*******<<<*<***<***<*4<<***4***<*4*<*<*2<^^^^*4<******^**4*********<*4***",
"^*^*^***^***^*^*********************^********<*******<<*^^^^^*^^^*^*^*^*^*^*^*^*^*^*^***^***^***************^*****^******4*<*******<4*^^^^^*^*^*^*^*^*^*^*^*^***^***^*****^****p4*********^*****^****<***<***4***<4*^^^^^*^^^*^*^*^*^*^*^*^***^*********^<***4**********^*****^********<*******<**^^^^^*^*^*^*^*^*^*^*^*^***^*********^***************^**************<*******<*^^^^^^*^*^*^*^*^*^*^*^*^*^*^*^***",
"^^^^^^^^^^^^^^^^^^^^^^^^^^^^^^^^^^^^^^^^^^^^^^^^^^^^^^^^^^^^^^^^^^^^^^^^^^^^^^^^^^^^^^^^^^^^^^^^^^^^^^^^^^^^^^^^^^^^^^^^^^^^^^^^^^^^^^^^^^^^^^^^^^^^^^^^^^^^^^^^^^^^^^^^^^^^^^^zj^^^^^^^^^^^^^^^^^^^^^^^^^^^^^^^^^^^^^^^^^^^^^^^^^^^^^^^^^^^^^^^^^^^^^^^^pm^^^^^^^^^^^^^^^^^^^^^^^^^^^^^^^^^^^^^^^^^^^^^^^^^^^^^^^^^^^^^^^^^^^^^^^^^^^^^^^^^^^^^^^^^^^^^^^^^^^^^^^^^^^^^^^^^^^^^^^^^^^^^^^^^^^^^^^^^^^^^^^^^^^^^",
"^*^*^*^*^*^*^*^*^*^^^^^^^^^^^^^^^^^^^^^^^^^^^^^*^^^*^*^***^*^*^*^*^*^*^*^*^*^*^*^*^*^*^*^*^*^*^^^^^^^^^^^^^^^^^^^^^^^^^^^^^^^^^^^^^***^*^*^*^*^*^*^*^^^*^*^*^*^*^*^*^*^*^*^*^^^ax^^^^^^^^^^^^^^^^^^*^^^*^^^*^^^***^***^*^*^*^^^*^*^*^*^*^*^*^*^*^*^*^*^*^**^^^^^^^^^^^^^^^^*^^^*^^^*^^^^^^^*^*^*^*^*^*^*^*^*^^^*^*^*^*^*^*^*^*^*^*^*^*^^^^^^^^^^^^^^^^^^^^^^^^^^^^^*^^^^^*^*^*^*^*^*^*^*^*^*^*^*^*^*^*^*^*^*^*^*",
"**<***<************^^^********************************<*****************************<*********4**^^^*******^**********************<*<*****************************<**********^^g4^************************4*******<************************************^***^^^^^*******^******************4***<*<*****************************4********^^^^^*******^************************4*<***********************4*****4***",
"<2<2<2<2222222<<<<**^<<<<<<<*<<<<<<<</<<<2</<2<2<2<2/222<<<2<2<<<<<<</<2<2/2<2<2<2/2/222/222<<<<**^<<<<<*<4<4<<<</<<</</<2</<2/2<2//22<<<2</</<<<<</<2<//2<2<2<2<2<2/2<222<<<<^h*<<<<<4<*<<<<<<<<<<<</<2<2<2/2<2</22</<2<2</<<<<<2<2<2<2<2<2<2<2<222<22/<<4^^^^<<<<<*<<<<<<<</<<<<<<<2<<<2<2<2///2</<2</<2<<</</<2<2<2<2<2<2<2<2<2<222<<*^^^^<<<<<4<*<<<<<</</<<<2<2<2<2<2<2/22/<2/2</</<<</<2<2<2/2<2<2<2<2<222",
"r000]0]0r0r0000==<<**<2/22222222=2===2===========2====0=0==00=0=0=0000000000000000]00r00]=000==<<^^</<2222=22222=22=================0=0===000=00000000]0]000]000]00r]0r00r0==<^o*<2/2222=222=2=2=2==============0=0=0=0=0=0000000000]rr0m0]000]000r0]0000==*^^*<2</<22=222=2=2=2=2======0=====0=0=000=000=00]000r0]0]000]000]000r0]0000==^^^**//222/=2=2=2===2==0===0=000===0=0=0===0000]0r0m000]0]0m000r0]00000",
"xexereroxerorexor2<**=2=2====0=2=0=0=0=00000000000000r0]0]000]0]]e0]xer]]exexexeeexoxoxoxexoxe02*^*===20===0=====0=0000]0000000]0]000]000]0]r]x]rexexexexexexexoxexoxoxexexor2^x*=======00=====00000=0000m0]0]0]0m0]r]r]r]rex]xoxexoeoxoxexoxoxoxexox]xorer<^^*2==2====0===0=000000m000]0]r]r]r]xer]x]rox]rexexoxoxoxoxoxoxoxexoxoxex]rer<^^*2========0020=0000]0]r]r]0]r]r]r]xex]r]r]xeeexoeoxoeexoxexoxoxexexe",
"exerererexerexor]2<^*=========0==2==0===0=00000=0=0000]0==000000]r]0]rerexerexexerexexexexexex]2*^*==2=====2==02==0==2000=0=000=00]00000000000]rexerexexexerexerexexexoxexexr2*m*2=2====0====2==0===000=00000000]r]r0000]0]0]rerexerexexexexexexexexexerex]*^^*/02=20====00===0===0000r0r00=0r]rer0=00]r]r]xexexexexexexexexexexexexer]x]*^^*<==0=0===0=0===00==0rr0]0]0r000]rerr=0r]0]0rxexexexexexexexexerexex",
"xoeoxoeexoxexoeer=<**=2==0===0=0=22220=0=000000]00=00]0==0=0=0=0r]]]xeeexoeexexoxoxoxoxoxoxoxo]=*^*=2<=0=0===0=2222==00000000]0==m0]r====000=0rexoeexoeoxoeexoxoxoxoxoxoxoxe0=^x*==200=0=0=0==2=2000=000000000==0]]000=000=00eeoxoeoxoxoxoxoxoxoxoxoxoxoxor<^^*2=<20=0=0=00===2==0000]0]r]00=0m]x]=0=]0]000oxoeoxoxoxoxoxoxoxoxoxoxoxoxor<^^*/===0=0=000002=2=000]0]m]r]x]0=0]]]=0000]000eeoxoeoxoxoxoxoxoeoxoxo",
"e0rrerxr]rxrexex]2<^*22====22===02222===0===0=0=0==<========0000]000r0xrerxr]rererexexexexexexx2*^*2=*==========222=0===0=0=0=000</=0===0=0000]0]0rrerererexerexexexexexexxxr2^m*<=/0==22=====2=2=0====00=0=0=022=0=0=00rr00]0]r]rxxexexexexerexexexexexexr<^^*/=<22=========2=20===000000m0]2<=0===00rr]0rr]mxxexexexexexxrexexerexexex]*^^*<===2===20=0==2220=00000000r0r=/20=0=00rrr0]rxr]rexexexerexerxxexxr",
"x]m]x]r]r]r]reror=4**2/===2====0==20=====0=0=0==0===<==0=0=0000]000]000]r]0]r]r]rerex]rer]rexer=*^*22<==2=2=====2======0=0=0==0===2==00000000]0]0]0]0]r]rex]xerexexexerer]xor=^x*2=/=======0==2=====20=000=000=022=m000]r]r]r]0]0]0]xexex]rererexererer]xer<^^*<=<2=2====0=02====0=00000000m=022=00]0]0]0]r]r]rerexexexererexexerer]r]r]r<^^*<2=2======0==2==0=0=0000m000]=0=/=00]m]r]r]r]r]r]r]xerex]rer]r]xer]",
"xr0mxrr0rr]0rrrxr2<^*/2/===2=======2==========0===0=20==0=0=0=0=0=000000r0]0]0]r00]rrrm0rr]rxxr2*^*<24=2=2=2=====20=========0===0===0=0=000=00]00000r0]0r0]0rxr0ex]rxr]rr0]xr2*m*<2<=2=========2===2==0=0=0==000==m===0=0=00rr00r0]0rm]rxr]xx0]xxr]rrr]rrx]<^^*<2<2==2======02======0=0=====0==2m=0=0=0=00]00m]000]rxr]rrre0rxerrr]rrr]rr*^^*<222=========0======20=0=00000=02m=00]00000m0r0rr]0rr]r]r]re0mrxr]0",
"m]rrr]0r0]r]rer]0=<**2<2=======0=======0=====0=02=20=====0=0==000]00000]0]r]m]r]xmr]000rr]r]xe0=*^*22<=======0====2==0===0=0=02=/022=0=0=00=2]0]0]0m0]0]0]r]rexmme000]r]r]xe02^x*/22=====0======20=0=0=0=0=0==2=0==0=000002rr]0]0]0]r]m]r]xex]xer0000]rere0<^^*<222=====2====020=0=0=000=0====0/=0000000/m0]m]r]r]r]m]r]xex]0err000]r]re0<^^*<2/20=====000=02m=000=000000==200=000000]=00]r]0]r]r]r]r]rere0]m]00",
"r000r0r00=00rrr0024^*<<<=2===2===222=2===2=======2===<==0=0==<=0000=0=000000r0rrr0rrr=0=r00rx002*^*<2*=2=222===22=22=22=====0==2===<0======/2000000=r=00r0r0rrr0r0x00=r00rxr02^m*4/<=2=2=2====22=2=2======0======<==0===0=<0r0r000000000xrrrx0rrx00=0000rr04^^*42<2=22=2===222=2=2===20=0======2==000=0=<=r0rr00r000r0r0rrr0r0rr0=00r0rr0*^^**2<2=22=2=2===2=2==0===0=00======2=00000=22r0rrr00000r0r0rrx0r0rm0=",
"000]r00x000]0]0r0=***2<<==2=2=2===2=2======0=========0=0===0==<0000000=00000000r0r000r0r0]0]rr0=*^^</<==2=2=2===2=2===2====0=====0=00==0=0=0/=00000r0r0r00000r0]rr=x000]0]r]02^x*</<2=2===2===2=====2======0==00=000=0=000<2000]00000]0]0]0]0r0]=r00000]rr0<^^^</2222=2=2=====2====0===0=0=0===0=0=0=000=20]rr0r000]r]0]0]0]r]=mr00]000r04^^^</2<===2=2========0===000=0=0=0=0=r00=000=<=]0m0]00000]000r000]0000",
"00r=mm00r00000r00/<^**<4=2=2=22222=2=2===2=2==0===0===0===0=0==/=00=000=00000=0000r0==000000r00<*^**<<=222=2222222=2=2=2======0===0=0=====00=2=00000000=000=00000r0=000000x00<*m**<*222222=222=2=2=2======0===0=0=0===0=00=22=0000r000000000000rm0r0m000r00*^^***<22=2=222=2=2=2==0=====0=0===0=0===00000=2=00r0000000r=00000rr=00r000000*^^**<</2=2=2=2=2============0=0=0=000=0=0=000=2=0000r000000=0000]0m=00",
"=00mm]000m000rr0=2**^<*<222=2=2=2=2=2=2======0=0=====0===0=0=0==2000=0000]0r00=00]0]00000]00m0=2*^*<*<2=2=2=22222===2========0==20===0=0=0=0=0=00000000r0]00=000=]00000r00rr=2^r^<4<2=2=2=222=2=====2==0=0=0=0=0===0=000=000==0000000]0]00=00]0rm]0r0]00m]=<^^^4*<2=2=2=2=2=2====0=0=0=0=0=0=00000=00000=0==00000]000]00=00rr]rr0]00000]=*^^^<4<<=2=2=2=2=2=2====0===000=0===000=00000=0===0=00]0m0]0]00=00000=0",
"0000r00=0=000000=<*^***4=<2222222222=222=2===2=====2======0==2====0===000=00000000000000000000=<*^****=/2222222222=222=2=2===2==========0=0=====0=0=0=00000000000=000=0000000<^m**4*2222=2222222=222=2===2==========0=========000===0=000000000000000000000*^^^*<*222222222222=2=2===2======02==02========0===0=0=0000000000r0000=000=000*^^**<*<222=2222222=2=2=2=2============0=000=======0=0000000000000=0=0=",
"0m00000m00000000=2***<*4<22=22222=2=222=======2========0===0===0=0=0=0000000000r00000r0r000]00=2*^^<*</=2222222=222=2=2==========0===0=0=0=0===0=0=0=000000r0r00=00m000r0000=/^r^<*4<22=2=2=2=2=2=2=2=======2==0===0=0=0===0=00000=00000000r000r0000000000=<^^^<**<=222=22/=222============0=0=0=0=0===0=0=00000=0=0000]0m000000000r000m=*^^^4*<*22=22222=2=2=2==========0=0===0=0=0=0=0=00000=0=0000m0000=00000",
"000=0=0=0=0=000==<*^***^*2=2222<22=2222222=2=2=2===2==========0=======0=0=0=0=00000=0=0=0=0=000<*^*4***222222/22=22222=2=2===2=====2==============0=0=0=0=0=0000000=0=0=0=r==<^m^44**<2/2/22//=222=2=2=2===2=2================0=0=0=0=0=0=0=000=0=0=0=0=0=0*^^^*4***=222222<=222=2=2=2===2=2========0=====0===0===0=0=0=0=000=0===0=0=0==*^^^*<***2222=22<=22222=2=2===2==========0===0=0=====0===0===0=000=000=",
"=00000===000=0002/***<*4*222222222222===2=2=2=222=2======0===0=======0=0=000=0=000000000000000=<*^^<*<*//222/22/222=2=222===2=2==================0===0=00000=000=m00=000=000=<^m^<*4*</2222222222=222=22==2===2======0=======0=0=0=0=000=000=00000=0=0000m=<^^^<*<*</=22222//22=2=2=2=2=2=2=2======0=0===0=0=0=0=000=0=0=0000000=0=0=000=*^^^<4**</=222222/22=2=2=2=2===2========0=0=0=0=0===0=0=000=0=0000000=0",
"0=0=0===0=0=0=0==4*^****4<2<2p/<2<2222222222=2=2=2=2=2=2=2==0===============0=0=0=0=0=0=0===0==<*^*****<=<//222<222222222/22=22222=2=2==============0===0=0=0=0=000=0=0===0==<^m^***<*/22p2/2<2222222222=222=222=2=2====================0=0=0=000=0=0===0==*^^^***4*22/22<//2p22=2222222=2=2=2======================0===0=0=0=0=0=0=0=00=*^^^**^<*/2/<2<222222=2=22222=2=2=2=2===2==================0=0=0=0=0===",
"=0=000=0=0=0=0=2=<*^^*^4/*/2/2<222222=2=222=222=2=2=======2=20========2==0=0=0=0=0=0===0=0=0===<*^^<**<<22/2/2/222/22222222=2=2=2=2======020===========0=0=0=0=0=0=0===0=0===<^x^***/<<=22/2///2/22222222=2=2=2===2===2=2====0=======0=0=0=0=0=00==0=0=0002<^^^<**<<<2<2/2<2/2/2222=222=2=2================0=======0=0=0=0=0=0===0=0=0==2*^^^<***2*2/222/2/2222=222=2=2===2=2======2=2=0=0=========0=0=0=0=0===0",
"==0=0=========0==<*^^^*^**2</</</<<</2222/222222=2=2=2=2==2/222======2====0=====0=====0=====0==<*^***^**/</</</<<<2<2<//22=222=222=2=2==2<2<2======2==========0===0===0======<*o^**^**<22</</</<22=/2/2p22=222=2=2=2=2=<2<22==========0=0=0=0=0===0========*^^^**^**<</<2/2<<<//2/222222222222=2=2===<=/22=====2==========0===0==========*^^^**^*4<22</<2</<//=22/2p22=2=2=2=2=2===<2<22==================0=0===",
"=000=0===0=0==002<*^^***^*2<<////2</22/22222222=2=2=2=222=2=2===2=2=2===2==0=0=0=0=0=0=0=0===0=<^^^<**^*</<2/222</2//2/22=2=2=222==22=2===2=2=====2=2===20=0=0=0=0===0=====0=<4j^4**^*</<<<//2</2=2222222=22222=2=22222=2=2=======2====0=0=0=0======00===0=<^^^4*****2</<222</2=22222=2=/=22222=22222=2=2===2===20==2==0=0=0=0=0=======0=*^^^4*****2</<2<22/<2<2/22=2=222=222=222===2=2===2=2=2===2==0=0=0===0==",
"===2===2=2=2===22<*^^^*^*^<<<<<<<<<<2<2<2<22222/22222222=p22=2=2=2=2=2======0====2=======2=2=2=<*^^^*^*^</<<<<<//</<2<2<2/222<22222222=22222=2=2=2=====================2=2===4=y*^*^*^*2<<<<<</<2<222<2/222<222222=22222=2=2=2=2=2===================222===*^^^**^*^*/<<<*<<2<2/2<2/2<2/22222222=2=22222=2=2=2=2=========2=======2==2==2=*^^^^***^*<24<4<<2</<22/<//222/22222222=22222=2=2=222=========2=2=====2",
"======2========022*^^******2</4<<<4<<2<2<2<<<<<2/2/2/2/222222=22222=222=222=22======2====0====2/^^^******2<<<<4<<<4<</<2<<</<2<222/222/=2=22222=2=22/=22222==0====2====0=====<uz^******/<<<<<<4<<<<2</</</<//2222222222=2222/22=222=222=222=2======0===0====^^^******</<<<<<<<4<</<2<<<p<2/222//222=2=22222=2=2222222=222==0=======0=====*^^^*****^<//<<4<<<4/<2//</</<//222222222/2222=222=22222222222=====222=",
"===2===2=2=2=2=22<*^*****^**/<<<<<<<p</<//2222/</</<2<2<222/22=2222222=222=2222222=2=2=2=2=2=224*^*****^**/<<4<*<<2<2<2<2/2<//2<//2<22=/2<22222222=2=2=222222==22==2===2=2=224**^****^**/<<<<<<<//2<2<2<2<222//<2/2<222/22222/22=2=222222222===2=222=2=====4^^^****^**<<<4<4<</<p</<2/2/p/2<</2<2/222/22=22222=222=2222<p2===2=222=22==2=*^^^**^*^*^<<<<<<<4//2</<2/222</<<<22/<22=/2/=2=22/2222=222=222===2=2=2",
"2===========2===2<*^^*******<<<<</<2<2<p<2/222/<<2<2/2/2/2/2222222222=2=2=2=2=2=2=2=====2===2=2<^^^4******<<4<<<<<<2<2/2<2<2/2/2<2/2/222<2222=2=222=2=2=2=2=2===2=2=====2=2=2<^^^4******4/<<<<<2<//2<//2<222/2/2<2/2/22=222=22222=2=====2=2=======2=====2==<^^^*****^**24<4<42<p<2<<<2<2/2/2/2/2/22222222=2222222=2===2=2=====2=====2=2=2*^^^********2<<</<<<2<2<2/2/2/2<2<2<2/2/222222=2222222=2=2===2=2=2=2===",
"=222=2=222=2=2=22<*^*^***^*^<<<<<<<4<4<</<<<2</<<<2/2</22/22222/222/2/222222=2=222=22222=2===224*^^******^*/<4<4<<<</</<2<2/2<<<2<2/2<2/22222<222/2<22222222=222=222=2=2=2=22*^^^****^*^*<<4<*<<<<<<2<2<2/p</</22p2/2/22222/222/2/222222=2=2=2=22222=2=2=22*^^^******^*<<<<4<<<<<4<</<//2</<2<222<2/22222222222/22222222=2222222=2=2=2=2=*^^^****^*^**<*<4<<<4<</<<<2p2</<//222<2<2222222/222<222222=2=2=222=2=2",
"2===222=2=====2=/<*^^<^4**^**<4<*4<<<<<<<<<<<2<<*<*<4/<2/2/<<<<=2=2=22/=2=22/=2===2=2=2=====2=2<^^^<*******<</*<</<<<<<<<<<2/<*<*<4</2/2<<4<<22=2=22/22=22<=2===2=/=2=2=2=2=2<^^^<****^**44<4**/<<</<<</<///*<*<<</22222<<<22=2=22<=2=2=<22===2=2=2=2=2=222<^^^4*******<</<<*/<<<<<<<<4//2*<*<<</2/222<<<22=2=2=/22===<22===2=/22=2=2=2=2*^^^*********<<<4*<<<<2</</<</2<<*<<<<22222<<<22=2===/22=2=/22===2=222=",
"44<4<<<*<<<<<<2<p**^^44^***^*^********************4***4*****4*<*<*<*<*<*<*4*4*<*<4<<<4<<<<<4222*^^^*<******^**************************4*****<*<*<*<*<*<***<*<*<4<<<*<<<4<4/22*^^^*<^***^*^********************4***4***4*4*<*<4<*<4<*<*<*4*<*<<<<<4<<<<<4</2^^^^*<******^***********^**************<*4*4*4*<*<*<*<*<*4*<*<*<<<<<*<<<4<<</2^^^^*<****^******************<***4*******<***<*<4<*<4<*4*<*4*<*<<<<<<<4",
"***4*<*****4*<<<**^^^*******^********************4***********4***4*******<***4*******4***4*44<*^^^^*****^*^**************************<***<*4*4*******************<*******<4<*^^^^***^***^**************************4***4*4***<***************4*4*4*****4*<*^^^^**4****^*^********************4***<***4***<***********4*******<*******<*<*^^^^**4^***^*^******************4***********4*4*<*******4***4***4*<*<**",
"^^^^^^^^^^^^^^^^^^^^^^^^^^^^^^^^^^^^^^^^^^^^^^^^^^^^^^^^^^^^^^^^^^^^^^^^^^^^^^^^^^^^*^^^^^^^*^^^^^^^^^^^^^^^^^^^^^^^^^^^^^^^^^^^^^^^^^^^^^^^^^^^^^^^^^^^^^^^^^^^^^*^^^^^^^*^^^^^^^^^^^^^^^^^^^^^^^^^^^^^^^^^^^^^^^^^bi^^^^^^^^^^^^^^^^^^^^^^^^^^*^^^^^^^*^^^^^^^^^^^^^^^^^^^^^^^^^^^^^^^^^^^^^^^^^^^^^^^^^^^^^^^^^^^^^^^^^^^^^*^^^^^^^*^^^^^^^^^^^^^^^^^^^^^^^^^^^^^^^^^^^^^^^^^^^^^^^^^^^^^^^^^^^^^^^^^^^^^*^^^",
"^^^^^^^^^^^^^^^*^*^*^^^*^^^*^^^^^^^*^^^*^^^*^*^*^*^*^^^*^^^^^^^^^^^^^^^^^^^^^^^^^^^^^^^^^^^^^*^*^*^*^^^*^^^*^^^*^^^*^^^*^*^*^*^*^*^*^^^^^^^^^^^^^^^^^^^^^^^^^^^^^^^^^^^^^*^*^*^*^^^*^^^*^^^^^^^*^^^*^^^*^*^*^*^*^^^^cw^^^^^^^^^^^^^^^^^^^^^^^^^^^^^^^^^*^*^*^^^*^^^*^^^*^^^*^^^*^^^*^*^*^^^*^^^*^^^^^^^^^^^^^^^^^^^^^^^^^^^^^^^^^^^*^*^*^^^*^^^^^^^*^^^^^^^*^^^*^^^*^*^*^^^*^^^^^^^^^^^^^^^^^^^^^^^^^^^^^^^^^^^*",
"***^***^***^*******************^*************************^*^^^*^*^*^*^*^***^***^***^***^***^***^***********^***************************^^^^^*^*^*^*^*^*^***^***^***^***^***********^***********^*******************^gc^^***^*^*^*^*^*^*^***^***^***^***************^*******^*********************^^^^^*^*^*^*^*^***^***^***^***^***^***********^***^***^*********************^^^^^^^*^*^*^*^*^*^***^***^***^***^",
"*<*<*<*<*<*<*<4<***4*<***********<*4*<***<***<*<*<*<***<***^^<*4*********4*<*<*<*<*<*<*<*<*<*<***<*4*<*******4***<*4*<*<*4*<*<*4*<***<**^^*<*<***********<*<*<*<*<*<*<*<*<*<***<*<*******4***<***<***<***<*4*<*<***<hw^^*<*************<*<***<*<*<*<*<*<*<***<***<*******<***<***<*4*<*4*<*4*<****^^^**<*<***********<*<*<*<*<*<*<*<*<*<*<*4*<***********<*4*<***<***<*4*<*<***^^^^**<*******4***4*<*<*<*<*<*<*<",
"/</<2</<2<<<2<<<2</<2<2<2<2<2<22222222222222=2=2=222=<<<<**^4*<*<*<4<*<4<<<4<<<</</</</</</</<2<2<2/2<2<2<2/222222222222=2=2=2=2222</<<^^^4*<*<*<*<4<4<<<4<</<<<2<<<2<<<2<</2<2/2<222<2/2222=22222222222=2=2=222=</<jc^^4*4*<*<4<4<4<<<<<<<</</</<2</</</<222<22222/22222222=22222222222=222222</4^^^^**<*<*<*<4<4<<<<<<<</<2<<<2</<2<//222/2/222/222222222222222222=22222222<<*^^^^**<*<*<<<4<<<<<<<4<<2<2<2<2<",
"2=2=2=2=2=2=2=2===2========0=m=0=0=m=m=m=0=m=0=m0m=m=0==<<^*//<2/222/2<2/222222=2=2=2=2=2=2=======2====0===0=m=m=0=m=0=m=m=m0m=m=0=m==<*^*</<//2<222/2/=222=222=2=2===2=========2====0=m===m=m=m=m=m=m=m=m=m0m=m=m==bw^*<2//<2/=22<2222=2=2=2=2=2==========m=m=0===m=0=m=m=m=m=m=m=m=m=m=m=m=0=m==*^^*42//<2/222/2/=2=2=2==========0===m=0=0===m=m=m=m=m=0=m=m=m=m=m=0=m=m=0=0==*^^*42/222<22=222=2========0===0",
"22=2===2===2=====2=2==0===0===m===m=m=m=0=m=0=m=m=m=m=m=<*^^222//22/22222/2222=2=2=2=2=2===========2==0=0=m=0=m=m=m=m=m=m=m=m=m=m=m=m=/^^^222<22222/2222=2=2=222==================0=0=m=m=m=m=m=m=m=m=m=m=m=m=m=m=m=[c^^<22/2222222222=2=2=2==22=======2==m=0=m===m=0=m=m=m=m=m=m=m=m=m=m=m=m=m=m=<^^^<22/2222222<22=2=2================m===0=m=m=m=m=m=m=m=m=m=m=m=m=m=m=m=m=m=*^^^<==222=222=/=2=2===2========",
"/=========2=====22==2===2m=0=m=m=m0m=m=m=m0m=m=m=mmm0m==/<^*2=22222=2222<2/22//=========/=2==02=2===2==m=m=m=m=m=m=m=mmm=mmm0m0m0mmm=0/*^*2=/=222=222=<22222/=========2====0========20=m=mmm=mmm=mmm0mmmmmmm=m0m0mm0vw^*<=<2<=2=222=/22222/2=====0==22===m=====0=====m0m=m0m=m=m=mmmmmmm0m0m=m0m0m*^^*<=2=2=2==22=222222/2===0=0=0===0=0===0======0m=mmm=mmm=m0m0mmm=mmm=m=m=mmm*^^*4=2=2=2=2=2=22222=/2=m=0=m=0",
"2222=2=2=22/22=22<222222========0=m=m=m=m=0=m=0=m=m=m===2*^^222222222222<<<4=222=222=2=2=2<2=222/222=2==0===m=0=m=0=m=m=m=m=m=m=m=m=m=/^^^224p222<2222/<<*2222=2=2===2=222==222222=2==0=m=m=m=m=m=m=m=m=m=m=m=m=m=m=ic^^/2<2222/22222</*2222=2=2=====2/2==2222=2=2==m===m=m=m=m=m=m=m=m=m=m=m=m=m=*^^^<2<p222/22222<2*<==2=2=2======22===2=2=2=2====m=m=m=m=m=m=m=m=m=m=m=0=m=m=*^^^<222222222=2=<2<<2=2===2====",
"/2222=2=2=224</2222=2=======2==m=m=m=m=m=m=m=m=m=m=m=m=m/4^*</<2/2//222=//2222/2222=2=2=2=<<22222============0=m=m=m=m=m=m=m=m=m=m=m=m<*^*<24=/2//2=222/222=22222=2=2=2=<<<2222====m=0=0=0=m=m=m=m=m=m=m=m=m=m=m=m=mva^*<2<2/2///22=2/222=22222=2=2=2=2</2222==0=m=m=====m=m=m=m=m=m=m=m=m=m=m=m=m*^^*42422222<=2=22/=/=222=2======02<<=222==0=m=m=m===m=m=m=m=m=m=m=m=m=m=m=m=m*^^*42<22222/=2=22<=/=2=2=2=====",
"</2/222222=224=222=222=2===2=2================0===m===m=2*^^<<<p2<2<//222<2<<//<2<222222222*22=2=2=22======2======0===m===m=0=m=m=m=m=2^^^<<<2p<222/222<22/p2/=22222===22</2=2=2==========0===m=====m=0=m=m===m===m=[c^^<<<//2//22222</2//2<22=2=2=2===<<222=2=2==========m===m===m===m=======0=m=<^^^<<<<2<//2/222</22<2<2222=222===2<2=2========0=======m===m===m===m=======m=*^^^44/<222<2/22=2/22<=/2222=2=2",
"/2222=2222/22/=22=2=2=2=2================m=m=====0=m=m==<<^*4p<2/2/22222/2<2222222222=2/222<2=2=2=2=/============m=m=0===m===m=0=m=m==<*^*<<*2/2/2222222<22222222=222=22222=2=2=2=2==0===m===m=0=m=m=m=m=m=m=m=0=m==vw^*4<</22/2/=222=<222222=2=2=2=22224=2=2=2=22=====0===0=m=m=m=m=m=m=m=0=m===0*^^*4/4/22/2/22=2=2222222=2=2=2=222=<=2======2=====m=0=m=m=m===m===m=======0==*^^**//22222/=222=2<2=222=2=2===",
"222/2/22222<2<<2222222<2=2=2=222=2===========222=======2<*^^<4<<2<2/2<2/2<2<2/222p22222/242/</222222<<===2=2=2=======================2<^^^<4*<<<2<2/2</<2<2/2<222222222<22<2=222=2/4=======2============0===========vc^^<4<<2<2/2/222<2/222/222222222<22</2222=22*=======2===============2=======2*^^^4<*42/2/22222<2</2=/222/22=22//2/<=2=2=2=*2======2===============2=2======*^^^4<<<2<2222222<222222=222=2=2",
"/2/2/222/22222/222/2224p==2===2===2=======2==m==========<*^*4<42/2<2<2/2/2<2/2/222/222/22222/=222222<<==2===2=2====0===m===m=======m==<*^**<*2/2/2<2/2<p<//2</<22222222222<=222222<<==========2====m===========0====va^**<<p/2/2/2/2<2<222<2/2222222222=2=2=2222/<2m===0==========2====m=======m==*^^**<*<22/2<2<2/2<2/22222222=222=2=/22=22222<<=========2====0========2=======*^^**<<<22/2/2/222/2/222/=222=22",
"<<2<222/2/2<2222/222222*2==2===2=2=2=2=2=====2=====2===2<*^^*<<</</<<</</<2<2//<222/2222222/2222=2222</2=2=222=2===2=2=====2=========2<^^^**4<p</</</<p</<2p/<2<222/2222222222=222=<<2=2=2=2=2===2=2=====2=========2bc^^**<<<</</</</</<2/2/2<2/2222222222222222=/<p===2===2===2=2=2===p=========2*^^^**<*2</<p<<<2</<p22<2<2222222/22222<=222=2</===2=2===2=2=222=2=222===2===2*^^^**<*2<2<2</<2<2<2/2<222p2222",
"<2/2/2222222/222/2222=2=<p2=2===2=====2===2=====2====m22<*^**<4p</</</<2</<2<2/2/222/22222222=222=2=2=/<2===2===========2========m=m2=<*^**4*/</<p<<</<2<2</<2/2/2/22222222=2=2=2=2=2<2===========2==0=2=m=======m=2bw^**<*<</<2<2</<2/2/2/2/2/22=2222222=222=2=2=2</===========2=======2=========*^^****<</<2/2<2//<2/222<2/22=2=22222=222=2=2=22/===2=======2==0==2m==2=======*^^**<*<</</<2<2/2<2/222/2222=2=",
"2</</</<2/2<2/2/222222222<22=2=2=2=2=2=2=2=2=2=2=2=2=2=/<*^^**4<<<<<<<<<<</<<</</</</<222<2/2/222/22=22/22=2=2=2=2===2===2===2===2=2=2<^^^***<<<<<<<<4<</<<</</</</<22/<222222222222=2/2=2===2=2=======2=====2=====2bc^^4**<<<<<<</<<</</<///</<2<222<2222222222222222=2===2=2===2===2===2=2=2=2=2*^^^****<<<</<2<<<<<<</</<2</<2p222<2222222222=2/2=2===2===2===2=2=2=2=2=2=2=2*^^^****<<<</</<<</</<//2<2/2<p2",
"//<2/2<2/2/2/2/2/22=2222222=2=2=2=2===2=====2=========22<*^****p</<p<<</</<2</<2/2<2/2/222/2p2<2222222/22=2=2=2=2=========2===========**^****<<<</<<</<p</<2/2/2/2<2p2/222/2/222/22=22222=2=2=2===========2=========ba^****/<<<p<<<<</</<2/2/2<2/2/2p222/2/22222222=222===2===============2=======*^^**<*<<<</<p<<<2<///<2<2/2/2/2/2p2/2/222==22222=2=2===2===2=======2===2===2=*^^**<*<<2<2</<2</<p//<2/2/2/2/2",
"/<2</</<2<2<2<2/22222222222222=222=2=2=2=2=2=2=222=2=2=2<*^^****<</<<<<<<</</</<2<2</<2<2/2/2/22222/22222222=2=2=2=2=2=2=2=222=2===2=2<^^^4***p<<</4<<<</</</<2<2/2<2<2p2/2p222222=2222222=2=2=2=2=2===2=2=2=2=2===2bc^^****<</<<<<4<</</<2<//p22<2<222<22=222=222222222=2=2=2=2===2=2=2=2=2=2=2=2*^^^4**^<<<<<<<<<</</</<2</<2<2/2/22222222=2=222=222=2=2=2=2=2=2=2=2=2=2=2=2=2*^^^****<</</<<<<</</</<222/2<22",
"<2//<2<2/2/2/2222=2222222222222=2=2=2===2=2=2=222===2=224*^*****4/<<<<<<</<p<<</<2/2<2//<222/22222222222/2222=2=2=2=2=2=2=222=2=2=2=22<*^*****4/<<<<4<<<<2<<<2<p<2/2/2/2/2p22=222222222=2=222=2=2=2=2=2===2=2=2=2==2bw^**<***/</<<</<<<2</</<2<2/2/2/222/=2=2=2=2222222=222=2=2=2===2==22=2=2===2=*^^**4***/</</</<</2</</<2<2p2/222/2222=222=222=222=222=2=2=2=2=2=2=222=2=2===*^^**<***<<<</</<<<p<p</<2/2/222",
"<<<<<<p</<p<2<2<2<//2p2/2<222p2222222222=2222222=222=22<<^^^4^**<4<4<*<<<4<</4<<<<<<p<p<2</<2</<2<2/2</<2<222222222222222222=22222222<<^^^4***<*<4<4<*<4<</4<<<</<p</<p<2<2/2<22222/2<22222/222222222222=2222222222/bc^^4***<4<4<*<4<*<<2</</</<2</</<2/2<2/2<222<2/22222<2222222222=2=22222=222=/*^^^****4<<*<<<*<4/<p</</</</<2</<2<2/2<//222/2<2/222<2222222222222222222222=2*^^^******<4<4<4<4<<2<<</</<2<2<",
"<<</</<p<p<2/2<2/2<2/222/2/222222222222=2=2=222=2=2=2222**^****<*/<<<<<<<<<<</<p</</</<p</<2<2<2/22222/2222222222222222=22222=2=222=22**^****<*<<<<<<<4<<<<p</<2</<p<2<p/2/222/2222222/222222222222=2222222=2=2=2=22&w^****<*<<<<<4<<<<<</</</<p/2<2/2<2/2/2/2222222/22=222=2222222=222=222=222=22*^^^***<*<<<4<<<<<<<4/</</</<2</<2<2<2/2<2222222/22222222=222=2=2=2=222=2=2222*^^**4^4*<<<<<<<<<<<<<</</<2</</",
"<</</</<<</</<p<2<2*p<222/2p2/2<2/2/222222222222222<222<<^^^*^***4<*<4<4<4<<<<<</</</</</<p</<2</4p4//2<222<22222/2/22222222222/2222//<^^^*^**4*<4<4<4<4<<<<<</</</<<</<p<p<2<2<<<//2/2<2/2<2/2<2222222/22222222222<td*^******<*<<<4<4<<<<<<<</</</</<2<2<2<2<<<</2/2/222/2<2/2222222<=22222222/2<*^^^*^**<*<4<*<4<4<<<<<</<<</</</</<p<2/2<<<<<2/2<2/2/2/2p2222222/222/22222/2<*^^^***^<*<4<<<4<4<<<<<<<</</</<",
"<<<<4/<<</<<<2<<<2//</</<2/2<2/2<2/22222222=22222=222=22**^***^**<<<<<4<4<*<</<<</</</<<</<p<<<2/2</<<<2/2/2/2/2<2222222/2222222222222*^^***^**<*<<<*<<<*<<<</<<4<</4<<p<2<<</<2<2<<<2/2/222<2/222222222222222222222t+****^**<4<<<4<4<*<</</<<<<</<<<2</</<<<2</<<<2/2/2/2//<2222=22222222222=2222*^^***^**<4<4<4<4<*<<<<p<<<<</</<p</</<222<2<<<2/2/2/2/2/2/2222=22222222222222*^^**<****<<<<4<4<*<4<</<<<<</<<",
"<*<<<*<<<<<4<</<2</</</<2<2<2<2/2<2/2<p<2<222</<2<222/2<<^^^*^*^**<*<*44<4<4<*44<4<<<*<<<4<</<2//<//2<2/2<2/2p2<2/2/2<2/2/2</<222/222<4^^^*^*^^*<*<4<*<4<*<4<*<<<4<4<4/<<4<<2</<<<2<2<2/2<2/2<2/222/2<222<<</</22<2<]z*^***^**<*<*4*<4<4<*<*<4<4<*<<2<<<<<2<2<<</</22<//2<2/2<2<2/2/2p2</<2<//2/2<*^^^*^*^^^<*<*<*<4<*<4<*<<<4<<<4<4<4<<2<2<<<2</<2//<2/2/2/2<2<2<222</<2<2/2<2/*^^^*^*^*^<4<*<*<4<<<*<*<4<4<4<<",
"<<4<4<4<4<<<<//2/2</</</</<2//<2//<2/2/2/2/2/2<2/2<2<2/24*^***^*^4<<4**<4<4<<<<<<<4<4<<<<<<<</<p</<2<<<2/2<2</</</<2/2/222/2<2/2/2<2//**^*****^*<<4<*<*<*<4<<<<<4<*<4<</<<<2<2<2</<2<2<2//<<</<2/2<222/2//<2<2/2/2/2*^^***^***<<4<*<4<*<4<<<<<4<4<4<</</<2<2//<2<2<2/2<2</<2<2<2/2/2/222</<2/2<2/2*^^^****^*4<4<*<*<4<4<</<<<<4<<<</</<222<2</<2</<2/2</<2<2<2<2/2/2/2/2/2/2/2<2*^^^****^**<4<*<*<*<4<<<<<4<<<4<",
"<<<*<4<4<*<4<</</4<<<</<<4<</<<<<<<<<<<</<2<<</</<2</<2<<^^^***^**<*4*4*4*<*<4<*<*<*<*<*<<<4<4<*<<<<<<<*<</4<</<<<<<2<2<2</<<<2<2<<<2<<^^^*^*^*^<*<*4*4*4*<*4<<*<4<*<4<4<4<4<<<</<<<<4<<<<<<<4/</<<</</</</</<2///2<*^^^***^*^****<*4*<*<4<4<4<4<*<4<4<<<4<4<<<</<<*<</<<<<<<<<<<<2</</<<<2<///<2<*^^^*^*^*^*4<*<*<*4*<*<<<*<<<4<4<4<</<2<<4<<2<<4<4p<<<<4<<<</42</</<<<2</<2<2<*^^^***^*^**4*<*4*<*<4<*<4<4<4<4",
"4<<<4<<<4<<<<<</<p<<</</<2<p<p</<2/2/2/222<2/2/2/2<2<22/**^********<*<4<*<4<4<<<4<<<<<<<4<<<</<p<<</<2<2/2//<2<2/2/2/2/2/2/<<2//<2<//24*^*****^**<4<*<4<4<<<<<<<<<<<<<<<</<<</<<</<2<2/p<2</<2/2<2//<2/2/2/2</</<<//*^^^*******<4<*<4<4<4<4<4<<<<<<<4<<<4/</<2</<2/2<2/2</<2<2<2<2/2/2/2/2/2<p<</2*^^***^***^<<<*<<<4<4<4<<<4<<<<<<<4/<<</<p</<p<2/p<2</<2/2/2<2<2</<2/2<2</<</2*^^^*<**^***<<*<4<<<*<<<4<<<<<<<",
"<*<4<*<*<*<4<*<4<4<4<4<4<<<<<4<<<</</</</<<<<</</<<</<2<4^^^*^*^*^**<*<*<*<*<*<*<*<*<*<4<4<4<*<4<*<4<4<</<<<<<<</</</</</<<</</</</<2<4^^^*^*^^^**<*4***<*<*<*4*<*<4<*<4<*<4<4<*<<<<<<<</<<<<<<<<</</</<2</<2</</</<*^^^***^*^**<*4*<*4*<*<*<*<4<*<*<4<4<4<<<4<<<4<<<4<<<4<</<<</4<</</<2</<2</<2<*^^^*^*^*^*^<*4*4*<*4*<*<*<*<4<*<4<4<4<*<<<*<<<4<<<4<4<4<</<<<2<<<<</</</</<2<*^^^***^*^**<*4*<*4*<*4*<*<4<*<4",
"<<4<*<4<4<*<<<<<4<4<4<</<<</<<4/<<<2</<//2<2</<2<2<2<2<<**^*******^*<4*<*<4<4<4<4<*<<<*<*<4<<<4<<<4<<<</<<4<<<<p</</</<p<2</<2<2/2<2/<**^^****^***4<4<*<4<4<4<4<*<<<4<*<<<<<<<4<<<<<<<</<<<<</<2<<<p</</<<</<2<2</</*^^*******^**<*<*<4<4<*<4<*<<<4<*<<<<<4<<<<<<<<<<<<<<<<2<2</<<<2<<<<</<2<2<2//*^^^*********<*<*<4<4<4<4<444<4<*<<<4<<<4<<<</<<<p<<<<</</<<</<2<2<<<p/2<2<2<2*^^^**^***^**<*<*<4<4<4<<<4<4<4<",
"******<*******4*4*<*4*4*<4<*<<<*<4<*4*<4/</<<4/</</</</*4^^^***^*^*^***^************4*4*******<*<*<***<4<4<4<4<4<4<*<</<<</4<</</</</44^^^*****^****4*************<*********4*<*4*<*<4<4<<<*<4<*<*<<<//</4<<<</<<</<*^^^*****^*^**********4*****4*<*******<*<*<*4*<<<<<4<4<4<*<*4<<</<24<</</</</<*^^^*****^*^*****^**********<*<*******4*<*4*<*<4<4<<<4<<<*<*<4<</<p<<<<</<<<p<*^^^***^*^*^**4*******4*******<*",
"*********4***************************4***4***4***<***<<<^^^^*4******^********************************4***********************4*4*4*<4<^^^^*<****^*^******************4*************4*<***********<***4***4***<***<<<^^^^*<******^********************4***********<*************4*****4***4*****44<^^^^*<****^*^********************************4*4***********4***4***4***4***<44^^^^^4******^*******************",
"*^^^*^^^*^^^*^^^*^^^*^*^*^*^*^^^*^*^*^*^*^*^*^*^*^*^*^*^^^^^^^^^^^^^^^^^^^^^^^^^*^^^*^*^*^*^^^*^*^*^*^*^*^^^*^*^*^^^*^*^*^***^*^*^***^^^^^^^^^^^^^^^*^^^^^^^*^*^*^^^*^*^*^^^*^^/*^*^*^*^*^^^*^*^^^^^*^*^*^*^*^^^***^^^^^^^^^^^^^^^^^*^^^^^^^*^^^*^^^*^*^^^*^*^*^*^*^*^*^^^*^*^^^*^*^*^***^*^*^***^^^^^^^*^^^^^^^^^^^^^^^^^^^*^^^*^*^*^^^*^^^*^*^*^*^*^^^*^*^*^*^*^*^*^*^*^*^*^*^^^^^^^^^^^^^^^^^^^^^^^^^*^^^*^*^",
"^^^*^^^*^^^*^^^^^^^^^^^^^^^^^^^^^^^^^^^^^^^^^^^^^^^^^^^*^*^*^^^^^^^^^^^^^^^^^^^^^^^*^^^*^^^*^^^^^^^^^^^^^^^^^^^^^^^^^^^^^^^^^^^^^^^*^*^*^^^^^^^^^^^^^^^^^^^^^^^*^^^*^^^*^^^*^^^fp^^^^^^^^^^^^^^^^^^^^^^^^^^^^^^*^*^*^^^*^^^^^^^^^^^^^^^^^^^*^^^*^^^*^^^^^^^^^^^^^^^^^^^^^^^^^^^^^^^^^^^^^^^^^*^*^^^*^^^^^^^^^^^^^^^^^^^*^^^*^^^*^^^^^^^^^^^^^^^^^^^^^^^^^^^^^^^^^^^^^^^^^*^*^*^*^^^*^^^^^^^^^^^^^^^^^^^*^^^*^^^*",
"***^***^***^***^*^*^^^^^*^*^^^*^*^*^*^*^*^*^*^*^*^*^*^*^***^*^*^*^*^*^*^*^*^*^*^*^*^***^***^***^*^^^^^*^^^*^^^*^*^*^*^*^*^*^*^*^*^*^*^*^***^*^*^*^*^*^*^***^***^***^***^*^*^*^^n4^*^*^*^^^*^*^*^*^*^*^*^*^*^*^*^*^*^*^*^*^*^*^*^*^*^*^*^*^*^*******^***^*^^^^^^^*^*^^^*^*^*^*^*^*^*^*^*^*^*^*^*^*^*^*^*^*^*^*^*^*^*^***^***^***^***^*^*^^^^^^^*^*^*^^^*^*^*^*^*^*^*^*^*^*^*^***^***^*^*^*^*^*^*^***^***^*******^",
"********************^***************************************************************************^*^***************************************************************************^h***************************************************************************^^^^*************************************************************************^^^^^*******************************************************************",
"<*4*<*<*<*<*<******^^^**********************4*4*<***<*<*4*4*<*******<*4*<*4*<*4*<*<*<*<*<*<*4****^^*4***************4***<***4*4*<*4*<***<*4*<*****4*<*<*<*4*<*<*<*4*<*<*<***4*^b^^**********************4*4*<***<*<*4*4*<*4*****<*4*<*<*<*4*<*4*<*<*<*<****^^^^*****************4***4***<*4*4*4*<*4*<*4*<*****4*<*<*<*4*<*<*<*4*<*<*<****^^^^*******************<***<*4*<***<*<*<*<*<*4*****<*4*<*<*<*4*<*4*<*4*",
"/2/222/2/222/2<2<<**^<*<4<4<4<*<<<4<4<4<<<<<<<<<<<<<<<</<<<2<2<2<2<2<2/2/2/2/2/2/222/2/222/2//<<*^^<*<*<<<4<4<4<<<4<<<4<<<<<<<<<<<<<<<<<<2<2<2/2/2<2/222/2/222/222/22222/2</<<^]^4*<4<*<<<*<<<<<<<4<<<</<<<<<<</<<<///<2<2<2/2/2/2/22222/222/222/22222/2//<*^^^4*<*<4<4<4<4<<<<<<<</<<</</<<</</<2/2<2/2/22222/2222222/222/222/2/222<2//<*^^^**<4<*<<<4<<<<<<<4<<<</<<<2<<<2<2<2/2<2/2/2222222222222/2/2/222/2/2",
"2p=p2p2p=p2p2p2p24*^*4<*<4<4<<<*<4<<<</</<2</<2</</<<p2/2/2<//2/222/2p2p222p2p=p2p2p2p=p2p=p2p2**^*<<<<*<<<<<*<<<<<<<</<<<2<2<2<2/2<2/2<2/2/2p2p2p2p2p=p2p2p2p=p2p=p2p2/2p=p2*^=**<4<4<*<<<*<4<</<<</<2</<2<2/2/2/2/2p2p222p2p2p2p=p2p=p2p=p=p=p2p=p=p2p2p2*^^**<4<*<4<<<4<4/<p</<2<2<2<2/2<2p2<222p2/2p2p2p2p=p2p2p2p=p2p=p2p=p2p=p2p2p2*^^**<*<<<4<</<<<<<<</<2/2/2/222/2/222p2p2/222p2p=p2p=p2p=p=p=p=p2p2p=p",
"p=2=p22=p=p=p2p=2<***<<<4<<<<<<<<<</<<<<</<2<2<2<2/2<222<2/2<2/22222/2222=p=p=p=p22=p=p=p=p=p=2<*^*<<<<<<<<<<<<<</</</<//2/2<2<//2/2/2/2/222/=p2p=22p=p=p=p2p=p=p=p=p=p=p=p=2<^m^<<<<p<<<p<<<<</<2<<<2//<2/2/2/2/222/2p222222=2=p=p=p=p=p=p=p=p=p=p=p=p=p=24^^*<<<<<<p<<<p<<<//2<<<2<2/2/2/2/22222p2222=p=2=p=p=p=p=p=p=p=p=p=p=p=p=p=2=2*^^^<<<<<<<</</<<</<2<<<2/2/222/222222=22p2p2p2p=p=2=2=p=p=p=p=p=2=p=p=",
"2p2p2p2p=p2p=p2/2**^**<<<<<<<4<<<*<*<<<</</</</</<<<2</<<<<<<</<2p2p2p2p2p2p=p2p=p2p=p2p=p2p=/24*^*<<*<<<4<<<<<*<*<<<4<<2</<2</<<<2/2<<<2<2<<</p2p2p2p2p=p2p=p2p=p2p=p2p=p2p2*^=**<*/4<<<<<</*<*<4<</</<2</<2<<<2<2<<<<<2<<<2p2p=p2p=p2p=p2p=p2p=p2p=p2p=p2*^^**<*<<<4<<<</44*<<<*<<2<2/2<2//<2p2<<<2<2/2/2p=p2p=p2p=p2p=p2p=p2p=p2p=p2p2^^^**<*<<<<<<<</44<<*/</<2/2/2p2/2<p/2p<</<2<2<2p2p2p2p=p2p=p2p=p2p=p2p",
"p2p=p=p=p=p=p=p=2<***<*<<<<<4<<<<<<<*<<<</</</<2<2<<</<<<<<2/2<2/2/2222=p2p2p=p222p=p2p=p=p=p=2<*^^<4*4<<<4/<<<<<<*<<<<p<2<p</<2<<4//<<<<2/2<2/22222p=p2p2p=p=p=p=p=p=p=p=p=2<^m^<4<<<<<4<<<<<4<*<<<</<2</<///<<<<<<<<<2/2<222p2p2p=p2p=p=p=p=p=p=p=p=p=p=2<^^^<<4*<<<4<<<<<4<*<</</<2<2/2/2/<*//<<<<2/222/222p=p=p=p=p=p=p2p=p=p=p=p=p=2*^^^4<<4<</4<</</4<4<</<2<2/2/2/2//4<<2<<<22222/2p2p=p=p=p=p=p=p2p=p=p=",
"2/2/2p2/2/2p2p2p24*^**4*<*<*<<<4<4<<<4<*<</<<<<4/</**4<<<</</</<2<2<2<2/2/2/2/2/2p2p2/2/2p2p2p2**^**<*<4<*<*<<<*<<<<<*<<<</<<</4<4<4<</</<2<p<2<2<2<2p2/2p2/2p2p2p2p2p2p2p2p2*^=**<*<4<4<4<4<4<*<*<*<<<<<</4/<<<**<</<2<2<2/2/2<//2/2p2p2/2p2p2p2p2/2p2/2p2*^^**<*<*<*<*<<<<<4/*<<<<<</</</<<<<*<<2<2<2/p<2/2/2/2p2p2p2p2p2/2p2p2p2/2p2p2*^^**<*<<<*<4<4<<<*/<<4<</</<2<//<<<*<<p<2/2/2<2p2/2/2/2p2p2p2p2/2/2p2/",
"p=/2p2/2/2p2/2p=/<**^<4<<<<<<<<<<<<<<<<<4<<<<<<<<p<<*2</<2</</<2<2/2<2/2/2/2/2p2/2p2/2/2p2p2p=/<*^*4*4<<4<4<<<<<<<<<<<<<</</<<</<<</</</<2</<2/2<2/2/2p2/2p2p=p2p=p2p2p2p2p=/<^m^<4<<<<<<<<<</<<<<<<4<</<p</<2</4<//</<2<//2/2/2/2p2p2p2p2p=p2p=p2p2/2/2p=p4^^^4*<4<<<4<<<<<<<<<<<<<</<2</<2<2<<//<//2<2<2p2/2/2/222/222p2p2p=p2/2p2/2/=p*^^^<4<*/<<4<<<<<<<</<<<<<<<2<2<2/2<<///2/2<2<2/2/2/2p2/2p2p2/2p2p2p2/2",
"2/p/2</</<2/2/2//**^****<*<4<*<4<*<*<*<4<4<4<4<<<*<<<4<<<4<<<*<</</<<</<2<//2/2pp<2//<//2/2/2p/**^**<*<*<4<4<4<*<*<4<4<4<4<<<44*<<<*<4<<<<<*<</<2<<<2<//2///2/p<2/2<2<2/2/2p2*^=**4*<*<4<*<4<4<*<4<<<*<<<4<<<*<4<*/<<4<<<4<<2<//2<//2/2/2/2p2/2p2</<//2p2p/*^^**<*44<4<4<*<4<44<<4<<<4<<<4<*<<<*/4<</<<<<<2/2//<2///2<//2p2////<2<//2</p/^^^**<*<4<4<*<<<4<4<<<<<4<4<<<<<*<*/4<</<<</<<<2/p/2<//2<2/2<2/2////</<",
"/2/2/2<2</<2/2p2<<**^<*<4<4<4<4<4<4<4<4<<<4<<<<<<<4<4<4<<<</<<*2/2<2</<2<2<2/2/2/2/2//<2/2<2p/<<*^^<4*4<4<4<4<<<4<4<<<4<<<4<<<<<4<4<<<<<<<<<*2<2</<2/2/2/2/2/2/2/2/2<2/2/2p2<<^m^<*44<4<4<4<<<*<<<4<4<<<<<<<<<4<<<4<<<4<<<*//2<2/p<2/2/2/2/2/2/2pp<2<2/2p2<4^^^44<4<<<4<4<4<4<4<<<4/<<<<<<</<<<<4<</<<<<*<<2/2<2/2<2/2/2/2/2/2p2</<2/2/2/*^^^**44<4<4<4<<<4<<<4<<<<<</</</<<<<*<</</<<*</2/2/2<2/2<2/2/2/2/2//</",
"/<2//<p<///<///</**^^*<*<4<*<*<*<4<*<4<*<4<4<4<4<<<4<4<4<4<</44</<<<<<<</<2</<2<///<p////<//p//**^**4*<*<4<*<4<4<4<4<4<*<4<4<4<4<<<<<4<<<</44<2<<</<<//</</<2//////p//////2//*^=**<*44<*<4<*<4<4<4<*<4<4<4<4<</<<</4<<<</<44/</</</</<2<<<2<2/2/pp/</<2<2//*^^****4*<4<*44<4<4<*<4<4<4<4<<<<<<<<<<<<<</<4*2</</</</</</<//2<p///p</</<p</*^^^*4**4<*<4<*<4<*<4<4<4<4<<<<<<<<<<<<<<<<</<*/<p</</</<2<<<2<2</<//p<",
"<////p<2/2/2<2//<<**^**44<4<4<4<4<4<4<<<4<<<4<<<<<<<<<<<<<<<</4<<p/p</</<2/2<2/2/2/p<//2<2/2/p<<*^^**4<<4<4<*<4<4<<<<<<<<<<<<<<<</</</<<<<</<<<p/2<p<p</<2</<2<p/2<p/2/2<2/p<<^m^**<4<4<4<4<4<4<4<<<4<<<<<</<<</</<<<<</<2<<<2/p<2/2<2<2<2</<2/2<2/2/2/p/2<*^^^**4*<4<4<4<4<<<<<4<<<<<<<</<<</</</<<<p</<<4p/2/p<2<2<2</<2<2<2//<2/2<2/2<*^^^**<*<4<4<4<4<<<<<<<4<</<<</</</</</</</<2<<*p<p/2/p<2/2</<p<2/p/<<2",
"<</4/</</</</</<<**^*^**4*<*<*4*<*4*<*4*<*<4<*<<<*<4<4<4<4<<<4<4<<<<<<<</</</<<</</</<///</</<<**^^***<*<*4*4*4*<*<*<*<*<*<4<<<4<4<4<4<4<<<<<<44/<<</</<2</<<</<<//</</</<p<<*^=****<*4*<*4*<*<4<*<*<*<4<*<<<4<4<*<4<*<<<</<<4/</<<</</</<<<<<<//</</<<</<<*^^^**^4*<*4*<*<*<*<4<4<4<*<4<4<<<*<<<4<<<<<</<<*/</</</</</<<<<<<</</</</</<<^^^^^****44<*4*<*<*<*<*<*<4<*<<<<<4<<<<<4<<<<<<<*<</<<<2</</<<<<</</<<<",
"</<2//</</<2</<2<4**^**44<4<4<*<4<*<4<*<4<4<<<<<<<4<<<<<<<<<<<<<<<<<<<<2</<2</<2<2<2//<2<2<2//<<*^^***4<4<*<*<*<4<4<4<4<4<4<<<4<<<<<<<<<<<<<<<<<</<<</<2//<2</<2<//2</<2<//p<4^m^***4<4<4<*<4<*<4<*<<<4<<<<<<<4<<<</<<</<<<<<<<p<<<2//<2<2<2<2<2//</</<p//<*^^^****<4<4<4<*<4<4<4<<<4<<<<<4/<<4/<<<<<<</<<<<<<<<</<p<2<2</<2<2<p</</</<2<*^^^****<*<4<*<4<*<4<4<4<4<<<4<<<<<<<<<<<</<<<<<<</<<42//<2</</</<//p<p",
"/</</</</</</</<<**^^***4*<*4*<*<*<*<*<*<4<*<4<*<<<*<4<4<4<4<<<*<<<<<4/<<<<</</</</</</</</</<<**^****<*<*<*4*<*<*<*<4<*<4<*<4<4<<<*<4<4<4<4<4<<<<<4<<<<<</</</<<</</</</</<<*^=^**^4*<*4*<*<*<*<4<*<*<4<4<*<4<4<4<4<<<4<4<<<<<<<<<</</</</</<<</</</</</<<*^^^**^4*4*<*<*<*4*<*<4<*<4<4<4<4<4<4<4<4<<<4<<<4<<<<<<<<<</</<p<<</</</</</<<^^^^**^**<*4*<*4*<*<4<*<4<*<4<*<<<4<<<4<<<4<<<<<<<4<<<<<</<<</</</</</<",
"<2</</</</<p<2<<<<*^^****<4<*<4<4<4<4<4<4<4<4<4<<<<<4<<<<<<<4<<<<<</</</</</<p</<p<p<<</<2</</<<^^^4***<4<4<*<4<4<4<4<4<4<<<4<<<<<<<<<<<4<<<<<<<</</</</<p</<2//<p<<</</<p</<<^e^4**^<4<*<4<*<4<4<4<4<<<4<<<4<<<<<<<<<<<<<<<<<</</</</</<2</<p</</</</</</<*^^^*****4<4<*<4<4<4<4<4<4<<<4<<<4<<<<<<<<<<<4<<<<<</</</<2/p<2</<2</</</<p</<*^^^***^*4<*<4<4<4<4<4<4<4<4<4<4<<<4<<<<<<<<<<<</<<</</</</<2</<2</</</"};
