/* XPM */
static char * 5_xpm[] = {
"200 180 256 2",
"  	c #000000",
". 	c #0A0400",
"+ 	c #120500",
"@ 	c #190700",
"# 	c #230B00",
"$ 	c #2B0C00",
"% 	c #431400",
"& 	c #3B1200",
"* 	c #320E00",
"= 	c #5B1A01",
"- 	c #1B0A00",
"; 	c #521700",
"> 	c #711F01",
", 	c #6B1E01",
"' 	c #752201",
") 	c #4B1600",
"! 	c #7D2301",
"~ 	c #852501",
"{ 	c #331200",
"] 	c #8C2701",
"^ 	c #631C01",
"/ 	c #952B01",
"( 	c #A53102",
"_ 	c #973606",
": 	c #8C2A02",
"< 	c #A83F11",
"[ 	c #AB4112",
"} 	c #9A2D01",
"| 	c #9C3404",
"1 	c #541901",
"2 	c #A42E01",
"3 	c #0F0800",
"4 	c #A92F01",
"5 	c #AB3202",
"6 	c #B73C0A",
"7 	c #B33A06",
"8 	c #C34513",
"9 	c #AA3C0B",
"0 	c #CC4C19",
"a 	c #D04F1D",
"b 	c #BE4311",
"c 	c #D8511B",
"d 	c #BB3501",
"e 	c #B43402",
"f 	c #C63802",
"g 	c #C23702",
"h 	c #D53D02",
"i 	c #CC3A02",
"j 	c #E74E10",
"k 	c #E44303",
"l 	c #DB3E01",
"m 	c #E75113",
"n 	c #FB5A15",
"o 	c #F85613",
"p 	c #FE631A",
"q 	c #FB671C",
"r 	c #782B08",
"s 	c #E13E00",
"t 	c #F24E0A",
"u 	c #EA4504",
"v 	c #FF6E22",
"w 	c #DB4204",
"x 	c #FB4E08",
"y 	c #F14602",
"z 	c #F44A04",
"A 	c #FF7124",
"B 	c #FD530A",
"C 	c #FC4B04",
"D 	c #140800",
"E 	c #E64B09",
"F 	c #D84A08",
"G 	c #822A04",
"H 	c #FE5C09",
"I 	c #CC4406",
"J 	c #8B3403",
"K 	c #4C1B02",
"L 	c #C34405",
"M 	c #FE6309",
"N 	c #D44305",
"O 	c #6C2202",
"P 	c #FE6B0A",
"Q 	c #5C2302",
"R 	c #632204",
"S 	c #FF730B",
"T 	c #A53A07",
"U 	c #862F08",
"V 	c #F45808",
"W 	c #FF7611",
"X 	c #AD3C06",
"Y 	c #FF7C0B",
"Z 	c #E85808",
"` 	c #FF8413",
" .	c #FE840B",
"..	c #F66708",
"+.	c #441B00",
"@.	c #562102",
"#.	c #FF8819",
"$.	c #FF9C23",
"%.	c #FF9B1D",
"&.	c #FC9317",
"*.	c #C74A07",
"=.	c #FFA52B",
"-.	c #FFAA37",
";.	c #F89C25",
">.	c #BA4305",
",.	c #FE7914",
"'.	c #6D2903",
").	c #FFB837",
"!.	c #FFC641",
"~.	c #FFBB33",
"{.	c #FFA31B",
"].	c #EE741B",
"^.	c #722A04",
"/.	c #BD3B05",
"(.	c #FFC944",
"_.	c #FEB42C",
":.	c #D65706",
"<.	c #E8680A",
"[.	c #FF8C2A",
"}.	c #241100",
"|.	c #FEA522",
"1.	c #FFCB3B",
"2.	c #FFC638",
"3.	c #3C1C00",
"4.	c #2B1400",
"5.	c #FFBD2A",
"6.	c #FFAA1C",
"7.	c #FF8C0B",
"8.	c #B44305",
"9.	c #873105",
"0.	c #FFB223",
"a.	c #FFC334",
"b.	c #CD5004",
"c.	c #FFA214",
"d.	c #FF9C13",
"e.	c #FF930B",
"f.	c #A94805",
"g.	c #D86407",
"h.	c #FF9C0C",
"i.	c #FFA30B",
"j.	c #B75605",
"k.	c #7B3302",
"l.	c #7B2C04",
"m.	c #1F1000",
"n.	c #E57606",
"o.	c #F57707",
"p.	c #FFC728",
"q.	c #A94204",
"r.	c #BD4A03",
"s.	c #FFAC0B",
"t.	c #FFA803",
"u.	c #FB9804",
"v.	c #FFD83C",
"w.	c #FFAD13",
"x.	c #FFB413",
"y.	c #FFD641",
"z.	c #341A00",
"A.	c #FEC322",
"B.	c #FFDC34",
"C.	c #FFB61C",
"D.	c #FED22C",
"E.	c #FFB40A",
"F.	c #4B2401",
"G.	c #FFE53A",
"H.	c #FFE335",
"I.	c #FFC51C",
"J.	c #FFB503",
"K.	c #FFEF40",
"L.	c #FFBC14",
"M.	c #FFF342",
"N.	c #FFEC3B",
"O.	c #FFC314",
"P.	c #FFD423",
"Q.	c #FFBC0A",
"R.	c #FFF43C",
"S.	c #FFC404",
"T.	c #FFD434",
"U.	c #FFD41B",
"V.	c #FFCB1B",
"W.	c #FFBC05",
"X.	c #FFC509",
"Y.	c #974703",
"Z.	c #FFEA34",
"`.	c #FFDB23",
" +	c #FFCA11",
".+	c #592C02",
"++	c #FFDE2C",
"@+	c #FFE42C",
"#+	c #FFD414",
"$+	c #FFDA1B",
"%+	c #432201",
"&+	c #FFCB2B",
"*+	c #FFE423",
"=+	c #522B03",
"-+	c #EA9618",
";+	c #FFCB0A",
">+	c #FFEB2C",
",+	c #FFEB24",
"'+	c #FFFF41",
")+	c #D08C0F",
"!+	c #FFFD34",
"~+	c #FFD50B",
"{+	c #FFCC04",
"]+	c #743601",
"^+	c #C66604",
"/+	c #FFFF3C",
"(+	c #FFF332",
"_+	c #3E2001",
":+	c #AA5804",
"<+	c #FFE41C",
"[+	c #FFDB13",
"}+	c #FFD405",
"|+	c #854705",
"1+	c #FFDB04",
"2+	c #FFF32C",
"3+	c #F28204",
"4+	c #633402",
"5+	c #FFE917",
"6+	c #FFE113",
"7+	c #FFEC1B",
"8+	c #FFF427",
"9+	c #FFFD2B",
"0+	c #FFFD23",
"a+	c #E98902",
"b+	c #FFE10E",
"c+	c #B36509",
"d+	c #4C2A03",
"e+	c #C67516",
"f+	c #FFFB1B",
"g+	c #FFDB0C",
"h+	c #965106",
"i+	c #EDB21A",
"j+	c #FFF619",
"k+	c #FFEA0B",
"l+	c #FFF107",
"m+	c #FFF30D",
"n+	c #FFE503",
"o+	c #A66914",
"p+	c #653906",
"q+	c #FFEC03",
"r+	c #FFF412",
"s+	c #CA7D0B",
"t+	c #5D3404",
"u+	c #6A3802",
"v+	c #6F4209",
"w+	c #ECBF27",
"x+	c #DCA91E",
"y+	c #D87806",
"z+	c #794609",
"A+	c #B56D15",
"B+	c #88500B",
"C+	c #F7A829",
"D+	c #DB8A1D",
"E+	c #9C5E10",
"F+	c #E28C1A",
"G+	c #BB7216",
"                                                                                                                                                                                                                                                                                                                                                                                                                ",
"                                                                                                                                                                                                                                                                                                                                                                                                                ",
"                                                                                                                                                                                                                                                                                                                                                                                                                ",
"                                                                                                                                                                                                                                                                                                                                                                                                                ",
"                                                                                                                                                                                                                                                                                                                                                                                                                ",
"                                                                                                                                                                                                                                                                                                                                                                                                                ",
"                                                                                                                                                                                                                                                                                                                                                                                                                ",
"                                                                                                                                                                                                                                                                                                                                                                                                                ",
"                                                                                                                                                                                                                                                                                                                                                                                                                ",
"                                                                                                                                                                                                                                                                                                                                                                                                                ",
"                                                                                                                                                                                                                                                                                                                                                                                                                ",
"                                                                                                                                                                                                                                                                                                                                                                                                                ",
"                                                                                                                                                                                                                                                                                                                                                                                                                ",
"                                                                                                                                                                                                                                                                                                                                                                                                                ",
"                                                                                                                                                                                                                                                                                                                                                                                                                ",
"                                                                                                                                                                                                                                                                                                                                                                                                                ",
"                                                                                                                                                                                                                                                                                                                                                                                                                ",
"                                                                                                                                                                                                                                                                                                                                                                                                                ",
"                                                                                                                                                                                                                                                                                                                                                                                                                ",
"                                                                                                                                                                                                                                                                                                                                                                                                                ",
"                                                                                                                                                                                                                                                                                                                                                                                                                ",
"                                                                                                                                                                                                                                                                                                                                                                                                                ",
"                                                                                                                                                                                                                                                                                                                                                                                                                ",
"                                                                                                                                                                                                                                                                                                                                                                                                                ",
"                                                                                                                                                                                                                                                                                                                                                                                                                ",
"                                                                                                                                                                                                                                                                                                                                                                                                                ",
"                                                                                                                                                                                                                                                                                                                                                                                                                ",
"                                                                                                                                                                                                                                                                                                                                                                                                                ",
"                                                                                                                                                                                                                                                                                                                                                                                                                ",
"                                                                                                                                                                                                                                                                                                                                                                                                                ",
"                                                                                                                                                                                                                                                                                                                                                                                                                ",
"                                                                                                                                                                                                                                                                                                                                                                                                                ",
"                                                                                                                                                                                                                                                                                                                                                                                                                ",
"                                                                                                                                                                                                                                                                                                                                                                                                                ",
"                                                                                                                                                                                                                                                                                                                                                                                                                ",
"                                                                                                                                                                                                                                                                                                                                                                                                                ",
"                                                                                                                                                                                                                                                                                                                                                                                                                ",
"                                                                                                                                                                                                                                                                                                                                                                                                                ",
"                                                                                                                                                                                                                                                                                                                                                                                                                ",
"                                                                                                                                                                                . . .                                                                                                                                                                                                                           ",
"                                                                                                                                                                              . . . . .                                                                                                                                                                                                                         ",
"                                                                                                                                                                            . . . + @ . .                                                                                                                                                                                                                       ",
"                                                                                                                                                                          . . . + # $ + . .                                                                                                                                                                                                                     ",
"                                                                                                                                                                          . . + @ % & + . .                                                                                                                                                                                                                     ",
"                                                                                                                                                                        . . . + * = % + + . .                                                                                                                                                                                                                   ",
"                                                                                                                                                                        . . + - ; > % + + + .                                                                                                                                                                                                                   ",
"                                                                                                                                                                      . . + + * , ' ) @ + + . .                                                                                                                                                                                                                 ",
"                                                                                                                                                                        . + + & ! ! = @ + + . .                                                                                                                                                                                                                 ",
"                                                                                                                                                                      . . + + ) ~ ~ , $ @ + + .                                                                                                                                                                                                                 ",
"                                                                                                                                                                      . . + + % ! ~ ' % - @ + .                                                                                                                                                                                                                 ",
"                                                                                                                                                                        . + + { , ] ~ ^ { + + . .                                                                                                                                                                                                               ",
"                                                                                                                                                                      . . + @ # = / / ' ) + + + . .                                                                                                                                                                                                             ",
"                                                                                                                                                                      . + @ @ # = ( _ : ^ - @ + . .                                                                                                                                                                                                             ",
"                                                                                                                                                                    . . + + @ * , < [ } ! - + . .   .                                                                                                                                                                                                           ",
"                                                                                                                                                                      . + + - ) ! [ [ } ! - + + .   .                                                                                                                                                                                                           ",
"                                                                                                                                                                    . . + + $ ^ / [ [ / ! @ + . .                                                                                                                                                                                                               ",
"                                                                                                                                                                    . . . + * ! / | < ] > + + .                                                                                                                                                                                                                 ",
"                                                                                                                                                                      . . + % ~ / / _ ] , + . . .                                                                                                                                                                                                               ",
"                                                                                                                                                                      . . + & ~ ~ ] : ' ) + . .                                                                                                                                                                                                                 ",
"                                                                                                                                                                      . . + * ! ~ ! = ; * + . .                                   .   . .                                                                                                                                                                       ",
"                                                                                                                                                                    . . . . # ' ~ ^ % & @ . .                                   . .   . . .                                                                                                                                                                     ",
"                                                                                                                                                                        . . + 1 ~ ) # @ . . .                                   . . . + + . . .                                                                                                                                                                 ",
"                                                                                                                                                                          . . * ^ # + . .   .                                 . + @ # + + + + . .                                                                                                                                                               ",
"                                                                                                                                                                            . @ % @ . . . . .                               . . + $ ) # + + + + . .                                                                                                                                                             ",
"                                                                                                                                                                            . . # . . . . . .                             . . . + $ , & @ @ @ + + + .                                                                                                                                                           ",
"                                                                                                                                                                              . . . + + . .   . .   .                       . + + & ~ = $ # @ @ + + .                                                                                                                                                           ",
"                                                                                                                                                                              . . . @ + . + . . .                           . + @ & } ! ; $ # @ + + .                                                                                                                                                           ",
"                                                                                                                                                                            . .   + & * + + + + . .                       . . + @ % 2 2 ' ; & # + + + .                                                                                                                                                         ",
"                                                                                                                                                                              . . 3 ; ; @ + + + . .                     . . + + + ) 2 4 / ' ^ & @ + + .                                                                                                                                                         ",
"                                                                                                                                                                                . + ^ , $ @ @ + + . .                     . + + @ ; 2 5 6 ( ~ = # + + . .                                                                                                                                                       ",
"                                                                                                                                                                          . . . . + = ] 1 # @ @ + + + .                   . . + @ ) 2 7 8 8 9 ! $ @ + + .                                                                                                                                                       ",
"                                                                                                                                                                              . + + % / ! & # # - @ + 3                   . . + @ * } 7 0 a b / $ - + 3 .                                                                                                                                                       ",
"                                                                                                                                                                              . + + & ] / ^ & $ # - + + .                 . + + @ $ / 7 8 c 8 4 $ - + + .                                                                                                                                                       ",
"                                                                                                                                                                            . . + + # ' 4 ~ = ) * # - + + .               . . + @ @ ] 5 6 a b 4 * # + + . .                                                                                                                                                     ",
"                                                                                                                                                                          . . + + + - = 2 2 ~ , 1 { # @ . . .             . . + + - : 5 d b 6 4 $ @ + + . .                                                                                                                                                     ",
"                                                                                                                                                                          . . + + @ - & 2 e 4 / ! = # - + + .     .       . . + + # ] 4 5 6 e / $ # - + + .                                                                                                                                                     ",
"                                                                                                                                              . .                           . . + + # $ 2 e d e 2 ! * # @ + + . .   . . . . . + + @ ' 2 4 5 } ! % & # + + .                                                                                                                                                     ",
"                                                                                                                                            . . . . .   .                   . . + + - # 2 d f f g 4 & # @ + + + . . . . .   + . + @ = ! 2 4 ~ ' ^ = % + + . .                                                                                                                                                   ",
"                                                                                                                                          . + + + . . . .                   . . + + # $ 2 g f f f g ) $ - @ + + . + . . + + + + + + & = ] 4 , > > ' = + . . .                                                                                                                                                   ",
"                                                                                                                                          . + { $ . . . . .                 . . + @ # $ e f f f f f = $ $ - @ @ + + + + + + + + + + @ & > 2 ) = ' / > + . . .                                                                                                                                                   ",
"                                                                                                                                        . . 3 1 ) # + .     .                 . + + # $ d f h h i f , * $ # # # @ @ @ @ @ + + + + + + + 1 ] & ; = / ! + .   .                                                                                                                                                   ",
"                                                                                                                                        .   + > , % . .                       . + @ # & g f h j k l ! & $ $ # # # # # $ * # @ + + + + + $ = # * * > 1 .   . .                                                                                                                                                   ",
"                                                                                                                                      .     + ^ , = . .                         + + - % g i l m m m } & & * $ $ $ * $ = 1 & - @ + + + + @ % + 3 + ) * .   .                                                                                                                                                     ",
"                                                                                                                                        . . . % ) ;         .                 . + @ # ; g i l j n o d ; & & & * { * ; ! ! 1 # @ + + . . 3 + . . . $ +                                                                                                                                                           ",
"                                                                                                                                        .     - # {         .                 . . + @ = d i h k p q m r ; ) ) ) ) ; ! 4 4 ~ & @ + + + . .   .     .                                                                                                                                                             ",
"                                                                                                                                              . . @                         . . . + @ = d i h s o q n 9 ! > > , > ! 2 f f 2 ; @ + + . . .                                                                                                                                                                       ",
"                                                                                                                                                  .                           . + + @ ) 4 f h l t p q c 5 / / / / 2 f f f d > @ @ + + .                                                                                                                                                                         ",
"                                                                                                                                                                                + + @ * ~ d h l u t p q k f f f f i i f f d ] @ + + .                                                                                                                                                                           ",
"                                                                                                                                                                                . + + # = / i s k u n v n k k s l h f d d d / + + + . .                                                                                                                                                                         ",
"                                                                                                                                                                                . . + - & > d l k u o v p u u s l f e 2 4 4 ] + + .                                                                                                                                                                             ",
"                                                                                                                                                                                  . + @ # ) } l u u o v p u k k h 4 ~ ! ! ] , + . .                                                                                                                                                                             ",
"                                                                                                                                                                                  . + @ @ * ! l u u o v o u u k g ! = ) ) ^ % + .                                                                                                                                                                               ",
"                                                                                                                                                                                  . + + - $ 1 w u x p q x y u s 2 = * # $ & # . .                                                                                                                                                                               ",
"                                                                                                                                                                                  . + + - $ % l y n q q z y k s ! * - @ + + 3 .                                                                                                                                                                                 ",
"                                                                                                                                                                                    + + @ $ % l x q A p z y y f 1 # @ + + . .                                                                                                                                                                                   ",
"                                                                                                                                                                                  . . + - $ % l o A q o y z k / & # @ + . .                                                                                                                                                                                     ",
"                                                                                                                                                                                    . + @ # % k B v p x z z i > $ - + + .                                                                                                                                                                                       ",
"                                                                                                                                                                                  . . + + # & l x n B z z z 2 ) # @ + + .                                                                                                                                                                                       ",
"                                                                                                                                                                      . . .   . . . . . + # { g x x C C C y > * # @ .                                                                                                                                                                                           ",
"                                                                                                                                                            .   . . . . . . . . . . . . + - $ / k C C C C u ) $ # @ + .                                                                                                                                                                                         ",
"                                                                                                                                                            . . . . . + + + + .   . . . + + - ^ g u C C C l & $ # + + .                                                                                                                                                                                         ",
"                                                                                                                                                              . . . + + # + + + . .   . + + @ & ~ g z C C h * # - + + .                                                                                                                                                                                         ",
"                                                                                                                                                              . + + - - 1 @ @ + + . . . + + D # 1 ] h C C h $ $ - + . .                                                                                                                                                                                         ",
"                                                                                                                                                              . + @ # # ~ * - 3 + . . . 3 + + - * = 2 z x l * # - + . .                                                                                                                                                                                         ",
"                                                                                                                                                            . + + # # % f = # - D 3 + . . + + - # $ , h x u * # - + + .                                                                                                                                                                                         ",
"                                                                                                                                                            3 + @ # $ ' z ~ # # - + + + . + + - # # % 5 x u & $ - @ . .                                                                                                                                                                                         ",
"                                                                                                                                                          . 3 + - # % 5 x d $ # - + + + + + @ - # # * ! C z ) # # + + .                                                                                                                                                                                         ",
"                                                                                                                                                          . + + # # > w B k & # # + + + + + @ - - $ * ; E x ' $ # @ . . .                                                                                                                                                                                       ",
"                                                                                                                                                          . + - - $ } x B t % $ - @ D + - - - # $ * * & u x / $ - @ + . .                                                                                                                                                                                       ",
"                                                                                                                                                          . + + # # h B B B % $ # - - - - # ) * $ * { * F B f * # - + .                                                                                                                                                                                         ",
"                                                                                                                                                          . + @ - $ E B B B ; # # @ @ - # & ~ ) { { & & F B E & # @ + . .                                                                                                                                                                                       ",
"                                                                                                                                                            + + - # w B B x ; # - - - # # ) f G & & & % w H B & $ - + + .                                     .                                                                                                                                                 ",
"                                                                                                                                                            . + - # 5 B B B ) # # - # # $ > B h = % % % I H H % $ - + + .                                     . .   .                                                                                                                                           ",
"                                                                                                                                                            . 3 + - G B B z % # # # # $ * G H t J ) ) K L H H ) $ # @ 3 . .                                   . + . . . .                                                                                                                                       ",
"                                                                                                                                                          . . . + @ 1 B x d * - - # # $ { ~ M H f ) ; K I M H ; * # @ + .                                   . . . . + . .                                                                                                                                       ",
"                                                                                                                                                            . . + + * B N O - - # - $ * & G M M F = = = E M M 1 { $ @ 3 . .           . .   .                 . + + 3 3 . .                                                                                                                                     ",
"                                                                                                                                                            . . . + # u 2 & - - # # * { % ~ P P E Q R O M M M = { $ - + . .     . . . . . . . . .         .   . + @ @ + . . .                                                                                                                                   ",
"                                                                                                                                                          .     . . @ 7 , D D - # # { % ) ( P M N O O : M P P ' & * # @ + . . . . . . + + . . . .       . . . + + K ) # + . .                                                                                                                                   ",
"                                                                                                                                                                . . + , $ + + # # * & ) 1 I S M T ! ' I P P P U & * # @ + . + + + + + + 3 3 + + . . .   .   . . + : _ { + + .                                                                                                                                   ",
"                                                                                                                                                                    . { @ 3 - # * & % 1 r V S M ( : } V S W P 6 % & $ - 3 + + . . 3 @ @ @ @ 3 + . +   . . . . . + 6 h ) . . .                                                                                                                                   ",
"                                                                                                                                                                  . . . 3 + - $ { % 1 R X P Y P F N E M S S S F % { $ # @ D 3 3 @ @ @ @ # # - + . . . .   . . . + N w ) . . .                                                                                                                                   ",
"                                                                                                                                                                    . . + - # * & K Q U E S Y S H H H S W P S Z K & { # @ @ D D @ @ # * 1 K # D + . . .   . .   . ( ( { .   .                                                                                                                                   ",
"                                                                                                                                                                    . + D # $ & ) 1 G I P ` `  .W W W Y P B S ..R % { # # @ @ - @ # & R _ J +.- + . . .       . . ^ R - .   .                                                                                                                                   ",
"                                                                                                                                                                  . 3 + - # * +.@.G N P #.$.%.#.%.$.&.W t I S S _ +.& * # # - - - { G 7 F I r D + . .           . # # .     .                                                                                                                                   ",
"                                                                                                                                                                  . + D # $ & K G *.M #.=.-.=.&.=.-.;.W >._ P ,.0 K % { * # # # # 1 6 E E N : D + .   .                   .                                                                                                                                     ",
"                                                                                                                                                                  . 3 + # { +.'.L n ` -.).!.~.{.).!.$...J r P #.].O +.& * $ # # # ^.V t /.< G D + .   . .                                                                                                                                                       ",
"                                                                                                                                                                . . D - $ & K 9 M ` =.).(.(.(._.!.).$.:.r ^.<.#.[.b Q K & { $ }.$ r t 7 ^.R = 3 + .                   .                                                                                                                                         ",
"                                                                                                                                                                . 3 D # * +.1 Z ,.|.~.(.(.1.(.2.(.-.&.*.r ^.Z ,.=.q J K +.3.* { 4.^.>.U & $ $ 3 + .         .                                                                                                                                                   ",
"                                                                                                                                                                . 3 - # { K ^.P %._.~.~.~.~.5.(.!.6.7.8.r ^.F ,.-.[.F '.K +.& { { R 8.9.{ # @ - + . .                                                                                                                                                           ",
"                                                                                                                                                              . . + - $ & K _ #.-._.0.0.6.6.0.a.a.&.7.[ r r T ..-.-.,.6 Q @.+.+.3.@.L X +.4.}.- + + .                                                                                                                                                           ",
"                                                                                                                                                              . . + - 4.3.K b.&.~._.{.c.c.c.c.0._.d.e.f.r r 9.g._.).=.<.r Q @.K ) Q I >.K { $ # - + . .                                                                                                                                                         ",
"                                                                                                                                                                . D # 4.3.R <.%.~.{.d.h.i.h.d.6.{.d.e.j.J k.l.g.|.!.).,.>.^.R Q @.'.N >.@.3.* 4.m.+ 3 .                                                                                                                                                         ",
"                                                                                                                                                            . . + + # 4.% J Y {._.d.h.i.i.i.i.i.d.h.e.g.J J J n.%.~.2.|..._ ^.'.O l.8._ Q K +.{ $ - 3 3 .                                                                                                                                                       ",
"                                                                                                                                                              . 3 + # * % 8. .%.|.h.h.i.i.i.i.i.i.h.h.o._ J _ Y d.0.2.p.#.F 9.k.k.X *.q.J '.K 3.{ }.- 3 .                                                                                                                                                       ",
"                                                                                                                                                            . . + + }.4.& :. .d.c.h.i.i.i.i.i.i.i.i.h. .T | r.7.h.{.5.1.c.S *.q.8.Z ..Z :.>.^.K 3.$ m.@ +                                                                                                                                                       ",
"                                                                                                                                                          . .   . + - $ 3.g. .7.e.h.i.i.i.s.s.i.t.i.s.e.8.T Z u.i.i.0.v.5.7.P V M S  .S P ..L '.+.{ # @ + .                                                                                                                                                     ",
"                                                                                                                                                          .     . 3 D $ { :.7.e.e.h.i.i.s.s.s.s.s.w.x.i.*.q.o.i.i.i.w.y.p.d. .Y Y e.h.e.7.Y ..8.1 z.4.- D .                                                                                                                                                     ",
"                                                                                                                                                              . . . + }.* 8.Y 7.e.h.i.i.s.s.s.s.s.x.A.s.<.b.7.t.s.s.w.B.p.s.i.h.i.i.i.i.h.h. ...G +.{ }.D 3 .                                                                                                                                                   ",
"                                                                                                                                                    .             . D - }.l.o.7.e.h.h.s.s.s.s.s.s.C.D.C. .P i.s.s.s.w.B.p.s.s.s.s.s.s.i.t.h.h. .8.+.{ }.D + .                                                                                                                                                   ",
"                                                                                                                                                                  . + - }.K Z  .7.e.h.s.s.s.s.s.E.E.B.D.6.7.s.s.s.s.E.B.p.E.E.s.s.s.s.s.i.i.h.e.g.F.3.}.- + .                                                                                                                                                   ",
"                                                                                                                                                                . . + - }.4._ S  .e.h.C.s.s.s.E.E.E.B.G.D.w.E.E.E.E.E.H.I.E.E.J.E.J.E.s.s.i.h.h.Y @.3.4.- D .                                                                                                                                                   ",
"                                                                                                                                                  .               . 3 3 + }.Q F P  .d.A.C.s.s.E.E.E.D.K.G.L.E.E.E.E.L.B.I.E.E.E.E.E.E.E.s.s.i.h. .'.3.4.- 3 .                                                                                                                                                   ",
"                                                                                                                                                                  3 . 3 + - z.J b...h.1.5.w.J.E.E.E.A.M.N.O.E.E.E.E.E.P.O.Q.Q.Q.E.E.E.E.J.s.i.h.e.k.3.4.- D .                                                                                                                                                   ",
"                                                                                                                                                  .             .     . + - # 3.^.r. .1.D.5.L.E.E.Q.I.R.N.O.S.Q.Q.E.Q.O.O.Q.Q.Q.Q.Q.E.J.E.s.i.h.e.k.3.$ - D .                                                                                                                                                   ",
"                                                                                                                                                  .             .     . . + - }.3.l.g.5.v.T.p.L.Q.Q.U.K.R.V.Q.Q.E.W.Q.X.Q.Q.Q.Q.O.E.Q.Q.E.s.s.h.h.k.z.4.- D .                                                                                                                                                   ",
"                                                                                                                                                                      . . 3 + }.4.+.Y.;.v.H.D.O.Q.W.V.Z.N.`.X.O.Q.Q.Q.Q.Q.Q.Q.S. +X.O.E.E.s.i.h.h.'.{ }.D 3 .                                                                                                                                                   ",
"                                                                                                                                                  .                     . . + - }.z..+<.a.v.D.O.Q.X.U.++@+@+U. +S.X.X.X.X.X.X.X.U.`.P.P.O.s.s.h.e.Q z.m.+ 3 .                                                                                                                                                   ",
"                                                                                                                                                                          . 3 D }.{ +.f.0.B.I.Q.Q.X. +#+$+++`.U. +X.X.X.X.X.X.X.`.Z.@+@+P.E.i.h.o.%+4.m.D 3                                                                                                                                                     ",
"                                                                                                                                                                          . . D m.4.+.r i.&+x.E.X.X.X.X. +$+*+*+U.X.X.X.X.X.X.X.`.M.M.M.B.x.i.h.g.+.4.- D .                                                                                                                                                     ",
"                                                                                                                                                                          . . 3 - }.3.=+-+A.E.E.Q.X.X.X.;+;+$+>+,+#+X.X.X.X.X.X.U.'+'+M.H.L.i.7.f.z.}.- 3 .                                                                                                                                                     ",
"                                                                                                                                                        .                 . . + - }.3.F.)+C.E.Q.W.X.X.X.;+;+#+>+!+@+~+X.X.{+{+X.#+'+'+M.H.w.h.o.]+4.}.D . .                                                                                                                                                     ",
"                                                                                                                                                    .             .         . 3 D }.z.%+^+w.E.E.X.X.{+;+;+;+;+,+/+(+#+;+X.X.;+;+#+'+'+N.P.s.e.j._+4.- D .                                                                                                                                                       ",
"                                                                                                                                                    .                       . 3 - m.z.+.:+s.E.Q.X.X.X.;+;+;+;+<+'+/+[+;+;+;+X. +`./+'+G.O.i.o.k.z.}.+ + .                                                                                                                                                       ",
"                                                                                                                                                          .                 . 3 D - z.3.Y.s.E.Q.X.X.;+;+;+{+}+,+'+'+,+;+X.{+~+~+>+'+'+G.E.t.^+F.4.m.+ 3 .                                                                                                                                                       ",
"                                                                                                                                                            .               . . D m.z._+|+t.J.Q.X.{+}+{+{+}+1+,+'+'+2+}+}+{+~+*+R.'+M.G.w.u.|+z.4.- 3 .                                                                                                                                                         ",
"                                                                                                                                                      .               .       . 3 - 4.z.]+t.J.Q.X.;+;+}+~+~+~+,+/+'+!+[+~+~+[+,+(+M.M.G.x.3+.+4.m.D . .                                                                                                                                                         ",
"                                                                                                                                                            .               . . 3 - 4._+4+t.J.W.X.;+~+~+~+~+~+5+/+'+/+,+6+~+[+*+,+@+R.G.L.g._+4.- D 3 .                                                                                                                                                         ",
"                                                                                                                                                                    .   .     . 3 m.4._+@.u.J.S.;+[+<+7+7+5+[+6+8+/+'+9+0+[+~+[+~+$+H.N.d.|+z.}.- 3 . .                                                                                                                                                         ",
"                                                                                                                                                          .             .   . . D - 4.3.=+a+J. +[+,+0+9+9+0+7+6+7+!+'+'+/+5+~+}+X.X.B.B.]..+4.m.D 3 .   .                                                                                                                                                       ",
"                                                                                                                                                            .         .   .   . 3 - 4.3.@.)+S.$+8+(+/+/+/+/+9+7+b+9+'+'+/+,+}+{+{+X.++p.c++.4.- D . .                                                                                                                                                           ",
"                                                                                                                                                                        .   . . 3 - 4._+d+)+V.>+/+'+'+'+'+'+/+9+5+9+'+'+'+8+}+}+{+ +++;.4+z.}.- 3 . .                                                                                                                                                           ",
"                                                                                                                                                                        .     . 3 - 4._+%+)+@+/+'+'+'+'+'+/+/+!+0+!+/+'+'+!+1+}+{+$+D.e+%+z.m.D 3 .                                                                                                                                                             ",
"                                                                                                                                                                          3 3 . 3 m.4.z.F.)+(+'+/+'+'+'+'+!+9+0+f+9+!+/+'+/+g+}+~+@+0.h+%+z.m.D 3 .                                                                                                                                                             ",
"                                                                                                                                                                            . . 3 - 4._+=+i+/+'+'+'+'+'+/+9+f+j+f+f+0+!+/+/+b+~+<+Z.-+4+_+z.m.3 3                                                                                                                                                               ",
"                                                                                                                                                                          . . 3 D m.4._+=+p./+'+'+'+'+'+!+f+k+k+l+m+j+0+!+!+g+}+,+R.e+=+_+4.m.3 . .                                                                                                                                                             ",
"                                                                                                                                                                              . 3 - 4._+4+++'+'+'+'+'+'+!+m+n+n+n+n+n+m+0+0+1+1+8+R.o+=+_+4.- 3 .                                                                                                                                                               ",
"                                                                                                                                                                            . 3 D - 4._+p+@+'+'+'+'+/+'+9+q+q+q+q+q+q+q+r+m+1+1+*+!+s+=+_+4.m.D 3                                                                                                                                                               ",
"                                                                                                                                                                            . . 3 - 4.3.p+N.'+'+'+/+'+/+9+q+q+q+q+q+q+q+q+q+1+}+6+!+-+.+_+4.- 3 . .                                                                                                                                                             ",
"                                                                                                                                                                            . . 3 m.}._+p+Z.'+'+'+'+'+'+9+q+q+q+q+q+q+q+q+n+1+}+g+(+x.t+3.4.- D .                                                                                                                                                               ",
"                                                                                                                                                                              3 3 D }.z.=+H.'+'+/+'+'+'+9+q+q+q+q+q+l+l+q+n+1+1+g+>+Q.u+z.4.- 3 3                                                                                                                                                               ",
"                                                                                                                                                                              . 3 D }._+d+D.'+/+/+'+'+'+9+m+q+l+m+f+f+f+m+n+1+}+~+#+W.v+z.4.- 3 .   .                                                                                                                                                           ",
"                                                                                                                                                                              . 3 3 m.z.%+w+/+/+'+'+'+'+!+f+r+f+0+0+9+9+0+r+1+{+{+;+J.u+z.m.D . . .                                                                                                                                                             ",
"                                                                                                                                                                              . . 3 m.4._+x+/+/+/+/+/+/+/+0+0+0+9+!+/+!+!+0+1+{+S.W.u.t+4.m.D 3 .                                                                                                                                                               ",
"                                                                                                                                                                              3 3 3 m.4.z.)+/+/+/+/+/+/+/+!+!+!+/+/+/+/+/+9+b+{+S.t.y+d+}.m.3 3 .                                                                                                                                                               ",
"                                                                                                                                                                                . 3 D }.z.o+'+'+/+9+/+/+/+/+/+/+/+/+/+/+/+!+7+{+W.a+|+4.m.D . .                                                                                                                                                                 ",
"                                                                                                                                                                              . . . 3 }.4.z+y.'+!+j+!+/+/+/+/+/+/+/+/+/+/+/+,+W.u.:+%+}.3 3 .                                                                                                                                                                   ",
"                                                                                                                                                                                . . 3 m.}.d+i+R.>+6+!+/+/+/+/+/+/+/+/+/+/+/+@+t.y+4+}.m.3 . .                                                                                                                                                                   ",
"                                                                                                                                                                                  . 3 D m.z.A+v.*+~+8+/+/+/+/+/+/+/+/+/+/+R.5.y+B+z.m.+ . .                                                                                                                                                                     ",
"                                                                                                                                                                                  . . 3 m.}.z+C+I.S.*+/+/+/+/+/+/+/+/+R.N.2.D+h+d+m.D 3 .                                                                                                                                                                       ",
"                                                                                                                                                                                  . . 3 D m.z.E+-+t. +2+/+/+/+/+/+R.Z.p.C+e+z+%+m.D 3 .                                                                                                                                                                         "};
