/* XPM */
static char * 6_xpm[] = {
"400 400 66 1",
" 	c None",
".	c #000000",
"+	c #E1CFC3",
"@	c #F2E0D3",
"#	c #EFDCCF",
"$	c #E6D7CB",
"%	c #F4E8DB",
"&	c #F9F4EB",
"*	c #AE9E96",
"=	c #605953",
"-	c #000000",
";	c #978C83",
">	c #BAABA1",
",	c #B4A59B",
"'	c #D5C6BA",
")	c #D0BDAD",
"!	c #C5B4AA",
"~	c #D2BEB5",
"{	c #CCBCB1",
"]	c #A3968D",
"^	c #24201E",
"/	c #857A73",
"(	c #9E8E86",
"_	c #BDB3A9",
":	c #6A615B",
"<	c #736A63",
"[	c #BFAEA6",
"}	c #A89C92",
"|	c #3D3733",
"1	c #8F847B",
"2	c #BFAE9E",
"3	c #544D49",
"4	c #7B716B",
"5	c #49433F",
"6	c #ADA298",
"7	c #61615B",
"8	c #6B655F",
"9	c #9D9289",
"0	c #E7DED2",
"a	c #D8D2C7",
"b	c #606262",
"c	c #E5E5E2",
"d	c #6D6D6C",
"e	c #A09E9C",
"f	c #C3C3BD",
"g	c #41413C",
"h	c #BCBAB3",
"i	c #8F8E8C",
"j	c #878783",
"k	c #363737",
"l	c #A9A8A1",
"m	c #414141",
"n	c #B2B0A7",
"o	c #A2A29B",
"p	c #AEAEAE",
"q	c #82827B",
"r	c #989792",
"s	c #92928D",
"t	c #767571",
"u	c #5C5B5C",
"v	c #71716C",
"w	c #7D7D7C",
"x	c #A2A2A2",
"y	c #DEDEDB",
"z	c #B2B2B1",
"A	c #FFFFFF",
"+@@+###$@@@@%@%%&%@%&%%%%@%%&&&&#*=-;>,>')'!'~{!{'{!+~~{+~'++{'{~!$']+~'''{'')#@%+@@#+@@%@%%%%&&#%&%%@%%&%&&&&#]^-/!(,'{~_'~~{~'{!+~~~''~'''+'')''>$''+++++'@#@+%%@#@@%%&%%%&&%@&&%%@@%%&%&&#:--<,>*~!'{[{{)~~'}+''''~'''+$'!'{+>)+$#'++#!@$%@@%%%%%&%&%&%&&&#&&%%&%&%%%&&#|--:>>1'!''!'~'''+,'+''{'+++$#+''~~{{@~++$$#+#%&%@%%%%%&%&%&&&&&@&&&%%@%%%%&&$^--:,[>!'''{'+~~~+2{#+'+#$$#$'+')~$@]@+#+#$@+'%&%%%&%%%",
"@@@######%@@@%@%%&%&&%#@@@%%&&&&+*3-/2,!!{~''{{'~!'{''~''+'++'~'!,~#('~+'+++'*#%%#@%##@%@%%%%%%&&&&&@@@%%&&&&&+]^-4!/*~{~'~{'+'_'{'''''+'''+'+!+'+[''+++'$+*+%@%%@#@#%%&%&%&%&&%%&%@%%@&&&%&$<--:*2,~~~'{{)+'!~{{''+'''''+++{~*+!>'++$$#${{%%&@%%@#@%&%&&&%&&%%&&@%%@&%&&&+5--=6,4~~~'~')'''{~!+'+'+++++$+''_~'!+$$####',&%&%%%&%&%&%&%&&&&&%&&%@%@&%&&&+^-^=],[{{)''+~'''!+{+++'$$$$#+++~>+@]~$###%##,%%&%&%%%%",
"%##$@$#+#@@@#%%@%%&%&&@@@@&@&&&%+]:-4*},!_{{{!~{{6[!{{{{'~~'+'+)')''!'''+'+'~/+%##%#@+@#@@%%%%%%&%&&&%%@%&&&&&+1^-<,/;~2!{!2{~{2!!!{~~'{~'+'+{{'+'!!++++$++({%%%%@%@@@@%%%&%%%&%&&&%%@&%%&&%+<--7],}~>!{!2[)'~_+~{''{~+''+$'~~''+{$+$+$+$**%%%%@%@@@&%&%&%&%&%&&&%%@%%&%&&+|--=]]8~~~~{!!'+)[~{!'~''+'++$+++++$,$$#+#+#'(@&%%%&%@%&%&%&&&%&&%&&&%@#%%%&&+^--7;6,!{{{~~~''{!!~'+)'+$+$$#+++$+#$#'#####+(+&%%%&%%%",
"[%####@@##@%@%@#@&%&%+%%@%%%%&&&$*=-=*,!>!!)!!!{!22!!){''~)+'++''#'+'''+##$$+{*#@%@@@%$%%&&%%@%&%&&$@&%&%&%&&&+(^-=*1;!!!)!![){!!!!''''{{+++'+'''+++++'+$#$'(#&%#%%%#%%&&&%%@&%&&##&&&&&&&&&+13^=9,]{)>!!)2)))!'{'')!)'+++'++$+#$##+$@#@$#>{&&%&&&%&%&&&%%%&&&&&$&%&&&&&&&$|--3(*4!'!!{{_!{{!)~'+{{+++++'#$##%#@@#$@@%#@6!&&%&%&%&%&&&&&%&&&&&+%&&%&%&&&+^--=(,}!!!)~){{~~{)~'''+#++$#$@$#%##@$##%%%@#'>0&&&&&&&",
"[2$@#+@@@@@@%@##%@%a&@%%&%%%%&%@+]3-3/1>[2[2!2!2[!!{{!~'')'~~'+'+'+'+'+{++$+##~,+%%@%@%%%%&%@@%@&a&%%%&%&&%&&@+;^-5:1(!2!2!2[2_!{{{~+~~{')'++++~+'+++~'+#+@#'2'@%@@%@@%%&%@@%%&%&&@%%%&&&&&%+[ b3<;({2[!{![_!!_!~{'~~~~)++++$++$#$$+$##$@@$!!@&%%%&%&%&&%@%%&c$&&%&&&%&%&%+|--=8//!![>!{!2!2{{~{~{{'+'++$#$$###@@++@@@@%$~[@&%%%&%&&&&&%%%&%0&&%&%&%&%&%'^--=<11!!{!{!{{)!~~+~''$++++'@@@@@$@+@@#@%%%%&+!a&&&%&%",
"+)!%###@@%%%%%@$+%@#&&%&%&%&&&&%~(3-=/:_>[!!!!2!_[!)!{'~'''+'''++'++$$+++$$#++++!@@%@@%%%%%&%#+%&%&&&%&&&&&&&&)1^-3<1},,!!!!2{[__![)!~'''''+++++'+$$$$+#$#+$+$2#%@@&%&%&&&&%$@&&&&%&&&&&&&&&~> d3/49!>!{!!>![!!!{{!'~''+'++$+$~+##$#+####@$@~+%%@%&&&&&&&&#@&&@&&&&&&&&&&&)|--3441[![{!{_![!!''{'')'+++++###+$#$#%@%@%@%%%''&&%&&&&&&&&&##@&%&&&%&&&&&&&~^--3//4!!!~{{{{~{{''''$+++$+#+#@@#%@%%%%%%&%%%%@!%&&&&&",
"+'$@@@@$##@@%@%%&%&%&@%@%%&&&%&%~13-7=:>[,_!![22!2[!!{~)'~'~~{''++'~++)+$'++$+++#+%@@$@@%%&%&&&&&&&%&%&&&&&&&&~/^-=1<]_}[[_222!2!!{!!{'){''~''+''~'+'+$$@0$++$$+@@%@%%&%&&&&&&&&&&&&&&&&&&&&'e b3<3;{,!!![2>!!{2{~{!~~~'+'+'''+''++'#+@%@++##@&%%%&%&&&&&&&&&&&&&&&%&&&&&&'^--3144{[{!{!!{!!!['!{~'~++++++$##$+@#'%@@%%%%@@%%%&&%%&&&&&&&&&&&&&%%%&&&%&%'---3/7:{![!{~{_)~{!+'++$+$+$++$@@%##%%+@%@##@%@%@@%&%&%",
"+$#@@#@$$@@@%%%&%&%%&&%&%%&&&&%&+(3-:/=([[[!!![,[![{{'~'~''''+'f'++''++$$++$#$$$$@##@@@%%&%&%&%&%&&&%&&&&&&&&&'1^-=/::][[![!>,[{!){[!'~'{'''~'++++'$$#$$#@@###@%$%%%%%%&%&&&&&&&&&&&&&&&&&&&']&d3;:4,_[![_>>2){!)'{{~+'++''+'++$'$$#@#@%@##@@&%&%&%&&&&&&&&&&&&&&&&&%&&&&&'|--3;<=/[!{!![!!)!{''{'~''$++$++##@#@#@%%@%@%%&%&%&%&%&&&&&&&&&&&&&&&%&&&&&&&~^--3;4=(!!{{'{{>'~{'+'++$+$$$@#+%%@$%%%%&%%%&%%%&&&%&%&",
"+''$#+#+$####%%@%%%@&%%@%%%%%&&%+/3-4<=g<2[[[>>,>!![!![!{!{{'~{~~)')''+++++'++$++++$@+@@%%%%%@%%&%&%&@%%&&%&&%+/^-8/:^4!![[![2>!{_[>!!{{{)'~'~'+'~++$+$$$+#+@@$+$#@#%@%@%@%%&&&&&%&%&%&%&%@%+1&d3(353,![__>[>_~!!_!!{~~'+'''++++$+$+###$@#@@$$@%@%&@%%&%&&&&&&&&&%%%&%&%&&'^--5;:=|}!2![22,_'{{{{{''''++#++++$@$$$@@%##$%@@@%%%%%%&%&%&&&&&&&%&%%%%%&%&%'---3(4==4{!{!__!_'~~~'~+'''$$$+$+$@$#@@%@%@@@%%%#%@%%%%",
"~'+++#+$+$$%##%@%%@%%%%%%@@&%&&%~15-/8=49,[[>>>>}>2{{h!{!{!{{{~{~{~+'+'+'++++$++$#+#$#+@@%@#%%%&&&&&%%@@&&%&&%~/^-81::/]>>>!2>66[{{{~{{{{!~+'~~'~''+'++#$#$##@$#$#@#@&%&%%%%%&&&&&%%&&&&&&%&~;&d3i|<1,[6,[>>[6_!{{~~{!{{'+~''+++++++'####@##$@$@%@%%%%%&%&&&&&%&&&%&%&%&&&'|--g}8<:]}>[!>,_>{{~'!{~~~''$''+#$#+###$@@#@@%##%@%%%%%%&&&%&&&&&&&&&%%%&%%%&~^--g}<:/}[{!{[{!>!{'+~+'''++++#+#+##@@@@@%%%%%%%%%%%%%%",
"+++'++$+++#$@@%@%@%%&@#%%%%%%%&%)15-4==4:[_*>,6,,>!,!{{!!!{!~{~{~{''''+'''#'#++$#$$@#+#$@#@@%@%%%%&%%%&&&%&&&%'/^-:<3/<(,6>>*,[,[_!{{!!_{!'~~~'''''++++'$+#+###$$@@#@@@%%%&%%&&%&&&%&%&%&&&%~1&d3/54<;~66>>2!>>[[''{!!{_~''~''~'+'+'++#0#@@$#@#@%@%@@%&%&&&&&&&&&%&%&&%%&%'^--313</1*[>[[2>,!![~~{{''{'~'~'''+#+$$###@$%%@%%%@%%%%%%&%&&&%&&&&&@%%&%%%&%)---5*<:;:{{>!_>!!{{_~+'''+''+$+$+$#@@%@@@@%#%%%%%%@%%%%",
"'$+$+$+$$###@@@@#%%%&%@&@%%&%&$#{/5-<<^(1],,,>,6*>>,>!!!!!!!!{{!{~'''++++''+'#+$##$#$$+#@@@@@%@%%%&&@&&&%&%&$+~4--::|:]1*,,>*,>>>[[{!)!!!~{{{{~'~''++$++_$!@##@####++%%%%%%&%&%%&&@%&&%&%&@$~j&d51g=,/[,,2>,>>,!2{!{[!!{{'~'~+~'+$+$+#~#~%#$@@@@@@@%%&%&%&&&&&&&%&&%%&%&%+~|--31|5];}_,[>2>,[[>!h{[{{~''~+~+'$$$$#$@'$f$%@%%%%%%%%%&%&%&%&&&%&&%%&%&%%%%{^--5/<|]9][>!!!>>!{>{~''+'+'+'$+#$@#@@%@%$+a$%#%&%%%%@@",
"+'$'$'''+'$#%++@@@@%%#@@@%%@%%@@~/|-=:||=12*66**}}(9,*[_[>[[!!!2{!{~~~{~')*'>!$$$$+~++$+#@@#%%%@%%&%@@%@%%%%&@{<^-35|^</,},}]]6*]*,!{![[[!{{!>))~{'~{'$+[{>{'+#+++$+$@#0%@%%&%&%&%%%%%%%%%%%{/&d543^==!,,,**,}9]>>[![2{h~{{{{'''+{{'++{h~{'0##@##0#@@0&%%%&%&%&&&%%%&%%%&@{^--54|^3/*6,>}},,,}>!{2![!{+{+{{++'++$+0#+2'!'$@%@@@##@@@&%c0%%&%&%&%%%%%%@@@{---g<4|3=]!>>[>[6>}62!{~!'~''a~'+++#+$+$0$,$'''@%%@###@",
"$+~+'+)~'+'$#$'#%@@%@+$%$%@%$$%@{/^-3<||^1>]]**>>6]_!!6>[!!{!,{{_{{{{'[_!~''{!$#'+++''$++#$@@&%%%%@#@%#@@@++%%{4--53|g^<>j]},6,,]6>*[_>h{{!!{![{!')~!!!'~~{{$$~'+++'@#$+@%&&%&%&%&%%#%0%@+%&{/&d5/35k3[6],>,!>6*2,6,!!~'![!~{{{$+{!~!+++'++#+$#++++#$+#&%%%&%&%&%%@&%%#+@&{^--g8g||g*};},,,!,6!_[!~{{~''~'{'{$$++~!++''+'%0+$#$$+$$$@&0$%&%&%&@@@#%%@$a&{^-^|4/g||;!},,>!{>,[{{[{''+''!+''+++$+{{'+$$$~%@$@@#$'%",
"+'''''+'#+$$$#@$#$$$@+#+$#+'+'$+)4^-k35||=!]*];9,,>2>[>6>2_!![!!~{{!!{~)~f''''+++++'++$++$@@@%#@#+%######'+a+$):--g|3|5|>,}6(**,*,_>!2_,>>!!22{!{{{~'~+{{~++$++++'$+@@#0%@&%@@$$%%@$#@@'$'a@)/&dg3=|||}_]699}>>>>>!l_>!!{!!{~'{''''++'''+$$$@@$+#@%@@@%%%%@%@0%%%%$@%'$'$$)^--mm3|55/'],}}}2,,!!{!![!!~{~2''~'+++'+++'$#@#@$@$#@@%%0%%&%%@%0#%%@$$@+'++0!---k3:55|<~,,69*[_!!!'!>!~)+~'~'++'+++'+++++#@0@@%##@%@",
"_!!~')!_''!'''{++''$$++$#@@@%%$@{4^-|:=5|g(6;};91;9;(}},6,*]6][>,{[[[{2_!'''~)!!!'''{{~+~{{{~+$#%#$#+$@%@##@0@{<--g3=3|5/n96;;1((;,,o,>}}}6},,[{{{>{[!~h''{{~)~'''){~+{''+~'@$#@%#+#@%@%%#0#{1&dk::355:_;}];;;]99>,>})}6*6,{,{~{!'{{>'+'~'~'~''+''{+''~''+$%@#@#'#@%@%#'0${|--k33355=_}}*9];9]96}p[>>n},>,[~''{{~!~''#~''+~'+$''{$+~'+''+@+$#@+$+%@@@@##[^-^|:8:555,>]*9};]};}6>>{!,*_*{!)+''''{!'+$'+'+~'+$+'{'",
"'{{{~''''f!{+{'!+++'$+$'@$'+$'#+'/^-4<=3||3*699;9},6>>>*,>,_[>!![}>,[![!{_!!~{'!{''++'+''~{{'!+$#0#0$~$$+'$+$+~<--==3=5|5;>9*]96},>66},2_!![}6[,!!!2!!{{{{~'~'+!~'+{'+'f+++~~+$$#+$'$++a${#$)q&dg(3=5|34_r99(]6>>>>6>2_>!_>!{>>_{!{!'!!{~''++'~a+'+++'++''{@%+$#$'#%#~#'++{^--|15==k5=!]*,}*,2,>!_{2{[!!!!~![!'~~{+'~'~++++~''#++'+'+++'{'@++$0$~+$'#@$#!---|;/==|==,,}]9r>>>2!!>2{2{!{~'{>!{{'{+'~~''++''++#++a",
"{~{'{~{'{'!''''''+''+$$+#+##++$#!/^-7835553(,19;}96,,,,6}>,>[[>>>[[,[!!'{!~'{~~'{~~'{'~+'++''++$+##+$$$##$~$0#!<--3=3=555:>999]}6,6,66*>>_!>,6,_>__!!!{{[)~'~~~~f~{~'''+'++++#$+++0#$#$++'+#!1&dg/333558[9;9}6s],,,,n>l>n![6[{[__!!{{{[{'''''++~~+'''+'$+++$$#+#$$+%##@++@!|--k83==55=}l]]]}9>,>>>,>>>>~{[!{_!!!{{~'!'''++++++++'++$$$$$+$$$+#0@+#+##$++[^-^^1<=335:;>;};69>,,>_,>[[>{{{h{{{[{~'''~'++++'''+$+++",
"!!{!{![!~{~~''+++'~++{+'++$+$#$+!<^-:==3=|33*]}]]]6]}]]}6>>>[>>6}*[[h[!{{!~{!{~!{{{!!!'{''+'+$$+~+$~$''+$++$0+{:--3====|5|}6;]];*]]}]}*},>!2[6}*[_{[[!!!~{~'~!ff~{!!+'''+'+0$+''$'++'+$+$#$+!/&dg43=:353/[]}}]9}}}6,>,_2![_,*6!!~_!!{{{~~~'!~~'{{{''''+++$#+''#++$'+$+#$#+!^--k438=353<!9r];},**,_[>[_{{{[>,!{~!h{~{{'+'+f''''~!~'+'++$+@0+~$+'+''$+++#a!---^/:=775==>*,*}*,},6,[[!!{{!![>!~~'~~''+++'+'~~'~'{~'",
"!~{)~'!>!){~!,!~'++++!'+$#$+$+'+!/^-745<=3|3<];18/]](](9;(]9},*4411;9,,>[2,(;,{')'''{!~~~~'[{''$++$~'$$###$+'$!<--31k<=3|=:};]4<;];(9](;]*}>,1<4/(;,,_[!!*;*!+'''+'{~+'''[!+'#+$$+'#$###$#~+!1&d|13::=g33];]441}]]}](;]*}2[9<1/;(,[[{~!,]*)+'++$+~~+'++'_++$+#+$~#$###$#'+_|--^;33<3|3=;]*14/,]]},}]]!>[!*411]96!))'!!*,['+$+$$+~+++'+!~+$$#+${++###+#~'2^--^143<855=4}9;/1,**,>*]12*!!!/1;]},!~'++~*6[++$$$$$~+",
"///44//41//4//<:<1((}1]]*}](9*))[4^-7i83:3||g5=::3:===8:=3::4==::44==<<:<<<<14/11///14///4;14<41((]]]]*,*(;]!~2:--5(tm:35k5|=:=3==:3::=3::4<=:444::8<=4<444//11//1;///(1/1/:<19(}]9,*,,]]([~[t&8k113:3555|=::===83:<==8:4<=:/448=</:4444/111;11191111/1114</9]]}]***>]9(,!2^--^1s3==3k5|3:4==<4:=44::<44<=/<44::4<4/4//(1/](;19(;1;/1/;4<<1(](9}*]*};;})>---^498=8:33|3:<==:<=8<<==<<4<:4:4/<=/44//4/;11]((1((;1",
"44<48<<<<<41/1//<4<//<::34411/}>*4^-5/4g3=g5|53:::=:==::=:8888:7=:<<<<<:8:<<:/4/<4<<<4<84////14/</44<4=441/1(,}<--|//55ug5k35:3u=:=====8<::<:=:<<<84<<:<4/<///</4<444441/11///<41/</=8411;1,}/&dk4135=35553==:::===:3:<<8<<::<<<<448<4</:<//4/44444<41/1/1/1<4/4</<<4/1;/*}|--^v1:k73gg|3=:7=::7:<:::<<<<:=<<<<44<8<</8//44//4<4<<</1//1/4:44/<48=</1;4*]^--^:/t|=33g55=:=:8==3:=:8<<<<:3:<4<4/48<:/4<//444<<4<4",
"g|5|g|g533=3=3::=g5388<=33=3=4;9/<|-^|k^^-^^^^k^k^^^k^^-^k||^^3:=-^^^^kk||5=35gkg|5||533=3=58:=g5=<:4:3333=<;;/=--^^^^^-^^^-^^k^^^k-^^^^k||kg:8^^^k|kk||g3=|g|m^gg|533==33::=553<:4:33=3=<;;/<&b^kk^^^^^^^|-^^k^k^^^^^kg|k5<<^k^|k^k||533k||5^kk|533===3=:=555<84:5333=<;;<----kk^^-^^^^5-k^k^^^^^^-^ggkg8:^^k^^kkkkg33kg5m^kk|533=333=:=535<8<833=3=:;13----kk^^-^^^^m-k^k^^^^^^^||kkm=:^^^^^k|^|g=3gggg||^|533",
"k^k^^^-^----^g^^^|||||k3|||g3||335^--^-^-^-^-^-^-^-------^^^-^-^^^---^-k-^|^-^^^k^^^^k----^g^^^|k|g|k3|||53||33|---^-^-^-^---^-^-^---^-^-^^^-^^^----^k^^kk^^^||^^k^|----^3|^^|k|||k5|g|33gg35|&w-^-^-^-^-^-^-^-^-^-^-^-^^^^^^^-^--^^^^|^-^^|k^-^^|----^5^^^|^|g|^5|g|53g53^----^-^-^-^---^-^-^---^-^-^^^-^^^-^---^^^^^-^^|k^-^^|-^-^^5^^^|^g||^5|5|55g55-----^-^-^-^-^-^-^---^-^-^^^-^^^^^-----^^^^^-^^k^^-^^k-^",
"------------------------^-^-^---^-----------------------------------------------------------------------^-^---^---------------------------------------------------------------------^---^---^^&i--------------------------------------------------------^---------^-^-^-------------------------------------------------------------------------^-^-^-----------------------------------------------------------",
"---------------------------------------------------------------------------------------------------------------------------------------------------------------------------------------------k&x----------------------------------------------------------------------------------------------------------------------------------------------------------------------------------------------------------------",
"^-^---^-^-^-^-^-^^^-^^^-^^^-^^^^^-^-^-^-^-^-^-^-^-^-^-^-^-^-^-^-^-^-----------^-^-^---^-^-^-^^^-^^^-^^^-^^^^^^^---^---^---^---^-^-^-^-^---^-^-^-^-^-------^-^-^-----^-^-^-^-^^^-^^^-^-^-^^^^-^c;------^-^-^-^-^-^-^-^---^-^-^-^---------^-^-^-^---^-^-^-^^^-^^^-^^^-^^^^^^^---^---^-^-^---^-^-^-^-^---^-^-^-^-^-------^-^-^-^---^-^-^-^-^^^-^^^-^^^-^^^---^-^-^---^-^-^-^-^-^-^-^-^-^-^-^^^-^-------^-^-^-^---^-",
";(]9]]]((]}**,*,*>>,,2,>>[>2>[2!2[>2>![!>![[!!!{!{!)!){{{)!)h)!{{{h)!_*3---519;(]]]]](]]*,*,*,,>,2,2,2>2>22[>![>>[>![![!!!!!!)!{!{{{{{!~{){)!){{!)!_}|---|1;;((9]*]];]}**,6,,2,>,2,2,2>>2[2![2>2>![!2!!!!)!)!)!{{'{{{{{{{{!{{{_{!!}^---|1(;(]]]]]](*}**,*,,2,2>2>[>[[22!>![2>[2[!)[!!!!!!)!{{){{{f{{!)!{!){)!)!_]^---|1((]]9]}]};]],6,,,,2>2,2>>>![[>![![[2[2[[!_!!!!!!{{){{{){{{){)!)!{{~!{!!(^---|1]]((]]]]](*",
">2{_'!~!!!)~+'~~~{+{'++++++'+'$#+'$##+$$#@@#@@%%%c%%%c%%%c%%%c&c&c&c%c%!5--1~2>2{{[!{!{{){'''~'++~++++$+++++#$$'##$@%##@%#@c%c%%%c%%&c%%%c%c&c&%&c&c%!^--<{!!2[!!!{~>!!2)''~'~+'+++''+++$+#$#'#$#+#$##%@%0@%%@%c%c%%&c%%&0%c&c%%%c%2^--:~{22{{!!!{!{)2{''~''+'++++++++++$##'$#@@@#@c%c%@%c%%&c&%%c&%&c&%&c&c&c%%%,--^=[!!2!{!~{){_~)''+~'~'+++$$#+$+$+$@c$+#@@@##@%%%@%%&c&%&c&%&c%%&c%%&c&c&c&*--^=}~!2{{~!{)~'",
"!!)!)~!'~>,!!!*2!''++++$+)2+++$+!'!+++))+@@@@%@%@%%%%%%&%&%&%&%&&&%&&%#+1^-1~9[[{{{~!{~!*[2)[2!$+++$+++')+++++!)'+'+++'%c@@%%%%&%&%&%&%&&&%&%&&&&&&&@+:--4)''!{{{'!!{!}[2)[>!++++++$++)'+#+#!)'+++'''#%%%%%&%&%&%&%&&&%&&&&&&&%&&&@+|--8{!]){){'{{~{*>>!!2>++++$+$$+{'+#$#')'++#+++#%%%&%&%&&&%&&&&&&&&&&&&&&&&&%+^--:*{}'>{!'~{'+>[!{!2['+$+$$##$~)+$$@+~~'+#++~$%&%&%&%&%&&&%&&&%&&&%&&&%&&&%'---=}'9{!'{''~'+",
"!{{!>{~)'[*,1!{!)~''''+''''*{~+2!2!!'+~!###$###@@#%@%c%c%@%c%%%c%%%c&c%);3-/{1}{{!!!{{~!}*;*~{~)''''+'+'+>2)+)!2!)++~~#0#0@#@@%@%%%c%c%0%%&c%%%c%c%c%'/--<{>{{~{{!{!)~,>]]+!!~''''+'+'$!>~+'22))'++~#####@%@%c%c%%&c%c%c&c%c%%%c%c&'|--:!2/!{{{2~~'~2>}(~~!~''''++$++~>{++)!!)'++'##@#@@%c%c%%%c%c&c%c&c%%%c%c%c&~^--=2{}{{{{>~{''!,!1'~{'+'++++++$+,!'+))))+#@++0%@@c%0%c%c%c%c%c%c%c%@%%%c%%&)--^=*~;,'~{2{~''",
"!_[2*2!{{{*![!~!!~!'{''~')~!;,2~)''''+++$#+++#$####@@#@&#%#%c%@#@%@%%&%+;=-4*/]![!![!{{~[!{[~{2~{'~''''++)1]2)'+'++++$$$+$'$$@@@@%@%c&@@@%@%c%@@@%%&%$/--<>]>![!!2{~~'[,~_{~!!)'''''~+!'**2~'+'+'+++$#$#####@%@%c%#%c@%%%%c%@%@%c&%$5--8,24{>{>,{'{~!2~!{'!!~+~''+'${',;,)'++#+++#$@######@%c@@%0%%%%%%%c%@@@@@&%+|--:,!;{!![>>{{'{,{{!+!)'{'+'+'#~')}2)+#$#+###$@#@###@@%c%%&@%%%@%%%%%@%#@@%%'---:*2/,{h!{['~'",
"{,,[{>!!{!2,~6!!2{{~){~~'''',]+'')~'')+'+++'+$$0#$###+#c@$%c#0c@@0@@%c%'(5-89][>[,2!{!~)!>~2>2,2)!{~~{{++'~2+!~~'''~+'++$+$+$$####@0%c%@%c%@%0@@@0%c%'/--:}**!!>[!!!{!!,{!,![,{!~~{{{+'''1')+'++'~'+#$$$#+###@##@0@@&$%c%0c@@0@@%c&'5--7(,/{[,>![!!!{2{{2{!2~!'~'~~'+'~!''++++$'++$##+##@0@@@#@@@0&@cc&c%0@@@0@c&'|--=;,9{>>{!2!{{{![~>{~!+~+~''++$'$,*$$+++#++$#0@##0@0%0@@@0@@%c%c%cc@@###@@%'^--=]]*!!![2{{~'",
"!>[_>[{~{!{,>{!{[){{{~~'~{>!![+')~'~){!+$$'+$$+$$#$##@#%%+0&0$+$#%@%%%%+(5-46]}![_[>!{{{!!*~!{!)~{{~'~[>[!~]')''''~~[$+#+#$#########@%c%@%0###0%c%%%%+/--<**,![h[,[{{{!{}~!{{)){~'''~>!!'['~'+~+'+2$#####$0##@#c@@@%%c$%%@$##%@c%%c+5--:],/{[_!_!~{{!'*~~~{)~~~'~''>{_'[[+'+~+++!+@c@###@@@@@@@%%%c&+%c%$#$@@%%&%+^--=}*,{[{!_!'~~!~,!~'~~'+'''+++~_~+[#++'$+$'~@%0@@@##@@@%@%@%%&@@%%$#$##@%@0'^--:(,}[{!!{!~~'",
"{,*,[[!!{!*2[[![>!{[!{~!){!2~({)!{!!~!]'++++$+++#$####$$#ccc%+++$0@c&c@)(5-<*(6!!!{2!{~!*!_,!!!)'!!!~{!!{!~1,{'~){~)/{$+$+$+++$0##@0@@%c@c%0#+$0%0%0@'/-^=}16[[,![!!{[[!_2{!{!~{{{~'~'~>~!}{''')+'2>#$@##+#0#0##%c%0%c%0%@#+$#%$%c%)h^-3]*/{>6!!!!{!>>'!![!!)~''~'{!{,)21'+''+++[(##c0@0@#@0@0%c%0%0%c&c#+#+@#%c%)|--3}]}![,>!!!~{{,{!{{{[~~)~''~'+)~+]{+'+)'++}+0%0@@@#@0%0@c%0%@%0%c#+++#0@@@{^--3(,;*'{~~!!''",
"![,>[_>[![>,,!!>,[!{!{!{!{~'~!'~)'{){!1~$$+$+$'#$##$+#+##%@%$%$#+c@%c%%'13-=(},>!![>,>![[>>[[_[{!~!{{'!!)''~~'~~{'')(!0$+#$$$++###$#@@#%@&y%$#$@%c%c%'4--:99(!_[2>,,!~{!>2!{!2{~!~~'!'~~')_''+~+++}*$$$###$$$##%@c@@@%%@0c%@#@@#%&%'cm-=1}/{![[[[[!~!n2!!)[{{'~'~'~''''+!+'''+++[*+@###@@#0%@%@#@@@%%&c0c@#@c%@%@'^--=1}9!!>[!!!!~![[_{{_>!''+'''++$$$'$+$$+++~('%%##%@$$c@%@#@@@%%%%c%@#$#@$%@)---=/}(,)~{)[_!~",
"!,,,>>[,>>[>[[{[>2[[{{{~~{~{{)~!{!{{)',]+$#+++++$$#$++$$$00c'$%c@0c0&0c'(5-541}6,,>>[,>22,>2!!![![!{{~'!{!)~~)[~'~''+(!$$+$$$+$0#0$+$0#0@c$+00%0%0%0%'/--m/];![>>,>*[!_>[>{{6[{!{{{~~~~{'~~'{'+'++'][$@$#$$$#0%0@0#0%0%0c'#c%0c0%c@'y--3:11!>>>2,,>2![!!!{!{~~{~'~''''''+++'$++'#!}a%0@#@$@@%0%0@0%0%0c'#0%0%0%c@~^--3<]1[[,[[!![2!!!!{~{!'{~~+'+'++++$++'+'$+0[}'%c%0%0#0%0%0#0@0@0%a+0%0@0#0@!^--3/4;>!,[!!!!!",
">},,,>,,,>>_2!>[[[>!2!~'f{_)!{{'!{)'~+''}'+++$+$+#0@$++++%'%c$0%@%0@cc$)/5-3<<*,6>2_>,,>6>>![!!>>!!{~'~~!{!~~~)''+'+++*l+$$#$##c@@@$++$%'cc@@@c%@%c&#)4--g8/1>*,,[,,>[>>>[[)![!!{~{'~'~{{+'+'++++$''!6$$$$+c@%c%c@+++%0$c@0%%%c%@%0)p--3:<1!*>*,,,}>2>2_2!!!{~~{{+'+'~'+'++++$+$$$']'%0#0%c%c%c%$++@0+c&#%@%@#0&@!^--3814>*[,[2_,22{{{{{!{{{~{~+$++'+++++++###0@$,~##@@%c%c&c%$++#0+c%$#0%0##%0!---3/<4[[>[{{![{",
"!],*>,,,,*>26,>>[2!2>2!!~[!~~~~~+''~'~''~~++++$$#$#0#00$#@#0%0#0%0%0%c@2/|-38=,,,6>,>>[*,,6,,>{>[![2!!{~{!{'~'+~'~'{'~+~+$#+#0@0@@%00$cc@c%0@0%c%@%c%2<--3<=;>6,>>>,,,>,,>[>!>__[[!!~''_{~''+'+'++$'+~'$#$#0@@%c%c%0cc%c%c%c%c%c%c%!/--5<=1!,,>,>***,>!2>{{2!{!2!{'''~++''++++$$$+$'{0c0@c%c%c%c%00c%0%c%0%0%0%c%_^--m/:4[,,>[>,[2,[{2{_!!{~~!~'++~'$++++$#$$0$$#+$0%0c0%c%c%c%000%0%c@0@0@0#0@2---m/<<>![[!!!{!",
"[,*,>,*,,,>>,[!{!)!_!![{f{{~!{~!~'{'~'''''~$+$'$$#$#0%0@c@#%@%c@c%c%c%@)45-:43},*,,>,,*>,,,_!!!_2!!!_)h{~~!)~''+{+++'''''#+$$####@@cc%c%0&@%c%%%c&c%@)8--=1<12>n>>>,>2,,>!>![{!h!{!{!''~{'''~+'$$#$+'+$@$##%0@@cc%c&c&c%c%c%c&%%c&c)u--5/=4!6>>>>6,>,2[!,){'{){{!{'+++'''+'$++'$$#+$0$0c0%@cc%c&c&c&c%c%c%c%c%c%c{^--3//:_>>>!>,,_>{_{!'''''{'~~+$'++++$~$$+$#$#$#$$0%@#@%c%c%c%c&c%c%@%0%0c@@@{---3//=,2>n_[_[2",
"<],,>66***>,,,!!!2![{!!!{!{~!!~''~'''''~+'+''+++#$$0#0@$c0#c#+00@0c0%0@~/|-7<3=;!*,6,*]*[,>>[!!2{2!!!{{{{{{!'~''''+'+'+++++$#$#$#0@0c0%0%cc0%0%0%c%$@)<--34=5/,6>,,*>*>>[2>>[!{2!{!{'{~{~~'~''++$'++$+$$#$@0#0cc%0%c%c%c%0@c%0%c%0@{:--m13::h,>>>*,,>>[2!2{{{!{~~{'~''+'+'$$$+++#$$$$$#0c$@0%0%c%c%c%ccc#0@0c0cc@!^--m/8==*>[2>,2,>[[>!{'{{'''''+'++$'+$#+#0#0#0#0#$$$@0%0cc%c%cccc0%0@0@0#0@00!---51<=:]{>>[>[*",
"51,},,}*>6*>>>,>>>[!!{!!!!!~!{{'''~'''''~+~'++'$$$+#$#0#0#0%+0$$0#0@c%${4|-<8=5<_,,,6*6*6!>>,>,[!>!~[{{~{{{~'+'+'''+'++$'+$++#$#$#$ccc@c@%0#0#0%c%c%0):--=/<=<]l*,,*,**>>[,6[2![_{!'{{!{~+'{'+'+++'++$+#$$$#0@0%c%c%c%c%c00#0%c&0%0~8--5;3=g*>*,6}}6*>>{n>>!!!!'~+{{{'''''+$+$$$$$$$$#0###c%c@c%c%c%c%cc0#0%#%0%0)^--5;<:=1!6>,,,>6>!{[_[{!'~''+'+'+$++$$#0###$###0#$@0#c%0cc%c%c%0%c#$#$#0@0@0!---5]4==<~>>>2,!",
"=1]*}*]}*}*,>[>>>>>2>!![[[!!!!{{{)''''''''+''++'++++$+#$#0#0$$#++0$$c0024|-8<==4,}]}}6,}]>>[>[>2[>>[![[[!{{!{{){~'+''++'+''''+$+$$@$@0%0cc0000%c@0%c0[<--=45<49,]},]96,,,[[*>[>>_2!{{!{{~~'{~{''+++'+'+$#++$#0@0@0@0%0c0@0%0@0c0cc@!8--g;=<=}6}*,}*},*l[!>[[2!{~'{{{'~+{+'+'+$$+++++$+$$#$#000c0@0%0@0%0@0#$00#0@2^--g;5<:;*>*>},,,,!!{[{!!!!!'''~''+'++$+$+#0#$#$#0@0#$$0#0@0@0@cc0c0#$$$#$#0@2---k(/<:/!>],,>2",
"]8(6]}}9]]*,9*>[,>>![{[>!{!{!{{{!{!+!+~+'''''+'++++++$$$$#+c$$$#0c$#@++{4|-==g18]*]}*6*66,}},[>>,[>!!![!!{!{!{{{{+!+++'''++$+$+$$$$#0@@c0%0@0%c%0%ca'):--=3|/;4,6*,,},,6}],[[!2[[p[![{!{{~!{f'~''~$++++#++$$$#0#0#0cc%0%0#0%c%0c0c$):--5/3=(4>**6,}*},,],!!!!{!{!{!'{{~''+++'+${0$+$$#+$$#$#0#0#0%@%0%c$$%@%0@0%$!^--31|36<},666]6}>[*,{!!!{~~''{'''++++++++$'$$0#$#$##$$c##$#0c0%0$0###0@##$#+[---g:<5;<*>66n,[",
"/</,]*6]}***,,,6,,>[[[>,![[!{!!{~{,}!,{''~''+''{''''++$$$'+0$+$$@0$+0''>8^-55^://]}]}]}*}},,,,,>[>!!h!>[!_!!!{~{{}~>''''''+++~++++$$#00++0+$#$00#a$a'>=--k5|5;=>6]}}6*}}>>>6>,![!2!>!!!!{h!{'{~9~*''+'+$+'$$$+$$#$00c$0$@00$#$0$00+[7--|<^|1/]}],}}},},>>>,>{!!{!2!!{!''~~+'+2!!''$+$+$+#$$$$+$$00c0$$c$$$$$#$+++>^--m45|//1>}*6**>,>2_[>[!!~{~!{~~~+'''+a+!,h!'$+$+$$0$++$+$$0$00$+0+$+$$0++++,^--^<5|:(/66,,,,",
"^5(}(]99;}(1]6*,>,,,],>,,!!!!!>,>~),[,,!{'''{'~{{!!+'''+'''$+$+$$$++a0$!<|-=5|^5/}1}9999;q]]},>6>,6[[>,>[!!!>,>h{[!_>h{+''{'{'~'~''+++$++#+$$#0@0$a0$!=--535^5<[;];9]}]1}>>,,,>>6[>_>[!{[!!>>+'{[_[>~''$$+'++''$'+$#$+'$$#$$$#$$$#$!=--58|||=,;9}6]}}1;6}>[!,_[_>{>!~{!'![>{{'[~![''+$''+$++++$$$$$$+$0#$$+#$$+0$>---g3=^|3,6}(]]9*}1,>_[!>>,[!{_!''''~{[{'+!{![{++#+++$'''++++$$+++$$+$$++$++$[---|43^|5(69**}}",
"|^/};199;],*6*,9]6,,}}*,>{[6>,!{{{!,!~~{~''~''''+'~~''''+'++''''+'$~'$+>8^-m5^5^=,;]9]}}*}}}6}}},,,},,>>,,2>!!{2![{{{!'''~''~++++''a+'++$$$''++'+$'$$>=--g=5||5,9;999*6*}*,*;*>,>,[,>!>6[>~~~'~2!++!+++'++$+$+$$++$a$+y$$'a'+$$++a$>=--k=g|||]61}96},*6*,*}6,>!>>>!!![!!~'+~'~+++{++0$$+0$$$0$$$$+++$$$~'{'+'++a$>^--|=:|g|/,;9]}9,2,,>>}}[2!>!2_!+{!!{'+''{!'$+$$0++$0+$$$a++$++$++$'~!''''$'$,---k85|5|:_;6},,",
"533,(}1/1;]919],*,}9]9]},_[>[[!!{)!{!{!_['~'~)!~{)~~~'a++$++!'$'+$'a~''_:|-||555g}}}(4;;(9;]]*>>]}]9],},>[!_'+{~f'{!!){~''~~!''{{+''a$$++$'+'$+$''{'+[=--k5=|5|1,9}t1199;99,,,*}],]6,n!>>!~'~'{{~'~{{''+''''+'''+''y+$0$+++$$#++{''_u--g55555/[}}q/;(9;(}*>,>*]}]>,>~!{!~'''++''f~{'a+++''++~+++'$$0$#+~'++$a+!++2^--|3:555=!]*;/996]99,[>>,*6*,,_~~!{~+~+'''''+'+a++++~'+)+'++0$$+$+')~~++'''',---|=g533=,>*}4}",
"3|5<]19;111;;}]9};}9]}(1}}*]>}}]6],_!![>,>!!!>[,>>[!>[')!{{{!!''''+h'a+!<^-53335|=]1991//(;9}9*,}96}96*s*}[!{!>6>2![![,,>{{,[2>2[_!!n'f!+'{!'++'+'~a+!=--k333^|3(;;91;1;(]}]}]6],}}1,]6,,}}2[*,>_!!![,,''[!__[[2!_!'~{+'~!~+''+'!~'!8--k:53||5;s;]9111(s};9}}],6,],}}2[>,>>,>['{!!!,!{{![![[{''2'++!')~{{~''+a{'+>^--k:53553/];](191}9,}},96,*,9},6>,2,,,>,2{){!{>>!{!!!!2[!{2'a'!')~!!{'{''{{+,---kt3=3354};]};",
"5||3](;;9]](}*]]]}]}},6}*>,_,*,_[![!_!!{!{!'{{!!{{{''~{'''{'''~~~'{~n+~_<^-=:555g54}11;919}]]]9}]*}6,**},>>>>>_{{!!!{{{'{~~{~'~''{'''++''+'''+''){,+'>=--3=5=553<6/19];}}9]*}}]6*,>,,[>>[6>!_~{>[{~~~'~''~'''''++'''++'''{f'+~!'>~'>:--k/353|33*;;;];]]}6,6}]*,,6_>>,,!h[!!'{[!{~''''''''''+++'+++++''+'''''~{!!',^--k<333|3=]99;}9]9,,6]**6*,>[,[!>!!>!{~{{{~~+'''''''~!'''~+~''+''''~'~~~{!>',---kt<5=533/}(;]",
"3||5<}/;i];1]]9](9}}}96}]6>l,*,,>2>,,>>,>,>!!>!!{{~{~{!!''{{~')++'~~+'+,<^-3=335|5:>1;q1;j99i9}]]}*9}]]},l,6,*,[_>>2>,>!!!!,>{{{'{~~+'+'{){'++'''~'a+,=--g5535555*;1]9;;];]9]]}*6]6}6*>>,6>,}>{2>>>,>{~![2!{{{'~'~'''''{~''!'''~+a+>7--^83==5|3(61;/;j]9}}}9]*,}},,*>,>,>>,[_,![!>!!{{'{!{'''{'''~'''~+~'{++'{''+,^--^8g=35|34>/]9];;}6]}9}6,,},,}[[_>>>>_![![!2[2!!{{!!{{'''''{~''!~!'{'''{~~'6---^<=733|==[j9q",
"33|551(;11;]]]]9]}99;>}]11;}*,>*,p>>},>!>[>[2_,~{~~{!~_~'{!'!'{'''~~{'~>8^-3====k551}(9j1}]]99}}]]16*6;;;}*,>l6,6,},[!>!_!![,'~!{'!{!~+'{'!~~$'''''+~>=--585==5|5:]1(11}]}]]]69}1,>6(;;*,>[>*6>{,2>{>{{!_!_!{{''~~~''+''{''+~'+'~~{[:--kv3==5|3=,i}(1}*}]}]6],;}>*](]],[[>,,>[>[!){{{)_!{{~'~''{{'''~''{{''''''~~>^--k45=:3g33(];i1]}6**}6}}]}!,}9]*>!!!,>{!!!!~{){!!!{[''''')~{~'){~{{{'+~~{'{6---^<:=:=|3=/9]}",
"835^==/4:|=4/<44<::44/1/<:8<::1/;(91//1},***,*],,**}((},{>[!*!{{~!{{'~{,<--5qk==5^5=4//3=4/4444:=<41;1<::<<:1;;((1111(,,,,>,,,>}},(]**{!!{,,{~'~~)~~{,=--gq33=5|53<4/53:/44/4::<//;14:<8<=11;(}*;11(222,!!>,[2>>*(*,{!{{[,~''~~{~!!,7--^17|:355344(:=<///4/<::/1(1/:<:4:11;],(](((2[![_!!2!!>>,]**[!!!!*{))~~!{!{*^---/4g8=5|==//:3:1///14<:;/];1<<</</(9]>,*;(]>){[!!{>!2[>>]]*>!!!{*_!{{{!!!h}^---:/g7:5|5<<;1",
"=:3|||g==3333==:3==88<=38<<48:<8=8:4:44/44<<::=:<<<4/4</<::<:<<:44411**]:^-5143:=||||:==33==3:====8<:==<<48<<4:::44</4444<<4=::<444/4<4<8:<8484/4//(,}3--g/1|==5|||3=3==3=3::==:<<<==<<488<4:::44<////4/44:<<4</11<//<=4::4<</41/9*}=--k4;=:=3g5|3=:==3:==8=:==44:=<448:<4:<4</<///14444<<<4<4///4/4:::84/</4//1,}^--^<j:3:3|5|5==533=3:8==::<483<</<8</<<44/</1/1//44<<:48//14444=8<::<:444//*]---^8;4=8=kg|5=8",
"^kgk|^k^||5555555533=33==333335533=3:3:====3=3::=:<:8<4:==<=:8==::4<4;]1:^-^==g^|^|^5g||3g55g535333333=353355333=3==:==333=3=:=:<::<4:==88<<:=::4<41]13--^=33^gk|^g|g|5555g5g533=3=3==3335=333=3=:===333==::::<:8<4<:::48<8=::<<4191u---==3^gkk^|5||5555553533=3==8353=33533====3=:=33=3=::=<:<<4<:3:<<<7=:=844q(/----3=3^|||^|5|555553g3533=3=3=353=333=5=3===::==333==:=8::<4<===<<8:3=:8<</94----33=^||k^|kk5",
"^^-^---^-^---^-^^^^^^k^k|5^^-^-^^^^g5|^k^|k|^^^k^|k||5||k5|33333gg|538<:5^--^^^^-^--^^-^---^-^^^^^^k^k|5^^-^-^k^^g5|^|^|^|^^^k^|^||5^||5g=33355|^53<8=k---^^^^-^--^^-^---^^^^^^^^k^kg3^^-^^^kk^g5g^kk|^|^^^^^|k|ggkkk35=3=355g^33v<4u----^^^-^---k-^-^-^-^^^^^^k^k53^^^^-^k^^g5|^kk|^|^^^k^|k||||||g|=33355gk55v8^----^^^^-^--^k-^-^-^-^^^^^^k^k|3^^^^-^^^^|g|kk^k^|^^k^^|kk|kg|^5g=33335gk554:-----^^^^-^---^-^",
"----------------------------------------------^-----^---^-^^^-^^|^||^-^^^---------------------------------------------------------^^--^-^---^-^^^k^-^^----------------------------------------------^-----------k^--^-^-^-^^k^^^^-^8j---------------------------------------------------^-----^-^-^-^-^-^^k^^^^-^-----------------------------------------------^-----^-----^-^-^^^-^-^^k^^^^-------------------",
"---------------------------------------------------------------------------------------------------------------------------------------------------------^-------------------------------------------------------------------------er---------------------------------------------------------------------------------------------------------------------------------------------------------------------------",
"---------------------------------------------------------------------------------------------------------------------------------------------------------w-------------------------------------------------------------------------fr---------------------------------------------------------------------------------------------------------------------------------------------------------------------------",
":::::<<<<4<<<4<<<<<<<4<4<4<4<<:=-----3=========:=:=::<<<<<<<<<<<<4<4444<:::::<:::<:<<<<4<<<4<4<<<<<4<<<<<4<<:3-----3=:===:===:=::<:<:<<<<<<<<<<4<4444<:::1<<:<:<:<<<<4<<<444<<<<<4<<<4<<<<:3-----============::<:<8<<<<<<<<<<4<44449/::<8<:::<:<8<<4<<<4<4<<<<<<<4<4<4<<:5-----==:=======:=::<:<:<<<<4<<<<<4<4444<:::<:<:::<:<<<<4<<<4<4<4<<<4<4<44<:<:5----^==========:=::<:<:<<<<4<<<<<4<444<::::<:<:::<:<:<<<",
"+~''a'''+'+'+'aa+a+a+a''$aa'+aa{(^--<**}6,*,>,*,,>!!!!!!!!!!{!{{{)){))'~')'{''+~''+'+'+'+'+aaaaa$a+a''aaaf+'af1---:}]}*,,}6>,(62!2!!!!!!{{{!){~~{{{~'~{~~)~'+~''''+'+'+'+aaa$'aa+a+a$aaa+'a'4---3,*}*}62,,,(,,>[>2!!{!!!){{{~)~)~~''~)~~~~''+'+'+'+a$a+a$a$a+a+a$a+a+'aa+f<---3,>}]***>>,]>>2![_!!![{!{{'{~f')~!'''''~''''+'a'+a+a+a+aaa$aaa+'a'+a+'a'a'<---5(,,},>*>2[*>,!!{!{{{!~!{~~~'~'~''''')''''a'+'a'+'+a",
"'++++$$$+$+$+++000$000a0$0$$0c00{1^-1_},*_[![>[!>!!{{,*[~{!){~!{{)'+++'~'+~''+'++$+$$$+++$$000y0$0$0$0y000$$00{:--4_>[,![,[{{_>_!!!>,2{{~'~'{~!'~+~++'{'++'++'+$+++$$$+000y0000$$00000y0$+y0{|-^8>[_},>_2>[_[_[{{_*2~''~~'~'{)~+'+++'+'+'++++$+++$$000y000y00$$c00y000$000{|-^:2!2!!>_!>>___!{{~[!!)'~~'''~''++++$'+'$+++++$$0y000$000+000y000y000y0$$$c!^-^=][*,*!!!!2{!!{~~~>,!+~'''+'''~++$$$'++++$+$+$$0$0$0",
"2~+a$a$a$a0a$a0a0$0a0y0y0y0$0y0a!1:-1[/,,>[2_[!!};6(,>>2{!{{{~~{{*_'''{*>,!2!!!)+a$a$aya$$0a0y0ayy0y0y0y0y0y0a!/^-4,]_>>[2![!!,(*(*2>2{{{~~~~~~![~''',22!!))){0a$aya0$0a0y0y0y0y0y0y0y0yyy0a!5--:!*]>,_2[[!![1*9*>22{{'{~~''~,,~''+,!,!!~)!{y$0a0$0y0y0y0y0y0y0y0y0y0y0y0$!^--=2!]'2[[!2!!!]*]]2~[{)'~'~'''{!{+'+{)2)!~)!{+a0y0y0y0y0y0y0y0y0y0y0y0y0y0a!---=}{/[,![!!!!{}*,}>![{''~''+'+~>!+a$)2!)!'~)!'$0y0y0y",
"'+'+'++++$+++$+$$0$$y0$0$0$0$cy0)(:^/2;6>[>]>_>2>*,;*{[[[{{{!){'{']9>)>,,!~''''+'+'++$+$$0$0$0y$$0y0$0$0$0y0y0~1^-<,1n,[>}*![_[6,]9![[[!!{{{{'{',(*)>,2[{''+'+++'++$$0y0y0y0y0$0$0y0$0y0$0y0)=--82*9,_[,}{[__,*,;{![!)~'~~{'~'{;,){!![~+++'+$++++$$0y0y0$0y0$0$0y0$0y0$0y0{|-^=*,;!>[,]!__[_}21!{!!{!'~~{''''(]!{2!!)+++'$$$+$+0$0y0y0y0ycy0$0y0$0$0$000{^-^=][9,_[[}!!!_!*!(!'){){+{'''+'+6(!~!!)!+++'$$0+++0$0",
"'~')'!'~'a''+a''$a+aya+a$a$'+yyy'13-8}/*,*,,}[[>>]}!}>>*[,!_!_{)!,!((2[!{{~~')'''~''+~'++a+a+aya$aya$a$a$a+$0a~/^-:*;6,}*,6>[>[,>{,6>*22!!!!!!{>!]/2!!{~~~')''+'+'''+a$a$a$a0a$ayaya$a$a$ayy'<m-:;]1>,*}]*[2[,92!2[,2!!!{!!2'>{>1,{!~~''''+a+'+++'+aya$a$a$yya$yya$a$a+a0y'|--=;,/[,>>,,![[,}>'_!*,{!{~!{{'!!2/]~'')''++$a+a+''a+a$ayaya$y$a$a$a$a$a$ayy{^--=/,/>,,,>*![!2*,'}!!2!!)~{~'+{!'6({)')'a+a+a$a+a$a+a",
"{'')~~'''+'+++'+$+~0y+a$+++++0y0'(5-89;}>2,6,>,>2[}>*,>62[!!![[[{{~>;~,![{!)!{~+'''+'''++++$++$0'yy0+$a0$$$0y0)1^-89;][>**,>>>>!>>>>,,>!>!!!![{{{[('[!!'{{{~''''++'''++$+$a$y0'yy0a0a$a0y$y0~h u=;];[,6,*,>>>!>,>![>}2[{!{!!!~~!1!!~'~{~~!'+++'++$+$$$a$$$$0a+y0$0$0$$a$y0)|--=;}1[,[[,,,[[{!,!![[>~!~!~~'{'~{,>'{~~~~~'++a$'+a$+$a$$0a$$0$ay0$$+0a$+$a0{^--=;(9,[[[,[[_[!!,[>>!>~)'~'!~{'''29+~~~''''~$+$+$$++$",
"'''~'{')''+'''+a+a''0a)'++$ayy0a);3-8;>>*,>,>*>2>**}[>[>[[![![[6*(,!/[,>[!!_[(''''+''~+'+++'+a$a$a0a''+'$a0yya)/^-8]41,,>>,,[[[*>9[,>>[_[[![[[6**!6[[!)!!!)({'+a+'''++$a$a$a$$y'ya+a+++aya0a)p 7=1}9>,>>>>[2[6[*,,[!>>!!!!{!},;~6]!!~!')'*['+a+'+'+a$a$a$ayay'$a$'+a+a$aya)^--3;(8[,[>[,[_!2>*,[[_!_!!{!~~{,}{{*~{~{'''2*a$a+a+a+a$a$a$ayaya$yy'+'+a+a0a{^--=19>!6[2[_>2![>>,!{!{{~~~~'!!,]]'1')'~+''~}a$a$a$a+a",
"a)~'''{{{''+'+++a+++y0'''+++ac$+!(3-89}}*,66,6>>6},,,>,,2!>[[![>2,,[}_>!_22!,4{+{+''~'~''+++++$$+$y0'+'++$$0$$!/^-=]:1,6}>,,,>,}*}},,_!>,{{!!>2>,!**!)!{~~!1[+'+++++'+'++ya$a0a+a0y+'++0a0y0!* 83;](,}],6**>>,*!,>>!>>[{!{{[_2,{!,_~~)~~{9;$'+++++++a$a$a0y0a$+0y++++$+0y0!|--3(;=>,,n*,*!!>]!,>2,,)!)!~~)!)>~{9{~'~~'~[1a+++$++'++$a$y0a0y$+0y+++'++$y02^-^3;],,>>>,[,!_>6!>!!!_'{{{'''!~!!~[!~'+)'')4fy+a0+$+$",
">~'{~)'~'~'''~''+'$aa!$~''+'+aya~13-3/1(**,**]*6>,,,,*,2[>>>[[!>[!!!!![!~!!{{(}''''~'~''+a+'+~+a+ayf+''a$a$$$a{/^-3/14,*,**]},>>,**,[[_,>2!_!2_2_!!!!2{!~~~6;faa''''''+a$'+a+a$ayf'$$a$a$a$a{(&b3<;1>*}6*}},[,,*,2![>*[!!!!!{!{{{{~!{){{'2(hya'a$a'a+aya+a+ayaya'a$a+a+aya{^--3/(8*6,*,6*,>>>>>_!,,[{!!{{{!!'~~'+{f''~'f9,+a+a+a$a+a0a+a+a$a0afa+'+a+aya!---3/(1,,>>>,*,[>[>_2[>{{{{~{''~~+'+~~)~'''+~**+aya+a$'",
"*!{''~'+'+~''')''+aay''+++a++ya+!;5-|4/],*}}*6***,,,,,>[2[>2[!!!!{!{!!!>{){{~',6{+'''''++'a+''a+a'aya+a0$0a0y$!1^-m:4/,,***}}6*,,,,>[!2_!>,{!{!_!!!{{,[''{''6]{aa+'+'+a$$y'++$a0yya$$0aya0y$!;&d5=/1,}*,,*}6*,6>>2[!>>[>[{{{{{{~)'{'~'~~'+)6[+a$a$a$a$a0'+a0aa'y'+a0aya+y$[|--3<44**]6*,*}*6,[>[!!,!!!!~~+{{~''+'{>+'''$_,6+a0a0$0a0a0a++$a0'ya$+$a$++a$[^--3<4/,[6,6>,2,>>![[[{{{{{{''+''++++'+!+a$+$a!*'a$a$a+",
"!>>{~)'~''+'''~{~a+!ya'a+a$'+$a'>43-3<=]*}*}***}}},,,6_,,,2>>>_[!>[[!!!!!!{{{){,6'''''+'+'+a')''$haa$a$aaa$aya,4^-3:</*]6*6}}**}}}},>,[>>2>>!!{>[!{{{{{{{{){![}~''+'+a+a$aa~''+ayyyayaya$aya,/&b5<8/*9,**}]***,*6,,,2,[2>_)!!!_)~~)){~'~~~{{}{+''aya$aya$'+a$af$+a$a$a$aya,^--3:8<]*,*6*}]*},>[,>,>,[!!!~''{!~'!{''~''+'aa>>aa$a$ayayay'+'+afaya+a$a+'ya,---5<4:**6,,,>,,,>[![[{{_{{~{{~''~~''+'+'+a+'+'_,+aaa$a",
"!!!)~'{~'+'+'+a+a+a+a++aa$a$aya+,45-=:=}]**,*6}**}*,,6,>,>2[>>>[!!>2!{[{{{!!!)!!)''+~''+'+a+aya$a$y$a+a0a0a0a0,4^-34=;*]*6*}}**}},62,>,,6![>[!{{>!!{[){{'{{{!'{h'+~'a$a$ay$0a0$0$0$$a0$0a0ay,q&d5<=1,]**}}}}6**,,[,,,>>!_!!!!!!~{{{!{)''')!'{f++~+$$a0yy$0yy$0aya0a0a0$$y0>^--g/=<>},,,6}n,**n>>6,>>!{{{!{{~{'~~{)''a++''+''a$a+a0$y$0$0$0$0a0$$'+a$a$a0,^--g/=:6},>>n,,,>6>[!>!{!!'~{!{~+')~+'{'+++'+++'+'+a++$",
"{!{{'{~!{~''+'+'+'''ya+a+'aa$a'a!45-3=31*]}}*}}9}]}6>6*,>,[[[2>6_!!2![!!{!!!{!{!{~+''{''+'+a+aaa$'$a+aaa$a$a+a[<^-3:=:]]}}*}}9}}},,},>>,>>[>>,!!{>!!{!!!{{~{~{~'~'''+'+a+a$ayaaayaaa$ayayaaa[/&b5<=<,}}*}}]96*,*,*,,>2[[![>_{!{!{{~{'{~'+~')'a~'+'aa+aaayayayaaayaya$a$aya2^--54=31}*6*}}]*6,,>>>2,>!!{!!!{{~~{{'f'''''~+'+a+a+a+aaa$ayayaya+a$a$aaa+a$a>---5<:3(,*6,,,,},,,[!![{!!{~{'{!~'''''{+'+'+'+'''aa$a+a",
"_!!)~~{~~'~~'+'+++'+a+~+a+'+aa~+245-:<55<*9}]]9]},}*6,}66,,,>>,>>>[>>[2!!{!![!!{{{~+'''+'+a$a+a$a+a$a+a$aya0a+[4^-=<=|8,]}]}]}96****],*6,*>>,>[_>>[!_{!{!{!{''~{~+'''+a+a$a$aya$aya+a+a0ay'+[/&d51333(}}}*]*},,*66},6,>[[>>!!{!{!{{~~')''+'+{''+'+a+a+a$aya0y$aya+a$a+a$a+>^--g/==|]6}}*]*],>66,6>,>[![!!![{{~{{~''+'''''''+'+a+a+a$a$a0a$aya0a+a+'+a+a+>^--gq8334,}**]*6,2>>[!>[[[{{{!{h~!'{{~''+'+'~'+a+'+a+a+",
">_{2{{!!~~''''+'+'''a'a'+a+'+a$'>45-<:3=/9}]]]9];]]*,*}*}6*,>6>>[,>>[[[2![!!!!_!~!{~{~~'''''+'+'+aya+'''$a+aa',<^-=4=3/;}]}]9]9(}6>*666*6*,,>>[,6,!>2!{{{{{{{~'!{'~''a+a+'+'aaya$a+'aa+a$aya>/&b315=41*(]]}]];9},6>,,*>,[[_>>[!!![[!{~~{~'~{'~{'''+aaa+aaa$aya$aaa$aaa+aaa>^--g1===;}]}]]9*]}*>>>6,,_>{!_[!{{{!{~{~''~+'+)''{'+'+aaa$a+a$a$aaa+'''+a+'aa>^--|1<3</}*6}*],],,[[[,>>_2{{!{~~{{~~'{'''~+'+~'a''+'+'",
"!{!{h{{{!{)''+'+'+'+a+'+'+a''ya+,/|-:=388}}9]]9](]}]},*66,},,l>>,,>![_2__!{{~!!{!~''{){{'''+'+'+a$a+'+aya+aya+,<--3:54=;;]}}19]]}*,,*,*6*,,>,>>>>![!!![!{~~{h'~~{'{''+'+'+a+'0a+a$a+a$a+aya+,w&dg45<=(,;;}9]}}]*}>,>}6>6>_2![{>!_{!!!{~'''~~~''+'+'+'+a+aya$ayaya+a+'+a+a+,^--g/5<8/1}9}]]]9]>*>>pl>,,>_!!,_[{{!h{{''+'+'+'+'+'+'+'+a$a$a$a$a0a+a+a+'+a+,^--k(=:44>,]6]}}}6>e>[[>![>[!!{{{!~~'~~~'~+'+'''+'''+'+",
"{!!!!!2!{h!{{~~~''''a'''~'a'''!h,:|-73^/:/6(](]99(}(;(***}*}6*>*,,[[[,[[!,!>h~{!{!~!!{~{~~'~'~''+'a'+aa'aaaah>,=^-=3|:/<;;99;;99]]}o**,6,6}*,*[>>>[>!!![,_>'{~'{'!!~{~'''~''+aa'+'aa+'aaa''!>4&bm<|3;:*(9(;;}]}*6,*,6*,,,,[>[[>2!!!!{!2fl''~'~'{~{~'+~''a'aaa'aaa'+'a'+''2>^--5<||(8;}99];](},}},,*},,>,!_!!_!{!{{{~!h,'+''~'''{''+~a'a'+aaa+aa'+'''+''',---g<=k;<;}]}}}}r}**]6>>>>>>>_![!!{'{!{~~{)_!a'+''''{''",
"{)!!!!2!{{{'~~~'~''''''''a~'''~'64^-3=k5=/}9;9;;;(19*6}}]*}},6**,,6[[>,!>>;_}2!'{~{!!{~{{'~''''+a'a+'+'+'a'+'~*:--m5k|<4;;;;;;q11(9,*}}6],*,**>,6[>>>!!!9>]![{{~!{{)~''aa''+aaa+'+a+a+'aa''',/&d|<g|:=}(;(19(;/;],*6]}**,>*>2,6_[!>!{{*,,!>'''!f)~'+'aa''+'+a+'$a+'+a+'+'~*^--g<kk3/1((;1;;91(},>]]}*,>>![[!>!!!_{~'[]>>!{'+~''''+'aaa'+a+a+'aa+'+''''~'*^--k::|38/}]]]](9]9*!>>6,>,,_[_[![{~~!{~~{][>!fa+'+'''+",
"{>[[>,,*>[_,{!!!!!{!~[{~~{{{''a{6<|-3:|^|49/;9;(];1;}69]}}}]}(>}}},,>6]}[>,[>}!!_!{![*[![!_[!!{~~!~!~{~f{!{{a'6=--5||^k=(/;;9;(;(;9;9]}*,,6},}6,}*,,}*>2>,[6!!h!{{!2{!{!{!{{'''{~{'f{~{~~fa'64&bg43^^5];;r9;](;4;(]9*}>6]96},*6![[6*[!!>[,,{[!{!_[{[_!{{~!{{~ff~{'+~~~~{~',---k=|^||;1;(91](;1];}9}]6**6>,**,[!,6*>!!!{>>!!{{!_[>!{!{{{!{{~{{~{{)!~{{!{'*---k<4k||1];(*s}}91},[},6>66,*!>>>[!![}*!{_!_,{'{~~~!>>",
"*l>>>>,,[{{h{'~!!{{+')'+'a_'{!f!*<^-k=|||=*;;//;9;(;;*9;]}]]]]}}*6*66>6>,6*>>[*>[!![,}>{f~{{~!!''+aa'aa'a''a!f*=--|g|||5]9(;1;;9(;9]]9]}}}]}*},,}6*>,>>>*2[!,6,2[![_!~{'~'~'!''+a''a'a'!'h{'*/&dk=3|||(}1;4;;]9;1}}(}}**]*}6*[*>,[>_[>6!>!6>[)!!!!!{~+~'~'{~'+aafaaa'!~{{)*^--|5g|5g4>;]/];];9;*}6}}*,}},6,[,n[>>__!,_>>[__{{)!!>{~+''''h~~+aa~a'a'{!){'}^--k3=|||=[;]/1(6(](],}r,*,,6*>6!>>>!![>_>>[{!>!{{~!_*,",
"6]}6>}*}>,*,>>>!~>{{h,h'a)'{af{!,:^-k33||^11/1///4/t111191;1(/]9],}}]}]]},>>,},}},,,,*>,}*[,,2~!'~{_''afa'a'~!,=--kk5||^1(4;1//4/49;;9]1;1]/}]],*]]*}},,>,66>(;*>,*,,,,>>2_>'!{'~){{af'f'>{{>t&bk5=5g^:];;/t/41/1;(99]1991;*9,,6}6*}]>!_[,,]*6>>,>,>[,>>>>'ff~'h[haa'f{}{!6^--kk3355=*/1911///19;]]*]9]9;1]6[6*},},>[>>6[>*6_2,,l!!,[>!>{'!f~{[!'a'f'''{}---km=3g^|99/;/;//1/;9;]}]99]1}}*!6>}>}6,!_{,>[,}>>[6>>",
"6,,}},,>2>!!![>>[,,[!,,>'!>+fh{{,<^-=:55^|5(q11q/1q19]9;;];9]]]}9]]]9**,]]},,*6*,>[_>,[[,>*>[>!_>{!,!![!!!!2){,:--5=53|||1;1;1/;1;/;;;1]]6]6]}1(,}]}*6]},[*,>*6*2!>>,>>!n>[>[!,!{~!![[_'{!{{,/&dk/3=g|54]1q11//(19;(1}]}]61;;9*}};(,**}>>!6,,[[{[,2_>!!![!>{>!!_,>[{!!!6_!*|--k45=555:]1191;19;91(,*]9(6*}*}9},6,>l66[,h,,>!*>2_>{[h[[[!>!>[[!6>>{_!{{[h*^-^k/:=5|g:;11i111;;e]9;]}]9*}66}*,*},>>}},>!,>*[>!_[>_",
",6>,,,,,!!{!!!{!!!!!{!{!{!'{!6~!}<^-3=55||5/94/41/;111];;(9(999]]9];9}]]}}>,*666,>[>,>>!{!!!!{{){{'!{h{{{!!,{h}=--55535k5=]/91q/11119;;9]]}]]]999]]]}*,}]6}}*,,,>[>,!!{{{{{{!{{!~!{{{{~~~{{{,t&bk<355|5=6/q41;;1;;9;9]]9]]91(}}9]]]]}}6,,66,,[[![>>2{{')f!{!~!'{{){!'~!>>{}^--k3g5=^g5(111;//1;;99]]]99]*9]}9]*96*6666>,[,[!!>!>[!{{{{{{~{~!'f!{{{{{{_,!}---^<=55|g319q//11;;;;999}]]9}]}66}]],6**,>>,>6>>!2!>_[",
"}6*,*,9],[>_,_>{![>![2[>>[!![{2!}:^-3=355|53(q;q1;;11;;9(};9]]9]9]6]]}}*}>l,,>*}*,,*}6,,,n>[>{!!2[!!!_[!!!!{_{*=--533=3|5|(;/1111;1;1;;999}]]]]}**}}},}>6,,,}},>,6}}[n>,>[,{h!>[!!!!>{!!!{{!,1&dk<5=35|34]/;1i;;1;;9;99}6}]]9},,6*}6*6*,,>,6*>,>,l>[>>!_>'h!>2{{[!>!!{!{'~}^--^:5=35|5=,/1111;1;(}]]]}*}]]]6,,*}*,,,}l2[,,6,>>,}},>>[_[>~)[>{{>!>>>![!!!}^--^d==53|=3*1;1;;];9;]]96]]6}}],>[}6*>,,,>[![>},>>6,*>",
">666,*}],,,,*}>>![,!!}!>>!!!{!!2*:^-33g33||541/<<4;/11j11/1/99944<//1]}}*}]((],,,,>,6*>>>,>*[[!h*2f*!!{{{{~_![*=--g:|33||5<(1/4<1111;1;/(1;]]/<:/11]}}}]}(}},2>,2***>[_>>*,>!{[[~,>{{{{{~{![,/&b|:|3=5|5=(//<<1;11;1;4/(9]}14<4(;]**l*}}*}>[>>_>>,[!{>[,>!{{_[{[>!{{{!~{{!}^--^<55=5||=;;1/</;11(;(;1}}},;4</(;(,,>6}*,*,2>*>2[*,[![_>,,!!!>{_*![2{!{!_[]---^<35335|=49//4/9((]9];1(1}6}144;9;,,[>6,>*,>[,>[>e,[",
"/1///1/44/444/<4/;1;;1((9*(((,>2]<^-3/53=5^55=3=|53:==33533:<:3==:===4=:<<<<4<4111/11//1/41/<//9/;;;]]],]]]},>]=--gq=g=3||533=553=3=3=3338<<===:===<::44//<4/;1(1111/114;(/1/91;;;;*],*]]*>_,1&dk/8|33|5533=g55=:==:533=4<=:=:=:34<:4/44<4<;;;;(((1(;11;//1(((;;(}]**](]},]^--^t/m==g|533:355===3:==3:</8=::=:344<4141</41(;1(](1(;1/1/1/19;;(1}9]*}((}29^--^</35=5|553:=55=<:==333::/<:==::=:/<4;//4/4/(;;((;1(",
"::=333333=::<8<=33=3==:3=::=:<1;;:|-g<8^35||||53==3335=3:=:==3553=:====533=3:<8=:333=3=3::::<:=3==33==7:::==/;;3--g<<|33|kk|g3=333=53=:==7=33g==<7=3=33384<<4:::=3=3=37:44/4:====:===:<:881(]q&bk84m535|||55===3=33==::=8:3|3=8:==:33==:=:<::==3=3=3=<4<4<<=3==3==:=8::=/11---k7/3|35k|^55=333333=::=::==5==:8===333=:::4:<==33333==::8<:3=33====3::::411---^348|33|||55===3=333=:::===|538::=:=3333:84::==3==33",
"g5g||||53=3353==5533=:==33==58//<=^--|^^^^^^-|^^k^^^^^^kk|k5^k5=5k|^^^k|^35=55|m5||gk5333333==555==:=333335:/1<3---k^|^^^k^|kkk^^^^^^k||k5^k|=3^^kkk|5k3g:=5|m5||5|53=3=33::353=:<8==u33=:;;/d&v-g^g^k^k^|5kkk^^k^^^||k35538:^||k|k5k35=3||g5^kgk53333553=5|33=::333533=/13----k^k^^^^^k5^k^^^^^^|||^555g==^^|^k^m^55=3||55|^||m5333533=3g33=::35=533=//|----|^k^^^^-kg^^^^^^k^|kgkm|mg=3kk|^^^5^5333g|555^kkg33",
"^-^^^--^^---^^^-^^k^|^^|^^|k5^|g5^------------------------------^------^--k---^-^^^-^^----^^^-^^k^|^^|^^|^5^|||-------------------------^-----^-----^^^-g^^^k^k^^^^k^---^5k-^|gg3k|3g|53:|53=m&j--^-^---^---^---^---^-^^^-^-^-^-^-^^^-|^^-^^^-^^^^-----^^-^^k^|^^|^^|k5^||------------------------------^-^-------^-^---^^^---^^----^^^-^^^^|^^|k^|kg^g^--------------------------------^-------^-^---^^^---^^--",
"-------------------^---^-^-^---^-----------------------------------------------------------------^-----^-^---------------------------------------------------------^---^-^-^^^^^^--^^^^k^^^^^k&e-^-^-^-^-^-^-^-^-^-^-^-^-^-^---^-----------------------------------^-^-^---------------------------------------------------------------^---^-----^-^-^----------------------------------------------------------",
"--------------------------------------------------------------------------------------------------------------------------------------------------------------------------------------------^k&z------^---^---^---------------------------------------------------------^---------------------------------------------------------------------------------------------------------------------------------------",
"^|^^^^^^^|^^^|||^|||^|^|^||||5||^|^^^|^^^^^^^|^|^|^|^|^|^|^|^|^|^|||^^^-----^|^|^|^^^^^^^^^|^|^|^|||^||||||5||^^^^^|||^^^|^^^|^|^|^|^|^^^|^|^|^|||^|---------^---^---^---^-^-^-^-^-----------k&a-^-^-^-^-^-^-^-^-^-^-^-^-^---^----------^|^|^^^^^^^^^|^|^|^|^|||||||||||q=^^^^^^^|^^^^^^^|^|^|^|^|^^^|^|^|^|^|^^------^|^|^^^^^^^|^|^|||^|^|||||^|||||||^^^^^|^^^^^^^|^|^|^|^|^^^|^|^|^|^||^^^-----^^|^|^^^^^^^|",
"/4//1///1/11;1;;;(9(9(9(](]]](]]](((9]]]](]]}]}}*]}}*}*}*}***}66,}}**(;3---^///41/1/1/1/;1;1;;((((](9(]9](]]]]](((9]}]]]}]}]}*6********66}***},}}**9(5---------------------------------------^&a---------------------------------------^/4/4//1/1/1111;1(;((((9(]]]]]]]]]]}(](]]*]]]}]}}}}*}*}6*,}**6****},*}}*]1----^44//1///111/11;1;(9(9]](]]]]]]}]}}}(](]]}]]]}]}]}*6}*}*}***}***}*},*}}}]1---^k//1///1/1/11",
";]**>,>*}6,[![,>,>!>>!!!!!!!![!~{{{~!'{'{''''''a'a'a'a'aaaaaa'aaaaaaaa'>=--4,}]},*}6,6}6,>>[>2>!!!!{!{!!!!!))'{!))!'''~''''a'a'a'aaaaaaaaa'aaaaaaa'aa!5------------^---^---^---^-----------^-3&&-^-^-^-^-^-^-^-^-^-^---^---^-----------:2>]]*,*6***,,,,>[>[!!_[)!)!{!~!~{''){'~''''a'aaaaaaaaaaaaaaaaaaaaaaaaaaaa}---=}**]}6}_>[}*,>[!![[[[{!{{'{~{'{)!'''{''''a'''aaaaaaaaaaaaaaaaaaa'aaaaa''a9--^=;[*}*[>,,,6>",
"}]6*,66,,(]}>*9(,2!>_!h!_,*[!!{!,,>2!2!,!{'~'''{)f'fa'afaaafafafaaafaf'2/|-<,1}9>*,,*,>}(],,}(*!![!!!!!*,2!{{!,}*>!![!!f'''fa''f''afaaafaaaf'fafaaaf'{;-------------------------------------kc  f-^---^---^---------------------------^=,};]66,,,*>,9]*,,]]!{!{{{{~[*,!{{f!,2!)!!!!{a'afa'afaaafaaafaaafafafa'afa2^--3]}(,,,,>,*!>]]62,]}[!!{{~~'{_,{{~f~>!>){{!!{afaaafa'afaaafaaafaaafa'afa'a>--^31>;*}[,,>,!!",
"6,66],,>>](]4},,,[>[2!!![_6]2!{6}]*,>!,2{'~'~'''~''a'aaa'aaaayaaaaaaay'[/3-4,4;,*,*,6>>}1]/;*2>>[![!!_![,}>!)[]]]2!)>,!'~''''a'a'aaaaaaa'aaa'aaaaaaaa',_ffhfhfhfhfhfhfhfhfhfhfhfhfhafyfafyfa&    yfafyfafyfafyfaffhaffhafffahfhfhfhffj^:*]<,6,,,,>>>;];/6[,_[![!!{{{[,}!{'*2}[!)![!''a'a'aaaaaaaaaaa'aaaaaaaaaaaa2^--3*>1>,>,*,>[_}]]/,_,!!!!{{~{{![}!!',2,22)~!!aaa'aaaaa'aayaaaaaaaaaa'a'a'aa,---3;>4],>,>,_[!",
",]}];},*,*;}}],6***,,,2,!*!]/(***}>2!!{!)!{!{{{~'f'f'f'a'f'f'f''af'fafa!/|-:]<1}}}]},*,6***]6,6,**>>[,!>!}81,}>2[!{!{!{{{!!{'f'faf'faf'''f'faf'fafafaf,h                                                                             j^7((:6*}}],6,,,(>},>,*,2>>![[{!2/<*,**!{'{~~~''f'~'f'fafaa'fafafafaf'fafaaa2^--39}1*}*};*,,,,(,**>>,[,{>!!!{[!,4*2,>!{~{'~'f'''{'faf'fafafafafafaf'f'''fan^--31]/;6*,},,>>",
">}(}}]6*6*9],;*,],*>>>,>[[>!1(,!>>>[22!{!!!!!)!~~~)'~{fy'''a)''''a'aaa'!/5-=]/1}]9}**,,,]}>]},]**,,>>>**>>*][,2_2[>>!{{{{{{~~'~'~''''af'aa'''''a'a'ya'>qc                                                                           &k-:/98,}99}],],*]>,][]*>,,[>>,{[>h6>[>!{{{)!'~'~~{''''a'a'a'aaa'aaa'a'a'a'aa_^--=4]/,}}},}>,>6}}_(>,*!>!![!!~{{{9({!{{{~{!'~'''~''''a'a'a'aaafaa''a~'''''a_---=/9/]**],,>>!",
"*]}}]*,}**,(]*,*]6,,>,,,,,**}]!,,6[*,*>!{![!{!!!~{~{'f'f'['f'f~!'f'fafa!/|-=9/1*}}]]**6*,}9,,***,*>,>,6**,>1!*[>[,,,,!{!!{'{{~')'~'f'fa!{f'{'{'fafafa'[1s                                                                           c-^=1;4*]**9,*6*,,9*>,,},,>>>>[]>*{}6!{![2{!>{'f'{'f'''f'fafafaf!faf~f'f'fafa2^--3;;9,}*,],,,,,>]}[,>*![[!![!!!*2>*f{!!{!![>'fa{'f'f'fafafafaf{{af'f{f'f'~'>^--31;1(>*6},>>>",
"*9]**,****(*},**},,**>,*>>;,[1,>,,,>,,;!!'!{{{[{{~)~~'~~~a~a'~)){a'aaaf>/5-:;/1*],*6*,**;>*,*6}l,,*>,,*>*>,/],2>,2,>4>!~{~{!!)~'~'~''a'a{aa'{')''aaa'f>95&                                                                          l^^=19<>}}*,,,6,*6}],,,,,>,>>!,,,9[}/[!![)[!];~'''~a~'~a'a'a'a'afaaa{')'''aa'2^--3111>]}*,,,6>6],62>,,2!,!!!>{!][';2{)!!!)!]!'a''a'''a'a'a'a'aa''af){)f'''',---3/]/]>*,,,>>>",
"*]]]}]]},](;;]*9]]*},*,*,*},,(,,,,6,,}/>~{[!{!2{!!~!~ff{~fffaf~{~f'faf'>/|-3141]]]}(]]}9];]]}]},***6,,}*>>,,>*>,,,,,4]{{!{{)~{{{~{'f'{'f'fff{{{fafafa{,(5a                                                                          j--3/14*6]}]}]6*6]}*}***>,,>>>,>>,_2}!_2!2[!}/{f~f'f~{~f'f'faf'fafafa{f{'f'fa,^--5/1/}6}**6},>69}}>,*},>>[![[!!>!!,!{!{!{![/[f'{'f'h'f'f'f'f'f'faf'{)2ff{f'6^--5<11(,****},,",
"}]9]]]9]]](99}}]]*}*,,*,,,,6,,,,*,,_,!;1!{!{!{!!!~)'{){~)'fa[{f'~'f'aaf!/|-584/;(]9]]]]]((9}***,]}6>,>>,6*,2,>}>,[2[n1>'{{{'){{''a)'{))'aa!{'afa''faa'>]5y                                                                          j^-==/<*]]9}]9(}]]},},},,>,_>>2_[!!!!{[2{{!){}('''f'''fa'af'''fa'af_)')'''~a'>^--3:;1*}]]6}}}*}}*6,>}6>>>![!!!!{_!!{![!){{~];{fa'afa)'fa'''')'faa!!a))f'{'f,---34<<]]]}6}6*,",
"91(1(i9;(;](}]99]]}*]],,,,,*,,>,,>2>>[*];n~!!!{!~~'f~!){)fnf'{af'fafah{64|-|:=;1;9]99(]((]}]]}*99}}}>>>,**,*>>*,>[[!h>;]{{~{~{~f'f'!{{~f>fah'f'fafaff[,(8y                                                                          j-^5=:/}(9](]99(9(]]]}6],6>,,>![[>h2!!_[{{{!~[*1{f'{'faf'faf))'ff>af'f'f'f'ff}^--5=44(99]]]]]]]}},6]**>,2*>!{_{!!!{{{!~{~{'_21_f'f'f'fafaf'))fa>ff{{~f'f~f~]---g<:8]]9}*6]**",
"}9;999;(;99]9]]}]*}}}**,,6*>,n,2[[[>>2,[,6{{!{!~{~{'f'!h{'{afafaf'''fa~}:g-3:=(;199]99]9;9(]9}*}]6*6*>,l*,,>,_![[[[,,2>]_'{{~'~'f'''h!{a{a''fa'afa'af>*]<y                                                                          j^-5::46]]]]9;;(9]]*]n*}*>*,,>[![,2hn!!!!{!)){{>*a''fa'afaaaf{!affaaf''afa~af*^--g<<:}9]}}9]9]9}*6*,,6>>,>>[!{!!{{!{{'~'{'{~{{}~f'''fa'afa'{!)'ffa~~f'~')''*---g<8:]99]*}*}6",
"};(9]9(;9(9(]9*}}}*}6}}*,,,,66,],,,>>>>,[2>!{![!{!{f~{~f'{'f'{~f'f'f'{'*<|-3:5;(1;(((;99]99],}*}}]*}}*,,,66*>],>>>[>>,[[[!!{{{~{~f'f'fafaf'faf'faf'{an}94f                                                                          i--g<3<*;9]9];]9]]]}]}**,6,,,6>,[_>,![*!_!{{~!![f)'f'f~f'fafafafafaf'f'f'f'f'}^--|8:=}99]]}9]]}}}}*>>,>>>>>,!_{!!2!!,[{_{!{{{{{!'f'{'f'faf'faf'fa)'f'{'f~{f}---m<:39};}]}]}}",
"<;i99];9;;9]9]}6}}}},**6},,,},,>>[,>>_>>[[![[{[{{{{~{~f{f'faf)f'fafaaaf,<|-=:3=;}9(9((19]}9]},*6*]6,*,*,,>*,[!>[>_!{__!{{[_~{'{~~~faf~f'faf'fafafaf'f!]]4y                                                                          i^-343=4}(999(;9]]],*}*,,,>>6>>,>[_{![!{!{!h{{{~{'f~f~fafafafafafafaf'f''afa{*---5<:5<99]}}]}]9}}}}>>,,>,!>![[!{![!{{{{{{ff~{~{'{ff''afafafafaf'f'f~'~f'f'{*---m4:3:1,}}]]]9",
"g/91(;;111]]99](]]]]**,}}}*6**,6>,>,,,2>,,[>[[[!{!{!{!{!f{{ff{h!))'{'ff}:^-3<3|:*(];(;;19}](9]]]}]66****,6*6>2[>[>22>!!>>,_!!!{!!h{{~{'f'ff){{{f'f'h'[](1c                                                                          i-^g/53^999;(;;;9]}]]]]},},,,>>*>>_[[>[!!!_>[!{![{~{~{{{~f~f'f'f'f'f~{{{f{){{*^--|/8=5/](9];91;}*]}}}6,*,>[[>,>>!>_[!!{{{_{{{!!h{{'h~f'f~f~{ff'{f)f!{!{{{{f}---k/4=|:6}]]]]]",
"3/1(;9;;1;;9]}9]]]]}]}**}6},6l,,6,,>>>>,,[[>[[>[!!!![{!{{~{~)'{{h~{~f'{*8|-=:33<1(1;;;111}]}]}]}}}},66]**,,,,>,,>[>>>![__![!>!{!_{!!h{f'f'f~{')a{~''f2]]/c                                                                          j^^m433=/91;;(;];]9}*9]*]6},,>6,>[[>[![>>{!![!>[!{{~!{h{!'{{fff~f~faf{)h{'{'f*^--g/3=:1]99];;1;]]6,}},6,,6,[,>>>[!!{!![{h)!{!{{{!f{{!~{{{h{{{'f~f'{{!!{{!'f}---|14==<(9;(]99",
"43/;11;1;/;(11]]]]}]]]}9*}}*6*>,6}*[6[,,[>2,>>,!!2[[!!{_{!h{[!{{~h{{'!h*:^-3=|<31;11;/1;;(;;}]]((]]**]}***66[,6*,_*[[[>,[>!![[h[![!{{{f{{ff{{f'f{{~!h[9(1y                                                                          i-^m<53<<;;19(11;1(1*]}}}}}}]}*,*},>,,>>>[h6{!_[!!h!{!{!{!{{~{ff~{'h{{ff){f{{]^--|4^3/=/]1(1;;;]]1(*6}*,l},,6,>,[[[!{[[[f,{!{!h!!!{!{{{!{!{{{{{!f!h!{{{!{h{]---k==54:1]1;(;(",
"/<:11;1;111;;999(99}]]9]}}]6*66>6,}6]}2>>[>>>>,[!![h[!!!!{!'{!{{!{{{{66]=|-55k=4:/1;111;1;19]9(99]]*]}]****,,>>,6],}[[>_>[_!,,!{!{!{{{{f!'{!!'{'{{{n*,191c                                                                          j^-m:||1:11;;;1;1;;;(]99]}]6}*,6**,>,[__[6,}[h!{!{!{_!{~f{{{{{{~f~ff!){{{)!!*]^--g8|^/</9;;9;;1;(]}*]]]*6***,>,,>>>!![[,]*,f!{{{!{!_!~{{{{!{!{{)f)_{{!!{!!>]---k=3^<44;;i9;(",
"|54/14q////</1;(];;1;9};(}*(}]9;**6;}1;9,,>*6,>6,,2[[!{!_!!!![h{_!h!{2[}:^-m|^^5</111////<1/;9e1];;(]9(]}]}}](},,;,9]],>[>,,>>>,[_[!){f{ffh_{{{hfh{!!,(;1c                                                                          i-^g=^^^=1119///14/1;(}]999]]*996}*6*]}[>}]>}],>__!>!!!l_!h[_{'{fff!!{{{f){!_(^--^55^|=/;1q///1/4199}}9(((},]][,}6,]]>!>],]]}>___>!!_>!{{{{{f!)){!!!{[!!!!!9---^8k^^=/;1]iq/",
"k|4(/141qi(9(;11;99](9(9;6};(}66,,]}}6],[>,>,_,>>_,,!{{{[h>>*,,l>n[_[h>]=|-55|||=]41/;;111/;111;(}99;}(9(]}9}**]9}*}*[>_,>>>[{_>>!,{!{{{{f_>,_2>!h[h!,1;/c                                                                          j^^g35||^(1/(];;1;1(;;1]]]}](}}}9],6*,6>2,6,o6!h[_[_!{[>,>>>,!{{{f[,n[,__{>_!]---k5=^|^/(11/1;(999;;1}]}}]]}]},,(},>,_>}*l,}2{!!!!!![!!![h!{h{!{[,6,,>,![>h9---k=5^|k:}/1;(9",
"|k5(1/44//11;1;;;;;19;;1]]];9]]]*}]}**66,,,,66,2>,[[!2![[>[[>,,6_>6>>,*]=^-^|||k5;14t<//1//1;1;;119;;;1]}9](}**}**}},,>,,66,>>[,>2[_!2h>[_!>>n!_6,*,[,11/y                                                                          i-^k|||k|<]/1///1/119(9;;1(;999]6]6]*],6>*,},,[2[[>,[>!_>_!_~!!![2!,_,>[,,}6>(^--^g3g^|3}/1t///1;11(](];]]]99*,o]]*}6,>6,*,>[2[[[,[>!![[![{h!!,>!>,*,>>},*,(---^3^g||5];1/4/",
"|||414;/</<//q/11q;91;q111];;;;9(1]}]}]9;*}}]]]9(6**]>>>],>,(}}>,!_],_[}=^-gg3|||:14//44</4(1/;91;9919119]];(*];;*}*9]1}]6}99](}(]},6!}*>>9],[,n!6}_![1;/c                                                                          j^-k355||5114q4/444///1(1/;;((;11*]9(}}99]6,]};]}>,}]}]]}6}*>_>},>*]]!>,_[]>>]^--|355||5/;4]/4///11;191]];9;1;16(9(]}}1}}66*]9}*6}]}]]6*}}>_>}6>6]]*,,>[]*>9---|7535||<]41//",
"g^||1t14/41/11;111;1;1(99;1];;9(]]};9]}}}}*}**}*,]]9**}],,,>,,l**6,66>6(=^-53|g|||<//4qt//;11/11;;(;;11/1]9;99]]***]*}6**6,*]*>}}}>*6*>,,[>,**>,},*,,,11/y                                                                          j-^^<k5g||31//1///;/1;;11;;;(]];;;99}}]*}9o]>6,,6*,,,6>>,}>,,*>,,>[*,,,,,,>**;^--^:|55|k31/1/1/11;9;;1;9((9]}]]1}9]]}]*]}}6*,,,*6,>*,,}(9},}}6>,>*,}}}6]}]>;---^<3g|||5<1/1/",
"5|kg8;<//1/11;1j//11;9((1;;9;9(9e]9]]]]}]}]]}}]}}]]*},**6>,[,>,>,[>n>>>(=^-533|mk|=]v/8/t111q1111i;;1;11;9;9;99]]]}*}}]]]*]]]*]]}6},,6>,,>,!}>[[}l6,[,/14c                                                                          j^^k=553k|5;1<8//q111;111;;;;9;(;9;9(];]9;]**,6,,6]6*6},}666,66,6ln>,*>[[n*>,9^--k=g55k|54(4t/1/1;;;11/;;9(]9;;9]9]]]]]]]6}6,6*6},,6}69*}**,*,,>>,,}6,>6*,,(---^=35g|||=]//<",
"5|||5//4//111/q41///1(1114/(9(;1((99]]}}]]]9](9,*}}}6*66,],,}*6,>,,*,,,(=--|5535|k|/14////q/1/11//4;;11//;](91j(;s]},}]}]9]9966]]}*,6*,*,,]*6>>,>,>,>,1/4y                                                                          j-^^=|355^5=]<4/11;11/1111//;;;111}}];;((;}*>,}}6}]]*}6o,*6,,*,,6*,},>,*>66>>;^--^=k355^5|1//411;1111111119(;111,*}99;]]}*,,,]}]]]}]>***6,6*,*}6,}6*l,,6}*,;---^7m333^g511//",
"35k|534<=334<<<<8<:/4///===:=4///;114<49]]9]]]1]99;91(]*,**,],,>,>,>},,]=^-58k33|||=44<=3<<<<4<<:44//1==3::41//;1144/;]]]}}}9]}];]1;},,>*,}*,>>[>>,l>,1q<c                                                                          j^-k45k=5||3<4/<=:44<44/44//1;4===:<1;/9911/41]}*,,,*}**]]];],,_,,6},>,>>,,,,(^--^<:|=5|k3=/4:3://4//4:<1/1(/==::</9;(]}]/41],*,,,*]**}}};(**,*6,**,,,,,*}*;---^=<^=3gk3=1//",
"35g^|^||3355555333=333g^33:=33=5g5353::=:==3==33=33==353====<4<</<::41;/=--|4=535||^^|333|35|33333=33|5=:==3=5g353=:8=:==3==33====:333==:=4<4<148:<19(1/<y                                                                          j-^^<4533|g^^|5==|533|==:=33=||3:==3:355=5=3<::::==::3===3:=33=3:=8<4<4/<=:4(1^--^</3g3g^^^^g5=5553533=3=3=||3==:3=355=3=38::::=:::3===3:==533==:<4<<4<=:<;/----=475=5m^|^g3",
"^g||^||g|5gg|5|553333=3=3333535333=3=3==3=53333=3====::33===3=3=3==:81/43^-^3=k||kkk||g5|g|5|333533333335=33g333========53333:===:=<:=3=====3====::/1;//8c                                                                          j^-^3=3km|k|k3|555|3|35333==3==35=3355333=3=3===55333======::=5===3=5=3==:=4/:---^3=3k||kkk5k5|5|5g553333=3333533355333=3=3=3=3533533===3::=5==:==3=3==:=4/:---^5=3k|g^|k|k5",
"^-----^-^-------^---^^^^k^^^---^^-^k|^^^^^k^^-^^k^k^|^^^|kk5555k|^^k53=5|---^-^-----^-^-------^-^-^^^^k^^---^-k-k55kk^^k|^k^|^kk|^gkk^gg53333|5||538<:84:y                                                                          j-^-^-^-^-^-^^^^^---^-^-k-^^^^gg^-^-^^k^^|g^^^k^|^^-k^^^|^|^k^k^|5555^|k^^5=3-----^-^-----^^--------^-^-^^^^k^^-^---^-^k|^^^k^^^^-^^k^k^|^k^|^|55g5kg|^kg=3-----^-^-----^---",
"-----------------------------------^---^-^-----------^---^-^---^-^-^---^---------------------------------------^-^-^-^-^---^^--^-^^^-^^^^^-^^^^kkg^^^|3<uc                                                                          j^-^-^-^-^-^---^-^-^-^-^-^-^-------^---^-^---^-^---^-----------------^-^-^-^-------------------------------------------^-----^-----------------^---^-^-^--------------------",
"------------------------------------------------------------------------------------------------------------------------------------------------------k5=y                                                                          j-^-------------------------------------------------------------------------------------------------------------------------------------------------------------------------",
"-------------------------------------------------------------------------------^^--------------------------------------------^---^---^---^---^-------^-^|y                                                                          q^-^-^---^-^-^-^-^---^---^----------------------------------------------^t--------------------------------------------------------------------------------------------------",
":===:=::::<:<:8:<:::<:8:<:<<<==3|----5=333333533=3==:=:=:=:::=8:::::<:<::=:::=::<=::::::<:::<:::::8:<:8:<:8:=3^-----------------------------------------u&                                                                          y-----------------------------------------^333333335=3=3==:=:=::::::<:::/1<<<===:::::===:=::8:::<:::::::<:::<:<8::=|----^3=333333533=3==:=:=::::::::<:::<:8====::=:===::::::",
">,,>>>>2[>>[[[[_[!_![_>__hn__h,,1=--=;1;1;19(91(;]]}]]]*]*}*}**6},,,*,*,66*,>>>,,>>>>[2[n[[____h_!>![__h__[hl>;|kk^k^k^k^k^k^k^k^k^k^k^k^k^k^k^k^k^k^k^b&                                                                            ykkkk^kkk^kkk^kkk^kkk^k^k^k^k^k^k^k^k^kk^5;111;;((9;;9((}(}]}}]}*,,,,,6>,**,>>>,,>_>[>>>___2______h[!!h_!___!__[[>l:--^|11;;](;]](((9]}]}]66****,,,,,,,,>>n>[>n>[nn>>>_>[_h",
"[[!!h!{!hh{!{!{hfhfhf)fhf{fhfffh,43-/];(]]]]]]]]](}*,}]],,}*,,,,,,,,[[_,>![,_!!2!!!_{h{!{hfhfhfhfffhfffffffhff_;f&&&&&&&&&&&&&&&&&&&&&&&&&&&&&&&&&&&&&&&                                                                              &c&&&&&&&&&&&&&&&&&&&&&&&&&&&&&&&&&&&&p-=]}9]]}969]]}]]*,,6},,>,[,_2>,[2!,!h[,h!f_h_{hfff{f{fhf{f{fffhf{fhfffffhff6---31};]}6],},},}}*>[,]6_[,>2!2[>_[!hfh!2h!_hfhhhfh{{f{",
"],_h!{h{h{hfhf{fff{fffffffffffh2*/=^4}4];]]}]***11;;]];},,,>,>,>]1*,>[,(],,,*,*>h{h{hf{f{fffffffffffffffffffh)>}1f                                                                                                                                                         y^^=]]9,9]}*}},*9(;;}*][[>>>[[![6]n_!h_**22_2*,2fffffffffffffffffffffffffffff}^-^5;}/]]]}*6*>,;19;6}],!>[[!!!_61>!){2]2>2,_!2>fffffff",
"*>[2_[_[!h!!h!hh{!{hfhhh{hhhhhfh>43-4]/;]]91}9]]]/;4(]]]}*,**6*,,,11},](((*,>]}[_>[!!_hhhh{h{hfhhh{f{h{hfhfffh!}98w&                                                                                                                                                      y---=1]t}(}(1**]*]11/**],6,,>,>>[>>/;*>(}}>,[_l2hhh!hh{hfhfhfhfhhhfhfh{h{h{hfh6---3/}/]}*];*}}*]1]/],*,,>[>>[>_>_1],_}**,>!_>,!hh!fh{h",
",[>>,>[>[!_!_h>hhhhhhhh{h!h!!fff>/5-:(4;9;;(;]9}};;*;}](}9]}}*],}]]4/(],,,6>>,,[22>>>[[h!hh{!hfhh{hfh{!fh{hfffh*9/^w&                                                                                                                                                    c^--^=194}9}(1]]}]]1]]]*9],},,,,,n*}(81*_2!_![!hhh{!!!{!{{fhf{{hfhfhf{fh{h{hhhf,^-^3/9/9]9]99*}**;],(66],*>>>>[!>}6;(]>[!_!!{[_h{!{!h!{",
"6,>,,,!2[[[>[_[[f_[h{_h_[!h!hhfh>45-=/419;;1;(9]]]((1;(1]]}(*]]],}*1/*9]}}>6*,>>[>>>>>!_!_!_!_fhhhfhhh{!!!{hffh*]15-e                                                                                                                                                   &m----=4;4*;]9(;]]]}}(}]]]],*,,*>>>>,}91h_[,>[>2h_h!!!hhhhfhhhfhhfh_fhfh{hh!!!{h,^--34149]];(;]}66*]}(]}96,,,>>,,>,,(1>*>>[_!>_!hhh!h_h!",
",[>,,>>l>[2[[!_!h{,!hh,[[hhhhffh*15-=1]];i;(;9]]]];1]]]]]*}]]6]9;1;}46;]]*6*];>[>>[_>2[__!_!!hhfhffh>_2!hf{fh{_,](=^w                                                                                                                                                   &k-^-^3//8]99](]}*}]];(}}*},*,6,,2>,1,}9_>,,>!>6]hhf!h!{!{h{hfhfhfh>_fh_[__h!)hf6^-^5//,6999(]]**6*];,6,*,,>,n>,}]1]>/l6,[[_[>;hhfh{hhhh",
"!*>,>,,*>>>[_[_>_2h_f!>,2_h[hhh_}45-=/11];;;;;]](/](;(];}]]9]]}9];;]/1]]}(]]}:6>>>>,>,>[___!h[h_h!fh[,22!hhhf!2}};<^j                                                                                                                                                   &^--^-3//5]111((;]](1*](];]***66>},*]*,4*>,,2>2]<>__h!h!!!hhhhhhhhh_hhf[2,2_h!{h}---341(}}](9(]*,];}*],**,,*,*,,,*}}>1;*2>,,[,4}h!h!h__!",
"6>,,,>>,22>_>>2>2[h{_>!___h!hhz{,/5-5/<1(9;(;11999;;;(;]]]]]]}}9]*,6}}]*,}},}/9___>>,>[!_[>n_2_hhhh_h[_!hhhfhf!,];4|j                                                                                                                                                   &k-^-^5</=;;1;;;(]9}(](}}(;]*,*,*,},*>,6n>,_,,_l46!{_!!{[h!{hh_{!{h{hh>{[[[!!!hh}^--5<//;]]]99;]]*]}]}]}6*,l*>>[*,[![2>>>_,>_>19hh!h!!![",
"4}>>>6>,>>>2_,2>[2_nh}2_h_h!hhh_*45-|<4/;1;1;;;1(;9;;(];((99}]*]]**]*}*9*}6*6*q;[[>,2>_[_>h>22_nhnh,>hhh{hhhhh[}];/5j                                                                                                                                                   &k^-^-33<3;11;(;;1;(9]]9*]9]}]*,,,,*,,,>>*9,>,[_;/l!hh!h!_h!hh__!!!!_h6,_hh!h_h!]---5=44;(;;(9]99]}}]]*]9}6},>>>>,_>n[_2*>[[_[[1(!h!h!h_",
"]1]l*,>>,[[_n_**,_2}hh>h_h![[f_>9<5-g<311;;;;(;;;;;(9]]9199]9}}*]9]]]]]}]}*,,>,(;n,_[>[[_h[hl6,[h}_h[h_h__!fh!*9](/:w                                                                                                                                                   &k-^-^5=:<1;9(;(111(9]]];9]]]}]},_,6]>,6,n6,,[>___9,>__h!hhfh{hn>!2hofh>[!!_>_hh(^--g:<=;;(99]]99]9]]*},}}}**,,>>>*,6>,>>>,__h!!];[[hh_h",
"}]]},*,,>>[n[>[,>2_nh__[__!__hh_(=5-3531/1;;;1;;;1;1;1;9;;](9;]]}(]9}]6**}}}***}}>>>>,[[___[h>[_h_h!!__hh_!hfh*1];/<i                                                                                                                                                   &k^-^-g8=3(q;1;111;19](((;]]}}]]**,]*,>*,6_>_>[*n>,*>___hhhhhhhhh_hhhhh___!__2h!(---|:33;/((]s9;];(]]9]]6]*,}]*6,,6,,>>n_>>>[>_2>6>nh__!",
"]6}*,,,,,>>>[[____>[hh_h_h_h_fh_]<|-3=g1;11;11111;1;;9s9(99]9]]]]}]]]*}6*]}6*6*6},n,>>>_[[_!___{!_hh_h_h_hhfhhl(99//r                                                                                                                                                   &k-^^^g4=3/11;;;11(((9s(9}]}]}}}],,,6>*6,}>[,[>>[>2>,h[h_h!h_hhfhhhh_{!hhh!!_h!h9^--g8=31(;(s(;;199]]}6}}}}*,6*,,,,>,>>nn[6n[[[_>>>hn__h",
"]}}],*,,>,,*>[[[[_[>h[,>_2[__h_>]:|-=:35<11/1/1/1;11;;;1;(9;9(9(]9}((]]]**,}]}**6}>>>>>>>2________h_[____!h!2_61(;14o                                                                                                                                                   &k^-^-m<3g|/;1;1111;(1;;;99;}]}}}]}*,*}},,,>>>_>_,[,,__[h___[_h_h_h__hh>_[_>___>9---|<853<;1;1;11(];99}]]9*}}}}*6,6,*}>*>>[[[62>_n>>__h_",
"]}}*66*6,>>>>>>_[_>__,,[>_>_>h_>9<|-==53=111/111/1;;;;1;19;99;(]]]]}]}}}*}}*}}}666,>*,>>>n>>[h__[_hn>_>__h_h_h};(91/x                                                                                                                                                   &k^^^^|433|4;11j1111199;;;;;]]}*}}}**,]*,>>>>>>>>>,>,[[nnh__[h__hh!__hnn,>[_[_n_(^--k4=53<1;1;1;;1;]]](((9}}}6}*6,,>,l>>>_>>>>,>>_,2_n>_",
"*}*}6}*]*6,,>,>>[>>nh6>>>,n,>__,(:|-=533:/1/1/11//;1;1;1(;;1(;;;9i]]]]]]}]**,}6*6*,*,}*,>,>n[n_[[nh>_>>_h>_hh_}1(;146                                                                                                                                                   &^^-^-g<533<4/111/1/1;(9(;(;99]]}]]]}*}}6**,>,>,>>>>>>>>,,[2___[___[__>n[6,>>,__;---k/33::;;q11;(q1((]]99]]99]*]]]},,6,*,6,,n>>>>,>_>>,,",
"6*}}}*9]6,}6},,>>>,,n>>>,_>>>n]6;=^-35^43/1//1q1/111111;1;;;;9(;999]999]]]6],,6*}**6**,,6>,>,>>[[[__n_>___>ho]};;;/4x                                                                                                                                                   &k-^^^m8k54:/1/1////1;;;;(1;;];9]]]}]}}*,,},]l;n,>>,,,,6*,>>>,>[>_[_>_>[>,,>>[l,;^--|:5|/=/;/11;111;1;;99((]9]}}]*}6**]**,}n],n>>,,_,,,>",
"}]}]]]}]}o}*66,,>6,,n,>*,>>,,>*};=^-53k5=7//////1///;1;11191;;;1;;9(](9]](1};]}}}}*}**6}*6,*l,>,>,_l>,>>[>,>l]}1;;1<x                                                                                                                                                   &k^-^-g=k^:4</1/////1/;1(1;1;;](];99]}}}}}6*(;}(,6,*6*,,,6,*>,>>nn>,>n>,,,>l,*>,1---k3=^3:8/1/;/q1//;;;;(;9(99];]]]]}*}]6*}1*96},6,*6,>*",
"99}}];]99]9]]]9}}6]]x}*,,6***ll6;:^-g=^|^<1///41//<4/1/;1;;;11;;19(99911;9(]11]]}*}]999](]]]9}}*]e*}},,666nnln}11;/4x                                                                                                                                                   &k^^^^k=^k^5/;///11//4/111;;;;;;]1/]]*]];;9}]1(1]6}l6,]}]}]]]*]]}6*}]6},,,*6}*6,1---^==|^|4;/1q/1q/<t1119;;;99;919]}]6];;]]]];1}},,,]}]]",
"1;]9](9(}}*}**,}***,>6,,,,]*]9,];3^-k5^k^3;v4</414//1///11;/1/11;111;;;111;;(;99}9]99(}}6*66,*6,>,>,>,n,*]>*6}}/11/<o                                                                                                                                                   &^^-^-k||^|^<;44///////11/11;;11(1;];;(;99(;91(]]r}*}}}}]},,6*,,6*,,>>>,,6,]}}],;---kg3^|^3;t<4/11//11j/11;(11;;9(;;9(9(91((]r]]]}*}}]9]",
";(9]}9;9]9;]9}}>}}},}9]}]*6]6*]*;=--^5||^|//4/=<444/4/4111/1/4111;1;;]];;]9](]]99]]](9}}9]]}}>6*,>*]6}6,,96>]*}11;/4e                                                                                                                                                   &k-^^^^k||k|5]414:</11411i11//411/1}9](]]]]}]]99}]}*},}]]}]]]*,,>6},,*(]}}]*9,*91^-^^kgg|||;q//:</4///11;;1;111(1;;9}]*>]]}}}}]}}*6,}](}",
";9};]9;1];}*}99(];;9];9(*}]6,6}](=^-535||^34<44<84/4///4/1/4//1q11111;9;11;1(1;;];]](1]]];1]]1]9(]*;9;9}}}l66*64/1/8e                                                                                                                                                   &^^-^-k35g|^|:;<4/4</444//;q14/11/119/;111;1;];9;;*9;*}(;}9e,]}(9](;}]((9}*96*691---k=355||3/</448/4/////1;/4/11;;;/(;](;1;(;9;1]9;}}9;]",
";9]999];9}66]}]]9*]}}*}]]*}]]9*]/:^-5=|5k||4/<:8<<4/4////1///1/11111/11;1;;(;(;9]]9];9}6]*},]}},]***}6}}6*}9}*]441t<e                                                                                                                                                   &k^^^^k3g5gkk51/444/4t/1qwq1111;111111;1111(1i;(]]}]9}]]9*},,}**]}6}]***]}}}9];*/^-^^:3|g||541<<<4<////1/111t1111;1;111;;9999(]99]]]](9*",
"11;19;;;99](99999]]1](};}]]99}}]13^-355|g^|31:4<4<<4/4////////////;q111q;1;1;111;1;11/(9]]]]}]}}];](}]*}}]]},*e///4:e                                                                                                                                                   &^^-^-^3555^|^:18<</<<///////4//1//1;;11;/11111;;1;1;(91]9]]]9e9]9}9(]9]9]}]](*}1---^3355|kg31<4444</4441///1/1/1/;(;1111;;;;i;1;;(;;/1(",
"(;1(;(1;(](9(;]]9(;]];}]]6]**]}91:^-55|35|k|:/<<8<///////4///1/<=:4/1;1;;;1//;991;s911(]99]9}}]};}};}}},}6*}}991//4:r                                                                                                                                                   &k-^^^^7k55|^||//4v<<//111/1/;1;;1<:81199(((;9/;9};1;((;9]]}]}]}9}9(*};}9]*}**9}1^-^^:gg55k||<//44<1/11111/(1;;;4<:/19]99];]11(}(;;9(119",
"444<444:<<4<<:<<4/1/;/11;;1/119;/=^-38|55k^^|5=35533==:335=3=::333353:8=<::3=:4444444<444</<8<//;1;1;1((;11/s;9//44=r                                                                                                                                                   &^^-^-^:=k3|k^g|3==53==33:=33:::<=35333=8844<8:::4/4//1//////48:4411;;1111(11/1(1---^=<k55|^||===55=:=:::33:::8:=53333<<444:=:<4////////",
"3=35535553===:=353553=333=333://4=^-|8=|55^|^|5333g5g3333=33533=3=333==5535=3:==33533553333:=353335=335===3=<11/4/<7r                                                                                                                                                   &k-^^^^=<3k3||k^|g3353g5533=3==3553===3353g55=3:===35353|333===355535333333=3==/<^---38=k35|^||g5=55g5|3333=335g3===3333g5553=:=33535355",
"5|||gk||5|555|555|55=33555553=88=|^-^^k^^-^^^^^^^^^^k^^^|^kk|^|||^|^|^|||g55||gg5|g|||555555355533=3=355353=<44:<<8=r                                                                                                                                                   &^^-^--^|^^^^^^^|^^^k^k^k^|k|kgk5g5^|^k^||||55g|5|g|||||5|555|555|55=33555553387|----^k^^^^^^^^^^-^^k^^^k^kk|^|g5^|k|^||||ggg|||5|||||5g",
"^-^^---^---^-^---^^^^^^k^^^^^^^|^^-----------------------------^-------^-^^^-^^^^^^^-^-^-^-|^--|^^kk^|^k^|g|k5g53===i                                                                                                                                                   &k-^-^-^-^-^---^-^-^---^-^-^-^-^-^-^-----^-^^^-^^^^^^^-^---^-^---^-^^^^k^^^|^^^^---------------------------^-----------^--^^-^-^^^-^-^-^",
"----------------------------------------------------------------------------------------------------------------^^k^r                                                                                                                                                   &m^-------------------------------------------------------------------------------------------------------------------------------------",
"-----------------------------------------^eadk---------------------------------------------------------------^-----u&                                                                                                                                                    c^^-^---^---^---^-----------------------------------------------------^mzyd-----------------------------------------^------------------",
"|^^^^^^^|^|^|^|||||||||||||||||||^^^|^|^|5zhhr7^|^|^|^|^|^^^|^|^|^|^|^|wplpxzpzpzpzpzpzpzpzpzpzpzpxexexexexezpzzzpz&                                                                                                                                                      cpzzzzzzzzzzzzzzzzzzzpzpzpzpzpzpzpzpzpxxpplu|^|^^^^^^^|^^^|^|||^|||^5wzffx5|5||^k^|^^^|^k^|^|^|^|^|^|^|^|^|^|^|||^|^iphet||^|^|^^^^^^^",
"<<<<<<<4444/4/4/4//////1///1/1/11//1/1/111/1111(1;1;1;1;1;1(1;1;;;1;;///qpc                                                                                                                                                                                                                                       cp3|:<<<<<<<<4444//44//1/1/1/1/1/1111111/1/111/111111;1;1;1;1(1;1;111;;;1;11ehdm^|:<<<<<<4<4<4",
"//1/9;9/11;(]99((;};9]}]}]}]]]6}}}**}*6,*6>,l,,,,>>l>nnnznn>nlznnnn>n,n}1=^mxc                                                                                                                                                                                                                                 &ad^-^31111111]](11;(}}*(}]]}}}66*66,6*,,>,,,l,>ln,nnnnnnn>nnnnznznz,nn>>nnnn>*n1--^5t(;/;((1;9;(",
"1;1;(9;9;11;9911;]9]]]}}]];]*6*,]]9]}*}]*,,>>nl>,n>>l2nhn_nhnh>nnhn_zhzl;;4|-^x                                                                                                                                                                                                                               &u---^^=1;/9;;(}99]911;*]11]}*},6,,,}],>lnl}}}*,*6},nhnhzhn2nhn_zhzhz_nhnnn2nn>nn]---54]/;1*99]9]}",
";;;;;;((9///419;((]]]]]]](;1}}6(;11;]];;6,l,>,>ln,nnnnznnnznznnnznzzznn6;1/7^-^x                                                                                                                                                                                                                             c3-----^5;949(;(;99]]//1<(]]]}}*}*6,*}(;6,>](((}*,]}6nnznznznznznznznznznznznznznn;---g/;:1(((;]]]]",
";;114;1;;(/;41(9;(;};999]9]/<1;;;11]}*]*6*6*6,6nlpln>>>nlplzpnnnnnnzzznn(;44|^^kc                                                                                                                                                                                                                            f-^---^^=/;49;(1/;](991(/;}99]]*]}*},],14(}9}(},>lllnln,>nnnznznnnzznnnnnnn>nnnnnn]---3/;</1;;;;]9]",
"i111;/91;1//9/;/1;1((;9;]91944;9](9]}],**}}]}***,,l,l}ln,l>n>ln,>nnlzzz,(1/4=-^k&                                                                                                                                                                                                                            f^-----^341<(;1111((;;/;]/(11};}]}}}6*;lq/9,,**,,,lnlnll,nlnnnnnnnlz>nlnlnlll>,,ln9---5418/;11;;]]]",
"111;19;;1;;/1911/(;((9;(19;}11}1;(];(;]}6,]6*6}6,,6,,llnl}nzln,>nn,nnzn>](1/:|^kc                                                                                                                                                                                                                            f-^-^-^-u4//(1(;;;;;(9]/9](;;]]}6*}}]]],]1l]*}l},}}lnnl>nl>ln>nnnnnnn6nnn,>,nllln>]---54/419;;1;]((",
";/111111;11//;;1;1;;(;;;;//;]4;1;1(;(;1*6*}o*}}*****,6,,>,lll}*},,>>zp>}9;14<3^k&                                                                                                                                                                                                                            h------^5/44;1;;;;1;(;111}999]]]]}]}9;/(*q(]}}***}/llnln,>,>l>ln,nnnlp,n,6***,,>,l;^--g4/</(1;(;1;9",
";11111/;;;4//111/;;;;(((;;1;;41(((;9;18}6*}6}}]6}***,l,>,l6nn6}}*,6nnz,6(;//8:^kc                                                                                                                                                                                                                            f-^-^-^-344v;;;1;1;(];111;9;19}9]}*]}]]]}/9},***69<}n6l>l,6,ll>ln>n>nl>nn,6]}*l,>l(---5:/81;119;;(9",
"1///1///1///1/;//1;1;1;;;;]1;;9;9]]]9(v4*}*}}**]}6,*66**,6>lr6,*,,,,npn,91148:3^&                                                                                                                                                                                                                            f^---^-^584<1;/111/111111;(1/999]]9}]}6}}**}]l6l6}</,>,>,ll6,nln,l,,,l,nr6l6*666,l;^--|84</;1;111;;",
"q1///1/1///11111/;;;1;;9;999(9991]]](};1/]6}],**6,*l6}}6]l]n6l,nlnl,nll};;1/<:=gc                                                                                                                                                                                                                            f-^-^-^-338=11q/11111/;19;;;;]]]](}**},*66,}96l,,,]1/}nln>nlnllln666ll]ln6,,l,,*l,1---g=3:11;;11j;;",
"1//////4/4/11/1111;;;;;;9;;;9;(9(s99](]9;/6}}]}}6*66,}9(}6}ln6},l,l,n,,;111/4::3&                                                                                                                                                                                                                            z--^---^|=33///1/1////1;;11(1(9]]]]*}}]**}}6]*6,666*91ll,,,l,lln,6]9}lonll},66666l1---k:33/1/;11111",
"1//1/1/1/q//11/1111(;;1;;9;;1(;;9];(;]9(;}9}*}9}}*6l*,,l,l,n6,}l,>lll>l]/11/<8:8c                                                                                                                                                                                                                            f-^-^-^-m==3;/11111/111/;1;;;;]]]99]]*}9]}}9***}}*6}*66,>*6,l,nnl,nlnlnll,*6,6l666;---m7=511/11111;",
"<///////////111/11;1;1;11;(;;;(;999;(s9((9}]}}]]*}***6,6l66l6*l6,ll,>66]/11/4::8&                                                                                                                                                                                                                            f^-^-^-^g=358//1/1/1/1/11;1;1;;]99](;}}}]}]}}*}}]}}*}66,,l}66,,l,l,>ll*,66666,*6*,1---k:=5=//1/1/14",
"^<////4/4/11/11/q1111;;11;1;1;;;;(9;1;(9;(9]]}9]}}**6*}66l}666]*}666,66]/11/4<:dc                                                                                                                                                                                                                            f-^-^^^-m<=5|81/1/////;111;1(;;;(9];;(9]]]]9*]*]99}}*9}*66}}66,6l**6ll*}l*}}}}*]6}1---|8=5|=;11q1qq",
"5:4t/4t4/4//1///1/q/11q1;111;1;1;1;1;1(1;9((](9;]]*]]e}}*}**6*]]]}6}66}(//144::8&                                                                                                                                                                                                                            z^-^-^-^k853584q///////11;111111;(1(i9;9(]9](]]]9]]]r}9}]}}}}6**]*}6*6*66*]}]*]}}6/---^4335841/1//q",
"3=<w4/44444141/1q1/1/1/111/;;;1;;;19;]i(99(99999(]]}}*}}}66l}]}*o*}6,6x]4///4<78c                                                                                                                                                                                                                            f-^-^-^-g:k3:3/w///4/411/1;11;;1;1;;;;;9]((9]]9}]}}]}}]]}]*}]}}}66*}*6l,*]}}*}}}**1---k335:31////4/",
"43:/44/44<44v4//////////1/11;1;1;;1111];999;(;(;9]]]]]]]}}66*]*}]}6}6((14/q4<::b&                                                                                                                                                                                                                            h^-^-^-^|:^^4::14/4/4<4/t//1/1/1/11;1;19((;9(]191(}9]*]]]](]]*]}]}]]}6}6*]]*9]]]]9/---^3|^=<:/4///4",
"|5:q4v<4<44<<///4////1/1/1111;11;;1</4/1(999;;;(;9]6]9]]]}}}]]]}9]]}}}]94//4<8=:c                                                                                                                                                                                                                            f-^-^-^-|g|^5=<1/<44t<4</11/w/q/11;111;;9;;;99;<j41;]]]]]((9]]6*}]}]*}}}*]]]]9]9]]/---k3|^|3</44/44",
"^^<<8:<<4/4<////////1////4/11/1///1/11/(91;;;111;199];}}*}]9;(](rs9;;}];444<<===&                                                                                                                                                                                                                            z--^-^-^^gg^^^<4:<<44144/;1/4//111/1/11;1;1/4;;;1;19s;9];;1(;19]]]]}}}9](99((((;1}/---^3|^^^3/7<4//",
"^|5/8<<<84<4///q//4//////1/1q111q1/q1;;;;;;;1(;9(]9]]]]]]9s](]99((1(;;;;<4<<:=3uc                                                                                                                                                                                                                            f-^-^-^-k|5k|^31<<4<<4//1/1///1/111/11111;;1;1j/;(9;]]]((9]]}]}]]]](];(]]99;(;1;(;/---kgkk|^5//4484",
"k^|8<:478::::8<44</<<<<<4414/4/4//11//1/t/111///1/1/1/1;;(9((;(]]]]r](}(<:<::==3&                                                                                                                                                                                                                            h^-^-^-^k5||^|^44<4888:87<</444<<4<4tq1//q///11;/1/1/11;11/111/1/119;9(](;1]]](999/---^3^g^k^</848<",
"k^kg4<<<<<<44///44//4//1//<44////1///111//111;111111/1/1(9;;9(199;;}991;<:<8==3uc                                                                                                                                                                                                                            f-^-^-^-k=|55^|5/<4<<<44/////4/4///41/44//14111/11111/11(;;1;11111/199;;];1(];199;/---^=3||^||:4<<<",
"|^^k=<7:::8<4<444<4444/4/44444/4/t//1/1q1/1/1/1/;1;1111;;1;;;;;;9((;1s91:3<==333&                                                                                                                                                                                                                            z--^---^^3^||^^|=47<:8:t<<4t<4444///4/4/4t/////1//11/111111111;;1j1;;;;9;(1;;(1;1;4----3||^|^|3/=:=",
"||^||4=<8:<4<<<444////4t<<<///4////1/1/1/1/////1111;;;;;11;;1;11;(;;9;(;:3::3353c                                                                                                                                                                                                                            f-^-^-^-^3k|||||5/:<<:444<44441/1//444/111//1/;11111q/1/1/111/11;1];;/;;11111;;19;/---^35g5|k||44<d",
"5kk^|5::=5=:8:<88::<:</<33===:444//4::</11111///111/4/11(;1;/1;;((;;11(1<5:33555&                                                                                                                                                                                                                            h----^-^^=5|5|^^|3:<=3=4<<<4<<<48//433=::4/1111/<<41;(;((;/11;1;411;;;1;/11;191;/14----33^55^k|3</4",
"5g|^^||55||555|555|553553533|55553333=33=:=======33==333:<<4:<<<<<8<<1/t8335|5|3c                                                                                                                                                                                                                            f-^-^-^-^=:|g||^|^|53||53g5535g53335=5335|3333=3===3<::=:::=:=3==333:8<:<:8:<<::</4---^5:5g5g||||53",
"^^k^k^^^|^||||||5|5g555|5|555|555|555535355g5555553533355533355|5533=:<<=55||^|k&                                                                                                                                                                                                                            z--------535^|^|^^^||||g||k||g|5|555|g55|555|55355535555|555|5533355555355|5|33=385----|33^|^^^^^||",
"---^---^-^-^-^-^-^-^-^-^^^-^^^-^^^^|^^^|^k^|^^^k^k^^^^^kk|^gg5||||^|g335^^^^^^-j&                                                                                                                                                                                                                            &^--------^---^---^-^-^-^-^^^-^^^-^^^-^^^-^^^^|k^^^^^^|^^^k^^^^^^^kk|^gg5||||^||3|------^-^---^-^-^",
"^^^^^uumm^^^^^^^^^^^^^^^^^^^^^^^^^^^^^^^^^^^^^^^^^^^^^^^^^^^^^^^^^k^^^^^^^^^^^w&                                                                                                                                                                                                                              cm^^^^^^^^^^^^^^^^^^^^^^^^^^^^^^^^^^^^^^^^^^^^^^^^^^^^^^^^^^^^^^^^^^^^kmutu^k^^^^^^^^^^^^^^^^^^^^^",
"&&&&&   &&&&&&&&&&&&&&&&&&&&&&&&&&&&&&&&&&&&&&&&&&&&&&&&&&&&&&&&&&&&&&&&&&&&&&                                                                                                                                                                                                                                 &&&&&&&&&&&&&&&&&&&&&&&&&&&&&&&&&&&&&&&&&&&&&&&&&&&&&&&&&&&&&&&&&&&&&&    &&&&&&&&&&&&&&&&&&&&&&&",
"&c&c&ccc&c&c&c&c&c&c&c&c&c&c&c&c&&&  &&c&c&c&c&c&c&c&c&c&c&c&c&c&c&c&c&c&c&c&c&c&ccc&ccc&ccc&ccc&ccc&ccc&ccc&c&                                                                                                                                                               &c&c&c&c&c&c&c&c&c&c&c&c&c&c&c&c&c&c&c&c&c&c&c&c&c&c&c&c&c&c&c&c&c&c&c&c&   &&&c&c&c&c&c&c&c&c&c&c&c&c&c&c&c&c&c&c&c&c&c&c&c&c&c&c",
"8<:<8<8d<4<<<d<4<<<4<4<4v444v<:::=m3ud=:=:=:===::::<8<8<<<84<<<<<4<t4/44v44/4/4/4/4////1/1/1/1/1/111/1111;1q4/;e*pf&                                                                                                                                                      cxwd=444v4<<<<444/4/4////q/q/1/1/1/1/1/4<44/44<<8<8<8<<4<<<<<4<<<<<4<4<444<<:j73g|m:=:=:=====::::<888<<<<<8<<<<4<444<<8<8<<<<88<:<8<<4",
"(;;;(;9(9;9;9(]999]99999}r9;]rs143|-544<44<4/444/41/1/1///111/1/111111;;11;;999;(9]9]]}]}]}]o]}e}e}]}]oo}]}err9114<e&                                                                                                                                                    cg--^5</4////1//4//111/11;1;1;;(;91](;;;99;9;99999999]9]r]9]r]r]r]r]9]9]]];99913---|<t444/4/4/4/41///11;1;/11;1;1(1;;9;(1;;999;999999]r",
"]]]}}}]o}o}}oo}oo6olololxlololol1<5^:1///1/1/1/1/11;;111;91;;9(9;9;;(]]]9}]9]]]]]o]}}6ooooololxlo6ooolxlxlx6xl};;;/4[                                                                                                                                                   &u-^-^3111/1//1111/11;;;1(;;((9]]}]]]]]9]69]}o}}}oolololxlxlxlolxlololo6xlxlololj^-^g/11/11111111;1;9];;;}]9]}]}]}]]]oo6}}o6}lo6olololol",
"11]]}r}e}ro}}eooxoooxoxoxox}xo}9;:5-:/:/4///1/11/<//144/(;;;(;(;14;;9(;/1/;;(11(}re}oe}eoeooooxoxoxoxexoxoxxxr];;1/4e                                                                                                                                                   &^^-^-3/1/;/1/1111141/1//4;(](]]]]91;(]]}r;(]r]((1]oxoxoxoxxxoxxxxxxxxxxooooooxo1---g41:14;q;11;(4//1///1]]]e]e]}1/9}}or1(;r}r](]oxoxoxo",
"1]]]]}]}e}eo}o}ooo}ooooooooooxxo;8|-:1:/11///111/<4:/1/11;;;;(1;;;41191////((11}]}]}}}e}eooooooooxolooolooolxxe;;;//*                                                                                                                                                   &k-^-^511dj11/411;;14/=;(11((((]]]]]s119]111;99};9oxoooxoxolxxolxxoloxxlooo6oool1^-^gt1</111/11;;14181;;((9]9]]9]9r//9];111(9};9}xoooool",
"(99(;(]9]]}9]]]r}e}r}]o}}eoroooo9:|-=4:4///<4/q/14/4/11/1/1/1111111=4/1/11;;((9999919]e]eeoee}x]o}oeooooo}ooxxo;;1/4e                                                                                                                                                   &k^-^-34/=14//4/111/4111;/1;11;;(;]1;4=411;;]]]ro]oe}]}}oooooooeoooooooooeoe}}oo;---5<18//1/441/;1/11/(11;;(;9](ej(1:41199]9]]}r}}or]]oo",
";9((;9]9]]]]]}(}o}]}e]e}]o}o}6oo9<|-54=4t14/41/11/414//4/1111111;;;/<;/11;;;19(99]99(]]}]}e}]oo}}oo}}o}o}ooool}9;144e                                                                                                                                                   &k^^-^3:/81/411//1/1/1;/11/]1(;;;]]];;44]]9]r}]]e}}oe}}o}6oo}oo}}lo}oleo}}}}eo}x;^--g:48/11///1;;;//;/1;/(;];9999}r]4<(;9]]}]]]}}o}}e}}o",
";(91;(9;(999]]]]}r;r}r9r]r}roe}r;:|-3<<</444//1///441///1/1/111//44/:1/1111/1/(99;(]](9]]r]]eree]ror]r]r}}oo}e};;/4<e                                                                                                                                                   &^^-^-5<<314////1q1/1<11111;;1;1;;(1/;1/]9(;9(9;;re}]reeereeo}o}oooi}oer}9]r}ree;---g:<4/1/4//;1;1;4/11111;;((](1///(8r19(]99;qr}r]]or}e",
"r(9;(9;;(](9]]]]]]r]e};99]e]exe]1:|-3<<////////1/<///1///1/1/1/1//41://111/11=1999;9(99]]}]]]]]}e]eo9((]}oeo}}9;114<r                                                                                                                                                   &k-^-^54:5//4//1/1//41/111/11;1;;1;;41;<;];;(991:]]o]}e}]}eoeoeo}oeoroe]9](]]}}o1^-^g8</11/1/11;114;111;1;;;1;(;1;1;9</;99;999:i}}]}e}r}",
"9991((91]9;(((](99}reror]9oree}r;:|-5:<4///4/4//44/4///4//1/1/1//1;111111/1//=1r(;9(9;]99999}9]r}r}re9]9oe}e}e}11/48e                                                                                                                                                   &k^-^-5=<5////////1t44//14//11;111;111(/9;;;;;;/:;or]ror(r}r}r}r}]}r]r]r]r9r}]}r1---|=<<//1/////1t///11//1;1;;(;119r]99;9((;;/:/}r]r}r]9",
":i(9;;;(;9(]9;(9(}]]]19o]]e}eo9}18|-^==4<44/4/4/4/4//1/////11111/1q11111q11111819](999;9r]]99]99r]ei(oeoeoeoeor;114<r                                                                                                                                                   &k^^-^|5:=//4///4//////11//1/11;1;;;;;;;;9;;(9(]4<ioeo]}r]]}}o9}]]]}ro19e}]}]}]rq^--|3=:4/4//1///1/q/1111;11;];9(;(;;9(91;;9r9;<1oee]o]]",
"1:19;1(;((99]91;(991or9rorer]r;;/3|-|33<<<4444444444/4///4/4/1111/1/1/1/1q;1;;;</;(99(9(]r]r;(99}1rr9r]rer]e]9;/1/48r                                                                                                                                                   &^^-^-|5334v/<444<44/4///////1/1(;;1;;;;(;;(](;r;18jor]r}reror}9]r]r;rorer]r]9e9/---|5=34<44/4/4/4/////11//111(((;1;(;9(;;9999e94ter]9]r",
"11/(;;(9(9999]999]rre}9}e]r}]or9/=|-g554<4<t444/<444444q4///4//1//11;11(1;11/111/;999]9]r]r}]]9}e]r}9]roeeror]1//14<r                                                                                                                                                   &k-^-^k=534t4444<444//4////1///11;;;1((;;(r99;99(];1r}roe}ro]}e}e]roror]]}r]]]r}/^--k=534444//4//441/1/111/1/11;;119(9;(r99;((r]91;o]}r}",
"11;/;;i1;;(;99]9]99(e9]9]r]r]r];1=|-55|<4<444<v<444<4////t///t1///1/11//1/;11111;191(;999(]9]r]r]ror]r]r]r}r99;/1/4:r                                                                                                                                                   &^^-^-|=554<44/444/4/4/4//1q1////1;;;111;/(;11;;9;(;;r]r99]r]r}rerer]r]9]9]9]9]9/---|33|4t44/4444/////1/1/111/11;1;;11;/;;1;(((;(;;999]9",
"1;1;1;;;;9((999]9]9]r9;]99r]roer/=|-53|3:444<44<</444////1/1//11/11//1111;;;;;1;;(;;;((99]9]r}9}9]e](]]]]o]}r]1///48r                                                                                                                                                   &k^^-^k=|||/4t4/<4444/4//111/111111;;;1;;9((;;(]9((9r9;]9]]]re]}r]]]ror]9]9]r]]9/^--k=5|3<4/4t4/<///4//1111;;;1;1(;(1;(](((]rr((9]](;]9]",
"1/11;111(;;19;;99(((]1;;9(;999];/3^-35||5<<<4<<4<<444<44444/14////1///11;1111/11;111119;(;(;9r9999]1(;;9]r]r]914/44:r                                                                                                                                                   &^^-^-k=55|=/844<84<44/444////1/;/1/1111;1(;9;;;;;;;];(;(rr999r9]9]99r;;(;9;r;99/---k=3|g54</444/44//444//1/11111/1;;1(999(;911;(;;;9;;9",
"111111111;1;;;;i;(;99;;(;;;;;r;;4=^-35|5=<<<<<<4<<4//44/4/4///4t///1/1/1111;11111;;;111;1;;(;((999rs((;9r((o991///<:s                                                                                                                                                   &k-^^^k:|55<:<<4<<<<<//q4/4//1/1/1/1/1/11;1;;;;;;;1;;;;(;;;((9;9(9999r;9;;;9;(9r4---^4555=4/<4<444<//1t1/////111/1/;111;1;1;;;1;;;;9;;1;",
"111/111/11;111;;;;;1(1;;;9(;(r9;45^-5||=5<4:<<88<<4:<4/444/4///4//////1///;/;1;111;1;1111;11;;;;(;9;(;9r9;(99;14/4<=s                                                                                                                                                   &^^-^-|3^|:5<<<<<8<:448</4/4//////1///1/111/1;1;1;;1;1;;1;;;;;;s9;9;;(;;;9r;;;9s/---k=5^:5/4<<48<<44<<///4///11/111/11;11/1;1;;111;1s;;1",
"1111q111/1111;;;;;11s;1;1;;;1;;;43^-|5^33=<<<48<<<<444444/4///4/4//////1//<14111q11;11/11j1;;;;;11(;1(;99;1(;j144/<:s                                                                                                                                                   ck-^-^k=^^=:=<84<<<44/4/444/4///4////111/;11444/1(1;1;;(111;1;;;;9;;19;;1i;;1;1;<^--^35^3=34<4v<<4<///4/4//1/1///1/1q11;11/v/41;1;1;;911",
"/4/11/1///1/1/11;/11;11111;111;1/3^-|5^^^38:<::u:==:<<44<<<<4<4</444/4<41/444<//1q//1//////111;11191;1;;;;11;11<44<=s                                                                                                                                                   &^^-^-k5^^^|:=:<<::<:=<<44/<4<44/<4//4/444//14/44///;q/11///1111;;11;;;1;1;1;1114---^55^^^=8<8<::::38<44/<4<4444/4/4///4/114/44/1/1//11/",
"q111q1/111111111q11;1////1q;11;145--k5^k^3<::::88<<<<<:8<444<<44/4<44//11/4//1/;;1/1111;11/111/j1;;1///1q;11;;/<448=i                                                                                                                                                   &k-^^^^5k^^^=<=<8<8<44<<<<844t44444/444/1111//1;11j9111;1;1;111;111;;;////1111/(4^--^35k^^54=8:<8<44<4<8<44/44<///444//;1;///111;;111;1;",
"//111//4///t//q1111114///11q1/1/45^-^|k^k^<88=3==::==8<44<8:8:<844444//////t////1/1//41///q1111111;///1/1/q/1/184<83i                                                                                                                                                   &^^-^-^k|^|^5/:8==:=<::8<4<<8:8:<84/4//t1/1///////111//t//1t//1/11;111/4//111/q/4---^kg^|^|4<<:387<:==<<4448<8<<<4/4/41q111///141/111///",
"4<//4/44<441/44///////4//11;/j114=^-^|||^|5:3:====::8<:4<<8<<:<48<<444<48444444<<4//44<444<//////1//4///1;/qj118:4:=j                                                                                                                                                   ck-^-^^5k|^k^:8:8:==3:=<::4<84<<:<<<444<<44<//4444<44/4444<//144/141//4////111114^--^55|k|^38u::=u=8=<8:44<<<4u4<<<<4/44<<44//4/<44q/444",
"/////4/4//////14////1/1////4/v1/<5^-||k^|^|=8===7=:88:::<:88<<88<<44<4/4/444/4///////4////////1q1/1/q///14/<1//=:<:3i                                                                                                                                                   &^--^-^5k^|^^^<=7788<=88<888<8<<4<4444t<44/4444/q///////////1/1/4/1//////////44q<---^35^|^|^78=37=::<:878888<<<8<<444<4///44/4///////4//",
"444///<//////////1//////11///1/1<5--g5||kkk3<======8:::8:<8<:<8:<444<4<444<44444444/<44////////1////1//1/1/11;/88<=3j                                                                                                                                                   &k-^-^^g^||^^|34===:=::<:<=:8<8<<<:444<4<<448444<4444//44//////q4//1/1/1/111///1<^--^3|g||^|5<3:=:=:8878888<<:<<:<44<<<<</444/<4444/4<4/",
"4444444</4///4/4///4/4/4////////43^-|k|||^|^=::===<:8::88::=48<===<<<4<<4<4<44/<44444</////4/4///4/4/41/////1/18<:=5j                                                                                                                                                   &^^-^-^5|||^^^|<7=:=::8:8=:8<784<:==8<444<<<<<44/4/4/4/4<///1/44//////44//q////4<---^3||||^^^=8=:=:<<88:<<8::4<8::<444t<<44444/444/444v/",
"<4<<<4<<<4<<:::<414//<4//////1//83^-|3^g||^||=35|53=3=335553===5|5555==:::=:==:4<4<44<44<<<=:441///44//1/1/1///:::35i                                                                                                                                                   &k-^-^^=5k5|^k533:5||=333=335==:==55535=7::<::===4//4///4/44<<=:4/1///</////////8^---33k|5^^|53=5||=====33g=3:::355353::84<:===<4/////4/",
"355g5|5|5|55535|555|5|55353533<8=5^-|35^5^^^^^||gk|||^5|||g|5||g555g555|g|5g353555555|5555335555555555533533:<4==3|u&                                                                                                                                                    f^-^-^5uk|||-^^^||^|^||g|||||555|553|g55||555g5353555555|5g553555355555353535=<=---^|=g|||^^^^|gk|^|^|g||||55g|55555|3|555555353535555|",
"||||||^||||5|||g|||5555g|5|5g33=5|--^|k^^^^^^^^k^k^|^^^|^|k|k|k|k|k|^|||||||k5|g|5|||||||5|g|||5|55535|5g55==:=33ui&                                                                                                                                                      adk^-k|k-^^^^^^^^k^|^k^|^|k|k|||^|||k|||k||gkg|||5||^||||5|||||g|g5555|g||g33=|----kkk-^^^^^^^^^^|^k^|^|^|k|^|k|^|k|k|k|||k||g||||k|||",
"rjiiiwjjijiijjijissirrrsssijssrsppaycxjjjjjjjjjjjjjjjjjjjjjjjjjjijijjjiijjrisirjisijjjsiiijjiwirsirresrriirrerfa&                                                                                                                                                           &apwjjjwjjjwjjjwjwjwjjjjjjijijijjwjwiiijsiiiijiiijjjijiijjjjisiirrrssssjisefcyfxrjjjjjjjjjjjjjjjjjjjjjjjjwjjijjjjjijjjiiiiijiiijjjij",
"                                                                                                                                                                                                                                                                                                                                                        &                                                       ",
"gkkkgrpjdmmkgkkkgkkkgkkkgkkkgkkkgkkkgkkkgkkkgkkkgkkkgkkkgkkkgkkkgkkkgkkkgkkkg^e                                                                                                                                                                                                                               &bkkkkgkkkgkkkgkkkgkkkgkkkgkkkgkkkgkkkgkkkgkkkgkkkgkkkgkkkgkkkgkkkgkkmutehjkkkgkkkgkkkgkkkgkkkgkkk",
"||^|^|^|||^||||||||||||g|||g|5|5||^|||^|^|^|^|^|||^|||||||^|||^|||||^|^|^------e                                                                                                                                                                                                                             &3------^||||^|^|^|^|^||||||||5|||g|5|||5|5||^|||^|^|^|^|^|||^|||^|||^|||||||||||-----^||||^|^|^|^|",
"===3====:=::::::88<:<88:8:8:<<<<<:8:<<<<<8<8<<444444444444444444/4444<<:=5|-^-^^c                                                                                                                                                                                                                            z------^^33==73======:::=:=8<8:<8<<<<<<<<4<<<<<<<4<<<4<4<444444444444444<4<44444<:---^^3=====:===:=",
"844<4/4<<44//q4//////1/1/111/1111j1;1;1;1;;i;i;s;9;s;i;9s9sssii9s9;ss9s1<<:5-^^kc                                                                                                                                                                                                                            f-^-^---54t<<<4<1//844//11111/1/11;1;1;;;1;;i;s;i;ss9s9s9s9s9s9s9s9s9ss;9;ssr;i;;s4---|:/444/444/4/",
"4444/4444<44/4<4/4/4////////1q111/111111;1;;i;i;;;s;;;sss;ssr;ssrsssrss144:=k-^^c                                                                                                                                                                                                                            z------^g444444///4/44/11/<44111111;1;1;;;;rj;ji;s;i;ssrsssrsssrsssrsssssssrsssi1s/---|:/44t//4/4//",
"444/4/4//8:<:<44/q/1/1/11/</111/444//14/1;;s;ss9sss9srsrs9srsrsrsrsrss;;4/::5^^kc                                                                                                                                                                                                                            h-^---^^54/:14//////1:44<</411;1;1;;;q//;;911//1;111;srsrsrsrsrsrsrsrsrsrsrsrsrs9s/---|:q=4t////1/1",
"44/<:44<44<<=</444//////1/1:<4/<4<//111/;111;1;;s;s;s;s;;issssssssssrsr;/4<==k^^c                                                                                                                                                                                                                            z^-----^5<4:4/44:/4///</=4///1/;/111j11<8114///;;s1;ss;s;ssrsrsrsrsrssssss;sss;sis/---|:4=:/t/<4///",
"4444<<4444:</<4<</4/4/////4/8/4//1/1111;1111/;11;i;i;;;s;sisi9ss;9;ssrsi//<:33^kc                                                                                                                                                                                                                            f-^-^-^-5=43/4/4t414/4<41</<41/11/1/;q11=<11;1;;sisisss;;;sirsssrisssssi9ss;s;i;is/---g=43<444/41//",
"4844<<44444<48<<<44444/4////<4/4/4///4//111/1111;111;1;si/ssi;;;i;;;sss;/4<:=3g^c                                                                                                                                                                                                                            z------^g=:8444/<44/4//<4444<//1/1q1/1q;<<j11111111;;s;;ji;s;s;s;s;ss1;s;;;;1;1;1s/^--|==<4444</4/4",
"44<444<444<<<44/444/4/4/4<8//</444//44<1111;111j1;1;j;jsi;;s;/111i;sss;1//<<=33gc                                                                                                                                                                                                                            h-^-^-^-5==:/</44444/4/44/////q/1/11/4<41<1/1/111/4;s;iii;i;i;i;i;sssjssi1j11j;;;;/---|=<:4444/4///",
"4<<<<<<44<844<4<<4/444/4444<4=4444444<=/1/1/1///11;1;j;j;j;;iw1/11;;sii1444:=333c                                                                                                                                                                                                                            z^---^-^|:==44<4<4<//t8/4/44v////////14//:41/14/1/=wj;j;j;1;;ij;;iji;iji;j/1/11;j;4---^3<<<444444//",
"<4<<<<8<<444<4<<<4444/4/4///4//44144/q=v1111/1111;11/;1;1;;sqs111sjiss;;/4<8==3uc                                                                                                                                                                                                                            f-^-^-^-g3:=444<4<<</4/4/4/4441///////j111j/111/i1u<;;ij;1;1;;;11j;;;;si;;j1;1;1i;/---|3=<<</44<<4/",
"48::8<<8<8<<<<<<4<444444/4/////444////48<q1//1111//11/111j1;j1;j;j;1iii/4<<::33=c                                                                                                                                                                                                                            z--^---^kg3=8<8<84<<<<</444/<4/////1//q1q1/14111114<<jj;1;j;1j1;q11j/j1ij11;jj111;<---^3|=<444<4<4<",
"<<8<<<8<:<84<4<4<<<4444/44<44444444//1/1<4///1/111111q/11;4sj11jj;11ii1/<4<<==3uc                                                                                                                                                                                                                            h-^-^-^-|535<84<<<4<<<44/44444/4/4/11////4////1111;1441q;j;j;;i1iq/111/j;111j111;1<---k33g<444444<4",
"4:<<<<<<<88<<<<8<<444<44444<4444///4/4/44/1/1///11j111111111;111;1j1;j;4<<4::333c                                                                                                                                                                                                                            z^-^-^-^k3|5<<<v<v<4<<84<4<<444/4/4//qt//q//11/1/1/1/q1111/;j;j;1;111;1jjj/111111;<---^355:<<4<4<4<",
"::8<8<8<8<8<<4<v<4444444</4/4/4/t/4/4/4/4//1/1//11111j1i1;1;1;;11;1;j11q:<<8==3=c                                                                                                                                                                                                                            h-^-^-^-|55|<8<<<<<<<<<<444444/////4//////1/11//1/1/1/1111111111;j;ji111;1i1;111;14---k35|=<d<<<4<8",
"k38:8::8::<8<8<<<:<<<<4<<<444<44/4t4/<t4/4////1/1/1/jq11jq1jj/111/11j/1/::<:=333c                                                                                                                                                                                                                            z--^-^-^^=55^=88:8:<:<<<8<<4<<4444444/4/44/////1///////1111111111111111;11q1/1q11q<---^=5|^34:8<:88",
"|=:8:::::::8<4<<88<<448d44<444444/4444444/4//////1q1/11j/11i11/11j111j//:<<:==3uc                                                                                                                                                                                                                            h-^-^-^-k=5|5=88888:<:<84<4<<84<444444/4/4/4//////q4////1/1/11j11111111j1///111/11<---k=5||5<<8<<:v",
"g3::7::::=:8:8<8<<<:<<<<<<<<4<4<4444///4/4/////4////1/1///11q/1/111/j1j4:8<==333c                                                                                                                                                                                                                            z^-^-^-^^=^55=:8=8=8:::<:v<<<4<<8444<4<444444/4//1/////1/////1/1/1/1/1/1////11//q1<---^55|g5:8:<8:7",
":g38=8:::::<::8<8<8<8<<4<4<444<44/</8///t/4/444//////w/1/1/1/11//111q//4=<::=353c                                                                                                                                                                                                                            h-^-^-^-|3^^:g=<:88:8=8<8:<<<<<<4<444444/444//4/d/1/q////4//////1///111q1/1/q/1/1/8---^||^=538::<8:",
"||3::3===3=3::<=:=:8<8<<<<<<4<<<4<<=<:<4/444/<44/t//////1///1///1t///4q4:=:==55mc                                                                                                                                                                                                                            z--^---^^|^^|35:7=====3=7<<:=:84<<<4<4<4444/t4<=<844//4//4///q/q///1/1/1//////4/4/:---^5^^^33:=====",
"^^3:=====:===::::::<8<8<:88<<<8:84<44<:4444/<<:444<444444t4/444/4t4//1/4=:==33g3c                                                                                                                                                                                                                            h-^-^-^-k55^^^=:==:=:::=:787:88<<8<8::<<4<<:<44<4<<<44/44<<<4<444444/4/t44/4/444t/<---^5|^^^5:=3==:",
"^^g:==33======::::8::88::8<:88<8<<8<<8<8<<4<<<<<44/4/444//1///qq/4/44//<33=335gmc                                                                                                                                                                                                                            z----^-^^5|^^^|<3=3====:=::8:8:8:888:<888<<<<48<<<<<<444<<844/444/444////1/q4/444/:---^|^^^^k<==3==",
"^|^=3==3333=3====:::==3=::<::::::88<<<<<:<<<8<8<<<<4<<4/4///<//j/1/1////=3=355|5c                                                                                                                                                                                                                            h-^-^-^-kk|^|^|:=3=3=333====:::=:===8:4:<:8:<8<<4<<<<8<<<:<<4<<44<4////444/1/////48---k|kk|^^=83:3=",
"^^^|:3=3=333==:=:=:===8=:===::8887::8<8:<<<<<<<<<<<<<<<<4<<<8<<44</4444<=5=55||gc                                                                                                                                                                                                                            z------^^5^|^^^g=33=3=3=3:=:7:=73:::7:==:8:<:::<:488:<<<<<<<<4<<<48<4<<4:<<4<<44<4:----3k|^^^|333==",
"^^^|3=33333====:=:=:=:::7:=::::::8:<888<8<<<<<8t4/44444//44/4/4/4/44<4443535||^|c                                                                                                                                                                                                                            z-^---^-^|k^|^^^===3=3======:=:===:=:::7:=8:::<<<8<8<<4<4:<<44/4/4/4/<4444/444/444:---^||^|^^^57333",
"k^^^|:3333=3====7=7=8=:===:8:=::::<8<88::888<=:8<<4<<</44<4<<<<8<44<4</v3|3||^^d&                                                                                                                                                                                                                            ck------^g^|^k^k^85=33==3==:====::===88<8:78:88<<v88:88<8:=888<<<<44<<<4<4<<84<v44=----gk|^|^|^:3=3",
"^|^^|3=3553=3=====3:=::=355=3=:::8::=::<<<<<<::<<<8<84444<<4<44444444444=|||^^d&                                                                                                                                                                                                                              ck-^-^-^g|^|k^^|3=335====:===3==:8==53=::<8<8<:<8<<<8<<4::<4<<8<<44/<4<<44<444444:---^||^|kk^|5:==",
"|^^-|^|||^^^5||||^||g5|k||||||5||555||55=333=33335553533:===:::::===:<<==||^:z&                                                                                                                                                                                                                                cx^----33k^|^^^k||^^^||g||^|^g|5||||||^g55g333|5g3333===3=3353553======:=:::===<=----|3|^|^^^||g|",
"^|^^^^^kk|k|k|^||||5||^|k||5|g||^|^||gg5||||||^||||g55||||k||5|||g|g53==5up&                                                                                                                                                                                                                                     &zm-^|3k^^k^^^^^|k|k|k|||kg||||^||gg|k|||^|k||5||||||k||||||5gg||^||||||5|||5=8---^k5gkk|^^^^^|",
"----------^---^---^-^-^-^^^-^-^-^-^^^^^^^^5m|^^^^^k^^^^^^^k^||k^|^^^||g^8xfzhzhzhzhzhzhzhhhzhhhzhhfhfhfhfhfhfhfhfhf&                                                                                                                                                      &zzzzzzzzzzzzzzzzzzzzzzzzzzzzzzzzzzzzzzzfx3-^-^-------^---^-^-^-^-^^^^kkk^^-^-^-^^^^^^^^k^^-^^^^^^^^^^^^k^|||^|^^^||7xjk----^-------^-",
"------------------------------------------wfd^---------------------------^-^^^^^^|k|^||||||g|5|5g555535353535353535e&                                                                                                                                                    &k--^-^-^-^-^^^^^^^^^^^^^-^--------------------------------------------mpa3------------------------------------------------------------",
"------------------------------------------------------------------------^^^^||||5|55555535333333=3=3=3===3=3=333=333p                                                                                                                                                   &m--^^^^|^|^|^|^|^||||||g|g||^||^-^^--------------------------------------^-------------------------------------------------------------",
"^^^^^^^^^^^^^^^^^^^^^^^^^^^^^^^^^^----^^^^-^^^-^^^-^^^^^^^^^^^^^^^^|^||||5|55553333=3=3===3====:===:::=:==3=3=:<88=:i                                                                                                                                                   ck-^-^|5g5|5|555555353333333333=333=55555|||k|^|^^^^^^^^^^^^^^^^^^^^^^^^^^^^^^-------^^^^^-^^^^^^^^^^^^^^^^^^^^^^^^^^^^^^^^^^^^^^^^^^^^^",
"3555553533333333333333333333=5555|^--|555g5|5|55555555353533353533=3=3=333===3=333====:=:=:=:=:::=:::::::<<===<<<<:=s                                                                                                                                                   &^^---|3=3=33333=3=3======:=:===:::=:::=:==3=3=335353335333333333333333333=3355^----^|555|5|||555555553535353333333333353533333555353533",
"44<444444/4/4/4/t/4///////44///473|^|====:=:=:=:=:::::88:<8<8<<<8<<<<4<4<<<t4/4/4/4////1/1/q/1qq/1qq/1/1///1/w44448:i                                                                                                                                                   ck-^-^|==::::<88:::<848<<4<<<4444444t/4/4/44444/t/4/t/t/t///t/4///////4/t//44/445--^^====:=:::::=:8<:<:4<<<4<44<<4<4<44444444/4/t///4///",
"/4//q///q/q/1/qqqqjqjq/qjqqqqqjq43|-38:::8:8<<:7<:<44<<<44<<4444/444///////4q/////q/q/q/j/1qjqjqjq1qqwjqjqqq1wq<4<8=i                                                                                                                                                   &^--^-g<<:::<:<<<78<444444<</4//qt//q//4qqw/q/qqjq1qjqjqjqjjjwjqjqjjjqj/jqjqj/qqv---|74888<84<4:<<44/444/4/4////q/q/q/jq1/1qqqjqjqjqjqjj",
"<//q/q/q/qq1qqqjqjqjqjqjqjqjqjq14=|-3<38=<8<<8<4:=:4<:=<44444/44884///4<<44/444//q/qqq/qqqq1qjqjjjjjj1qjjqqjjq//44::i                                                                                                                                                   ck-^-^|<<<<<<<<<<4<:8<4<::4/4////q444//qqq4//q/////jqjjjqjqjjjqjjjjjjjjjqjqjqqqj<^-^k=<=<:4<44</t8=<44884q///q/q/4</qjqq4/tq/q/q/jqjqjjj",
"</q///q/qqqqqqjqjqqqjqjqjqjqjjjq43|-3<3:<8<:<<v<:=:5:8<<4<4<44444:844/<:::<44<<4////qqqqqqjqjqjqjqjqjqjqjqjwjqq44<:=i                                                                                                                                                   &^^---g8<=48<88<<v4=:=384<4444/4///4<8t/q<4<44/444qqjqjqjqjqjjjwjjjqjjjwjqjqjqjq<---|7v3<<4<<<4448::3<44/t////q//t<8//j44<44///4/qjqjqjq",
"4/4/4////q/qq1/qq1/qq1qqq1qjqjjjt=|-5:3:=::=8<<<8:88:<<<<<4<<4<4</:3:4:<844/4/4///4//q/qq1qqqjj1q1j1qjqjqjqjjjq44<==i                                                                                                                                                   ck-^-^g::34<8:=<<<<<=48<v4<4v/4/4//44=5<4<44tq/qq1qqq1qjqjqjqjqjqjqjqjqjq1qqq1qj4^--k=8=88<<=<44<4:<<<44</4/4//////<5<4<44/qq1qqq1q//jqj",
"444444/4/t////4/q///q4q/q/qqqwjq43|-|=3=:=::::<<<=:<=:<:<:<<<<<<4<4==<<<<<4<<444/444/4//w/q///j/qqj/q/qqqqqqjwq44<=3i                                                                                                                                                   &^--^-|3:3<:::<:<:88::4:<:84<<4444t44<==4//4//q/q/q/w/qqq/qqqqq/qwqqqwqqq/q/q/qq4---|5=38:8:<=4<4<8:4=44<444/4/4/444:344/4///4//q/q/q/qq",
"4/444/444/4////qqwvqqw/q/q/qqjqq4=^-g==:8::::<888<u:8<8<<<<4<<<<<88<348<<4<48<4//44w444////q/qqq4qqq/q/qqqqqqj/44<==j                                                                                                                                                   ck-^-^|==38:<87<8<84<:<4<<:4<444v4<4<4:8//444/44t//qtqqq/qqqqqqqqjwtqjqqq//q/qqqv^-^k==::<8<:<<<8<48:444<44tt/444/84<=/44////4<q/qtqqw/q",
"/4/<444<44/4/4////q/q//4/4q/qwqt<3|-g3==::8:<:8:8=<:<:8:<88:<88:<38<3:<<<84<<3t4/4/444/4//wt////qtq//4w/q/qqq//<4873j                                                                                                                                                   &^^-^-|3=|<:88<<<8<::<:<<8<<4<4<4<4<=:4=44/</4/8=/q///q///q/q/q/q/q//qq///////q/<---|3==::88<<<8<8:<<<<<<44<444<44=</3<<444t/4=4qqw/q//t",
"/44/4/444/4/4////w//wq//4///wjww<=|-|=3=u::8:::8=:=7:8::8<:<<<<::8<<:<8<<<<<:5<w44t/44/44////q///qqqq/4//qqqqq/4<<==j                                                                                                                                                   ck-^-^k33|:<:<:87<<8=:::88<<<<<4<4<4<4<=4/44444v3/q//q//4w///qqq/qqq/qww//4///qq<^--k3==78:88<8<8:=<8<<<<4<<4/44<4<44<<44/4/443<qq/q/qt/",
"=44444444444/4t44///w8///4/t//q/43^-^533==:=:=:7:===:::8<7:8<8<8<888<:<8<<4<<:=4/444/444/t/4/4tt//qv/t44////q//<<:=3j                                                                                                                                                   &^--^-k|3|7::=:=:=:7==::<:8<<84<<<<<4<444<<4/t/4=3//////w4//q/w//4//q/<tw444/4//<---k|33u::78:::8:7::8<8<<<84<4<4<4<4444444t/4<3t//////t",
"==</444/4/4///4t4/4dq/tqq/tq/w4t85^-^55=3==:=:=:=:=::::<:::::<<<<<8<8<<<<4<444<=</t/4/4/////4/t//</w4q/w/qtqt4<<88=3j                                                                                                                                                   ck-^-^kg55=:===:=:==:::888=<8<<<<4<444<4444///4/v<=4w/4w///w/q//t//w<q////t/////:^--^|55===:7:7:::::8<:<8<8<<<4t44<4444/<44/4/t4=v/q////",
"<::44<4<44/4/44<<444w//4/t/t/wq4:5k-|||==3:=======:=:=::::::88<88:<84<<<<<4<<8<8:4/444/4/4/t4<<4/4wt/4wt////wt<=8:=3j                                                                                                                                                   &^^-^-kg5|:===:==3==::8:<8:8<8<8<<4<<<4<4444444444<=/t/4/t/tw/w4<<44t/wt4t/4/4w/:---^|5|=37::=:=87::8::8<<<84<4<4<44444444/4/<4<v=/t/4/t",
"8<<<4/44<44/t/4///////t44///tqw/:3^-k||====:=:=:=:=:=<:88<:8::8<8<888<:8<<<4<<84<444444/4///tw/w/qw/t////q/wtq4:::=31                                                                                                                                                   ck-^-^^3|g7==:7:=:7:=::::<8<<<<<8<<4<<84<:<444444444<///4/4//w///w///q4/4/4/t/4/:^--^5||=:=:7:=::8:::888<<<<<<8v<4<4<4<8<4<444<<44</4/4/",
"<<<44<4<4444/4t4/4t4/4444</t/tt4:|^-||k5====u==3==:=::8::::88:8:<8<:8<<<<8<<<<<<<<<<4<444444/ttt/4/444/4/t//t44=:==5j                                                                                                                                                   &^--^-k5|^|===7=======::::8:8:<8<88<4<<<<<4<4<<44<44/44444/4/4/t/4/t/t44/444/4/4:---^5g^5=:=:=====:::788<8<848<<<<4<<<444<<<444<444<4444",
"<<:4<<<<<4444/4444444/4444444/44:5^-|5^||==:=====:=:=:=:::=888:8:88:8<<<<<<<8<<<8<8<4<444444444/444/44444/4/4t<:::35q                                                                                                                                                   c^-^-^^3||^====7====::=:7::8::8<<8:<8<<<8<<<<<8<<4<<444/444/444/4/4/4/4/<444444/:^--^3g|^5=:=:=:==u::::::8:8<<8<8<<<8<<4<444<<<4<<8<<4<4",
"::<8<<<88<<<<<4<4<4<444<4v4<44t<:g^-gk||33=3=3=3=3==:=:=:=:=:::=:78:888:88<8<8<8<<<<<8<<<<48<<4444/44<4<4<4t/4<=:=3|q                                                                                                                                                   &^^-^-k3|k|333===3=3==::==:=::8:8:8:88<<<<8:<<<8<:<<<<4<<<4<4<<<<<4444t44<444<t4:---^3|^|3=====3=3==::::::8::8<::888<<<<<8<<<<4<<<4<<<<<",
"8<<<8<<8<<<<<444<4444<<44/444/44=g^-||^5k===3=3=3====:::=:::::7::::884<8:8<8v<<<<<<4<<<4<4<<<4<44444<44/444/44<===35w                                                                                                                                                   ck-^-^^3^|5g3u====3==:=:::::::::::88:888<<8<8484<<<<<<<4<4<4<4<444444/<<<444<44t7^--^3||5|=:3======:3::::::8:<8::<8<8<448<8484<<<<<<44<4",
"<8<8<:88<<<<4<<<<<4<4<<<4<444<7:=|^-|^^55|33=3=3=3=3======7=:=:=:=::8:<:87:::8<<<8<<<:8<<<<<4<<v4<tv<<444<<v::<==33|w                                                                                                                                                   &^--^-^5^-353333=3=3=3==:===:=:=:=::::8:<<<8:7=:4<<<<8<8<<4<4<4<4<44444<4<<<4<<:=---^^|-355==3=3=3====:===:=:::::::88:<<<:8::74<<<<<<<8<",
"::8<8::<888<<<84444444<4<v<4<t8<:5--k|^^^53=3=3333g33==:========::=::==::<=8===88<8:8<::8<<444444/44<444v4<4<4<===5gw                                                                                                                                                   c^-^-^^g^^^5533=333=333==:=====::==<:=7:==8<:=:==::<<<:<<<:<<4<d4/<4<4<<<44/44<<=---^||^^|5====333353==:7====:===:::::==7<8=8==:8<<<:<<<",
"<8888:<:8:8::::<4<4887::<<8<<:<<=|^-^k^-^|=3353333=3=33===:==3:=:====7::7=:===<888<:<:<:<:<8444<4<<:8:8:<<<:4<:3335kw                                                                                                                                                   c^----^^^-^-3333=333=3=3=3:===:=====:=::87:::::=:<<:<8<88:8:8:8:vvv888::8:<<<8::=---^k|-^^5=3333===3===3==:====::=:3:=:=:7==:==:<8888::8",
"8<8<::::8<8<84<4<<8<<8::8<888:::=5--^|^^^|==33533===3===========7:===:::=::::88<8<:::8<<<<<<<4<48<<<:8:<<::88<8=33g|t                                                                                                                                                   c^-^-^^^^|^^|:333=3=3==:===========:=:=::::8:8:::<<<8<:8:<<<v<<4<<<88<:8:8<::<:<=^--^k^^^^^:33533=3============:=:::=::::::::8:<<<<8:<8<",
"=3:=:====3=::=:88=:::3=::7<8:8<8=|--^^^^^-5353555535=33==3=3=3=33==3=3=33==u:==3==:=====:3==8:<=:::3==8:<<=:<<<335|^j                                                                                                                                                   &^----^^^^^^^3353m55533333=3=333=333:======3==:=73==:===:===:==:<:=:8===:7:8<:88=---^^k^^^^5=53555553333333=333==3===3===3==:=======:===",
"=:=:=:::=:==::::=88:::::::=88<::=|--||^k^^^333535=3===3=3=3===3==3====3:=:===:7:7:78:==:=:=::7=88888:7=<:=:88::355kuc                                                                                                                                                    h-^-^^g^|^^^|=35333333===3===3==:==3==u===:=:=:::7::::<::::=:::=::<:8:8::::::=8=^--^5k|^^^|3=53553===3=3=3=======3u=======:==::::=:::==",
":=:===:=====:=:=:7:=8:8=::8::88:=|^-k^k^^^^|=g3g3533=33533=3=3=3=3=3==========:===7=7====7:=::::::878=::<===:<835|uc                                                                                                                                                      r---^^^^k-^^335g353333=335=3=3===3=3=3==:===7=:=:=:=:=:=:===:7:7:7:8:8::8:8:8:=---^||^^^^^53555533333333=3=3=333=====3====u=:=7===:=7=",
"=:=:====::=:=:::::=:::::::8::<8:=5^-^|^|^^^^3333333=333=3353==3=33====3====:=:========::=:=:::::=::=:::8:::8:<:3g4&                                                                                                                                                        j-^^|^|^^^|^=55333=333=33333=3=333:=:====3=::::=:=====:=:=::::8::::=::::8::883^---g^|^|^k^3335=3=3333333=3===3=3:7:==3===::::=:=====:",
"=======3=3===5==::::8=:::78::=8=3|^-||^^|^^^|5g||^55555g5||5353k||||5333=33555=======3===3=3=3=:878::=8:8::=::=5w&                                                                                                                                                         &b-^5|^|^^-^|55g^|555555g5333=5|^||53=33==35533==:=:=====7=3===8:::==:::::7=:=---^||-|^^^k^5ggk|535355|533333|^||55=33==35533==:=:===",
"||k|||||k|k|||^|k|||g55555gg|33=3|--^3kkkk^^^^^|||^|^k^|||k|k^^|k|||k|^|^|^||g||||k|||||||||||^||5|3555355|53=3|g3533u3u3u=u=u=7u7u:7:b:b8b8b8b888b8887j&   hmmmmmmmmmmmmmmmm5m3m3m3333u333u3u3u3u=u=u=uu7u:7:7:b8b:b8b888b888b8dc   y3mmmmmmmmmmmmmmmm3mmmmmmmmmmmmmmmmmmm3k--m5k^|^^^^^^^|^|^|^|^|k|^|^^k|||^|^k^|^|^5||||||||||k|k|k|^||5|5555555||5=5----|5|^|^^^^^kk|^|^k^|^|k|^|^^^||gk|||^|^||g||||||||k|",
"k^|^|^^^|^|^|^|^k^|^|k|^|k|^||55|----^k-^^^-^-^^^^^^^^^^^^|^^^k^^^|^^^|^^^|^|^|^k^|^^^|^|k|^|^|^|k|^|^|^|^||55|-^^^^^^|^|^|^|k|k||||||g|5|5|5|5|5g5g5|5|w& z----^-^-^^^-^^^^^^^^^^^^^^|^|^|^|^|^|^|^||||||||||g|g|5|g|5|5g5|555|5=c y^----^-^-^-^^^-^^^^^^^^^------------------^k^^^^-^-^^^^^^^^^^^^^^k^k^k^k^k^^^k^|^|^|^|^|^^^|^|^|^|^|^|^|||^k^|^||5|^----^k^^^^-^-^^^^^^^^^^^^k^^^k^^^|^^^^^^^|^|^|^|^|^^^|^",
"---^-----^-^-----^---^^^-^---^^^-----------------------------------------^-----^-^-----^-^-----^-^^^^^-^---^^^-^^|^|k||||||||5|5|555g55553333333333353535yc^^^^^^^^k^|^|^|||^||||||||||||5|5|5|5|5|5|5g5g555g555555353333333333353w t^-^^^^^^|^|^|^|^|k|k|||||k|^^-------^-----------------------------------m-------^-----^-----^-^-----^---^^^-^---^^--------------------------------------------^-^---^-----^",
"--------------------------------------------------------------------------------------------------------------^^|^||5|g|5|55553535333333=333=33333333335|ft^k^^^|^|^|^||||||||||g|g|5|5|5|5555555555353535333533333333=3=333333333=ct--^^^^^|^|^|^||||||||||||g|5||||-^-----------------------------------------------------------------------------------------------------------------------------------------",
"-^-^-^-^-^-^-^-^-^-^-^-^-^-^-^-^^^-^^^^^^^-^^^-^^^-^^^-^^^^^^^^^^^^^^^^^-----^-^---^-^-^-^-^-^-^-^-^-^-^^^^^^||g55533333333=3=3=3=3======:=:======3=3==3ki^|||k||||5|5g555555553535353333333333=333=3=3=3=3=3=3======:=:=:====3=3=3yt--|||k||||||5|555555555535353535355|5|5||^|^^^^^^-^-^^^-^^^^^-^^^^^^^-^^^^^-----^-^-^-^-^-^-^-^-^-^-^-^-^-^^^^^^^^^^^-^-^^^^^-^-^-^^^-^^^-^^^^^^^^^^^^^^------^-^-^-^-^-^-^",
"|^|^^^^^|^|^|||^|||^|||||||||||||^|^|^|^^^^^|^|^|^|^|^|^|^|^|^|^|^|^^^|k^---^k|^k^k^^^|^|^|^|k|^||||||||||5555g|g|5g555|5|5555353535553555353335355|3==5^-53355|gg5|555535333333333333=333335|555555g|5|5555353535553555353535355g3st--^355g||g|5|555535333533=5=3333333335|5|||||k^^^|^^^|^^^|^^^|^^^|^|^|^|^|^^-----|^|^^^^^k^|^|^|^|^|k|||k|||||^|||||^|^^^|^^^|^^^|^|^|^|^|^|^|^|^|^|^|^|^^---^^|^|^^^k^^^|^",
"55555353333333333=3=3=3=3=3=3=3=3=3=====3===3====:=====:=:=:=:::::=:==33|^-^5355535353333333333=3=3=3=3=3====:===::::::::::<:<<<:d8<8<<<<d<<<v<::48:=:=|-k33333=3=3===3==:===:===:::=::::::::::::8:8::::8<8<<d8<8<8<8<<d<<<<<<<<::=4u--|3333333=3===3===3==:=:=:::::=:::::::=:::=:===:===:=:=:===:===:==7:::=:==3|---^g553555353533333333=3=3=3=3=3=3=====3============:=:=:=:=:===:===:=:====3^---^|55353535333",
"3333:==3=3==:===:=:::=::::8::=<:<8<<<<<<<<<<v<vv4<v<4<4v4vtv4<4vt<<vt<v=5^-|=333=3==:3=3==7=:=::8:8:::8:<:8:<:<8<:<<4<vv4vvvtv4v4vtvttt4ttttttt<<vtvt8=^-|=3=3==:=:=33==:=::::8:8:88<:8:<8v<d<<8d<4<tvtv4vtttv4ttvtttvtvtttttt44ttt:5--k=3=3=3========:=:=8:8:8<<8<<<<<<<8v<<<<<4<tvtv4vtvtttv4v4vtvtt4vtvtv<<4v43---^=====3==:=====:=8:<888::<<<<<<d<<<v<<<<<4vtvtvtv4vtvtvtvvttvtv4<4v4vv<4<v3---^3==3====:===",
"====::::===:88::=:8::<8<:<8<8<<488<4<<<<<4v4v4vt4t4t4ttttttttttwttttttt<5k-5===:=:===:=:=:::::=<::8<8<888<84<48:<<<4v4<444vtttvttttwtttwtttwtttwtt4wtv3^-g=====:=:=:3==::8:::::8<<8<8<8<<<v4<8<4<<vvvttt4ttttttwtttwtttttttwtttwtttv5--|::===:=:=:=:==:<8:=:8<:<<4<<<4<4<4v<<4ttv4vttttttttwtttwtttwtttwtttwttttt8---|=:===:=<=<::7::<8::::48<<4<4<4v4<ttv<44t44vttwtttwtttwtttwtttttttwttttttt8---|38===<:::::<",
"=3==:=:7:333===3::8:88<:8==88:<:==::<:==8v4d4vtvtttvtttttttttttttttttvv:5^-|:5=3==:===:333=3=3=:8:<:<8<:::88<8:=:8<:8:8ttvtttttttttttttttttttttttttt485--|:3==:=7=:=:=33==8=7:88<<<8<<<8<<d<::88<88::vttttttttttttttttttttttttttttt83--k:33===:=7=:=3===8==:<<<<<<<8:7<<<v:::<v<<8<<ttttttttttttttttttttttttttttt7^--^==3::7::::8:=3==:==8<<<<4<v<8=<<4vd:<:vv<:8<ttttttttttttttttttttttttttttt=---^3:3==:::8:8:",
"====3:=:==3=5:===::8:8:8:8:3=::====::<::<4<v<4<4v4vtvtttvtttttttttttttt<5|-5=53:=:3==:==3=53=:=::8:888<<8=3:<:===::<=:<4<4v4vtttttttttvttttttttttttttv5--g===u=:=:::=:3=33::=::8:8888<<=3:8v::=::<<:84v4vt4ttttttttttttttttttttttttv5--|==|==:==::::==33::7<8<8<8<<<883=<d=:=<:v<8<4vt4tttttttttttttttttttttttttt<^--|3:3:::==:::87==3:::<8<<<<v<4<d3:8v=::8:<v884ttvtttttttttttttttttttttttttt:---|3:5==::=:8:8",
"=3=333====337==3====:=:=:===53=:::::8:<8<8<88<<<4<v<v<vvvvvvvvt<4vvvtdt85^-k=|3==3=3:====3:3:===:=:=:=:::=55==8:8:8888<<<88<vvvv4vvvtvvv4vvvtv4vtvtvt85--^35=333=3==:==3:3===3:::=:7::=:35=:<:<8<:<<<<<<v<vvtvtvtvvvtvtvtvtvvvtvtvt<5--^33|====3=====3:=::==:::::::<::3|==8:<<v<<<<vv<v<4vtvtvtv4vtvtvtvtvvvvv4vt:^--^3=5====3=7:==3:==:==8=<:888<:8:5==<8<<<<vvvvvvv<vvtvtvtv4vtv4vtvvvv<vvv<t7---^3=53=====:::",
"====3=========3==:=:=:=:=:::3=::::::=:::8<8<8v<v<<<v<<<tddvt<4v4v4v4vtv<5^-|333===3====:===7==3==:=:===<::==:=:::<::8<<<<<<<8v<4v4v4vtvtvtvtv4v4v4vtt<5--|333:3=3==============:=8=:=<:::3::8<<<:<:d<v<4<v<4v4v4v4vttdvtt4v4vtvtvtt<5--|5=|:3==7===7===:=:===::::8:888=88<<4<<<<8v<4<v<4v4vtv4vtv4tvvtt4v4<4v4vtt8---|5=3:=:==3:=:7:=:=7==:8888<<<<<8=3v<<8<<<8d<4v4<v<4v4vtv4v4ttvtv4v4<v<4<vv:---|533:=====:::",
"=3=3=3=====3======:===:=:=3=7=8===:===::<88:<<88<<<<v<v<v8dvv8<<v<vvtvv:5^-k33=3=3=3==7===3=====:=:=:==3==:58=8::::==<<<<<<<<<v<v<v<vvtvvv4<v<v<vvv<4:5--^35===3=3======37====:=:::=:==3:=8=8::=::=8<<v8<<v<vvv<vvv<td8vv<v<vvvv4v4:5--^335==3=3==:==:==:=:=:=:7:::373:=78<8::<:=bv<v<<<v<v<vv4vvvtv8vt<<<<<v<4vt:^--^33========:u:===:=:7::::88<883::=8888:8::=vvv<<<v<vvv<vvv<vvv<v<<<<<v<v<v=---^5333=3====::",
"==333=====3=====3:===:===:===33==:===:5:8<888<:<<v<d<4<<<tvtv8:<<4<4v4<:5^-|3=3=====3===3:===u=:::=:=:=====33:::===:|:8<<<<<8<<v<4vv<4v4vtv<<<<<v4vv<:|--|353=3================:=:=:=:====5=:::::83=<dv<<<<d<4<vv4vvd4v4vd8<<<vvvtv:g--k3=|:3===3=====::=====:::78=:====g::8:<8<=5<<vd<v<vdv<4v4v4<4v4vv8<<<<4v4<:^--|3=3===3===7:===:=:=::87::8:88:=83=:88::<83:vvv<4<<<4vv<4vv<4vvvv88:<<v<4<:---k5=3==:====::",
"=333=333=3=333=3=3========:::=:=:7==:=5=<88:<88<<:<8<<88<<<<d<8<<<<<v<<:5^-^5533=3=333===3=3=3============:=:=7===:=33<:8:8:<::8<:<<v<<<v<8d88<<v<v<v:g--^5553=3=333===3=3===3======:===:===:::=::35<8<8<888<<<<<<v<v<d<d<v<<<d8v<d:5--^55g==3=3=3===3=====3==:=:=:=:=::=8:=:=::=58<<:<<<8v<<<<<v<<<v<d8v8<8v<<v<=^--^g353=3=3=3=====3===3=7:=:=:=:::::88:87:::5u<<8<<<8<<<<<<<<<<d<v8d8<:<<<<<=---^5553=====3==",
"=33=3=3=3=3=3===3====:=:==7:=:=:=:=:7:338<8<:<8<8<8d:<8<8<8v78<d<v<vv<<:|^-^|53=3=3=3=3===3===3====:=:=7===:7:3:::::83=d<8:<888<<<8<8<8d8<8:<v<v<<<d<=|--k|35=3=3=3========:3==:===:=:=:=:=:=888:::33<<<<<8<8<<v<<<<<v<vd:<vvv<<<v<:g--kk5g=3=3=3=3======:=====::::8::=:::::::=:<=5d<d<<<<8<<v<<<<<d<<<:8v<v<<<v<=---kk35=3=3===3======:===:=::::::8=::8:::::88=5=<v<<<<8<<v<<8<<<8<<::v<<<<<v<=---k||g=========",
"=3=3=3=333=3===3=3=3==7=:===========:::===8=:88:88<8<7::8<:<d:<8<888v<83|^-^|k3333=3=33333=3===3======:==3====:==7::8:=3:7<888<<<8d8::<8=8d<<8v88<v<83|--^||g33333=333=3=3=3=3======:773==:=:7:=::8=73878888<<d<<8::<:<8v<<<v<<<<v<3g--^||533333=333=3=3=3=3==73=:877=:=:=:=:::7<::5:88:<8<<<<d8::<88=v<8<<8<88<<3^--^|g|333=3=333============778::=:=7=:=:=8:<88=:888<:<<d<<<::<:<=d<88888:8<d3---^||g3=3=3===3",
"=33=3=3=333=3=3=====3========:==::7:u==:==:8:88<8<8<8d8<8d<d<<8<<<8<<v8=|^-|k|333=3=3=333=3=3===3======:===:=:::::=::::=:<8<8<8<<d<d8<<d8d<d8<<d8<<d<=|--k||5=3=3=3=3=3=3============::==:::::::=:::::=<888<<<<<<v8<<d<<<v<<<d<<<<<=|--^|||=3=33333=3===3========:7:=:::=:=::8:8::8:=<888d<<<<<d<d<<<d<d8<<<8<8d<=---k|||=3=3=3=3=3===3=3u=======:=u:::::8:8:8:88<=88<<<<d<<8d<<8d<<<d888<8<8<<=---k|||33=======",
"33333333333333===3=3=3=======3:3====:=:=:==::b::<::8<888<88<<8d8<8<8d88=|--^|^3333333333333333=3=3=3====:=====:===:=:===::::8:8:88<8<8<<<<88d8<8<<<<<3|--^|^|33333333333=333=3=3=3=3==:=======:=:=::7=::::888:88<8<8<<<8<:<8<<<8<<<3|--^g^|33333353333=333===3===3==:=:====::=:=:::=:=<:8:88<:<<<8<<<:d8<8<<<:<<<3---^|||333=3333333=3===3======:=u=:=====:=:=::::==<:88<88:<8<8<<<8<8888:88<8<3---^5|^53333=333",
"^333333333333=3=3=====3==========:=:7:=:::=::::::::<8<88888d8:8<8<8<<8:=|^-||k^5=33333533=3=3=3===3============:=:===:7:78:888:88<<<8<8<8d<<8<8<<<<8:=^--k||^|333333333=3=333=3=3============:=::==:::=:8:88888<<<8<<<8d<<:d888<88:=g--^gk^|=33=333=3=3=3=3=3======:=:===:7:::=::87:=:::8<8<::8<8<8d8<<<:<:88<:<8=---^|g^|5=3333333=3=3===3:=======:===:=:::88=:78:::8:88<:<8<8<8<8<<<:88<:<8<:=---^5|^|g=533333",
"^|=533353533=33333=3===3==========7=:=7===7=:==:::::8:<88:88:::=8:<8<8:3|--^|^^^3533353533=33333=3=333========7===:===:==7:=::8:8:8888<:888:::8:88<883|--^|^^k3333353533333533=3=3===3=3===3=7:=:=:=:=:88=:=8:8:8888888:87:7::888883g--^g^|^5333353333=3333333=3===3==73==7=:7:=:=:=:=::::<88:8888888:<::::::8:883^--^5^k^5333333333=3=333=3===3====:===:7:=:::=:7:=:::=8:8:8:88888:8::=::8:8:83---^5k|^|3333333",
"^5535353333=3=3=3=3=3===3========:=:7:=:=::8=:=::::88888:88<:88::<:88d:=|^-|k|^g335333333=3=3u3=3=3=3===3========:=:=::==:::=::8:<888<888<88:8<8:<<<:=k--||^||53533353333=333=3=3==============:=:===:=::::::88888:88<:::<88:::<8d8=|--^||k|33533333333===3=3============:===:::=::::::::::::888:<88:<8::8:::::<8=---^g^k|53333333333===3===3===3======u=:=::::::::8::::=:::8<:88<888:::=88::<8=---^||||5=333333",
"3^53353535333533333333=3=3=3=3========:=u===:3==:=:=:=:::::::=:=::::8==3|--^k-g^55333533353533333333=333=3=3=3======:=======:===:=:=::8::::::7::8::==5^--^^-|||3353535333533=3=3353333=3=3=3====:38=:====3:=:=:7:=::8::7:::::=:::==3|--^|-^g|555355535333333=3=3=33==3=3======:38=:=u=====:7===7:7:7:=:7:=:::=::=3^--^g-^5|5353535533533=333=3===3=3=====3=3:3:7:===:===:===:=:7:::=:=:7:=:::773----k^^||5353333",
"|||3533353533333333=3=3=3=3===3===33=33====:=:=:=:=:7:78::78::=:::7:::==|^-k^^^g|5533353533=333=3=3=333=3=3====u=3=====:=:=:::=:=:7::8:::8:::::8::::==^--^^^^5^3535333533=33333===333=3===3====3=3=:=:=:===:=:=:7::8:::8::=::::::8==|--^k^-5|553335353333=333=3=3=3=3======:=33==:=:===:7:=:=:=:::::::::::=:::=:=3---^||-|gm3353533333333=3===3=3=3=========3=3==:=:=:=:=:=:u:7:::7:::7:::7:=:73---^|^^|55535353",
"^^555555353|55553333333333=3=3=333=33533=====3=3=3=3=3===3====:=====:::3|--^^-^-|35555355|3335=533=3333333=3=33333=333=====3=3=3===3==7=======7===:=:3k--^^^^-|35555335g55353333=33333=333=333=33333=3===3=3=3===3========:======7:3|--^|-^-^53535353gg5553333=53335=3=3=333=3333==3===3===3=3=3=====37=========:3---^|^^-^535555335g5355333=3333533=3=333=33335=3:==3=3=3=3=3=====3====73=3==:3----|^^-^|3g5535",
"^^|3g55353533353533=53333=333=3=333=3===3:=======:===:=:=:::=:::=====:=3^^-^^^^^^=55g3535553333333335333333=3=333=3=3=3=====3==:=:=:=:=:::::=::==:=:=3^--^^^^^^355g35353535353333=333=3333==3=3=3============:=======:::::=:u:===::33--^^^^^^53555355333533353333=333=333=333==============:===:7:=:=:::=:=:=:===3---^^|^^^|35g553535333533333533=333=3=3=3=3============:7==:7==:7:7:=::=3===:3---^^^^^^|355553",
"^^^5555kg|3555333335555533353333=3=3=3=3=3===3===3=3==:===:==3======:3=3|---^^^-^g355^gg5|gg5533555555553533===3=3=3=3=3=3=333=3=3==:===:==3=======3=3k---^^^-^|3|3|||555|5535353335353333=3=3=3=3=3=3=======3===3=======3======3==3s---^^^^^^353|||5m5g55333m35353533=3=3=3=3=333==:====3=3=3=========3=3===33=:3^---^^^^^^3555||5555553333355535333333=3=3=3=3=3===333=3=3=========3=====37==3---^k-^^^-5335||",
"^^^|35g5555355g3335553333353333=333=3=3===3===3=3=3===3=333=3=3====:===3|^-k^^^^^k55555gg5555553555333333=33==333=3=333=3===3=3=333=3=3=3=333====:===3^--^^k^^^^55g555g555535533553553533353335=33333=3===3=333=333===3===3=3==:===3hk-^k^^^^^|3g355|555555333533333533333533333333=====3=3==:=33===3===3====:===3---^^^^^^^|3g555g555555333555333533=333333333=3=33==33==3=3=333=3===3===3====3---^|k^^^^^3g553",
"^-^^55g|555g5555553535353333353533=333=3=3=3=333=3=3=3=3=3=====3=3333==3k--^k^^^^^|5g|g|555|553555353535333533=33333=3=3=3=3==7====3==:====3======33=3km3^k^^^^^k55|35555555553535353335353333353333=3=3=3=3=3=====3===3=3=3=3==33=3yu--|^^^^^^555g|55553535353533353533333333333333=3=3=333=====3=====3=3=3=3=3=3^---k^^^^-^g5|g55m553555353533353533333333333333=3=3=3===3===3===3===3=3=333=5----|^^^^^^^3gg|",
"^^^^^3|5g3|g535553535353533333335=333=333=3=333=3=========3=3=3===3==:=3^^-^^|^^^^^3|5|5g555535353555353333333333333333=3=335===========3==========:=3^tm^^^^^^^^35m535555555353535353333333533333333=3=3=3=3===========3=3======:=3x8-^kk^|^^^53gggg5g55353535353333=333333333333333=3=3=3===3=====3===3===3=3:=3---^k^^k^^^|3g5555g3555353535353333333533=33333=333=333===3======33=======3==3---^k|^^^^^^35gg",
"^^^-^^mgg||5555555533535g^|g33353333553335333533=3=3===3=3=333=3=3===3=3|--^^-^^^-^k3gm||55535555535355|||5335353555333333353333=33==3=3=333=====3===5^--^k-^^^-^^5|5||55555555535355k||553335333533=3333533=3=3=3===33=33=3===3=3=3^---|-^^^-^^555||g5535553535355|||53=333353533=3333333=3=3=3=3=333=3=3===3===5^---|^^^^^^-|55|||3535353535333|||55=33333=553=3333333=3=3=3=3=333=3=3=====3=5----k^^^^-^^|555",
"k^^^^^^|k^^|k|k|||^|||||^|^|^||g|g|||||555g555|555g5|gg33353533333333=35^--^|^^|^^^^^|||^|||||k|^||||5^|^|^||g|g||k||g55555555g5g5|g555353333333333335^--^||^k^^^^^||k^|||||||^|||||k|^|k|k5|g|5|||g555555555555g|g33333333333535333^--^||^|^^^^^|||^k||||||^||||gk|^|^||g|5g|||||555553555555|||55353335333535335---^|g^|^^^^^|||^|||k|||k|||||||^|k|^||g|5||||g5555355555555|55333333333335333---^kg^k^^^^^||g",
"^^^-^-^^^^k^^^^^k^|^|^|^|^|^|^|^^^k^|||^|^k^^^^^k^|^|^^^^^|^|^|^|^|^|55|----|k^^^^^-^^|^^^^^^^k^k^|^|^|^|^|^|^^^^^|^|^|^^^k^^^|^|^|^^^|^k^|^k^|^k^||5|----|k^^^-^-^^^^k^^^k^|^k^|^k^^^|^|^|^^^k^|^|^|^k^^^^^k^|^|k|^^^|^|^|^|^|^||5^----||k^^^^-^^^^^^^^^^|^k^|^k^^^|^|^k^k^^^k^|k|^^^k^^^|^k^|^|^k^^^^^|^|^|^||5^----||^^^^^^^-^^k^^^^^k^k^|^k^^^|^|^k^^^^^^k|^|^|^^^|^^^k^|||^^^|^^^|^k^|^||5^----^||^^^^-^-^^",
"-^-^-^-^-^-^-^-^-^^^-^^^^^^^-^-^^^^^^^^^^^^^-^^^^^^^-^^^^^^k^|^^^^^^^|^------^-^-^-^-^-^-^-^-^-^-^-^-^^^-^^^-^^^^^^^^^^^^^^^^^^^^^^^^^^^^|^|^^^^^^^|^------^-^-^-^-^-^-^-^-^-^^^-^^^-^^^-^-^^^gg^^^^^^^^^^^^^^^^-^^^^k^k^|^^^^^^^|^------^---^-^-^-^-^-^-^-^^^^^-^^^-^^^^^^^^k^^^^^^^^^^-^^^^^^^^^^^^|^|^^^^^^^|^------^-^-^-^-^-^-^-^-^-^^^-^^^^^-^-^-^^^^^^^^^^^^^^^^^^^^^-^^^^^^^^|^^^^^^^|^------^---^-^-^-^",
"----------------------------------------------------------------------------------------------------------------------------------------------------------------------------------------------ci------------------------------------------------------------------------^---------------------------------------------------------------------------------------------------------------------------------------",
"-^-^-^-^---^-^-^-^-^-^-^-^-^-^-^-------------------------------^-----^-^^^-^-^-^-^-^-^-^-^-^-^-^-^-^-^-^-^-^-^-----------------------------^---^-^-^^^^^-^-^-^-^---^-^-^-^-^-^-^-^-^-^-^-^-^-^&i-------------------^-------^---^^^-^-^-^-^-^-^-^-^-^-^-^-^-^-^-^-^-^-^-^-------------------^-------^-------^-^-^^^-^-^-^-^-^-^-^-^-^-^-^-^-^-^-^-^-^-^---------------------------------^-^-^-^-^-^-^-^-^---^-^-^",
"^^^^^^^^^^^^^^^^^^k^^^k^^^^^^^^^k^^---^^^^^^^^^^^^^^^^^^^^^^^^^^^^^^|^|^^^^^^^^^^^^^^^^^^^^^^^^^^^k^^^^^^^^^^^^-----^^^^^^^-^^^^^^^^^^^^^^^^^^k^^^|^k^^^^^^^^^^^^^^^^^^^^^^^^^^^^^k^^^^^^^^^^^&d-^^^^^^-^^^^^^^^^^^^^^k^^^^^^^^^^^|^^^^^^^^^^^^^^^^^^^^^^^^^^^^^^^^^^^^^^-----^^^^^-^^^-^^^^^^^^^^^^^^^^^^|^^^|^|^k^^^^^^^^^^^^^^^^^^^^^^^^^^^^^^^^^^^^-----^^^^^^^-^^^^^^^^^^^^^^k^^^k^^^^^^^|^^^^^^^^^^^^^^^^^",
"|||||g|g|5|5g5|5|5|5|5|5g5|555||||^^-|||^|||^||||||||5|||g|5|5|ggg|5g55g|g|5|g|||||||5|5|5g5|5|5|5g5|555|55|||||---||||||||||||||||||g|g|g|5|5g5|5g5gg|||5|g|||||5|g|5|5g5|g|5|5|5|5g5|55g||||&7-|||k|||^||||||||g|g|5|5|5|5g5|5|55g|5|5|5|||||g|5|5|555|5|5|5|5|555|55|||^---^|||||k|k||||||g|||||||5|5|555|5|5gg|gg5|5g||||5|g|5|5g5|g|5|5|5|5g5|5|g||---^^|||||||^||||||g|||||g|5|5|5g5|5|5|g|5g5|5|||||g|5|5",
"=3===3=======3==:===:=7=7===:==33|^-^55|55555555553535333533353333333333=333=3=3=3======:=====7=u=:=:====3===35|^-^|5|555555555535353533333333333333=3=3=3===3===3==7=======:===:=77777=:==33|&m^|5|gg55355533333533=53333=3=533=3===3==============:=====7=u=:===7=u3===35---^|5|555555355533353333=3=3=333=333=3=3=3======:===:=7=:===:===:==========35---^|553355355535333333=3=3=3=3=3=3=3===3========7===7=",
"7:=:b87:7878b:7d78b8b878b8788db8=5^-|=33335=3=533=======3=3====:=:===:=:=:==7:=:7:7:7:78b:bdb8bdb87db8bd7878b83|--|3533=333=333=3=3===3==:=====:===:7:=:==787:7d7:7db:7dbdbdb8b8b8bdbdbd78bd=5&uk=33333=3=333=3=3====u===:=:77=:=:787:=:7878b87db8bdb8bdb8bdb8bdb8bdb8bdb83^--^=3353333=333=3====u=====:7:=:7:777:7:7:7878b8bdbdbdbdbdb8bdbdb8b8b8b:b:783^-^^33=3=3====33====:=:=:===:7:7:b87:7d8:b878b8b8bd88bd",
"==:7:787:787:7878b8b8b878b878b87=|k-|355333333=333=3=533=3=3===3=3==:u:3====:===:7:78787:7878b878b878b8b8b878b=|--|3333333=3=33533=533=3============:=====:===:7878787878b878b878b8b8b878bdb=5&mk333333333333533=335=========3===7:===:=====:b878b8b8b8b8b8b8b8b8b8b8b8b8b=---k3=3=333=333=333=333:===:=7=:==787:7==77:=:=878b8b8b8b8b8b8b8b8b8b8b8b8b8b=---^5=535=3=3===33===33==7===:====78b87u=:=:7:=:b878b8b",
"3:::b8:8b888b88dbd8dbdbdbdb8bdb:=5^-g=|33=333=3=55553=3=========333u=:=33=====3=7::8b888bd88bd88bd88bdbdbdb8b8=g--|=5u333=3=3=33555=3====u===:==3==:==3=3===3=:8b888bd8dbdb8bdbdbdbdbdbdbdb8=3&u^=333=333=3=35555=3========:==3u=:7=33======bd88bdbdbdbdbdbdbdbdbdbdbdbdbd=^-^^333==3=3=3==3335======:===:==3=7:7====:====78bdbdbdbdbdbdbdbdbdbdbdbdbdbd3^-^^3=53=3=3====3535====:7:=:::==3=7887===:=::==d8dbdbd",
"====7=7=:7:787b787b787b78bbb8bbb=|^-|35535353333353g333333=3=3====5|333333======7===:=b787b78b87:b8b8b8b878b8b=|^-|5g333355333333553333333=3====3k333333======:u==778b8b8b8b87bb8b8b8b8b8b8b=5&mk53535333333=55353=3=3===3=====|533333==7===8777:78b878b8b8b8b8b8b8b878b8b=---^53|=33553333353m3=333======737|g3=3=3==77u=b7:7878b8b8b8b8bbb8b8b8b8b878b=---^535353333=3=35353===3====u=:=75|3=3=3==:=7=:7b7:78b",
"=========:=:7:=:b:u:b:7:b:7:78b8=5^-^3|355535=3=335=5333333=3=3=3335533========:===:77=:7:787:b:7:b8b:787878b8=5--^3g333333=3=333=33333=3=3=3==333|33==7===u=:=:7:=:78b8787:b:78b8b8b87878b8=3&u^5553353533=335=33333=3===3==33=|33==:=:7:u:7:7:=:7:b:78b:78787db8b878u:b8=^--^53g33333333335333333=3=======335337=:=:7:b87:7:=:7:b8b8b:7878b8b8787:7:78=^--^5353333333=3=53=3==3=3:===:7u3=553=7:7:7:7:7:787:78",
"===3===3====u=7=b=:78u:=7=:=7b87=|^-|g55353533353355333533=33333=3=55=33333333==737=====7=:u7u:7=78=77:77=:7bb=|--|555353533333333=533333333=3=3=35=33===3=3===37===u=:777:=bbuu8b:777:77u8b=5&mkg5|333555333335=333333333=33==353=3=====3==7=:=77:777:7b78b7=8777:77u:=bb=---^|5|353333333335=33333=3===3===33373=3==u=7=:u==:=77:777:77b8=bb:777:=7=:7=---^g5g33=3333333=533=333=====3===335:3=37=====777=7=:=",
"=========:===:=:78=:b:===:7:78b:35^-k3535333333333333=333=3=3=33555=|=3=3=3=35=:===:=:=:=:=:u:7:7:b7=:=77:b87:3|--^3k53333333=3335333=3=3=3=3=335=5=3=3=3==53:=:=:=:=:u:7:7878bub:=:=:787:b833&3^5553333333=3333533=3=3=3===33|=333=3====33:7:7:=:=:=:7:78b8b77:===:7:7:b83^-^^55|333=333=33333=3=3=3=====335==3==3=====5:7:7:u:=:7:u:7:78b7787====:u:7:3^--^g5333333=333=3=3=3=3=======3353=5========577:7:7:7:",
"73===333=3====7=7===b7=3====77b==|^-||g53535353535553535333333333533333333333^=====3=3======7=7=u=77u3=3==777==|--^5||3535353335555533353333=533333533=3=33|3===7=======7=77777u777==37=777==m&m^|5|3553355335533533353333=333333533=3=3=|5u==7===7===7u7=777777b3=37==ub=3---^|g^333535333353353533=333=333333|=3=3=3=3|===7==3=3==7=b7777=777==3====773---^|5g3555333333533533=333=3=3=333=3=3=====3|37=77====",
"5u3==============:=:==u======:7:3g^-^5g3535355535353535=333=33333=3=333===3=33gu======3==7=====:=:7u77=:=:=:7:3|--^5||5353535333535333333=3=33333=3=3=333=33|==:=======:7==:=:=:7u=:=7=:=:=:35&u^|5m3353535333535333333=3=3=333=======3===|37:===:=:=7=====:=:=737===7=:7:3^--^gg|53535353333333335=333=3=3===3===3=3===|3=:===u===:===:=7=:=737=======:3^--^|g53553335333333333==3=3=3=3=====3=======55===:====",
"55=3=3=====3===3===37========77=3|^-^k|m5555553555353533333533=333=333=533=3==353==3======7======37=u=b7u===7=3^--^^||355535553535333335333333=333=33333=3=33g====7=====u=====7=7u=3u=====b=35&m^^||3555355555353333333533=3=3=3=3=333=3===53==================7=3======7=3---^^|k35553555553335333333=333=3===3=333====355=====u=7====3=====7u======37=3---^^||353535353535333333=333=3=3=====333=====553======",
"333=============3===u:===:===:u=5|^-^|^555535353535353333333333=333=3=3=3=3=3=335u============3==u77==u7=:=77=5|--^||5g553535355535353333=3=3=333===3=3=3=333=5u=========:==3==7=:===u=:=u7=53&3^|^|555353535353335333333=3=3=533=3=3=3=3=3=3u=======:=:==3==:=:=====:===75^--^|k|5353535355533333333=3=3=3=3=3===3=3=====33=======7=:==3=3==:=:=======:5^--^|||535353535353333=3=3=3=3=3=3==u==3=====3=33===u==",
"3333=333=3===3===3=3=3=3=3======3^^-^^^55m5535555555353535333533333333333333333333=3=3=3==========7==3========3^--^^k|5|55555555555555353333333335333333=3333333=333========================3g&m^^^k3|55555535553555353333333533333333===33333=3=3=================3======3---^kk^353555555555355535333333333333=3=3=3=3=333=3=3=3===============3===3==3---^^^^55553555355535333333333333333333=3333333=333=333",
"333===3=3==============:=====7==3|^-^|^g5553555555535353333333333333333=333=333=3=3===3========7=====7=====7==5|--^|^k|355535553535553333333333=333=3=3=3=3=3=3=3=3========7=7=====7========35&u^|^|555355555353535333333333333=333=3=3=3=3=3=3===3========7==3=========u=5^--^|^^k553535553553353533=33333=3=3=3=3=3=3=3=3=====3======u=7==============3---^|^k|3535353g3533333333=33333=3=3=3=3=3=3=3=3=====3=",
"333333=333=3===3===3===3=3=3===33^^-k^^-^5555g5|553555553535353535353333333533=33333=3=3=3=3=3=3=3=3=3=3=====33^--^^^-k5555555553555553555353533353333333333=33333=3=3=3=3=3===3===3=3=3===33m&m^|^^^g555555553555555535333533333333333333=333=333=333=3=3=====3=3=3=3=3==3---^k^^^|5555555535555535333335353333333333333333=3=3=3=3=3=3=====3=333=3=3=33---^k|^^^35555555355535353533353333333333=333=33333=3=3",
"53333=333=3=3===========3===3===5|^-kk^||5555555|5535353535353333333333333333=33333=3=3=3=3=3=======3=3=======5|--^|^k|g55555555g3535353535333335333333=3=333=333=333===3===3=======3===3===55&3^|^|^555g5555555533355533353533333333=333=333=3=3=3=3===3=================5^--^g^|^g|555g55553535555533353333333333=3333333=3=333=3===3=3===3u==3===3===5^--^g^k^|555355555553535353335333333=333=333=333=333=3=",
"333333333333=3=3=3===333=3=3=3=35^^-k^^^^55|5|g|5|5g5555555535353533353335333333333333333333=333=3=333===3===35^--^^^^^|5|55g|5|5555555555353535353333353333333333333333=3=3=3=3=3=3=333=3=35|&m^^^^^|5|5|g55|55555555553535355535353333=333333333333333=3=3=3===3=3=333=33---^k^^k|5gg55m5|555535553535353535353533333333333333=333=3=3=3=3===3=3=333==3---^|^^|^55555|5|5555353555353535353333333333333333=333",
"33333333333=3=3=3=3===3=3=3=3=335|--^k-||g|55555|5g5g55355555555535333333333333333333333333=3=3=3===3=3=3=3=335|--^k-k|||5|5g5g5555353555353535353333333535=33333333333=3=3=3=3===3=3=3=3=335m&u^|^^5|55g5g555g5g5535553535353533333335=5=333333333=3=3=3=3=3=3=333=3=3=335^--^|^^|||5g5g5ggg5g5555555535353533333335353333=3333333=3=3=3=3=3=3=3=3=3=3=5^---k^^|||5|5g5g5g5g5535353535353533333335333333=333333",
"333533353333=33333=3=333333333333^^-^^^-^^5|5|5|g|||5g5m555m555g5535353535|555333335353333=333=3=3=333=33333=33^--^-^-|^m|5|g|g|||555g5555555g35353533335555333333353333333333=333=3333333=355&m^^^-^^5|g|g|g|||5555gg55355535353535335|5g533333353333=33333333333333333=35---^^^-^^||g|||g|||555|5|55353535353533335|5|333333353333=33333=3333333=333=35---^^^-^^|gg|m|5|5||55g555g553555353535333|5|5533333533",
"335353533333333=3=3=33333=33333=5|--^|^^-|g||5g555|553g553535553535353555353553353335333533=3=3=3=333=333=333=5^--^^-^-kg||gg55m|5ggg5555355555553535553535533535333333333==3=3=3=333=3=333=5u 3^|^^-^gg|5gg55|g55g555535553555333555333535353335333533=3=3=3=3=3=3=3u333=5^--^k^^^^|g|gg5g5|g555555535353555333555353535=33533353333=333=3=3=33333=333=5^---|^^-^k5|mg5g5ggg355555553g3555353555333535333333353",
"353535353333333333333533333535355^--^^^-^^5|g|||5|555g5|5g555g5555555555555535553535353333333333353333333533355^--^-^-^-5|||||||g|5|5g5|5g555g5555553555553535333535333333=333333333333535335u m^-^-^-|g||||||5g5|5|5|55555g55553555355535353535353333333333353333333535355---^-^-^-^5||||||g|5g555g5|555|55555535555535353535333333333333333333353535335---^-^-^-^5g||k||5|5|5gg|555555555555353555353535353533",
"5553555555g3555333533533333=3=335|--^^^^^^km||||k|k||||m|5||||g5g55555g55553555553535353555553333333333=333=335|---^^^-^k5km||k||||m|5gg|||||553g5|5555555555553535555g5535333533353333=33335v 3-^^^^^^5k|||k|k|k5g5|5|g|||5|5555555g5535555555355g35555553=3333533=3333335^---^^^^^^5|g||||||kg|5|5|g|g|||55555555553555553535553555555335333533=333=335^--^^^^^^-|g|||||k|k||m|5|g|g|5g55555555553555355535553",
"355555355555353g55353335333335355^^-^^^-^-^|g||^||5|555|gg5|5g55m|5|555g5g55553555355555555g5533333335353533355^--^^^^^-^k5k||||||5|||5|555|||5|g55|5g555555555|553g5555355555553535353535355^m-^k^^^-^^5||^||g|mg5|gg5|5gg|5|g|5g5g55555535555g553555355553353535333535355---^^^^^-^^5|||||||g|5|5|5g5|5g5|gg5g55555555555g55355555555555355533533533355---^kk^^-^-|||k||g|g|5|g|5|5g555gg|gg5g555|553555353555",
"535353555353533353533333333353335|--^k^^^^^|||||||gg|5gm|5gmg5g5g5g5g555555353555353535353335353533333333333335k--^^^^^^^kg|k||||g|m|5|5|555|5g5|5g5g355g555535553555353535353335333533355535^---|^^^^^^|||||g|||5|5g5g5g5gg|5g5g5g555g555555355535553535333535353333333535^---^^^^^^^|g||||k||m|5gg|5|5g5g5|5g5g555g555535555535353535353335333533333535^---|^^^^^^k5||kg|5|g|5|gg5|5g5g5g5|5555555555555535353",
"5g555g5g5555555335553535553533355^--^^^^^-^^gk|||k|k|k||g|g|5|m|g|5g5|555555555g55555|5555553535553535553555555^--^^^^^-^-|||k|k||||g|||5|5|5|||5g5|555555555|555g5g5555555335553555553535355---^^^^^-^^|||||k||||||g|g|5|g|g|5g5g5g5|55555|55555|5555553535553555553535355----^^^^-^-^g|k|k||||g|g|5|gg5|||5|555|5g55555g555g5|5555553535553555355535355----^^^^^^^^||||k||||||g|g|5g5|5|g5555g5|55555555555gg5",
"5353535555535g535353355353333553||--^k^k^^-^^|||^||||||||||||5||^|^||5|555||||g3535355555355535333355353335353|k--^|-^^^-^^g||^||||||||||||5g|^|k|k5g5g5g|k|g3535355555355|35353535353333353g^--^|^^^^-^^|k|^||g||||||k||5g|^|^||gg555|gk||5535355g35355g35333535353335353g^---|^^^^^^^||gk|kg|||g|5|||55g^|^|k|5555gg|||5535353g55335|3533353g353535355g^---|^^^^^^^k|g||^g|g|g|gkg|gg5^|^|||g55555|||5535353|5",
"|k|^|^|^|^|^k^k^|k|k|k|k|||k||5||^--^k^^^^^-^^^^^^^^^^^^^^^^k^^^^^k^^^^^^^|^|^|^|^|^|^|^|^|^k^|k|||||k||||||5g|---^k^-^^^-^-^^^^^^^^^^^-^^k^^^^^^^^^^^|^^^k^kk|^|^|^|^|^k^|^|k|k|||k||||||5g|---^k|-^^^-^^^^^^^^^^^^^^^^^^^^^^k^^^|^^^^^^^|^|^|^|^|^|^k^k^|^|||||k|||k|^gg|---^^|^^^^-^-^^^^^^^^^^^^^^k^^^|^^^^^^^^^^^|^|^|^|^|^|^|^^^|^|^|k|||k|||k|||5|----^|^^^^-^^^^^^^^^^^^^^^^^^k^^^k^^^|^^^|^^^k^|k|^|^|^",
"^k^^^^^^^k^^^|^^^k^^^|^^^k^^^|||^----k^^^^^^-^^^^^^^^^^^^^^^^^^^^^^^^^^^^^^^^k^^^|^^^^^^^|^^^^^^^k^k^k^^^k^|k|^----k^^^^-^-^^^^^^^^^^^^^^^^^^^^^^k^^^^^^^k^k^k^^^^^^^^^k^k^^^k^^^k^^^k^^^|||^----^^^^^^^-^^^^^^^^^^^^k^^^^^^^k^^^^^^^^^^^k^^^|^^^^^^^k^^^^^^^k^^^^^^^^^|k|^----^^^^^-^-^-^^^^^^^^^^^^k^^^^^^^^^^^^^^^|^k^k^k^^^^^^^^^k^^^^^^^k^^^^^^^|k|-----^^^-^^^-^^^^^^^^^^^^^^^^^^^^^^^^^^^^^^^^|^^^k^^^^^^",
"------------------------------^---------------------------------------------------------------------^-------^--------------------------------------------m----------------------^-^-------^----------------------------------------v3---------------------------^-------^-----------------------------------------------------------------------------^---------------------------------------------------------",
"-------------------------------^-^-^-^-^---^---^---^---^---^-^-^-^-^---^-----------------------------------^-^-^---^-------^-------^---^-^-^-^-^---^-----k-------------------------------^-^-^-^-------^-------^---^-^-^-^-^-^-^---st--------------------------------^-^-^-^---^---^---^---^---^-^-^-^-^-^-^---------------------------------------^-^-^-^-^-------^---^---^-^-^-^-^-^-^---^--------------------",
"^-^-^-^-^-^-^^^-^-^-^^^-^^^-^^^^^^^^^^^^^^^-^^^^^^^^^^^^^^^^^^^^^^^^^^^^^-----^-^-^-^-^-^-^-^^^-^^^-^^^-^^^^^^^^^^^^^^^-^^^^^^^-^^^^^^^^^^^^^^^^^^^^^^^---^-^-^-^-^-^-^-^^^-^^^-^^^-^^^-^^^^^^^^^^^^^^^^^^^-^^^^^^^^^^^^^^^^^^^^^^^3d---^-^-^-^-^-^-^^^-^^^-^^^-^^^-^^^^^^^^^^^^^^^^^^^^^^^^^^^^^^^^^^k^^^^^^^^-------^-^-^-^-^-^-^-^^^-^^^-^^^-^^^-^^^^^^^^^^^-^^^-^^^^^^^^^^^^^^^^^^^^^^^^^-----^-^-^-^-^-^-^-",
"^k^^^^^^^|^^^|^|^|^|^|^|^|^|^|^|^^^k^|^^^^^^^k^^^|^k^|^^^|^^^|^|^|kk^^^|^^--^|^^^^^^^^^^^|^|^|^|^|^|^|^|^|^|^|^^^|^^^|^^^^^^^^^^^|^^^|^|^|^^^|^|^|^^^|^---^|^|^^^^^^^k^^^|^|^|^|^|^|^|^|^|k|^^^k^|^^^^^^^^^^^^^k^|^^^|^^^|^k^|^^^^^33--^^|^^^^^^^^^^^|^|^|^k^|^|^|^|^|^|^|^^^|^^^|^^^^^^^|^^^|^^^|^k^|^k^|^k^|^^^----^^k^k^^^^^^^^^k^|^|^|^|^|^|^|^|^|k|^k^|^|^k^^^^^^^^^|^k^|^k^|^^^|^|^|^^^^^----^^|^^^k^^^|^^",
"|^|^|^|k|^|||k||g|||g|||g|||5|g|5|||5|5|5|5|5|55555555555555555535555|g||---|k|^|^|k|^|k||||||g|||||5|||g|g|5|5|5|5g5|5|5|5555555555555535553555555|g|^---k^|^|k|^|k|k|||k||g|||g|||g|||5|5|5|555g555|5g555535555555555555553g555||mm---|^|^|^|k|k|k||||||||g|||5|g|g|g|5|5g5|55555g555555553555555555553555555|g^----|^|^|^|^|||k|||k||g|||5|5|5|5|5|5g5|5g55555|555555555555555555555555555||^----|^|k|^|k||||",
"|g|555gg55g3555353535353535353333333333u333=3=3u3=3u3=3u3=3u3=3u=33u=335|^-|g5|5ggg555g5535353533333535333333333533=333=3=3u3u3u3u3u3u3u3u3u3u3=3=3335^--kg5g||55555g55555535353335353533333333333333=3u3u3u3u3u3u3u3u3u3=3uuu3u3=33k--^gg|gg555555555555553535333335333333=333=333u3=3u3=3u3u3u3u3u3u3=3=3u3=3u35---^|5g555g5555553555333335333333=333=3=333=3=3=3u3=3u3u3u3u3u3u3u3=3u3u3u3=35---^g555g55355g5",
"5g5|55555g55355555355535333535333333333333=333u3=3u3=3u3u3u3u3u3u3u3=3u5|^-^5|5g555|555g553555333535333533333335333333=3=3=3u3u3u3u3u3u3u3u3u3u3u3u3u5|--^5g5g555555g55g553535353335333333=333=33533=3u3u3u3u3u3u3u3u3u3u3u3u3u3u3u5k--^555|555g55555555353535333333333333=333u3u3u3u3u3u3u3u3u3u3u3u3u3=3u3u3u3u5^--^5m55555555555533353533333333=33333u3=3u3u3u3u3u3u3u3u3u3u3u3u3u3u3u3u3=3u5---^|55g55555535",
"5555535355g555g5g333333333533333535333533=3=3u3u3u3u3u=u3uuu=u3u3u3u=u33|^-|5|g555535355|555g55333333335533333555333333u3u3u3u3u3u3u3uuu3uuu3u3u3uuu33^--|555555535555|55355g33333333353333=533333333u=u3uuu3uuu3uuu=uuuuu=u3uuu=u=3k--^55|353535353|5g55553333=3=33533u3u333=33333=3u=u=u=u3u=u=uuu=uuu=u=u3u3u33---kg5|353535553|55355g3333=3=3=333u3u33333=333=3u3uuu3u=u3u=u=uuu=uu=3u3u3uu3---^|3|553535353",
"555g55553||||g5555553535355|553g5|555555333333333333u3u3u3u3u3=3u3=3u3=3|--^5^|55555555g||||5555353535353|55355g555535333333u3=3u3=3u3u3u3u3u3u3u3u3u5k--^5|5555555555|||k3555353535353g5535555535353333u3u3u3u3u3u3u3u3u3u3u3u3u3=5|--^5|k5555g5555g||k5555353535333555335555353533u3u3u3u3u3u3u3u3u3u3u3u3u3u3u5---^g5|5555|55355|5^55553335333333g5335555353533u3u3u3u3=3u3u3u3u3u3u3u3=3u3u5---^|5||35553555",
"55g5|5g555|5g55555g355533555|5g5555353333333333u3=3u333u3u3u3u3u3u3u3u33|^-|g||5g5g55555g55555g35553535335^g55535333333333533u3u3u3u3u3u3u3u3u3u3u3u33^--k|||5g5g55353gg5555g55353535353||g555533333333=333u3u3u3u3u3u3u3u3u3u3u3u33k--k|5^5g5|g5555555553555353535353||55535333333u3u3u3u3u3u3u3u3u3u3u3u3u3u3u33---^|5|5g5ggg5555g55g35553333353535|g35553333u3u3u333u3u3u3u3u3u3u3u3u3u3u3u33---^|5^555555353",
"5|g|5|5g55g|5|5g555555553535||35555555353335333333333333333333=333u3u3u5|^-^||5|g|5|55555|5|g|gg55555555355|3535353533333335333333=333u333=333u333u3u5|--^|||55|5g5g555|5gggg|55555553355^35553335333333353333u333=3u3u3=3u333u333u5|--^||k55|g|555m5|55g55|55355535355|5533333333=333333333u3u333u333u333=333=3u5^--^|||5g|5555555|g5g55535353533333||333353333333333=333u33333u333=333333333u5---^||||5gg|5535",
"g5g5|555555g|555g555535355g55533555555533353335333333u3u333u33333u3u3u33|^-k|||5g5g5555555|5g55555555355g35|35535355533333333u333u333u333u3333333u3u33^--k|||5g5g5555555|3555555535355555533335353g3333333333u3u3u3=3u3u3u333u3u3u33k--^|m|5g555535553|55355535353555355533353535333333=3=3u3u3u3u3u5u3u3u3=3u3u33---^|||5g5g5g35353|55555535353535553g3335353553u333u333u3=3u333u333u3=3u333=35---^kg||55555353",
"5|||5|5g5||gg|5gg|5g5m5g5ggg3^555g555g|53535353535333333333335353333u335|--^|^|g5g5g5m5g|55|5g555g555m5g555^g5555555|533353535333333333333333533333335^--^|^g|5|5|5g5|gg5|5555555m555g5|5g|5555535gg33333535333333333333333333333335|--^||k5g|555|5gg|5|5|555555555g5|5g|5355555gk33353333333333333333333533333335---^|k|5g|5|555m5|5|555g555555555|53|53555355|33333333333333333335333535333335---^||k|5|555555",
"55|5g5|5g5|g|5g5|5g55555g55355555555g5^33353335333333333333u33533u333u33k^-^|||555|5|5g5|g|5g5|555g555g5535555555555|53353333333333=333u333u335u333u33^--^k||5g5g5|5g5g5|5g5ggg5g553555555|3555555k|335333533353333333333u3333333u33k--^k|^555g5g5g5gg|5g5|5555355555553g3535555||33333=33333333333=333u3333333u35---^^||5g5g5g5g5g5|555|gg55555555333533353535|5=3333333333333=3333333333333335---^^|kg55g5|5|5",
"5|g|g|m|g|m|g|5|g|m|5555555g555g5g5g55gk3335353533355535353353353333333gk---^^||||g|g|g|g|g|5g5|g|55555g5g5555m555355k5535333535333535333335333333333g^---k||gm|g|m|g|g|g|5g||5g555m555g55555535355^m335353535333335333335333335333gk---^^||g|g|||g|5|m|555g555555555555555535353||533353535333535333335333333333g^--^^|||m|g|g|g|5|g|555|5|5535555555355555553||533333535333535353335333335333|---^k^|kg|5|g|g|",
"|||||g|g|5g5g5|5g5g5|55555g55555g5535355|3335333533333333353333333333355^^-^^||g|gg5|g|5|5g5g5g5|5g55355g5555555535333|g533333333333333353333333333355^--^^|^m|g|5|g|5|g|5g5g5g5g5555355535353535353g5335333333333333u333u3333333u35k--^^||5|g|g|g|g|g|5|555g555g353535553535353535|5u3353333333333335333333333335---^^|^m|g|5|g|5|5g5g5g5g5g55353555353555353335m5333333333335333333u5333333335---^^k^||g|5g5|5",
"5^||g||||k||||||5|g|g|gg5|555555355g5|555|55553535353535333335333535353|k--^^^|||kg|g|g|||||||5|g|g|5|555|5555555|5g555g55353535353335333535353335353|^---^^||||g|g||k||||||5|g|g|g|555|5g55355555555g53353535353533333533353533353|k---^^^|g||||k||||g|||5|g|g|5|555|55553555553555g5353535353335333533353535353|----^^^|||||||g|||5|g|g|g|5|gg55555555355555553555353535353333333535353535353|----k^^|g|||g|g|",
"|||g|||||||g|gg5g5|5g5|555g5g555g5g5555555535353535333333353333333333355^^-^^^|g|||g|||g|g|5g5|5|5g5|5g5m5g555g5555555g5535353535333333333533333333335^--^^^^g|m|g|||g|g|5|5|5|5g5|5g555g5g55553555555535353535333333333333333333335k--^^^^5|g|m|||g|g|5|5g5g5|5|5g5555555g355555555555333535333333333333353335335---^^|^g|||g|||g|5|g|5g5g5g5|555555555g555555353555353535333333333335353535355---^^k^||||g|g|g",
"^|||g|||||g|||m|g|5|5|5|5g5gg|555555555g5535555535353535353535353535333|^--^^^^^5||||||kg|g|g|5|5|5|gg5|5m5|55555535555555555535353535353335353533333|^--^k^^^g||||k||g|g|g|g|5|gg5|5|5g5g5g555555555535553555353535353535355535353|k---k^^^g|g|||||||g|g|5|5|5g5g5|555555555555555555353535353533353535353535333|^---k^^^||g|g|||||g|g|5g5g555|5g555|55355555355535553535353535353535353535333|----k^^^|||||||k",
"^||||g|||||g|g|g|5ggg5g5g5g5g55553555555g5555553535353335353535553333355^^-^^^^^|g|||||||5|g|g|gggg5|555g55555535555g555535553535353333353555353533355^--^^^^^|g|||||||g|m|||ggg|5g5g5g5g5555355555555555555535353335353535553535355k--^^^^^|5|||||||g|5|||g|5g5g5g5|555g55353555555535553335353535353335353535355---^kk^^^m|g|||g|||5|g|5|5|555g5g55555535553555555535553535353535353555353535g---^kk^^^5|g|g|g",
"^^|k|k|k|^||g|||g|||||g|g|g|5|mg5|555|5g5m55555g55555555355555555555355|^--^^-^^|k|k|k|k||||g|||g|||5|||5|5|5|5|5|555m5|55555g55555555553555555555355|^--^^-^^|k|^|k|||||||k||||||g|5|m|5|5|5|gg5m5g5|55555555555555355555553555353|m---k-^^|k|k|^|k|k||5k||||g|5|m|5|5|5|5|55555|5g5|555m55555555555555555555553|----k-^^|k|k|k|^|k||m|g|||5|g|5|m|5|5g5|5g5m555|55555g55555555555535555|55553|----k^^^kk|k|k||",
"k^k|||k||||g|||m|g|5|5|m|5|5g5g5g5|5g5g555g555g555555555555355533353535|^^-^^^^^||k|||||||k||g|g|g|5gg|5|5|5g5|5g5|555g555535555555355535353535355555|^--^^^^k^||||||||||||m|g|m|g|5|g|5g5|5|5g55555g5g55555555555535353555353535355b--^^^^|^|||||k||||||g|m|g|m|g|5|g|5g5g5g55555g555g55555555553535555555355535g---^^^^|^|||k|||k||||5|g|mggg5|5g5g5|5g5g5555555g5555555555553555555555355535g---^^^-|^|||||||",
"k^^^|||^|||||||k||g|g|||g|g|g|m|g||k||5g5g5|555|5g5g555555555555555g5g5|^---^-^^^^|^|k|k||||||||||m|||g|g|m|g|5|mk5|555|5g5g5|5g5g55555g555g55555g5|g|^---^-^^^k|k|k|k|k|||k||g|g|gk||g|g|g|5|5^mk5g5g555g5g5g5g555555555555555g555|i---^-^^^^|^|k|k|k|||k||g|g|g|g|g|g|g|5|g|g|gg5|5g5g555g5g5g555555355555555gm|----^-^^k^|k|k|k|k||g|||g|g|m|||g|5|m|5|5|||||5g5|555|gg5|5555555|555g555m555k----^-^^|^|^|k|k",
"-^^|k|k|k|k|k|||||||kg|||5|g|5|||5g||||g|555|5g5|5g55555555355555355535g^^-^^^-^^|k|k|k|^||||g|||||||g|||g|g|||5ggg5|5g5g5|5|5g5|55553555355555355555g^--^^^-^^|k|k|k|||k||||||||g|m|g|m|m|||5gg|g|||5g5g5g5g5|55555555555555355535gl^-^^^-^^|k|||k|k|^||||g|||||5|||g|m|||m|5|g||g5g5g5g5g5g55553555355555555535g---^^^-^^|k|k|k|||^||||g||k||g|ggg|5|||gg5|g|||5g5g555|5g55555555555555555g55|---^^^-^^|k|k|k|",
"^-^k|^|^|^|k|^|^|k|||k|||||k||g|5|||g|g|5m5|5g5g5g5|5g5|5|555||g5|5g555|^---^-^-^kkk|^|k|^|k|^|k|k|k|||||k||g|ggg|g|g|555|5|5g5g5|5g5|5g555|||5|55555k^-^-^-^-^k|^k^|^|k|^|kk^|||k|k|||||kg|5|g||g5|5g5|5|555|5g5|5|5|555|g|g|5g555|i^--^---^^|^|^|k|^|k|^|k|k|||^||g|||g|5|g|gg5|5g5|5g555g5|gg5|5g555|g||g5g555|----^^^--^|^k^|^|||^|k|^|||k|k||5|||||5|g|||g|5g5g5|5g5g5|5|5|5g555|g|5|gg5|5|----^-^-^-|^|^|^",
"^^^|k|^|^|k|k|k|||k|||k||g|||||ggg|5|5|g|5|5g5|5|g|5|gg555g5|g|5g5|5|5|g^^-^^^-^^|k|k^^|k|^|||||k|k|||k||||g|5g5|g|5|g|5g5|g|g|g|5|5g555g5g5|5g5g5|5gg^--^-^^^-|||kk^k^|k|^g||k|k|^||||||||5|5|g|5|g|5|5gg|5gg|5gg|555g5g5|5|5g5|5|g^--^^^-^^^||kk^|k|^|||||||k|k|k||||||5|5gg|5|g|5g5gg|g|5|5|5g555g5gg|5|5g5|55|---^^^^^-^||k|^|^|k|^|||k|k|k||||g|g|5|5|g|g|5|gg5g5|gg5|5|5|5g5g55g|5|5g5|gg|---^^^-^^^k|k|^|",
"^-^^|^|^k^k^kk|^|^|^|k|^|^|^|k|^|k|kg||k||g|g||k||g|||5|||g|||g|gg5|g55|^---^^^-^^|^|^k^^^|^k^|||k|||k|^|k||||g^||||g||k||gk|||||||||gg|5|g|g|5|5|gg5|^---^-^-^-|^|^^^k^kk|^|^|^|k|^|^|||k|||k||||g||k||g||||||k||||g|5|||g|g|5|||5|^---^-^-^-|^k^|^k^|^|^|^|^|^|^|^|||k|||k||g||||^||gk|||k||g|g|5|g|g|||5|5g||5|^---^-^-^-^^k^|^|^k^|^|k|k|k|^|k|k|k|^|k|k||g||k||g|||||||||g|5|g|g|g|g|5|||5|----^-^-^-^^k^|^",
"^^^^^|k|k|k|k|k|k|||k|||k||g|||g|m|m|g|5|5|5|5|||5gmg5g5g5|5|5gm|5|g|5g|^^-^^^^^-^^|^|k|^|||k|||k|||||||k||||g|m|g|g|5|5|5gg|5g5gmgm|555|5ggg5|5|g|5gg^--^^^^^^^^|k|k|k|k|k|k|||k||||g|||||g|5|||5|g|5|5|m|5g5g5g5gmg5gm|g|mg5|5kgg|---^^^^^-^^|^|k|^|||k|||k|||kg|||||||g|m|||g|5|gg5gg|g|mg5g5ggg5g5g5|5|g|g||g|---^^^^^^^^|k|^|k|^|||k|||k||||||||||||g|m|5|m|5|mg5|g|5|5|5g5|5gmg5g5|5g|||g|---^^^^^^^^kk|k|",
"^-^-^^^^|^k^|^k^|^|^|^|k|k|||^|k|k|||k|||k||gk||||||g|||5|||||||5|g|5|g|^---^-^-^-^|k^^^k^k^|^|^|^|^|^|^|k|k|^|||k|||k|||k|k||||g|||g|g|||||5|g|g|g|5k^---^-^-^-^^k^|^k^|^k^|^|k|^|k|^|k|^|k|k|k|k|k|||||k||||||g|g|g|||g|g|g|||5|g|^---^-^^^-^^|^^^k^|^|^|^|^|^|k|^|^|k|^|||^||||||g|||||||g|||g|g|5|g|g|g|g|g|5k----^-^-^-^^|^|^|^k^|^|^k^|^|k|^|||^|k|k|||k|k|k||||||||||g|||||g|g|g|5|g|||gk----^-^-^-^^|^k^",
"^^-^^k^|^k^|k|k|k|k|k|k|k|^||||||||||||g||||||k5|g|m|g|5|||5|g|5g5|5|5||^--^^^^^-^-|k|^|^|k|k|k|k|^|k|^|^|k|||k|k|k||||g|||||g|g|g|5|g|g|g|m|5|5|5|5||^--^^^^^-^^^k|kk^|k|k|k|k|^|||k|^|||||k|k||||g|||g|||||||5|g|5|g|5|||5|5|5|5||---^^^^^^^^^||^|^|||k|k|k|^|||k|k|k|||||||k||||g|||||||g|g|g|g|m|g|||g|5|5|5||---^^^^^-^^^^|^k^|k|k|k|k|k|||k|^||||||||||||||||||||||g|5|||g|5|m|||g|5|5|g||---^^^^^^^-^^|^|",
"^^^-^^k^^-^^^^^^^^^^^^|^^^^^^^|^k^|^^^k^|k|k|||k|k|^|^|km|g|||g|||g||||^^---^-^^^-^^^^k-^^k^^^^^^^^^k^^^^^^^k^|^|^|^k^|k|k|k|k|k|^|^||m||||k||g|g|g||^^---k-^^^-^^^^^-^^^^^^^^^^^^|^^^^^^^k^|^|^k^k^|||k|||k|||^|^||g|g|||g|||g|g|g^^---^^^^^-^-^^|^^^k^^^^^^^k^k^k^^^^^^^|^|^|^|^|k|||k|||k|^|^||g|||gk||g|||||gk----^^^^^-^^^^^^^-^^^^^^^^^^|^k^^^^^^^|^|^|^k^|||k|||k|||^|^||||g|g|||||g|||g^----^^^-^-^-^^|^",
"^^^^-^^^^^^^^^^^^^^^^^^^^^^^^^^^^^^^^|^^^^^^^^^^^^^^^^^^^^^^^k^k^k^k^||k---^^k^^^^^^-^^^^^^^^^^^^^^^^^^^^k^^^^^^^^^^^k^^^^^^^^^^^^^^^^^^^^^^^|^^^k^||k---^^k-^^^-^-^^^^^^^^^^^^^^^^^^^^^^^^^^^^^^^^^^k^^^^^^^^^^^|^^^|^^^|^^^|^^^||^----^|^^^^^^-^^^^^^^^^^^^^^^^^^^^^^^^^^^^^^^^|^^^^^^^^^^^^^^^^^^^^^k^|^^^k^|k^----^|^^^^-^-^^^^^^^^^^^^^^^^^^k^^^^^^^^^^^^^k^k^^^^^^^^^^^|^^^k^^^|^^^k^^^||^----^|^^^^^^-^^^",
"--------------------^---^---^---^-^-^-^-^-^-^---^-^-^-^-^-^-^-^-^-^-^^^-----^-------------------^---^-^-^-^-^-^-^-^-^-^-^---^-^-^-^-^-^-^-^^^-^-^-^^^---------------^---------^-^---^-^-^---^-m^^-^-^-^-^---^-^-^---^-^-^-^-^---^^^-------------------------^---^-^-^-^---^-^-^-^-^-^---^-^-^---^-^-^-^^^-^-^-^^^---------------------------^---^---^---^---^-^-^-^-^---^-^-^-^-^-^-^-^-^-^-^^^-----------------",
"-------------------^---^---^-----------------------------------------^-^-^-^-----------------------^---^-------------------------------------------^-^-^-----------------------^---^---------^ct-------------------------------^-^-^---^-------------------^---^---^---^-----------------------------------^-^-^---^-------------------^---^---^-----------------------------------------^-^-^-^---^------------",
"^-^-^-^-^-^-^^^-^^^-^^^-^^^-^^^-^-^-----^-^---^-^-^-^-^-^-^-^-^-^-^-^-^-^-^-^-^-^-^-^-^-^-^-^^^-^^^-^^^-^^^-^^^-----^-^---^---^-^-^-^-^-^-^-^-^-^-^-^-^-^^^-^-^-^-^-^-^-^-^-^^^-^^^-^^^-^-^-^^&b--^-^-^---^-^-^-^-^-^-^-^-^-^-^-^-^-^^^-^-^-^-^-^-^-^-^-^^^-^^^^^^^-^-^-^-----^-^-^---^-^-^-^-^-^-^-^-^-^-^-^-^-^^^-^-^-^-^-^-^-^-^-^^^-^^^^^^^-^^^-^^^-----^-^---^---^-^-^-^-^-^-^-^-^-^-^-^-^-^^^-^-^-^-^-^-^-",
"^^^^^^^^^^^^^^^^^^^^^^^^^^^^^^^^^^^^-^^^^^^^^^^^^^^^^^^^^^^^^^^^^^^^^^^^^^^^^^^^^^^^^^^^^^^^^^^^^^^^^^^^^^^^^^^^---^^^^^^^^^^^^^^^^^^^^^^^^^^^^^^^^^^^^^^^^^^^^^^^^^^^^^^^^^^^^^^^^^^^^^^^^^^k&u-^^^^^^^^^^^^^^^^^^^^^^^^^^^^^^^^^^^^^^^^^^^^^^^^^^^^^^^^^^^^^^^^^^^^^^^^^-----^^^^^^^^^^^^^^^^^^^^^^^^^^^^^^^^^^^^^^^^^^^^^^^^^^^^^^^^^^^^^^^^^^^^^^^^^-----^^^^^^^^^^^^^^^^^^^^^^^^^^^^^^^^^^^^^^^^^^^^^^^^^^^",
"k^^^^^^^|^^^|^k^|^|^|^|^|^k^|^^^^^^--^^^^^^^^^^^^^^^^^^^|^^^|^^^|^k^|^k^^^k^|^^^^^^^|^k^|^|^|^k^|^k^|^|^|^|^^^^^^--^^^^^^^^^^^^^^^^^k^^^k^^^|^k^|^k^|^^^|^k^|^^^^^k^|^|^|^k^|^|^|^|^|^|^|^^^^^&m^^^^^^^^^^^^^^^^^^^^k^^^^^k^|^k^|^k^k^|^|^|^^^^^|^|^|^|^|^|^|^k^|^|^|^|^^^^----^^^^^^^^^^^^^^^^^^^^^|^^^|^k^|^k^|^^^|^k^|^^^^^k^|^k^|^k^|^|^|^k^|^k^|^^^^---^^^^^^^^^^^^^^^^^^^^k^k^^^k^|^^^|^k^|^|^|^k^^^^^|^|^",
"|g|5|5|5g5g5g5g5g5g55555g5g555|5||^-^|^|^|^|k|^|k||||||||||||||||||||g|g|||g|5|5|5|5g5g555g5g5g5g55555g5g5g5|5||--^|k|^|k|k|k|k||||||||||||||||||||g|g|g|g|5|g|5g5g5g5g5g5g555g555g5g5g555|5||c3^|^|^|^|k|^|k|||||k||||||||||||g|g|5|||5g5|5g5g5g5g55555g555g55555g5g5g5g|k^--^|^|^|^|k|k|k|||k|k||||||g|||||g|5|5|g|5g5g5g555g5555555g555g555g5g5g5|5||^--^^|^|||^|k|k|||||||kg|||g|g|g|g|5|5|5g||5g5g55555g555",
"5g5555555m55555m5m3m5m5m3m5m5m5mg^^-^||^|||||||k||g|g|g|g|g|g|5|5g5|5g5|5g5|555g555m55555m5m5m5m3m5m5m3m5m5m5mg^--^k|k|||k|||^||||g|g|g|gg5|5|5|g|5m5m5ggg5m5g5m555m555m5m3m5m3m5m3m5m3m5m5mgk&m^||k|k|||||^||g|||g|g|g|5g5|5g5g5m555m5g5m5m5m5m5m3m5m3m3m3m3m3m5m3m5m5m5mg---^k|||||k|||^||||g|g|5|5|5g5g5g555g555m5g5m5m3m5m3m3m3m5m3m5m3m5m5m5m3m555m|---^k|||||kg|gk||g|5g5|5g5|5g55555m555m5m5g5m3m5m3m5m3m",
"g555535553555553m353m353m353m3m3||^-^|||k||||||||||g|||||g|g|5|g|5g55555g5g5g5555355m3555353m3m3m3m3m3m3m3m3m3||--^||||g|||||||||m|||||g|5g5|5|5g5g555g5m55555555553m353m3m3m3m3m3m3m3m3m3m3|g&3^g||k||||||||||g|||||5g5g5g5|5g5g555g5m5g355535553m3m3m3m3m3m3m3m3m3m3m3m3|^-^^||g|||||||g|||gg5|g|5g5g5g5g5m5555355m3555353m3m3m3m3m353m3m3m3m3m3m3m353|^--^||||||g|g|g|g|5g5|||5g5g555g5g55553m5m553m3m3m3m3m3",
"||555m5m5m5m5m5m3m5m3m5m3m5m3m5g5^^-k|^||k|||k|||^|^|^||g|g|g|g||^||5|g|||g|g|||5m5m5m5m5m5m3m5m3m5m3m5m3m5m5gg^--^||k|||k|||||^|^|||kg|g|g|5|g|5|5g5k||g|g|5|5m5g5m5m5m3m5m3m5m3m5m3m5m3m55gk&m^||^|^|||k|||^|^||||g|g|5|5gg^|g5g5|g|g|5|g|5m5m5m5m3m5m3m5m3m5m3m5m3m5m3mg---^k|^gk|||||||^|^||gkg|5|5g5g5|||mg5|g|5|5gg|gm3m5m3m5m3m5m3m5m3m5m3m5m3m5m|---^^|^|k||||||g^|k|||k||5g5|5m5|||5g5gg|5g5m5g5m5m3m5m",
"g5g5g5g555m555m3m5m3m3m3m5m3m3m3g|^-^|^|||||||||||||kg|||g|g|g|5|5k||5|||||555|5g5g5555353m3m3m5m3m3m3m3m3m3m3||--^|^|||||kg||||||^g|||g|g|5|5|5|||5|||||5g5g5g5g5m3m3m3m3m3m5m3m3m3m3m3m3m3g|c3^|k|||||kg||||k|^g|||5|5g5|5g5|||5g||||5g5|555m3m5m3m5m3m3m3m3m3m3m3m3m3m3|^--^||k||||^g||||k|^||||5|5g5|5g5g|k5g||||5g5g5m353m3m3m3m3m3m3m3m3m3m3m3m3m3|^--^|||||||k||g||kgk||m|5|5g5g555g|kggg|||555m555m5m5m3",
"m|5|g|5|mg5g5gmg5m5g5m5m5g5g5m5mg^^-^^k^|k|^|||k|^|||||^|k|k||g||||^||||||g|g|5|5|5|gg5g5m5m5m5g5m5m5m5g5m5mmmg^--^^kk|^|k|||||k|||k||||||||||g||^k|||g|g|5|g|5|gg5g5m5m5m5g5m5m5m5m5m5m5m5mgk&m^^|^|k|^kk|k|k|||||k||g||||kg|gk^|g|g|5|5|5|5g5g5g5m5m5m5m5m5m5m5m5g5m5g5mg---^^|^|^|k|^|||k||g|||||||g|g|g|g|^^||5|5|5g5g5g5g5g5m5m5m5g5m5m5m5m5g5g5g5mg---^^|^|k|k|kgk|||^gkg|||||g|g|g|g|k^g|gg5|5g5g5g5g5g5m",
"|5g5|5g5g5g5g5g5m5g5m5m5g5g5g3m5||^-^|^|||||k|||||||k||||||||||||5||^5|||g|g|5|5g5g5|5g5g5g5g5m5g3m5g5m5g5m5m3||--^|^|||k|||||||||||k|||km||||gg||k5|g|g|g|5|5g5g5g5g5g5g555m3g5m355g5m5g5m3|g&3^|k|||||k||||g||kg||k||g|g|||5g|^g|g|5|5|gg5g5g5g5g5g5g5m553g5m3g5m5g5m5m3|^--^|k|||||||k||g|||||||g|m|m|5|5gg||g5g5|5|5g5g5g5g5m355g555g355m355g5g5g5m5|^--^|k|k||||||||g||||||k||5|5|g|5gm||g||5g5g5g5g5g5g5g5",
"g|g|g|g|g|g|5|gg5mg|5|||5ggg5m5g|^^-^^k^|^|k|^|k|^|^|k|k|k|||k|^|^||k||k|k|||^g|g|g|5|g|5|g|5g5m5m5|||g|5g5m5g|^--^^^^|k|^|k|k|^|^|k|^|||k|k|k|^|||||k|k|k|^g|gg5|gg5|5|5ggm5mm|5gg|5|5g5g5m|k&m^^|^|^|k|^|k|^|^|^|k|k|||k|||^k||^|||||||^|g5|5|gggg5|mg5g5m5|5g5|g|5g5g5g|---^^k^|k|^|k|k|k|^|k|k|k||||g||k|k|^5|||g||k||gg5|ggg|5g5gmg5m5|gmg|5|gg5g5m|---^^k^|^|k|k|k|k|k|||||k|||||||^kkg^gk||g|g||g5ggg5|gg",
"g||5|g|g|5|5g5g5g5m5g5|g|5g5g5g5||--^|^|k|k|k|k|k|k|k|k|||||||||||k|k|k|||k||^|5|5|5|g|5g5|5g5g5g5m5|g|5|5g5m5|k--^|^kk|k|k|||k|||^|k|||||||||||k|k||||g||||kg|5gg|5g5|5g5g5g5m5g5g5|g|5g5m5||c3^|^|||^|k|k|k|k|||k||||g||||||k||||||||g||^5gg|5g5|5g5g5g5g5g5g5mg|5g5|5m5|^--^|^^k|k|k|k|||k|k|||k||||||||g|||||||g||||^m|5g5g5|5g5g5g5g5g5g5gm|g|5g5m5|^--^|^|k|k|k|k|||^g|||||g|g|||g|5||||k||g||||^|g5g5g5|5",
"||g|||g|g|g|||g|g|5gg|5|g|m|gm5||^^-^^k^|k|^|^|^|k|^|k|k|k|k|||k|||||||||k|||^||||g|||||g|g|g|5|gg5|m|g|g|5ggg|^--^^^^|^|k|^|k|k|k|k|k|^|||k|k|k|||k|k||||g^k|g|||||||g|g|5|g|5|g|mgg|g|ggmg|k&m^^|^|^|^|^|^|k|^|||||k|||k|k|||||||k||||gk||g|g|g|ggg|5|gg5|gggggg5gggggmg|---^^k^|^|k|^|k|k|k|k|^|^|||||k||||g|g|||||g|^k5|||g|ggg|g|g|5g5gggmgg|g|g|5g|---^^k^kk|k|k|^|||k|k|^|k||||||||g|||g|||||g||^m|5|g|g|",
"^mg5|g|g|5|g|g|g|5gggg|5g5g5|5gm||^--k^|k|k|k|k|k|||k||||||||||||g|g|||||||g|gk||5|g|5|m|ggg|5|g|mgm|5g5g5g5g5|^--^^^k||k|k|k|k|k||||||||||||||||||||||g|||g^||m|5gg|mg5g5|gg5g5mm|gg5g5|5gg||&3^^^kk|||k|k|k|||||||k||||g|||||||g|g|||||5|||5g5|5gm|5g5|5|5|5g5|gg5|5g5g5|^--^^^^k|^|k|k|k|k||||||||||g|g|||5|g|||g|g|mk||5|5|5|5gm|5|g|5|5g5|g|5g5|gg5|^--^^^kk|k|k|k|k|||k||||||||||g|||g|5|g|g|m|g||kmgm|5gg",
"|^||||g|g|g|g|||||gkg|||g|g|ggg||^^-^^^^|^|^|^k^|^|^|^|k|^|k|^|||^|k|^|||^|||||^||||g|g|g|g|g|||g^g|g|g|g|ggg||^--^^^^k^|^|^|^k^|^kk|^|k|^|k|k|k|^|||||||||||^k|||g|g|g|g|||||||m|g|g|g|5|g||^&m^^^^k^|^|^k^|^|^|^k^|^|k|^|||k|||||||k||||||kk||||g|g|g|gk||g||gg|g|g|g|m||---^^^^k^|^k^|^k^|^|k|^|^|^|k|||k|k|k|||k||||g||k||g|g|g|g|g|||||||g|g|g|||g||---^^^^|^k^|^|^|^|k|^|||^|k|^|||k|k|k|||k||||g||^||g|||",
"|||g|||g|m|5|g|m|g|5gg|g|5|m|gg5|^--^^^|^|k|k|^|k|^|||k|k|||||k|||k||||g|||||||||||g|||m|g|mgg|5gg|5|g|5|g|5ggk^--^^^k^|k|^|k|^|k|k|k|k|k|k|||||k|||||||||||||k||||||g|5gg|5|g|5gggg|g|5|g|5||c3^^^kkkk|k|^|k|^|k|k|k|k|||||||k|||k|||||||k||||g|||5|g|5|5|5|5|mgg|5gg|5gmk^---k^^^|k|k|k|k|k|k|k|k|||||||k||||||g|||g||||k||g|g|g|5gg|5|g|5|5gg|g|g|gg5|---^^^^^|k|||k|k|^|||k|||k||||||||||||g|||g|g|||||g|||m",
"|||k|||k||g|||g|g|g|g|g|g|g|g|g||^^-^^^^|^|^k^|^|^|^|^|^|k|k|k|^|k|^|k|k|k|k|||^||g|||||||g|g|g|g|g|g|g|g|g|g||^--^^^^|^k^|^k^|^k^|^|k|^|k|^|^|k|k|k|||k|||k|k|||||k||||||g|g|g|g|g|g|m|g|g||k&m^^^^|^|^k^|^|^|^|^|^|k|^|k|^|k|k|k|k|||k|||k||||||g|||g|g|g|g|||g|g|g|g|g||---^^^-k^k^|^k^|^|^|^|k|^|k|^|k|k|k|^|||k|||k|||k|||k||g|||g|g|g|||g|g|g|g|g||---^^^-kk|^k^|^k^|^|k|^|k|k|k|^|||k|||k|||k|||||k||||||",
"|||||g|g|g|||5|m|5|g|5|g|g|g|m|gkk--^^^^^|k|^|k|^|k|k|k|k|||k|||||||k||||||||||||||g|g|g|m|m|5|g|mgm|g|g|5|g|g|^--^^^^^|^|k|^|k|k|k|^|k|k|||k|||k|||k|||k||||||||g|g|g|g|5|g|5|g|5|||g|g|m|g|m&3-|^^^|k|^|k|^|k|k|k|k|||k|k|||||k|||||||||||k||g|g|g|g|m|m|g|m|m|||g|g|g|g|^--^k^^^|k|k|^|k|k|k|k|k|k|||k|||||||k|||k||||||||g|||g|g|m|m|mgg|5|||g|g|g|gk^---|^^^kk|^|k|^|k|k|k|k|k|k|||k||||||||||||||||g|||g|g"};
