/* XPM */
static char * 0_xpm[] = {
"202 275 218 2",
"  	c #000000",
". 	c #CA7902",
"+ 	c #D78204",
"@ 	c #D87F00",
"# 	c #D47C00",
"$ 	c #DB870B",
"% 	c #F08F00",
"& 	c #FF9800",
"* 	c #FA9500",
"= 	c #F49100",
"- 	c #EB8C00",
"; 	c #FB8C0E",
"> 	c #BE7101",
", 	c #B56B00",
"' 	c #B86C03",
") 	c #3E2205",
"! 	c #2E1906",
"~ 	c #351D06",
"{ 	c #2A1608",
"] 	c #955801",
"^ 	c #4B2B06",
"/ 	c #915300",
"( 	c #8B5302",
"_ 	c #521C10",
": 	c #251407",
"< 	c #E68A00",
"[ 	c #130B04",
"} 	c #8C4E00",
"| 	c #A66100",
"1 	c #7A4503",
"2 	c #C97600",
"3 	c #D98000",
"4 	c #824500",
"5 	c #683C04",
"6 	c #814901",
"7 	c #562F03",
"8 	c #643100",
"9 	c #5D3700",
"0 	c #563104",
"a 	c #9C5901",
"b 	c #995700",
"c 	c #A35E02",
"d 	c #5D3800",
"e 	c #000000",
"f 	c #06080B",
"g 	c #AA6301",
"h 	c #4D330E",
"i 	c #1C120B",
"j 	c #AF6803",
"k 	c #B56700",
"l 	c #C37200",
"m 	c #C06F00",
"n 	c #452607",
"o 	c #2A1606",
"p 	c #E38500",
"q 	c #261408",
"r 	c #735733",
"s 	c #868172",
"t 	c #8C8574",
"u 	c #976B29",
"v 	c #76695A",
"w 	c #81725B",
"x 	c #857356",
"y 	c #7F745F",
"z 	c #705229",
"A 	c #6B4312",
"B 	c #857862",
"C 	c #887659",
"D 	c #7F6A4A",
"E 	c #E2EDEE",
"F 	c #EBF9FA",
"G 	c #F1FAF4",
"H 	c #EBF7F8",
"I 	c #E5F3F3",
"J 	c #C09E62",
"K 	c #BB985C",
"L 	c #DDEAE9",
"M 	c #E2EFF0",
"N 	c #DAE7E8",
"O 	c #745936",
"P 	c #7B6443",
"Q 	c #684E30",
"R 	c #B5B9B7",
"S 	c #EAF6F6",
"T 	c #BCC0B4",
"U 	c #DE8A0F",
"V 	c #F1FFFF",
"W 	c #B0B5AD",
"X 	c #DCE8E7",
"Y 	c #DAE5E5",
"Z 	c #D4DCDC",
"` 	c #EDF2E8",
" .	c #6A4F30",
"..	c #BDC3BA",
"+.	c #CBCBBC",
"@.	c #C8C6B4",
"#.	c #C5CACB",
"$.	c #CAD7D8",
"%.	c #C5D3D4",
"&.	c #D4E2E3",
"*.	c #B4C2C4",
"=.	c #B1BFC1",
"-.	c #B9C7C9",
";.	c #D5DFE0",
">.	c #BCCACC",
",.	c #ADBBBD",
"'.	c #A9B6B7",
").	c #A8B6B9",
"!.	c #A6B4B6",
"~.	c #D6CDB4",
"{.	c #D3D9DA",
"].	c #CCDBDB",
"^.	c #AFBDC0",
"/.	c #B9BDBE",
"(.	c #B5BBBC",
"_.	c #EFE2C3",
":.	c #EED09D",
"<.	c #F1EEDB",
"[.	c #F4CB94",
"}.	c #F7BC75",
"|.	c #F3EAD4",
"1.	c #EECB93",
"2.	c #EEC689",
"3.	c #EFEAD3",
"4.	c #F9A647",
"5.	c #F9B463",
"6.	c #F1F6EC",
"7.	c #F2F2E3",
"8.	c #EECF9B",
"9.	c #F3C485",
"0.	c #FB8D12",
"a.	c #F3C689",
"b.	c #F1E0BE",
"c.	c #F2E5CB",
"d.	c #FA9523",
"e.	c #EFC586",
"f.	c #EFC88D",
"g.	c #F9AC53",
"h.	c #F6C78B",
"i.	c #F1F0DF",
"j.	c #FB921C",
"k.	c #F3D09D",
"l.	c #EFD8AE",
"m.	c #F4DAB3",
"n.	c #FA9D35",
"o.	c #DAC398",
"p.	c #EED3A3",
"q.	c #EED6AB",
"r.	c #F8B76A",
"s.	c #EFDAB3",
"t.	c #F1F7F0",
"u.	c #F4D6AB",
"v.	c #E1C28F",
"w.	c #D5D6C8",
"x.	c #F9B15C",
"y.	c #F4D4A6",
"z.	c #F7C17E",
"A.	c #AEB2B4",
"B.	c #E0C89D",
"C.	c #F4E3C6",
"D.	c #F4DEBC",
"E.	c #EEEDDC",
"F.	c #EFE5CA",
"G.	c #FA992A",
"H.	c #D4BE97",
"I.	c #A6AAAC",
"J.	c #F0F8EF",
"K.	c #F4EFE0",
"L.	c #F88E18",
"M.	c #F4CE99",
"N.	c #A3A5A7",
"O.	c #6B6A6E",
"P.	c #6D6C70",
"Q.	c #B1B4B5",
"R.	c #F8A23D",
"S.	c #999C9E",
"T.	c #807F82",
"U.	c #ABAFB1",
"V.	c #767579",
"W.	c #A8ACAE",
"X.	c #EFF0DF",
"Y.	c #9EA1A3",
"Z.	c #8C8E91",
"`.	c #9B9EA1",
" +	c #EDDDBA",
".+	c #898A8D",
"++	c #87888B",
"@+	c #7E7E81",
"#+	c #CACFD0",
"$+	c #8D7A67",
"%+	c #7A7A7D",
"&+	c #717175",
"*+	c #C9CECE",
"=+	c #929497",
"-+	c #96999C",
";+	c #CCD4D2",
">+	c #F99019",
",+	c #C2C7C8",
"'+	c #95897D",
")+	c #99734D",
"!+	c #C87E2E",
"~+	c #666568",
"{+	c #6F7073",
"]+	c #B2956C",
"^+	c #D7BB92",
"/+	c #CD9858",
"(+	c #AC763C",
"_+	c #AB7A48",
":+	c #AAA595",
"<+	c #BBBFC0",
"[+	c #968E85",
"}+	c #C1C5C6",
"|+	c #DDDFD2",
"1+	c #BDC2C3",
"2+	c #8F9093",
"3+	c #755226",
"4+	c #1B0F05",
"5+	c #FFFFFF",
"@ & & * * * * * * * & * * * * * * * * * * * * * * * * * * * * * * * * * * * * * * * * * * * * * * * * * * * * * * * * * * * * * * * * * * * * * * * * * * * * & * & & * & * & * & & * * * * * * * * * = d   d = * & * & & & * & * * * * * * * * * * * * * * * * * * * * * * * * * * * * * * * * * * * * * * * * * * * * * * * * * * * * * * * * * * * & & * * & * & & * * * * * * * & * * * * * * * & * * * * * * * ",
"3 & & & & & & & & & & & & & & & & & * & & & & & & & & & & & & & & & & & & & & & & & & & & & & & & & & & & & & & & & & & & & & & & & & & & & & & & & & & & & & & & & & & & & & & & & & & & & & & & & & * d   9 * & & & & & & & & & & * * & & & & & & & & & & & & & & & & & & & & & & & & & & & & & & & & & & & & & & & & & & & & & & & & & & & & & & & & & & & & & & & & & & & & & & & & & & & & & & & & & & & & & & ",
"< & & & & & & & & & & & & & & & & & * * & & & & & & & & & & & & & & & & & & & & & & & & & & & & & & & & & & & & & & & & & & & & & & & & & & & & & & & & & & & & & & & & & & & & & & & & & & & & & & & * d f 9 & & & & & & & & & & & & & & & & & & & & & & & & & & & & & & & & & & & & & & & & & & & & & & & & & & & & & & & & & & & & & & & & & & & & & & & & & & & & & & & & & & & & & & & & & & & & & & & & & & & ",
"< & & & * g / a a a a a | | | | | | c | c c | | | | | | | | | | | | | g g | | | | | | | | | | g | | | | | | | | | | | | | | | | | | | g g | | | | | | | | | | g | | | | | | | | | | | | | | | | | | | c h i h j , , , , , , , , , , k k ' , , , , , , , , k , , , , , , , , , , , , , , , , , , , , , , , k , , , , , , , , , , , , , , , , , , , , , , , k , , , , , , , , , , , , , , , , , , , k k , g ' & & & & ",
"+ & & & & 1 : { { { : ^ , l l 2 l l 2 l 2 l l l l l l l l 2 l l l l l l l l l l 2 l 2 l l l l l l l 2 l l l . l l l l l l l l l l 2 l l l l l l 2 l 2 l l l l l l l 2 l l l l 2 l l l l 2 l l l 2 l l > ^ f ^ j j k , , k k , , k k k k k k k , k , k k k k , , , k , , , , k k , k , , , , , , , , k k , k , k , k , , , , , k , k , , , k , , , , k k k k , , , k , , k k , , , , , , , , | n { ! ! { o 1 * & & & ",
"+ & & & * 1 : { { { { 0 % & & & & & & & & & & & & & & & & & & & & & & & & & & & & & & & & & & & & & & & & & & & & & & & & & & & & & & & & & & & & & & & & & & & & & & & & & & & & & & & & & & & & & & * d   d & & & & & & & & & & & & & & & & & & & & & & & & & & & & & & & & & & & & & & & & & & & & & & & & & & & & & & & & & & & & & & & & & & & & & & & & & & & & & & & & & & & & & & & % 0 { { { { : 6 * & & & ",
"+ & & & & 6 : ! { { { 0 - & & & & & & & & & & & & & & & & & & & & & & & & & & & & & & & & & & & & & & & & & & & & & & & & & & & & & & & & & & & & & & & & & & & & & & & & & & & & & & & & & & & & & & * d   d * & & & & & & & & & & & & & & & & & & & & & & & & & & & & & & & & & & & & & & & & & & & & & & & & & & & & & & & & & & & & & & & & & & & & & & & & & & & & & & & & & & & & & & - 0 { { { { : 6 & & & & ",
"3 & & & * 1 { { { { { 0 - & & & & & & & & & & & & & & & & & & & & & & & & & & & & & & & & & & & & & & & & & & & & & & & & & & & & & & & & & & & & & & & & & & & & & & & & & & & & & & & & & & & & & & * d   d = & & & & & & & & & & & & & & & & & & & & & & & & & & & & & & & & & & & & & & & & & & & & & & & & & & & & & & & & & & & & & & & & & & & & & & & & & & & & & & & & & & & & & & - 0 q { { q : 1 * & & & ",
"< & & & * } h h 0 0 0 1 % & & & & & & & & & & & & & & & & & & & & & & & & & & & & & & & & & & & & & & & & & & & & & & & & & & & & & & & & & & & & & & & & & & & & & & & & & & & & & & & & & & & & & & & d   d * & & & & & & & & & & & & & & & & & & & & & & & & & & & & & & & & & & & & & & & & & & & & & & & & & & & & & & & & & & & & & & & & & & & & & & & & & & & & & & & & & & & & & & = 5 n ^ ^ ^ ) } * & & & ",
"< & & & * b 2 = - - - = & & & & & & & & & & & & & & & & & & & & & & & & & & & & & & & & & & & & & & & & & & & & & & & & & & & & & & & & & & & & & & & & & & & & & & & & & & & & & & & & & & & & & & & = d   d * & & & & & & & & & & & & & & & & & & & & & & & & & & & & & & & & & & & & & & & & & & & & & & & & & & & & & & & & & & & & & & & & & & & & & & & & & & & & & & & & & & & & & & & p + < + < > / & & & & ",
"3 & & & * b 3 & & & & & & & & & & & & & & & & & & & & & & & & & & & & & & & & & & & & & & & & & & & & & & & & & & & & & & & & & & & & & & & & & & & & & & & & & & & & & & & & & & & & & & & & & & & & * d   d * & & & & & & & & & & & & & & & & & & & & & & & & & & & & & & & & & & & & & & & & & & & & & & & & & & & & & & & & & & & & & & & & & & & & & & & & & & & & & & & & & & & & & & & & & & & & 3 a * & & & ",
"+ & & & * b 3 & & & & & & & & & & & & & & & & & & & & & & & & & & & & & & & & & & & & & & & & & & & & & & & & & & & & & & & & & & & & & & & & & & & & & & & & & & & & & & & & & & & & & & & & & & & & * d   9 * & & & & & & & & & & & & & & & & & & & & & & & & & & & & & & & & & & & & & & & & & & & & & & & & & & & & & & & & & & & & & & & & & & & & & & & & & & & & & & & & & & & & & & & & & & & & + / * & & & ",
"+ & & & * b + & & & & & & & & & & & & & & & & & & & & & & & & & & & & & & & & & & & & & & & & & & & & & & & & & & & & & & & & & & & & & & & & & & & & & & & & & & & & & & & & & & & & & & & & & & & & * d   9 * & & & & & & & & & & & & & & & & & & & & & & & & & & & & & & & & & & & & & & & & & & & & & & & & & & & & & & & & & & & & & & & & & & & & & & & & & & & & & & & & & & & & & & & & & & & & + a * & & & ",
"+ & & & * a + & & & & = > ' ' ' ' ' ' ' ' ' ' ' ' ' ' ' ' ' ' ' ' ' ' ' ' ' ' ' ' ' ' ' ' ' ' ' ' ' ' ' ' ' ' ' ' ' ' ' ' ' ' ' ' ' ' ' ' ' ' ' ' ' ' ' ' ' , ' ' ' ' ' ' ' , ' ' ' ' ' ' , . & & & & = d   9 = & & & & # m m l m l l l l l m m l m m m m l m l l l m m m l l m l m l m l l l l l ' l l l l m l m l l l m l l l m m l l l m m l l l l m l m l l l l l m l l l l l l l m l m 2 = & & & & @ b * & & & ",
"+ & & & * a + & & & & 3 r s t t t t t t t t t t t t t t t t t t t t t t t t t t t t t t t t t t t t t t t t t t t t t t t t t t t t t t t t t t t t t t t t t t t t t t t t t t t t t t t s u = & & & & d   9 * & & & * u v w w w x w y w x w w w x w w w x w w w x w w w w w x w w w w x x w w w w w x w w w w w x w w w w w w w w w y w x w w w w w w w w w w w x w w w x w w y y w x w w z 3 & & & & + b * & & & ",
"+ & & & * / 3 & & & & 3 C E F G F F H F F H F H H F H H F H H F F H F H H F H H F H H F F H H F F F H F F H F H H F H H F H H H F F F H H F H H H F H F F F G F F F H F F H H F F F F F F I J = & & & * 9   d * & & & = K L I M I E M M M M I M M I I M M I M M I M M I M M I M E I M M M M I I M M M M I M M I I E E I M M I E E I E M I M M M I E M I E I M M M I M M I M M M E M M M I N x 3 & & & & @ b * & & & ",
"U & & & * a @ & & & & @ C I V V V V V V V V V V V V V V V V V V V V V V V V V V V V V V V V V V V V V V V V V V V V V V V V V V V V V V V V V V V V V V V V V V V V V V V V V V V V V V V F J = & & & * d   d * & & & * J H V V V V V V V V V V V V V V V V V V V V V V V V V V V V V V V V V V V V V V V V V V V V V V V V V V V V V V V V V V V V V V V V V V V V V V V V V V V V V V V I C 3 & & & & + a * & & & ",
"< & & & * b @ & & & & 3 C I V V V V V V V V V V V V V V V V V V V V V V V V V V V V V V V V V V V V V V V V V V V V V V V V V V V V V V V V V V V V V V V V V V V V V V V V V V V V V V V F J * & & & = d   d * & & & = J F V V V V V V V V V V V V V V V V V V V V V V V V V V V V V V V V V V V V V V V V V V V V V V V V V V V V V V V V V V V V V V V V V V V V V V V V V V V V V V V I C @ & & & & + b * & & & ",
"U & & & * b @ & & & & 3 C I V V V V V V V V V V V V V V V V V V V V V V V V V V V V V V V V V V V V V V V V V V V V V V V V V V V V V V V V V V V V V V V V V V V V V V V V V V V V V V F H J = & & & & d   d = & & & = J F V V V V V V V V V V V V V V V V V V V V V V V V V V V V V V V V V V V V V V V V V V V V V V V V V V V V V V V V F V V V V V V V V V V V V V V V V V V V V V V I C @ & & & & @ b * & & & ",
"U & & & * b @ & & & & 3 C I V V V V V V V V V V V V V V V V V V V V V V V V V F V V V V V V V V V V V V V V V V V V V V V V V V V V V V V V V F V V V V V V V V V V V V V V V V V V V V V F J * & & & = d   d = & & & = J F V V V V V V V V V V V V V V V V V V V V V V V V V V V V V V V V V V V V V V V V V V V V V V V V V V V V V V V V V V V V V V V V V V V V V V V V V V V V V V V I C 3 & & & & + b * & & & ",
"U & & & * b @ & & & & @ C I V V V V V V V V V V V V V V V V V V V V V V V V V V V V V V V V V V V V V V V V V V V V V V V V V V V V V V V V V V V V V V V V V V V V V V V V V V V V V V V H J = & & & * d   d & & & & = J F V V V V V V V V V V V V V V V V V V V V V V V V V V V V V V V V V V V V V V V V V V V V V V V V V V V V V V V V V V V V V V V V V V V V V V V V V V V V V V V I C 3 & & & & @ b * & & & ",
"< & & & * b @ & & & & 3 C I V V V V V V V V V V V V V V V V V V V V V V V V V V V V V V V V V V V V V V V V V V V V V V V V V V V V V V V V V V V V V V V V V V V V V V V V V V V V F V V F J = & & & & 9   d * & & & = J H F V V V V V V V V V V V V V V V V V V V V V V V V V V V V V V V V V V V V V V V V V V V V V V V V V V V V V V V V V V V V V V V V V V V V V V V V V V V V V V I C 3 & & & & + b * & & & ",
"U & & & * b + & & & & 3 C I V V V V V V V V V V V V V V V V V V V V V V V V V V V V F V V V V V V V V V V V V V V V V V V V V V V V V V V V V V V V V V V V V V V V V V F F V F V V V V V H J = & & & = 9   d = & & & * J F V V V V V V V V V V V V V V V V V V V V V V V V V V V V V V V V V V V V V V V V V V V V V V V V V V V V V V V V V V V V V V V V V V V V V V V V V V V V V V V I C @ & & & & @ b * & & & ",
"U & & & * b @ & & & & 3 C I V V V V V V V V V V V V V V V V V V V V V V V V V V V V V V V V V V V V V V V V V V V V V V V V V V V V V V V V F $.X V V V V V S %.M V V F L &.X N E V V V V H J * & & & * d   d * & & & * J F V V V V V V F V V V V V V V V V V V V V V V V V V V V V V V V V V V V V V V V V V V V V V V V V V V V V V V V V V V V V V V V V V V V V V V V V V V V V V V V I C 3 & & & & @ b * & & & ",
"U & & & * b + & & & & 3 C I V V V V V V V V V V V V V V V V V V V V V V V V V V V V V V V V V V V V V V V V V V V V V V V V V V V V V V V V F *.&.V V V V V I =.X V V V F L S I X V V V V F J = & & & * d   d = & & & = J F V V V V V V V V V V V V V V V V V V V V V V V V V V V V V V V V V V V V V V V V V V V V V V V V V V V V V V V V V V V V V V V V V V V V V V V V V V V V V V V I C 3 & & & & @ b * & & & ",
"< & & & * b @ & & & & @ C I V V V V V V V V V V V V V V V V V V V V V V V V V V V V V V V V V V V V V V V V V V V V V V V V V V V V V V V V F *.&.V V V V V I *.N V V V F M N &.I V V V V F J * & & & * d   d * & & & * J F V V V V V V V V V V V V V V V V V V V V V V V V V V V V V V V V V V V V V V V V V V V V V V V V V V V V V V V V V V V V V V V V V V V V V V V V V V V V V V V I C @ & & & & + b * & & & ",
"U & & & * b @ & & & & p C I V V V V V V V V V V V V V V V V V V V V V V V V V V V V V V V V V V V V V V V V V V V V V V V V V V V V V V V V F *.&.V V V V V I *.N V V V V M &.L S V V V V H J = & & & * d   d = & & & = J H V V V V V V V V V V V V V V V V V V V V V V V V V V V V V V V V V V V V V V V V V V V V V V V V V V V V V V V V V V V V V V V V V V V V V V V V V V V V V V V I C 3 & & & & @ b * & & & ",
"U & & & * b @ & & & & @ C I V V V V V V V V V V V V V V V V V V V V V V V V V V V V V V V V V V V V V V V V V V V V V V V V V V V V V V V V F *.&.V V V V V I =.N V V V F L I F F V V V V H J * & & & = d   d * & & & = J H V V V V V V V V V V V V V V V V V V V V V V V V V V V V V V V V V V V V V V V V V V V V V V V V V V V V V V V V V V V V V V V V V V V V V V V V V V V V V V V I C 3 & & & & + b * & & & ",
"U & & & * b @ & & & & @ C I V V V V V V V V V V V V V V V V V V V V V V V V V V V V V V V V V V V V V V V V V V V V V V V V V V V V V V V V F *.&.V V V V V S =.N V V V F L L L F V V V V F J = & & & * d   d * & & & = J F V V V V V V V V V V V V V V V V V V V V V V V V V V V V V V V V V V V V V V V V V V V V V V V V V V V V V V V V V V V V V V V V V V V V V V V V V V V V V V V I C 3 & & & & @ b * & & & ",
"< & & & * b 3 & & & & 3 C I V V V V V V V V V V V V V V V V V V V V V V V V V V V V V V V V V V V V V V V V V V V V V V V V V V V V V V V V F *.&.V V V V V S =.N V V V V I &.&.I V V V V F J * & & & * d   d = & & & * J F V V V V V V V V V V V V V V V V V V V V V V V V V V V V V V V V V V V V V V V V V V V V V V V V V V V V V V V V V V V V V V V V V V V V V V V V V V V V V V V I C 3 & & & & + b * & & & ",
"U & & & * b + & & & & 3 C I V V V V V V V V V F V V V V V V V V V V V V V V V V V V V V V V V V V V V V V V V F V V V V V V V V V V V V V V H -.&.V V V V V I =.L V V V F N $.;.N F V V V H J % & & & * d   d * & & & = J F V V V V V V V V V V V V V V V V V V V V V V V V V V V V V V V V V V V V V V V V V V V V V V V V V V V V V V V V V V V V V V V V V V V V V V V V V V V V V V V I C 3 & & & & 3 b * & & & ",
"U & & & * b @ & & & & 3 C I V V V V V V V V V V V V V V V V V V V V V V V V V V V V V V V V V V V V V V V V V V V V V V V V V V V V V V V V F -.>.L E E E E Z ,.I V V V F I M ;.X V V V V H J * & & & = d   d * & & & = J F V V V V V V V V V V V V V V V V V V V V V V V V V V V V V V V V V V V V F V V V V V V V V V V V V V V V V V V V V V V V V V V V V V V V V V V V V V V V V V V I C 3 & & & & @ b * & & & ",
"U & & & * b + & & & & 3 C I V V V V V V V V V V V V V V V V V V V V V V V V V V V V V V V V V V V V V V V V V V V V V V V V V V V V V V V V V Z '.,.).).).).!.>.F V V V I L L &.I V V V V H J % & & & * d   d * & & & % J F V V V V V V V V V V V V V V V V V V V V V V V V V V V V V V V V V V V V V V V V V V V V V V V V V V V V V V V V V V V V V V V V V V V V V V V V V V V V V V V I C 3 & & & & @ b * & & & ",
"U & & & * b @ & & & & 3 C I V V V V V V V V V V V V V V V V V V V V V V V V V V V V V V V V V V V V V V V V V V V V V V V V V V V V V V V V V F N {.].].].].&.S V V V F I X N N I F V V V F J % & & & = d   d & & & & = J F V V V V V V V V V V V V V V V V V V V V V V V V V V V V V V V V V V V V V V V V V V F V V V V V V V V V V V V V V V V V V V V V V V V V V V V V V V V V V V V I C 3 & & & & @ / & & & & ",
"U & & & * b + & & & & 3 C I V V V V V V V V V V V V V V V V V V V V V V V V V V V V V V V V V V V V V V V V V V V V V V V V V V V V V V V V V F F V V V V V V F F V V V F L N N S V V V V S J * & & & * d   d = & & & = J F V V V V V V V V V V V V V V V V V V V V V V V V V V V V V V V V V V V V V V V V V V V V V V V V V V V V V V V V V V V V V V V V V V V V V V V V V V V V V V V I C 3 & & & & + a * & & & ",
"U & & & * b @ & & & & 3 C I V V V V V V V V V V V V V V V V V V V V V V V V V V V V V V V V V V V V V V V V V V V V V V V V V V V V V V V V F %.X V I &.F V S #.E V V V S N I F F V V V V F J * & & & * d   d * & & & = J F V V V V V V V V V V V V V V V V V V V V V V V V V V V V V V V V V V V V V V V V V V V V V V V V V V V V V V V V V V V V V V V V V V V V V V V V V V V V V V V I C 3 & & & & 3 ] * & & & ",
"U & & & * b @ & & & & @ C I V V V V V V V V V V V V V V V V V V V V V V V V V V V V V V V V V V V V V V V V V V V V V V V V V V V V V V V V F *.&.V X *.I F I *.X V V V E N L L S V V V V F J % & & & * d   d = & & & = J F V V V V V V V V V V V V V V V V V V V V V V V V V V V V V V V V V V V V V V V V V V V V V V V V V V V V V V V V V V V V V V V V V V V V V V V V V V V V V V V I C 3 & & & & + a * & & & ",
"p & & & * b @ & & & & 3 C I V V V V V V V V V V V V V V V V V V V V V V V V V V V V V V V V V V V V V V V V V V V V V V V V V V V V V V V V F *.&.V X *.I V I *.N V V V F M F F I F V V V H J * & & & = d   d * & & & = J F V V V V V V V V V V V V V V V V V V V V V V V V V V V V V V V V V V V V V V V V V V V V V V V V V V V V V V V V V V V V V V V V V V V V V V V V V V V V V V V I C 3 & & & & @ b * & & & ",
"U & & & * a @ & & & & 3 C I V V V V V V V V V V V V V V V V V V V V V V V V V V V V V V V V V V V V V V V V V V V V V V V V V V V V V V V V F *.&.V L *.I V I =.N V V V F L I I E V V V V H J = & & & * d   9 * & & & = J H V V V V V V F V V V V V V V V V V V V V V V V V V V V V V V V V V V V V V V V V V V V V V V V V V V V V V V V V V V V V V V V V V V V V V V V V V V V V V V V I C @ & & & & + b * & & & ",
"U & & & * a + & & & & 3 C I V V V V V V V V V V V V V V V F V V V V F V V V V V V V V V V V V V V V V V V V V V V V V V V V V V V V V V V V F *.&.V X =.I V I *.N V V V V I L &.F V V V V F J % & & & = d   9 & & & & = J H V V V V V V V V V V V V V V V V V V V V V V V V V V V V V V V V V V V V V V V V V V V V V V V V V V V V V V V V V V V V V V V V V V V V V V V V V V V V V V V I C @ & & & & @ b * & & & ",
"U & & & * / @ & & & & 3 C I V V V V V V V V V V V V V V V V V V V V V V V V V V V V V V V V V V V V V V V V V V V V V V V V V V V V V V V V F *.&.V X *.S V S =.N V V V F M L N M V V V V F J * & & & * d   9 = & & & * J F V V V V V V V V V V V V V V V V V V V V V V V V V V V V V V V V V V V V V V V V V V V V V V V F V V V V V V V V V V V V V V V V V V V V V V V V V V V V V V V I C 3 & & & & @ b * & & & ",
"< & & & * b @ & & & & @ C I V V V V V V V V V V V V V V V V V V V V V V V V V V V V V V V V V V V V V V V V F V V V V V V V V V V V V V V V F *.&.V L *.I V I *.N V V V V X N I L V V V V F J = & & & = d   d * & & & = J F V V V V V V V V V V V V V V V V V V V V V V V V V V V V V V V V V V V V V V V V V V V V V V V V V V V V V V V V V V V V V V V V V V V V V V V V V V V V V V V I C 3 & & & & + b * & & & ",
"U & & & * b @ & & & & 3 C I V V V V V V V V V V V V V V V V V V V V V V V V V V V V V V V V V V V V V V V V V V V V V V V V V V V V V V V V G *.].I ;.=.L I L ^.L V V V F L I I I F V V V H J = & & & * d   d = & & & * J F V V V V V V V V V V V V V V V V V V V V V V V V V V V V V V V V V V V V V V V V V V V V V V V V V V V V V V V V V V V V V V V V V V V V V V V V V V V V V V V I C 3 & & & & @ b * & & & ",
"U & & & * b @ & & & & 3 C I V V V V V V V V V V V V V V V V V V V V V V V V V V V V V V V V V V V V V V V V V V V V V V V V V V V V V V V V F *.!.,.).!.).,.!.,.L V V V I ].N N I V V V V F J * & & & * d   d * & & & = J F V V V V V V V V V V V V V V V V V V V V V V V V V V V V V V V V V V V V V V V V V V V V V V V V V V V V V V V V V V V V V V V F V V V V V V V V V V V V V V V I C 3 & & & & + b * & & & ",
"U & & & * b @ & & & & 3 C I V V V V V V V V V V V V V V V V V V V V V V V V V V V V V V V V V V V V V V V V V V V V V V V V V V V V V V V V F &.$.$.$.$.].$.$.$.I F V V F L N N I V V V V H J = & & & * d   d = & & & = J F V V V V V V V V V V V V V V V V V V V V V V V V V V V V V V V V V V V V V V V V V V V V V V V V V V V V V V V V V V V V V V V V V V V V V V V V V V V V V V V I C 3 & & & & @ b * & & & ",
"< & & & * b 3 & & & & 3 C I V V V V V V V V V V V V V V V V V V V V V V V V V V V V V V V V V V V V V V V V V V V V V V V V V V V V V V V V V I F V V V V V V V V V V V V S I X L V V V V H J = & & & * d   d * & & & * J F V V V V V V V V V V V V V V V V V V V V V V V V V V V V V V V V V V V V V V V V V V V V V V V V V V V V V V V V V V V V V V V V V V V V V V V V V V V V V V V I C 3 & & & & + b * & & & ",
"U & & & * b + & & & & 3 C I V V V V V V V V V V V V V V V V V V V V V V V V V V V V V V V V V V V V V V V V V V V V V V V V V V V V V V V V F -.N V V V V V V V V V V V V I L L E V V V V F J = & & & = d   d * & & & % J F V V V V V V V V V V V V V V V V V V V V V V V V V V V V V V V V V V V V V V V V V V V V V V V V V V V V V V V V V V V V V V V V V V V V V V V V V V V V V V V I C 3 & & & & @ b * & & & ",
"U & & & * b + & & & & 3 C I V V V V V V V V V V V V V V V V V V V V V V V V V V V V V V V V V V F V V V V V V V V V V V V V V V V V V V V V F *.&.V V V V V V V V V V V V E N M F V V V V H J = & & & = d   d = & & & % J H V V V V V V V V V V V V V V V V V V V V V V V V V V V V V V V V V V V V V V V V V V V V V V V V V V V V V V V V V V V V V V V V V V V V V V V V V V V V V V V I C 3 & & & & + b * & & & ",
"U & & & * b + & & & & 3 C I V V V V V V V V V V V V V V V V V V V V V V V V V V V V V V V V V V V V V V V V V V V V V F V V V V V V V V V V F *.;.V V V V V V V V V V V V N &.I L F V V V H J * & & & * d   d * & & & * J H V V V V V V V V V V V V V V V V V V V V V V F V V V V V V V V V V V V V V V V V V V V V V V V V V V V V V V V V V V V V V V V V V V V V V V V V V V V V V V V I C 3 & & & & 3 b * & & & ",
"U & & & * b @ & & & & 3 C I V V V V V V V V V V V V V V V V V V V V V V V V V V V V V V V V V V V V V V V V V V V V V V V V V V V V V V V V F *.&.V V V V V V V V V V V F N ;.L E V V V V F J * & & & = 9   9 * & & & = J F V V V V V V V V V V V V V V V V V V V V V V V V V V V V V V V V V V V V V V V V V V V V V V V V V V V V V V V V V V V V V V V V V V V V V V V V V V V V V V V I C 3 & & & & @ b * & & & ",
"U & & & * b @ & & & & 3 C I V V V V V V V V V V V V V V V V V V V V V V V V V V V V V V V V V V V V V V V V V V V V V V V V V V V V V V V V F *.>.].].].].Z ].].S V V V F M ].X F V V V V F J = & & & & d   9 * & & & = J F V V V V V V V V V V V V V V V V V V V V V V V V V V V V F V V V V V V V V V V V V V V V V V V V V V V V V V V V V V V V V V V V V V V V V V V V V V V V V V V I C 3 & & & & @ b * & & & ",
"< & & & * b + & & & & 3 C I V V V V V V V V V V V V V V V V V V V V V V V V V V V V V V V V V V V V V V V V V V V V V V V V V V V V V V V V F *.'.'.!.,.).'.).,.E V V V M L L N H V V V V H J % & & & = d   d * & & & = J F V V V V V V V V V V V V V V V V V V V V V V V V V V V V V V V V V V V V V V V V V V V V V V V V V V V V V V V V V V V V V F V V V V V V V V V V V V V V V V V I C 3 & & & & + b * & & & ",
"U & & & * b @ & & & & 3 C I V V V V V V V V F V V V V V V V V V V V V V V V V V V V V V V V V V V V V V V V V V V V V V V V V V V V V V V V F *.$.E M L M M E E F V V F L F V I E V V V V F J * & & & & d   d = & & & = J F V V V V V V V V V V V V V V V V V V V V V V V V V V V V V V V V V V V V V V V V V V V V V V V V V V V V V V V V V V V V V V V V V V V V V V V V V V V V V V V I C 3 & & & & @ a * & & & ",
"U & & & * b + & & & & 3 C I V V V V V V V V V V V V V V V V V V V V V V V V V V V V V V V V V V V V V V V V V V V V V V V V V V V V V V V V S -.&.V F V V V V V V V V F &.N N &.L V V V V S J = & & & * d   d & & & & = J F V V V V V V V V V V V V V V V V V V V V V V V V V V V V V V V V V V V V V V V V V V V V V V V V V V V V V V V V V V V V V V V V V V V V V V V V V V V V V V V I C 3 & & & & + ] * & & & ",
"U & & & * b @ & & & & 3 C I V V V V V V V V V V V V V V V V V V V V V V V V V V V V V V V V V V V V V V V V V V V V V V V V V V V V V V V V F *.&.V V V V V V V V V V V S I M I F V V V V F J = & & & = d   9 = & & & = J H V V V V V V V V V V V V V V V V V F V V V V V V V V V V V V V V V V V V V V V V V V V V V V V V V V V V V V V V V V V V V V V V V V V V V V V V V V V V V V V I C @ & & & & @ a * & & & ",
"U & & & * b + & & & & 3 C I V V V V V V V V V V V V V V V V V V V V V V V V V V V V V V V V V V V V V V V V V V V V V V V V V V V V V V V V H *.&.V V V V V V V V V V V V V V V V V V V V H J * & & & = d   9 * & & & = J H V V V V V V V V V V V V V V V V V V V V V V V V V V V V V V V V V V V V F V V V V V V V V V V V V V V V V V V V V V V V V V V V V V V V V V V V V V V V V V V I C @ & & & & + / * & & & ",
"U & & & * b @ & & & & 3 C I V V V V V V V V V V V V V V V V V V V V V V V V V V V V V V V V V V V V V V V V V V V V V V V V V V V V V V V V F >.N V V V V V V V V V V V V S H N H V V V V F J = & & & & d   9 * & & & * J F V V V V V V V V V V V V V V V V V V V V V V V V V V V V V V V V V V V V V V V V V V V V V V V V V V V V V V V V V V V V V V V V V V V V V V V V V V V V V V V I C 3 & & & & 3 a * & & & ",
"< & & & * b @ & & & & @ C I V V V V V V V V V V V V V V V V V V V V V V V V V V V V V V V V V V V V V V V V V V V V V V V V V V V V V V V V V I F F V V F F F F V V V V F L X L M F V V V H J = & & & = d   d * & & & = J F F V V V V V V V V V V V V V F V V V V V V V V V V V V V V V V V V V V V V V V V V V V V V V V V V V V V V V V V V V V V V V V V V V V V V V V V V V V V V V V I C 3 & & & & + b * & & & ",
"U & & & * b + & & & & 3 C I V V V V V V V V V V V V V V V V V V V V V V V V V V V V V V V V V V V V V V V V V V V V V V V V V V V V V V V V F $.>.>.>.>.>.>.>.#.I V V V V L L I F F V V V H J * & & & * d   d = & & & = J F V V V V V V V V V V V V V V V V V V V V V V V V V V V V V V V V V V V V V V V V V V V V V V V V V V V V V V V V V V V V V V V V V V V V V V V V V V V V V V V I C 3 & & & & 3 a * & & & ",
"U & & & * b @ & & & & 3 C I V V V V V V V V V V V V V V V V V V V V V V V V V V V V V V V V V V V V V V V V V V V V V V V F V V V V V V V V F >.,.,.,.!.,.^.*.*.X V V V V I N N I F V V V F J = & & & * d   d * & & & * J F V V V V V V V V V V V V V V V V V V V V V V V V V V V V V V V V V V V V V V V V V V V V V V V V V V V V V V V V V V V V V V V V V V V V V V V V V V V V V V V I C 3 & & & & 3 / * & & & ",
"U & & & * b @ & & & & 3 C I V V V V V V V V V V V V V V V V V V V V V V V V V V V V V V V V V V V V V V V V V V V V V V V V V V V V V V V V V H S S &.^.L F S I V V V V V F F I L V V V V H J = & & & * d   d = & & & = J F V V V V V V V V V V V V V V V V V V V V V V V V V V V V V V V V V V V V V V V V V V V V V V V V V V V V V V V V V V V V V V V V V V V V V V V V V V V V V V V I C 3 & & & & + a * & & & ",
"U & & & * b @ & & & & 3 C I V V V V F V V V V V V V V V V V V V V V V V V V V V V V V V V V V V V V V V V V V V V V V V V V V V V V V V V V V V V V X *.I V V V V V V V F I L N M F V V V H J * & & & & 9   d * & & & * J F V V V V V V V V V V V V V V V V V V V V V V V V V V V V V V V V V V V V V V V V V V V V V V V V V V V V V V V V V V V V V V V V V V V V V V V V V V V V V V V I C 3 & & & & @ b * & & & ",
"U & & & * b @ & & & & 3 C I V V V V V V V V V V V V V V V V V V V V V V V V V V F V V V V V V V V V V V V V V V V V V V V V V V V V V V V V V V V V L *.I V V V V V V V V I &.N I V V V V F J = & & & = d   d * & & & = J H V V V V V V V V V V V V V V V V V V V V V V V V V V V V V V V V V V V V V V V V V V V V V V V V V V V V V V V V V V V V V V V V V V V V V V V V V V V V V V V I C 3 & & & & + b * & & & ",
"p & & & * b @ & & & & 3 C I V V V V V V V V V V V V V V V V V V V V V V V V V V V V V V V V V V V V V V V V V V V V V V V V V V V V V V V V V V V V L *.I V V V V V V V F L &.N I F V V V F J = & & & = d   d = & & & = J H V V V V V V V V V V V V V V V V V V V V V V V V V V V V V V V V V V V V V V V V V V V V V V V V V V F V V V V V V V V V V V V V V V V V V V V V V V V V V V V I C 3 & & & & @ b * & & & ",
"U & & & * b @ & & & & 3 C I V V V V V V V V V V V V V V V V V V V V V V V V V V V V V V V V V V V V V V V V V V V V V V V V V V V V V V V V V V V V L *.I V V V V V V V F I L L E V V V V F J = & & & * d   d * & & & = J F V V V V V V V V V V V V V V V V V V V V V V V V V V V V V V V V V V V V V V V V V V V V V V V V V V V V V V V V V V V V V V V V V V V V V V V V V V V V V V V I C 3 & & & & @ b * & & & ",
"U & & & * b @ & & & & @ C I V V V V V V V V V V V V V V V V V V V V V V V V V V V V V V V V V V V V V V V V V V V V V V V V V V V V V V V V V V V V L =.I V V V V V V V V V F S F V V V V F J = & & & = d   d * & & & = J F V V V V V V V V V V V V V V V V V V V V V V V F V V V V V V V V V V V V V V V V V V V V V V V V V V V V V V V V V V V V V V V V V V V V V V V V V V V V V V V I C @ & & & & + b * & & & ",
"U & & & * b @ & & & & 3 C I V V V V V V V V V V V V V V V V V V V V V V V V V V V V V V V V V V V V V V V V V V V V V V V V V V V V V V V V V V V V L *.I V V V V V V V V V V V V V V V V H J * & & & & d   d = & & & = J F V V V V V V V V V V V V V V V V V V V V V V V V V V V V V V V V V V V V V V V V V V V V V V V V V V V V V V V V V V V V V V V V V V V V V V V V V V V V V V V I C 3 & & & & @ b * & & & ",
"U & & & * b @ & & & & 3 C I V V V V V V V V V V V V V V V V V V V V V V V V V V V V V V V V V V V V V V V V V V V V V V V V V V V V V V V V F N &.&.$.,.].&.&.&.S V V V V I L E F V V V V H J * & & & = d   d = & & & = J F V V V V V V V V V V V V V V V V V V V V V V V V V V V V V V V V V V V V V V V V V V V V V V V V V V V V V V V V V V V V V V V V V V V V V V V V V V V V V V V I C 3 & & & & @ b * & & & ",
"U & & & * b + & & & & 3 C I V V V V V V V V V V V V V V V V V V V V V V V V V V V V V V V V V V V V V V V V V V V V V V V V V V V V V V V V F -.'.).).!.).!.).,.X V V V F N I H F V V V V F J = & & & * d   d & & & & = J F V V V V V V V V V V V V V V V V V V V V V V V V V V V V V V V V V V V V V V V V V V V V V V V V V V V V V V V V V V V V V V V V V V V V V V V V V V V V V V V I C 3 & & & & @ b * & & & ",
"< & & & * b + & & & & 3 C I V V V V V V V V V V V V V V V V V V V V V V V V V V V V V V V V V V V V V V V V V V V V V V V V V V V V V V V V V M L L L L L L L X F V V V V L N L F F V V V F J * & & & & 9   d * & & & = J F F V V V V V V V V V V V V V V V V V V V V V V V V V V V V V V V V V V V V V V V V V V V V F V V V V V V V V V V V V V V V V V V V V V V V V V V V V V V V V V I C 3 & & & & + b * & & & ",
"U & & & * b + & & & & 3 C I V V V V V V V V V V V V V V V V V V V V V V V V V V V V V V V V V V F V V V V V V V V V V V V V V V V V V V V V V I F V V V F V F S F V V V F I N I S V V V V H J % & & & = 9   d = & & & * J H V V V V V V V V V V V V V V V V V V V V V V V V V V V V V V V V V V V V V V V V V V V V V V V V V V V V V V V V V V V V V V V V V V V V V V V V F V V V V V V I C 3 & & & & + b * & & & ",
"U & & & * b + & & & & 3 C I V V V V V V V V V V V V V V V V V V V V V V V V V V V V V V V V V V V V V V V V V V V V V V V V V V V V V V V V F -.N V V V V V F -.X V V V V N &.I L V V V V H J * & & & * d   d * & & & * J F V V V V V V V V V V V V V V V V V V V V V V V V V V V V V V V V V V V V V V V V V V V V V V V V V V V V V V V V V V V V V V V V V V V V V V V V V V V V V V V I C 3 & & & & @ b * & & & ",
"U & & & * b 3 & & & & 3 C I V V V V V V V V V V V V V V V V V V V V V V V V V V V V V V V V V V V V V V V V V V V V V V V V V V V V V V V V F *.&.V V V V V I *.N V V V F X ].N M F V V V H J % & & & * d   d = & & & = J F V V V V V V V V V V V V V V V V V V V V V V V V V V V V V V V V V V V V V V V V V V V V V V V V V V V V V V V V V V V V V V V V V V V V V V V V V V V V V V V I C 3 & & & & 3 b * & & & ",
"U & & & * b @ & & & & 3 C I V V V V V V V V V V V V V V V V V V V V V V V V V V V V V V V V V V V V V V V V V V V V V V V V V V V V V V V V F *.&.V V V V V S =.N V V V F I I I V V V V V H J * & & & * d   d * & & & * J F V V V V V V V V V V V V V V V V V V V V V V V V V V V V V V V V V V V V V V V V V V V V V V V V V V V V V V V V V V V V V V V V V V V V V V V V V V V V V V V I C @ & & & & 3 ] * & & & ",
"U & & & * b @ & & & & 3 C I V V V V V V V V V V V V V V V V V V V V V V V V V V V V V V V V V V V V V V V V V V V V V V V V V V V V V V V V F *.&.V V V V V I =.L V V V V N L L S V V V V F J % & & & * d   d = & & & % J F V V V V V V V V V V V V V V V V V V V V V V V V V V V V V V V V V V V V V V V V V V V V V V V V V V V V V V V V V V V V V V V V V V V V V V V V V V V V V V V I C 3 & & & & + a * & & & ",
"p & & & * b @ & & & & 3 C I V V V V V V V V V V V V V V V V V V V V V V V V V V V V V V V V V V V V V V V V V V V V V V V V V V V V V V V V H *.&.V V V V V I *.X V V V V I N N I V V V V H J * & & & = d   d * & & & % J H V V V V V V V V V V V V V V V V V V V V V V V V V V V V V V V V V V V V V V V V V V V V V V V V V V V V V F V V V V V V V V V V V V V V V V V V V V V V V V V I C 3 & & & & 3 / * & & & ",
"U & & & * b @ & & & & 3 C I V V V V V V V V V V V V V V V V V V V V V V V V V V V V V V V V V V V V V V V V V V V V V V V V V V V V V V V V F *.&.V V V V V I *.N V V F I M N &.E V V V V H J % & & & * d   d * & & & * J H V V V V V V V V V V V V V V V V V V V V V V V V V V V V V V V V V V V V V V V V V V V V V V V V V V V V V V V V V V V V V V V V V V V V V V V V V V V V V V V I C 3 & & & & 3 a * & & & ",
"U & & & * b @ & & & & 3 C I V V V V V V V V V V V V V V V V V V V V V V V V V V V V V V V V V V V V V V V V V V V V V V V V V V V V V V V V F *.N V V V V V S =.L F V F H F H M L V V V V F J % & & & * d   d = & & & * J F V V V V V V V V V V V V V V V V V V V V V V V V V V V V V V V V V V V V V V V V V V V V V V V V V V V V V V V V V V V V V V V V V V V V V V V V V V V V V V V I C 3 & & & & + a * & & & ",
"U & & & * b @ & & & & 3 C I V V V V V V V V V V V V V V V V V V V F V V V V V V V V V V V V V V V V F V V V V V V V V V V V V V V V V V V V F *.].V V V V F I =.L V V V F I M L S F V V V H J * & & & * d   d * & & & % J F V V V V V V V V V V V V V V V V V V V V V V V V V V V V V V V V V V V V V V V V V V V V V V V V V V V V V V V V V V V V V V V V V V V V V V V V V V V V V V V I C 3 & & & & @ / * & & & ",
"U & & & * a + & & & & 3 C I V V V V V V V V V V V V V V V V V V V V V V V V V V V V V V V V V V V V V V V V V V V V V V V V V V V V V V V V V >.*.].Z ].;.;.#.^.I V V V I N E L E V V V V H J * & & & = d   d * & & & * J F V V V V V V V V V V V F V V V V V V V V V V V V V V V V V V V V V V V V V V V V V V V V V V V V V V V V V V V V V V V V V V V V V V V V V V V V V V V V V V V I C 3 & & & & @ a * & & & ",
"U & & & & / @ & & & & 3 C I V V V V V V V V V V V V V V V V V V V V V V V V V V V V V V V V V V V V V V V V V V V V V V V V V V V V V V V V V L (.).).).!.).).$.F V V F M ;.N N I V V V V F J % & & & * d   9 * & & & % J F V V V V V V V V V V V V V V V V V V V V V V V V V V V V V V V V V V V V V V V V V V V V V V V V V V V V V V V V V V V V V V V V V V V V V V V V V V V V V V V I C 3 & & & & + a * & & & ",
"p & & & * b @ & & & & 3 C I V V V V V V V V F V V V V V V V V V V V V V V V V V V V V V V V V V V V V V V V V V V V V V V V V V V V V V V V V V I E L M M L I F V V V V F I I L F F V V V F J % & & & * d   d * & & & = J F V V V V V V V V V V V V V V V V V V V V V V V V V V V V V V V V V V V V V V V V V V V V V V V V F V V V V V V V V V V V V V V V V V V V V V V V V V V V V V V I C 3 & & & & + / & & & & ",
"U & & & * b + & & & & 3 C I V V V V V V V V V V V V V V V V V V V V V V V V V V V V V V V V V V V V V V V V V V V V V V V V V V V V V V V V V V V V F F M M E F V V V V I L $.&.F V V V V S J * & & & = d   d * & & & * J F V V V V V V V V V V V V V V V V V V V V V V V V V V V V V V V V V V V V V V V V V V V V V V V V V V V V V V V V V V V V V V V V V V V V V V V V V V V V V V V I C @ & & & & @ a * & & & ",
"U & & & * b @ & & & & 3 C I V V V V V V V V V V V V V V V V V V V V V V V V V V V V V V V V V V V V V V V V V V V V V V V V V V V V V V V V F Z E V F $.,.!.).$.V V V V L L N L I V V V V F J * & & & = d   d * & & & = J F V V V V V V V V V V V V V V V V V V V V V V V V V V V V V V V V F V V V V V V V V V V V V V V V V V V V V V V V V V V V V V V V V V V V V V V V V V V V V V V I C @ & & & & 3 ] * & & & ",
"U & & & * b @ & & & & @ C I V V V V V V V V V V V V V V V V V V V V V V V V V V V V V V V V V V V V V V V V V V V V V V V V V V V V V V V V F *.&.V I *.>.].#.^.I V V F F M N X I V V V V F J % & & & * d   d = & & & = J F V V V V V V V V V V V V V V V V V V V V V V V V V V V V V V V V V V V V V V V V V V V V V V V V V V V V V V V V V V V V V V V V V V V V V V V V V V V V V V V I C 3 & & & & + a * & & & ",
"< & & & * b @ & & & & 3 C I V V V V V V V V V V V V V V V V V V V V V V V V V V V V V V V V V V V V V V V V V V V V V V V V V V V V V V V V F *.&.V N *.I F I =.X V V V F L I M M F V V V H J * & & & * d   d * & & & = J F V V V V V V V V V V V V V V V V V V V V V V V V V V V V V V V V V V V V V V V F V V V V V V V V V V V V V V V V V V V V V V V V V V V V V V V V V V V V V V V I C 3 & & & & @ b * & & & ",
"U & & & * a @ & & & & 3 C I V V V V V V V V V V V V V V V V V V V V V V V V F V V V V V V V V V V V V V V F V V V V V V V V V V V V V V V V F *.&.V N *.S V I *.N V V F M &.N L I V V V V H J = & & & * d   d = & & & = J H V V V V V V V V V V V V V V V V V V V V V F V V V V V V V V V V V V V V V V V V V V V V V V V V V V V V V V V V V V V V V V V V V V V V V V V V V V V V V V V I C 3 & & & & @ b * & & & ",
"U & & & * a + & & & & 3 C I V V V V V V V V V V V V V V V V V V V V V V V V V V V V V V V V V V V V V V V V V V V V V V V V V V V V V V V V H *.&.V L *.I V S =.X V V V F I ].;.I V V V V F J % & & & = d   d = & & & = J H V V V V V V V V V V V V V V V V V V V V V V V V V V V V V V V V V V V V V V V V V V V V V V V V V V V V V V V V V V V V V V V V V V V V V V V V V V V V V V V I C 3 & & & & @ b * & & & ",
"U & & & * / @ & & & & 3 C I V V V V V V V V V V V V V V V V V V V V V V V V V V V V V V V V V V V V V V V V V V V V V V V V V V V V V V V V F *.&.V N *.S V I =.N V V V F N &.&.L V V V V F J * & & & * d   d * & & & * J F V V V V V V V V V V V V V V V V V V V V V V V V V V V V V V V V V V V V V V V V V V V V V V V V V V V V V V V V V V V V V V V V V V V V V V V V V V V V V V V I C 3 & & & & @ b * & & & ",
"< & & & * b @ & & & & @ C I V V V V V V V V V V V V V V V V V V V V V V V V V V V V V V V V V V V V V V V V V V V V V V V V V V V V V V V V F *.&.V N *.I V I *.N V V V F I L ;.E F V V V F J = & & & = d   d * & & & = J F V V V V V V V V V V V V V V V V V V V V V V V V V V V V V V V V V V V V V V V V V V V V V V V V V V V V V V V V V V V V V V V V V V V V V V V V V V V V V V V I C 3 & & & & + a * & & & ",
"U & & & * b @ & & & & 3 C I V V V V V V V V V V V V V V V V V V V V V V V V V V V V V V V V V V V V V V V V V V V V V V V V V V V V V V V V F *.&.V N *.S V I *.X V V V V I N N I F V V V H J = & & & * d   d = & & & = J F V V V V V V V V V V F V V V V V V V V V V V V V V V V V V V V V V V V V V V V V V V V V V V V V V V V V V V V V V V V V V V V V V V V V V V V V V V V V V V V I C 3 & & & & + ] * & & & ",
"U & & & * b @ & & & & 3 C I V V V V V V V V V V V V V V V V V V V V V V V V V V V V V V V V V V V V V V V V V V V V V V V V V V V V V V V V F *.Z V N *.S V I =.N V V V F X I S F V V V V F J * & & & = d   d & & & & = J F V V V V V V V V V V V V V V V V V V V V V V V V V V V V V V V V V V V V V V V V V V V V V V V V V V V V V V V V V V V V V V V V V V V V V V V V V V V V V V V I C 3 & & & & @ b * & & & ",
"U & & & * b @ & & & & 3 C I V V V V V V V V V V V V V V V V V V V V V V V V V F V V V V V V V V V V V V V V V V V V V V V V V V V V V V V V V >.-.Z -.-.F V I *.N V V V F L N L G V V V V H J = & & & & d   d = & & & = J F V V V V V V V V V V V V V V V V V V V V V V V V V V V V V V V V V V V V V V V V V V V V V V V V V V V V V V V V V V V V V V V V V V V V V V V V V V V V V V V I C 3 & & & & @ b * & & & ",
"< & & & * b 3 & & & & 3 C I V V V V V V V V V V V V V V V V V V V V V V V V V V V V V V V V V V V V V V V V V V V V V V V V V V V V V V V V V N '.!.'.&.V V H >.L V V V F L I I F V V V V H J = & & & * d   d * & & & = J H F V V V V V V V V V V V V V V V V V V V V V V V V V V V V V V V V V V V V V V V V V V V V V V V V V V V V V V V V V V V V V V V V V V V V V V V V V V V V V V I C 3 & & & & @ b * & & & ",
"U & & & * b + & & & & 3 C I V V V V V V V V V V V V V V V V V V V V V V V V V V V V V V V V V V V V V V V V V V V V V V V V V V V V V V V V V V I X I F V V V F V V V V V X ].&.I V V V V H J = & & & * d   d = & & & * J F V V V V V V V V V V V V V V V V V V V V V V V V V V V V V V V V V V V V V V V V V V V V V V V V V V V V V V V V V V V V V V V V V V V F V V V V V V V V V V V I C @ & & & & @ b * & & & ",
"U & & & * b + & & & & 3 C I V V V V V V V V V V V V V V V V V V V V V V V V V V V V V V V V V V V V V V V V V V V V V V V V V V V V V V V V F Z M V V V V V V V V V V V V I N L I V V V V F J = & & & & 9   d = & & & * J F V V V V V V V V V V V V V V V V V V V V V V V V V V V V V V V V V V V V V V V V V V V V V V V V V V V V V V V V V V V V V V V V V V V V V V V V V V V V V V V I C @ & & & & + b * & & & ",
"U & & & * b + & & & & 3 C I V V V V V V V V V V V V V V V V V V V V V V V V V V V V V V V V V V V V V V V V V V V V V V V V V V V V V V V F F *.&.V V V V V V V V V V V F X F I L F V V V H J * & & & = 9   d & & & & = J F V V V V V V V V V V V V V V V V V V V V V V V V V V V V V V V V V V V V V V V V V V V V V V V V V V V V V V V V V V V V V V V V V V V V V V V V V V V V V V V I C 3 & & & & + b * & & & ",
"U & & & * b @ & & & & 3 C I V V V V V V V V V V V V V V V V V V V V V V V V V V V V V V V V V V V V V V V V V V V V V V V V V V V V V V V V F *.&.V V V V V V V V V V V F M L L I V V V V F J * & & & = d   d = & & & % J F V V V V V V V V V V V V V V V V V V V V V V V V V V V V V V V V V V V V V V V V V V V V V V V V V V V V V V V V V V V V V V V V F V V V V V V V V V V V V V V I C 3 & & & & @ b * & & & ",
"U & & & * b + & & & & 3 C I V V V V V V V V V V V V V V V V V V V V F V V V V V V V V V V V V V V V V V V V V V V V V V V V V V V V V V V V H -.&.V V V V V V V V V V V F E I I I V V V V F J = & & & * d   d * & & & * J F V V V V V V V V V V V V V V V V V V V V V V V V V V V V V V V V V V V V V V V V V V V V V V V V V V V V V V V V V V V V V V V V V V V V V V V V V V V V V V V I C 3 & & & & @ b * & & & ",
"< & & & * b @ & & & & 3 C I V V V V V V V V V V V V V V V V V V V V V V V V V V V V V V V V V V V V V V V V V V V V V V V V V V V V V V V V F *.].H F I H H S F V V V V I ].&.N I V V V V H J % & & & * d   d * & & & = J H V V V V V V V V V V V V V V V V V V V V V V V V V V V V V V V V V V V V V V V V V V V V V V V V V V V V V V V V V V V V V V V V V V V V V V V V V V V V V V V I C 3 & & & & + b * & & & ",
"U & & & * b @ & & & & 3 C I V V V V V V V V V V V V V V V V V V V V V V V V V V V V V V V V V V V V V V V V V V V V V V V V V V V V V V V V H *.,.*.*.*.(.*.=.*.E V V V F L L L I V V V V F J * & & & = d   d * & & & * J H V V V V V V V V V V V V V V V V V V V V V V V V V V V V V V V V V V V V V V V V V V V V V V V V V V V V V V V V V V V V V V V V V V V V V V V V V V V V V V V I C 3 & & & & @ a * & & & ",
"U & & & * b @ & & & & @ C I V V V V V V V V V V V V V V V V V V V V V V V V V V V V V V V V V V V V V V V V V V V V F V V V V V V V V V V V F *.*.-.-.-.-.-.-.>.E V V V V F H L M V V V V S J = & & & * 9   d * & & & * J F V V V V V V V V V V V V V V V V V V V V V V V V V V V V V V V V V V V V V V V V V V V V V V V V V V V V V V V V V V V V V V V V V V V V V V V V V V V V V V V I C 3 & & & & + ] * & & & ",
"U & & & * b @ & & & & 3 C I V V V V V V V V V V V V V V V V V V V V V V V V V V V V V V V V V V V V V V V V V V V V V V V V V V V V V V V V F *.Z F F F F F F V V V V V V I X N M F V V V F J = & & & * d   d * & & & % J F V V V V V V V V V V V V V V V V V V V V V V V V V V V V V V V V V V V V V V V V V V V V V V V V V V V V V V V V V V V V V V V V V V V V V V V V V V V V V V V I C 3 & & & & @ a * & & & ",
"U & & & * b + & & & & 3 C I V V V V V V V V V V V V V V V V V V V V V V V V V V V V V V V V V V V V V V V V V V V V V V V V V V V V V V V V F *.&.V V V V V V V V V V V V H E N I V V V V H J * & & & = d   9 % & & & * J F V V V V V V V V V V V V V V V V V V V V V V V V V V V V V V V V V V V V V V V V V V V V V V V V V V V V V V V V V V V V V V V V V V V V V V V V V V V V V V V I C 3 & & & & + / * & & & ",
"U & & & * b @ & & & & 3 C I V V V V V V V V V V V V V V V V V V V V V V V V V V V V V V V V V V V V V V V V V V V V V V V V V V V V V V V F F *.&.V V V V V V V V V V F L N &.N F V V V V F J = & & & * d   9 * & & & % J F V V V V V V V V V V V V V V V V V V V V V V V V V V V V V V V V V V V V V V V V V V V V V V V V V V V V V V V V V V V V V V V V V V V V V V V V V V V V V V V I C 3 & & & & 3 a * & & & ",
"< & & & * b @ & & & & 3 C I V V V V V V V V V V V V V V V V V V V V V V V V V V V V V V V V V V V F V V V V V V V V V V V V V V V V V V V V F *.&.V V V V V V V V V V V N &.&.L V V V V V H J = & & & & d   d & & & & % J F V V V V V V V V V V V V V V V V V V V V V V V V V V V V V V V V V V V V V V V V V V V V V V V V V V V V V V V V V V V V V V V V V V V V V V V V V V V V V V V I C 3 & & & & + b * & & & ",
"U & & & * b + & & & & 3 C I V V V V V V V V V V V V V V V V V V V V V V V V V V V V V V V V V V V V V V V V V V V V V V V V V V V V V V V V F Z I F V V V V V V V V V V V F E N S V V V V H J = & & & = d   d = & & & * J F V V V V V V V V V V V V V V V V V V V V V V V V V V V V V V V V V V V V V V V V F V V V V V V V V V V V V V V V V V V V V V V V V V V V V V V V V V V V V V V I C @ & & & & 3 a * & & & ",
"U & & & * b @ & & & & 3 C I V V V V V V V V V V V V V V V V V V V V V V V V V V V V V V V V V V V V V V V V V V V V V V V V V V V V V V V V F I I E E M M M I V V V V V V V V F V V V V V F J = & & & * 9   9 & & & & = J F V V V V V V V V V V V V V V V V V V V V V V V V V V V V V V V V V V V V V V V V V V V V V V V V V V V V V V V V V V V V V V V V V V V V V V V V V V V V V V V I C @ & & & & 3 / * & & & ",
"U & & & * b + & & & & 3 C I V V V V V V V V V V V V V V V V V V V V V V V V V V V V V V V V V V V V V V V V V V V V V V V V V V V V V V V V F -.).).).!.).).,.Z V V V V V V V V V V V V V H J * & & & * 9   9 = & & & = J F V V V V V V V V V V V V V V V V V V V V V V V V V V V V V V V V V V V V V V V V V V V V V V V V V V V V V V V V V V V V V V V V V V V V V V V V V V V V V V V I C 3 & & & & + a * & & & ",
"U & & & * b @ & & & & @ C I V V V V V V V V V V V V V V V V V V V V V V V V V V V V V V V V V V V V V V V V V V V V V V V V V V V V V V V V F Z $.$.$.$.$.$.-.=.I V V V V V V V V V V V V H J = & & & = d   9 * & & & % J F V V V V V V V V V V V V V V V V V V V V V V V V V V V V V V V V V V V V V V V V V V V V V V V V V V V V V V V V V V V V V V V V V V V V V V V V V V V V V V V I C 3 & & & & @ b * & & & ",
"U & & & * b + & & & & 3 C I V V V V V V V V V F V V V V V V V V V V V V V V V V V V V V V V V V V V V V V V V V V V V V V V V V V V V V V V V V V V V V V V E =.L V V V V V V V V V V V V F J = & & & * d   9 = & & & * J H V V V V V V V V V V V V V V V V V V V V V V V V V V V V V V V V V V V V V V V V V V V V V V V V V V V V V V V V V V V V V V V V V V V V V V V V V V V V V V V I C 3 & & & & + b * & & & ",
"p & & & * b + & & & & 3 C I V V V V V V V V V V V V V V V V V V V V V V V V V V V V V V V V V V V V V V V V V V V V V V V V V V V V V V V V V V V V V V V V I *.N V V V V V V V V V V V V F J * & & & & 9   9 * & & & = J H V V V V V V V V V V V V V V V V V V V V V V V V V V V V V V V V V V V V V V V V V V V V V V V V V V V V V V V V V V V V V V V V V V V V V V V V V V V V V V V I C 3 & & & & @ b * & & & ",
"U & & & * b 3 & & & & 3 C I V V V V V V V V V V V V V V V V V V V V V V V V V V V V V V V V V V V V V V V V V V V V V V V V V V V V V V V V V V V V V V V V S =.N V V V V V V V V V V V V F J = & & & = 9   9 * & & & * J F V V V V V V V V V V V V V V V V V V V V V V V V V V V V V V V V V V V V V V V V V V V V F V V V V V V V V V V V V V V V V V V V V V V V V V V V V V V V V V V I C 3 & & & & @ b * & & & ",
"U & & & * b @ & & & & + C I V V V V V V V V V V V V V V V V V V V V V V V V V V V V V V V V V V V V V V V V V V V V V V V V V F V V V V V V V V V V V V V V S =.N V V V V V V V V V V V V F J * & & & * 9   d * & & & = J F V V V V V V V V V V V V V V V V V V V V V V V V V V V V V V V V V V V V V V V V V V V V V V V V V V V V V V V V V V V V V V V V V V V V V V V V V V V V V V V I C @ & & & & + b * & & & ",
"U & & & * b @ & & & & @ C I V V V V V V V V V V V V V V V V V V V V V V V V V V V V V V V V V V V V V V V V V V V V V V V V V V V V V V V V V V V V V V V V S =.L V V V V V V V V V V V F H J = & & & * 9   9 * & & & = J F V V V V V V V V V V V V V V V V V V V V V V V V V V V V V V V V V V V V V V V V V V V V V V V V V V V V V V V V V V V V V V V V V V V V V V V V V V V V V V V I C 3 & & & & @ b * & & & ",
"U & & & * b @ & & & & 3 C I V V V V V V V V V V V V V V V V V V V V V V V V V V V V V V V V V V V V V V V V V V V V V V V V V V V V V V V V V V V V V V V V I *.N V V V V V F G V V V V V H J * & & & = d   9 = & & & = J F V V V V V V V V V V V V V V V V V V V V V V V V V V V V V V V V V V V V V V V V V V V V V V V V V V V V V V V V V V V V V V V V V V V V V V V V V V V V V V V I C 3 & & & & + b * & & & ",
"U & & & * b @ & & & & 3 C I V V V V V V V V V V V V V V V V V V V V V V V V V V V V V V V V V V V V V V V V V V V V V V V V V V V V V V V V V V V V V V V V I (.L F V V V V _.:.<.V V V V F J = & & & & d   9 * & & & = J F V V V G [.}.<.V V V V V V V V V V V V V V V V V V V V V V V V V V V V V V V V V V V V V V V V V V V V V V V V V V V V V V V V V V V V V V V V V V V V V V V V I C 3 & & & & @ b * & & & ",
"< & & & * b @ & & & & @ C I V V V V V V V V V V V V V V V V V V V V V V V V V V V V V V V V V V V V V V F V V V V V V V V V V V V V V V V V V N &.&.&.N &.&.#.,.I V V V F |.1.2.3.V F V V F J = & & & * 9   9 & & & & = J F F V V G 4.; 5.6.V V V V V V V V V V V V V V V V V V V V V V V V V V V V V V V V V V V V V V V V V V V V V V V V V V V V V V V V V V V V V V V V V V V V V V V I C 3 & & & & + b * & & & ",
"U & & & * b @ & & & & 3 C I V V V V V V V V V V V V V V V V V V V V V V V V V V V V V V V V V V V V V V V V V V V V V V V V V V V V V V V V F -.!.'.).!.!.!.).$.V V V V 7.8.2.:.6.V V V V H J = & & & = d   9 = & & & * J F V V V V 9.0.0.9.G V V V V V V V V V V V V V V V V V V V V V V V V V V V V V V V V V V V V V V V V V V V V V V F V V V V V V V V V V V V V V V V V V V V V V V I C 3 & & & & @ b * & & & ",
"U & & & * b @ & & & & 3 C I V V V V V V V V F V V V V V V V V V V V V V V V V V V V V V V V V V V V V V V V V V V V V V V V V V V V V V V V V L N N N N N L E F V V V ` :.a.2.b.V V V V V H J * & & & & d   9 = & & & * J F V V V V c.d.; d.[.V V V V V V V V V V V V V V V V V V V V V V V V V V V V V V V V V V V V V V V V V V V V V V V V V V V V V V V V V V V V V V V V V V V V V V I C 3 & & & & @ b * & & & ",
"U & & & * b @ & & & & 3 C I V V V V V V V V V V V V V V V V V V V V V V V V V V V V V V V V V V V V V V V V V V V V V V V V V V V V V V V V V S F V V V F V V I F V 7.:.2.e.f.<.V V V V V F J = & & & = d   9 & & & & = J F V V V V G g.0.0.d.h.G V V V V V V V V V V V V V V V V V V V V V V V V V V V V V V V V V V V V V V V V V V V V V V V V V V V V V V V V V V V V V V V V V V V V I C 3 & & & & @ b * & & & ",
"U & & & * b @ & & & & 3 C I V V V V V V V V V V V V V V V V V V V V V V V V V V V V V V V V V V V V V V V V V V V V V V V V V V V V V V V V F >.N V M $.H V I -.L i.8.e.2.e.1.6.V V V V V F J * & & & = d   d * & & & * J H V V V V V 9.0.; 0.j.9.G V V V V V V V V V V V V V V V V V V V V V V V V V V V V V V V V V V V V V V V V V V V V V V V V V V V V V V V V V V V V V V V V V V V I C @ & & & & + b * & & & ",
"U & & & * b + & & & & 3 C I V V V V V V V V V V V V V V V V V V V V V V V V F V V V V V V V V V V V V V V V V V V V V V V V V V V V V V V V F *.&.V X *.I V I ..+.k.2.:.:.e.l.V V V V V V H J = & & & & d   d = & & & * J H V V V V V m.j.j.n.0.j.}.7.V V V V V V V V V V V V V V V V V V V V V V V V V V V V V V V V V V F V V V V V V V V V V V V V V V V V V V V V V V V V V V V V V V I C 3 & & & & @ b * & & & ",
"p & & & * b @ & & & & 3 C I V V V V V V V V V V V V V V V V V V V V V V V V V V V V V V V V V V V V V V V V V V V V V V V V V V V V V V V V F *.&.V X *.I V M ,.o.f.p.7.q.2._.V V V V V V H J * & & & = d   d = & & & % J F V V V V V |.n.j.h.r.j.0.g.|.V V V V V V V V V V V V V V V V V V V V V V V V V V V V V V V V V V V V V V V V V V V V V V V V V V V V V V V V V V V V V V V V V I C 3 & & & & + b * & & & ",
"U & & & * b + & & & & 3 C I V V V V V V V V V V V V V V V V V V V V V V V V V V V V V V V V V V V V V V V V V V V V V V V V V V V V V V V V F *.&.V X *.I 6.~.W o.s.t.t.p.f.|.V V V V V V F J = & & & * d   d & & & & * J F V V V V V 6.4.0.h.t.9.j.0.n.u.G V V V V V V V V V V V V V V V V V V V V V V V V V V V V V V V V V V V V V V V V V V V V V V V V V V V V V V V V V V V V V V V I C 3 & & & & @ b * & & & ",
"U & & & * b @ & & & & @ C I V V V V V V V V V V V V V V V V V V V V V V V V V V V V V V V V V V V V V V V V V V V V V V V V V V V V V V V V F *.&.V L ,._.:.v.W w.F F 7.1.1.7.V V V V V V F J * & & & * d   8 % & & & * J H V V V V V G r.0.x.G V y.n.; d.z.6.V V V V V V V V V V V V V V V V V V V V V V V V V V V V V V V V V V V V V V V V V V V V V V V V V V V V V V V V V V V V V V I C 3 & & & & + b * & & & ",
"U & & & * b + & & & & 3 C I V V V V V V V V V V V V V V V V V V V V V V V V V V V V V V V V V V V V V V V V V V V V V V V V V V V V V V V V F *.&.V Y A.v.e.B.'.L F F i.f.:.S V V V V V V H J % & & & * d   d * & & & % J H V V V V V V h.0.4.6.V V C.g.0.0.g.D.V V V V V V V V V V V V V V V V V V V V V V V V V V V V V V V V V V V V V V V V V V V V V V V V V V V V V V V V V V V V V I C 3 & & & & 3 b * & & & ",
"U & & & * b + & & & & 3 C I V V V V V V V V V V V V V V V V V V V V V V V V V V V V V V V V V V V V V V V V V V V V V V V V V V V V V V V V F *.Z 3.~.!.o.s.E...&.F V F.2.p.G V V V V V V H J * & & & = d   d = & & & * J F V V V V V V y.0.n.7.V V V 7.}.d.0.G.h.7.V V V V V V V V V V V V V V V V V V V V V V V V V V V V V V V V V V V V V V V V V V V V V V V V V V V V V V V V V V V I C 3 & & & & @ b * & & & ",
"U & & & * b 3 & & & & 3 C I V V V V V V V V V V V V V V V V V V V V V V V V V V V V F V V V V V V V V V V V V V V V V V V V V V V V V V V V H *.T o.H.I.@.&.].).N F V b.e.m.G V V V V V V H J % & & & * d   d * & & & % J F V V V V V V C.j.d.C.V V V V G u.4.0.0.g.m.G V V V V V V V V V V V V V V V V V V V V V V V V V V V V V V V V V V V V V V V V V V V V V V V V V V V V V V V V V I C 3 & & & & @ b * & & & ",
"U & & & * b @ & & & & 3 C I V V V V V V V V V V V V V V V V V V V V V V V V V V V V V V V V V V V V V V V V V V V V V V V V V V V V V F V J._.W !.!.!.!.!.!.!.!.X V V m.9.s.F V V V V V V F J % & & & = d   d & & & & = J F V V V V V V c.G.j.m.V V V V V V <.}.d.; d.}.c.V V V V V V V V V V V V V V V V V V V V V V V V V V V V V V V V V V V V V V V V V V V V V V V V V V V V V V V V I C 3 & & & & @ / & & & & ",
"U & & & * b + & & & & 3 C I V V V V V V V V V V V V V V V V V V V V V V V V V V V V V V V V V V V V V V V V V V V V V V V V V V V V V G |.p.v.H.@.Z &.&.&.&.&.N S V F q.9._.V V V V V V V S J * & & & * d   d = & & & = J F V V V V V V K.n.0.y.V V V V V V V G m.4.L.0.n.h.K.V V V V V V V V V V V V V V V V V V V V V V V V V V V V V V V V V V V V V V V V V V V V V V V V V V V V V V I C 3 & & & & + a * & & & ",
"< & & & * b @ & & & & 3 C I V V V V V V V V V V V V V V V V V V V V V V V V V V V V V V V V V V V V V V V V V V V V V V V V V V F V <.q.f.2.1.b.6.H S F F F F V V V G p.a.3.V V V V V V V F J % & & & * d   d * & & & = J F V V V V V V 6.4.0.M.V V V V V V V V V K.9.n.0.j.4.k.6.V V V V V V V V V V V V V V V V V V V V V V V V V V V V V V V V V V V V V V V V V V V V V V V V V V V V I C 3 & & & & 3 ] * & & & ",
"U & & & * b @ & & & & 3 C I V V V V V V V V V V V V V V V V V V V V V V V V V V V V V V V V V V V V V V V V V V V V V V V V V G <.l.f.e.1.s.` I %.*.^.*.*.*.-.L V V G p.2.3.V V V V V V V F J * & & & * d   d = & & & = J F V V V V V V G g.; h.V V V V V V V V V V V c.5.d.; 0.4.k.6.V V V V V V V V V V V V V V V V V V V V V V V V V V V V V V V V V V V V V V V V V V V V V V V V V V I C 3 & & & & + a * & & & ",
"U & & & * b @ & & & & @ C I V V V V V V V V V V V V V V V V V V V V V V V V V V V V V V V V V V V V V F V V V V V V V V V G 3.q.1.e.f.q.E.V V ].'.-.-.>.>.>.,.-.F V J.8.2.<.V V V V V V V F J * & & & = d   d * & & & = J F V V V V V V G g.0.}.V V E {.Z ;.Z Z Z Z {.I G D.x.d.; j.4.k.7.V V V V V V V V V V V V V V V V V V V V V V V V V V V V V V V V V V V V V V V V V V V V V V V V I C 3 & & & & @ b * & & & ",
"U & & & * b @ & & & & 3 C I V V V V V V V V V V V V V V V V V V V V V V V V V V V V V V V V V V V V V V V V V V V V V ` F.p.2.2.f.l.<.G V V F -.%.F F V F V N ,.L V J.8.f.<.V V V V V V V S J = & & & * d   9 * & & & = J H V V V V V V G x.0.r.V G N.O.O.P.O.O.P.P.P.Q.V V 6.m.x.j.; j.R.h.|.V V V V V V V V V V V V V V V V V V V V V V V V V V V V V V V V V V V V V V V V V V V V V V I C @ & & & & + b * & & & ",
"U & & & * b + & & & & 3 C I V V V V V V V V V V F V V V V V V V V V V F V V V V V V V V V V V V V V V V V V V V G <.s.8.2.e.f.l.<.G V V V V H *.;.V V V V V I *.N V 6.[.f.<.V V V V V V V F J % & & & = d   9 & & & & = J H V V V V V V V x.0.5.V F S.T.I.U.U.I.U.N.V.W.V V V V G m.x.d.; 0.G.x.u.6.V V V V V V V V V V V V V V V V V V V V V V V V V V V V V V V V V V V V V V V V V V V I C @ & & & & @ b * & & & ",
"U & & & * b @ & & & & 3 C I V V V V V V V V V V V V V V V V V V V V V V V V V V V V V V V V V V V V V V V G E.b.p.f.2.2.1.D.X.G V V V V V V F *.&.V V V V V I (.N V 6.1.f.<.V V V V V V V F J * & & & * d   9 = & & & * J F V V V V V V G 5.0.5.V G S.Y.G V V V V H Z.I.V V V V V V G m.r.G.0.0.j.4.z.D.6.V V V V V V V V V V V V V V V V V V V V V V V V V V V V V V V V V V V V V V V V I C 3 & & & & @ b * & & & ",
"< & & & * b @ & & & & 3 C I V V V V V V V V V V V V V V V V V V V V V V V V V V V V V V V V V V F X._._.s.:.f.2.e.1.p.3.` V V V V V V V V V S *.&.V V V V V S =.N V ` 1.1.7.V V V V V V V F J = & & & = d   d * & & & = J F V V V V V V G }.; x.V V S.Y.F V V V V H Z.I.V V V V V V V V G c.h.R.j.; ; j.4.}.M.u.C.6.V V V V V V V V V V V V V V V V V V V V V V V V V V V V V V V V V V V I C 3 & & & & + b * & & & ",
"U & & & * b + & & & & 3 C I V V V V V V V V V V V V V V V V V V V V V V V V V V V V V V V V V V 7.1.e.9.2.9.a.f.s.i.G V V V V V V V V V V V H *.&.V V V V V I =.N V 7.1.f.7.V V V V V V V H J = & & & * d   d = & & & * J F V V V V V V V }.; 5.G V `.Y.F V V V V G Z.I.V V V V V V V V V V V 7.m.r.G.0.; ; 0.j.d.}.G V V V V V V V V V V V V V V V V V V V V V V V V V V V V V V V V V V I C 3 & & & & @ b * & & & ",
"U & & & * b @ & & & & 3 C I V V V V V V V V V V V V V V V V V V V V V V V V V V V V V V V V V V J.q.8.1.1.2.2.2.:. +<.G V V V V V V V V V V H *.&.V V V V V S =.N V 6.1.f.X.V V V V V V V H J * & & & * d   d * & & & = J F V V V V V V V }.; x.V G S.`.V V V V V G Z.I.V V V V V V V V V V V t.D.}.n.0.; ; 0.j.j.5.G V V V V V V V V V V V V V V V V V V V V V V V V V V V V V V V V V V I C 3 & & & & + b * & & & ",
"U & & & * b + & & & & 3 C I V V V V V V V V V V V V V V V V V V V V V V V V V V V V V V V V V V V V t.` <._.q.1.2.e.2.p._.` V V V V V V V V H *.&.V V V V V I *.N V 6.1.f.X.V V V V V V V F J = & & & * d   d = & & & = J F V V V V V V V }.; x.G V `.`.V V V V F H .+I.V V V V V V V V V |.h.g.j.; ; d.R.r.M.u.C.7.V V V V V V V V V V V V V V V V V V V V V V V V V V V V V V V V V V V I C 3 & & & & @ b * & & & ",
"U & & & * b @ & & & & @ C I V V V V V V V V V V V V V V V V V V V V V V V V V V V V V V V V V V V V V V V V G 7.F.q.1.e.e.[.s.X.G V V V V V H *.;.F F F V V I =.X V 6.1.f.<.V F V V V V V H J = & & & * d   d * & & & * J F V V V V V V G }.; 5.G V `.`.V V V V V G Z.I.V V V V V V t.D.}.n.0.; j.4.z.D.7.V V V V V V V V V V V V V V V V V V V V V V V V V V V V V V V V V V V V V V V V I C 3 & & & & + b * & & & ",
"U & & & * b + & & & & 3 C I V V V V V V V V V V V V V V V V V V V V V V V V V V V V V V V V V V V V V V V V V V V G i. +8.2.e.1.l.<.G V V V H *.*.-.-.-.-.-.*.).N V 6.8.f.<.V V V V V V V F J = & & & = d   d * & & & % J F V V V V V V V 5.; r.F F `.S.G V V F V t.++U.V V V V t.D.5.d.; 0.G.x.u.7.V V V V V V V V V V V V V V V V V V V V V V V V V V V V V V V V V V V V V V V V V V V I C 3 & & & & @ b * & & & ",
"p & & & * b + & & & & 3 C I V V V V V V V V V V V V V V V V V V V V V V V V V V V V V V V V V V V V V V V V V V V V V V J.3.p.f.e.1.s.<.V V F >.,.*.^.^.=.=.=.*.L V J.8.f.<.V V V V V V V H J = & & & = d   d = & & & % J H V V V V V V G 5.; r.V V I.@+;.I E E M #+$+>.V V G m.5.d.0.j.n.h.C.G V V V V V V V V V V V V V V V V V V V V V V V V V V V V V V V V V V V V V V V V V V V V V I C 3 & & & & + b * & & & ",
"U & & & * b 3 & & & & 3 C I V V V V V V V V V V V V V V V V V V V V V V V V V V V V V V V V V V V V V V V V V V V V V V V V G 3.q.f.e.f.s.7.F F F I H H H H H H F V J.:.2.3.V V V V V V V H J * & & & * d   d * & & & * J H V V V V V V G g.; 9.V F $.@+@+$+%+%+@+&+@+L F C.5.j.0.j.4.[.K.V V V V V V V V V V V V V V V V V V V V V V V V V V V V V V V V V V V V V V V V V V V V V V V V I C 3 & & & & 3 b * & & & ",
"U & & & * b @ & & & & + C I V V V V V V V V V V V V V V V V V V V V V V V V V V V V V V V V V V V V V V V V V V V V V V V V V F V |.p.f.e.1. +6.V V V V V V V V V V t.p.2.3.V V V V V V V F J * & & & = 9   9 * & & & = J F V V V V V V t.g.; h.V V F *+S.=+=+=+-+`.;+|.}.d.0.>+4.y.7.V V V V V V V V V V V V V V V V V V V V V V V V V V V V V V V V V V V V V V V V V V V V V V V V V V I C 3 & & & & @ b * & & & ",
"U & & & * b @ & & & & @ C I V V V V V V V V V V V V V V V F V V V V V V V V V V V V V V V V V V V V V V V V V V V V V V V V V V V V G 3.p.2.2.:.F.G V V V V V V V V F q.2._.V V V V V V V F J = & & & & d   9 * & & & = J F V V V V V V t.4.0.[.V V V V V G G G F K.h.n.0.0.n.[.7.V V V V V V V V V V V V V V V V V V V V V V V V V V V V V V V V V V V V V V V V V V V V V V V V V V V V I C 3 & & & & @ b * & & & ",
"U & & & * b @ & & & & 3 C I V V V V V V V V V V V V V V V V V V V V V V V V V V V V V V V V V V V V V V V V V V V V V V V V V V V V V V G _.8.2.2.q.<.V V V V V V V V l.9.D.V V V V V V V H J % & & & = d   d * & & & = J F V V V V V V K.n.0.u.V V ,+I.W.I.N.I.N.'+)+!+n.9.<.V V V V V V V V V V V V V V V V V V V V V V V V V V V V V V V V V V V V V V V V V V V V V V V V V V V V V V I C 3 & & & & + b * & & & ",
"U & & & * b @ & & & & 3 C I V V V V V V V V V V V V V V V V V V V V V V V V V V V V V V V V V V V V V V V V V V V V V V V V V V V V V V V V 6. +1.e.1._.G V V V V V V D.9.l.V V V V V V V F J * & & & & d   d = & & & = J F V V V V V V |.G.j.m.V F S.~+{+{+~+~+v ~+~+]+c.V V V V V V V V V V V V V V V V V V V V V V V V V V V V V V V V V V V V V V V V V V V V V V V V V V V V V V V V I C 3 & & & & @ a * & & & ",
"< & & & * b @ & & & & @ C I V V V V V V V V V V V V V V V V V V V V V V V V V V V V V V V V V V V F V V V V V V V V V V V V V V V V V V V V V V <.p.2.2.p.i.V V V V V _.9.q.G V V V V V V S J = & & & * d   d & & & & = J F V V V V V V m.j.d.C.V F S.++;+^+$+x !+/+V.W.V V V V V V V V V V V V V V V V V V V V V V V V V V V V V V V V V V V V V V V V V V V V V V V V V V V V V V V V V I C 3 & & & & + ] * & & & ",
"U & & & * b @ & & & & 3 C I V V V V V V V V V V V V V V V V V V V V V V V V V V V V V V V V V V V V V V V V V V V V V V V V V V V V V V V V V V V G _.1.e.1._.G V V V 3.2.:.S V V V V V V F J = & & & = d   9 = & & & = J H V V V V V V u.j.n.K.V V S.'+r.G.(+w 9.|.Z.W.V V V V V V V V V V V V V V V V V V V V V V V V V V V V V V V V V V V V V V V V V V V V V V V V V V V V V V V V V I C @ & & & & @ a * & & & ",
"U & & & * b @ & & & & 3 C I V V V V V V V V V V V V V V V V V V V V V V V V V V V V V V V V V V V V V V V V V V V V V V V V V V V V V V V V V V V V F i.q.a.f.s.` V V 7.1.1.7.V V V V V V H J * & & & = d   9 * & & & = J H V V V V V V [.0.4.6.V H =+)+L.L._+T.t.F Z.W.V V V V V V V V V V V V V V V V V V V V V V V V V V V V V V V V V V V V V V V V V V V V V V V V V V V V V V V V V I C @ & & & & + / * & & & ",
"U & & & * b @ & & & & 3 C I V V V V V V V V V V V V V V V V V V V V V V V V V V V V V V V V V V V V V V V V V V V V V V V V V V V V V V V V V V V V V V G  +1.e.p.<.F 6.1.f.E.V V V V V V F J = & & & & d   9 * & & & * J F V V V V V V }.; 5.V V p.$+(+d.}.:+T.S G Z.I.V V V V V V V V V V V V V V V V V V V V V V V V V V V V V V V V V V V V V V V V V V V V F V V V V V V V V V V V V I C 3 & & & & 3 a * & & & ",
"U & & & * b @ & & & & 3 C I V V V V V V V V V V V V V V V V V V V V V V V V V V V V V V V V V V V V V V V V V V V V V V V V V V F V F V V V V V V V V V V V 3.8.2.1.|.G p.2.F.V V V V V V H J = & & & = d   d * & & & = J F F V V V V t.g.0.h.G h.d.)+$+y.G (.++S F Z.W.V V V V V V V V V V V V V V V V V V V V V V V V V V V V V V V V V V V V V V V V V V V V V V V V V V V V V V V V V I C 3 & & & & + b * & & & ",
"U & & & * b + & & & & 3 C I V V V V V V V V V V V V V V V V V V V V V V V V V V V V V V V V V V V V V V V V V V V V V V V V V V V V V V V V V V V V V V V V V ` p.2.1._.s.e.s.V V V V V V H J * & & & * d   d = & & & = J F V V V V V i.n.j.h.r.>+L.)+=+V V <+++S F Z.W.V V V V V V V V V V V V V V V V V V V V V V V V V V V V V V V V V V V V V V V V V V V V V V V V V V V V V V V V V I C 3 & & & & 3 a * & & & ",
"p & & & * b @ & & & & 3 C I V V V V V V V V V V V V V V V V V V V V V V V V V V V V V V V V V V V V V V V V V V V V V V V V V V V V V V V V V V V V V V V V V V J.s.2.f.1.2.:.G V V V V V F J = & & & * d   d * & & & * J F V V V V V m.j.j.R.>+>+r.[+S.V V (.T.G H Z.I.V V V V V V V V V V V V V V V V V V V V V V V F V V V V V V V V V V V V V V V V V V V V V V V V V V V V V V V V V I C 3 & & & & 3 / * & & & ",
"U & & & * b + & & & & 3 C I V V V V V V V V V V V V V V V V V V V V V V V V V V V V V V V V V V V V V V V V V V V V V V V V V V V V V V V V V V V V V V V V V V V G  +2.a.e.1.` V V V V V H J = & & & * d   d = & & & = J F V V V V V 9.0.0.; j.9.6.Q.Q.F V ;.*+F G N.<+V V V V V V V V V V V V V V V V V V V V V V V V V V V V V V V V V V V V V V V V V V V V V V V V V V V V V V V V V I C 3 & & & & + a * & & & ",
"U & & & * b @ & & & & @ C I V V V V V V V V V V V V V V V V V F V V V V V V V V V V V V V V V V V V V V V V V V V V V V V V V V V V V V V V V V V V V V V V V V V V G _.f.a.a.F.V V V V V H J * & & & * d   d * & & & * J F V V V V G g.0.0.d.h.G V t.G V V V V V V H G V V V V V V V V V V V V V V V V V V V V V V V V V V V V V V V V V V V V V V V V V V V V V V V V V V V V V V V V V I C 3 & & & & @ b * & & & ",
"U & & & * b + & & & & 3 C I V V V V V V V V V V V V V V V V V V V V V V V V V V V V V V V V V V V V V V V V V V V V V V V V V V V V V V V V V V V V V V V V V V V V V F b.f.9.q.V V V V V F J = & & & = d   d * & & & = J H V V V V c.G.0.j.h.G V V F {.U.I.I.I.I.I.I.{.V V V V V V V V V V V V V V V V V V V F V V V V V V V V V V V V V V V V V V V V V V V V V V V V V V V V V V V V V I C 3 & & & & + b * & & & ",
"U & & & * b + & & & & 3 C I V V V V V V V V V V V V V V V V V V V V V V V V V V V V V V V V V V V V V V V V V V V V V V V V V V V V V V V V V V V V V V V V V V V V V V G s.e.1.E.V V V V F J = & & & = d   9 = & & & = J H V V V V 9.0.0.9.G V V V {.V.P.&+V.&+&+&+&+Q.V V V V V V V V V V V V V V V V V V V V V V V V V V V V V V V V V V V V V V V V V V V V V V V V V V V V V V V V V I C 3 & & & & @ b * & & & ",
"U & & & * b 3 & & & & 3 C I V V V V V V V V V V V V V V V V V V V V V V V V V V V V V V V V V V V V V V V V V V V V V V V V V V V V V V V V V V V V V V V V V V V V V V F J.p.e.|.V V V V F J = & & & * d   9 * & & & * J F V V V 6.4.; 5.6.V V V V U.T.#+;.;.;.;.;.;.I V V V V V V V V V V V V V V V V V V V V V V V V V V V V V V V V V V V V V V V V V V V V V V V V V V V V V V V V V I C 3 & & & & @ b * & & & ",
"< & & & * b @ & & & & 3 C I V V V V V V V V V V V V V V V V V V V V V V V V V V V V V V V V V V V V V V V V V V V V V V V V V V V V V V V V V V V V V V V V V V V V V V V V ` F.t.V V F V F J * & & & * 9   9 = & & & * J F V V V G [.r.|.V V V V V Y.S.V V V G V V V V V V V V V V V V V V V V V V V V V V V V V V V V V V V V V V V V V V V V V V V V V V V F V V V V V V V V V V V V V I C @ & & & & + b * & & & ",
"U & & & * b @ & & & & 3 C I V V V V V V V V V V V V V V V V V V V V V V V V V V V V V V V V V V V V V V V V V V V V V V V V V V V V V V V V V V V V V V V V V V V V V V V V V V V V V V V H J = & & & * 9   d * & & & = J F V V V V V G V V V V V F `.Y.V V V V V V V V V V V V V V V V V V V V V V V V V V V V V V V V V V V V V V V V V V V V V V V V V V V V V V V V V V V V V V V V V I C 3 & & & & @ b * & & & ",
"U & & & * b + & & & & 3 C I V V V V V V V V V V V V V V V F V V V V V V V V V V V V V V V V V V V V V V V V V V V V V V V V V V V V V V V V V V V V V V V V V V V V V V V V V V V V V V V H J * & & & * 9   d = & & & = J F V V V V V V V V V V V G `.Y.V V V V V V V V V V V V V V V V V V V V V V V V V V V V V V V V V V V V V V V V V V V V V V V V V V V V V V V V V V V V V V V V V I C 3 & & & & @ b * & & & ",
"U & & & * a @ & & & & 3 C I V V V V V V V V V V V V V V V V V V V V V V V V V V V V V V V V V V V V V V V V V V V V V F V V V V V V V V V V V V V V V V V V V V V V V V V V V V V V V V V F J = & & & * 9   d * & & & = J F V V V V V V V V V V V V S.Y.V V V V V V V V V V V V V V V V V V V V V V V V V V V V V V V V V V V V V V V V V V V V V V V V V V V V V V V V V V V V V V V V V I C 3 & & & & @ b * & & & ",
"U & & & * b @ & & & & 3 C I V V V V V V V V V V V V V V V V V V V V V V V V V V V V V V V V V V V V V V V V V V V V V V V V V V V V V V V V V V V V V V V V V V V V V V V V V V V V V V V F J * & & & * 9   9 * & & & = J F V V V V V V V V V V V V `.Y.F V V V V V V V V V V V V V V V V V V V V V V V V V V V V V V V V V V V V V V V F V V V V V V V V V V V V V V V V V V V V V V V V I C 3 & & & & + b * & & & ",
"U & & & & b + & & & & 3 C I V V V V V V V V V V V V V V V V V V V V V V V V V V V V V V V V V V V V V V V V V V V V V V V V V V V V V V V V V V V V V V V V V V V V V V V V V V V V V V V H J % & & * * 9   9 * & & & * J F V V V V V V V V V V V F `.Y.V V V V V F V V V V V V V V V V V V V V V V V V V V V V V V V V V V V V V V V V V V V V V V V V V V V V V V V V V V V V V V V V V I C 3 & & & & + b * & & & ",
"< & & & * b @ & & & & 3 C I V V V V V V V V V V V V V V V V V V V V V V V V V V V V V V V V V V V V V V V V V V V V V V V V V V V V V V V V V V V V V V V V V V V V V V V V V V V V V V V H J * & & & * 9   9 * & & & = J F V V V V V V V V V V V V N.Z.S F G V F G G V V V V V V V V V V V V V V V V V V V V V V V V V V V V V V V V V V V V V V V V V V V V V V V V V V V V V V V V V V I C 3 & & & & @ b * & & & ",
"U & & & & / + & & & & 3 C I V V V V V V V V V V V V V V V V V V V V V V V V V V V V V V V V V V V V V V V V V V V V V V V V V V V V V V V V V V V V V V V V V V V V V V V V V V V V V V V H J % & & & * 9   9 * & & & = J F V V V V V V V V V V V V }+&+T..+.+++Z.T..+,+V V V V V V V V V V V V V V V V V V V V V V V V V V V V V V V V V V V V V V V V V V V V V V V V V V V V V V V V V I C 3 & & & & 3 b * & & & ",
"U & & & * b @ & & & & @ C I V V V V V V V V V V V V V V V V V V V V V V V V V V V V V V V V V V V V V V V V V V V V V V V V V V V V V V V V V V V V V V V V V V V V V V V V V V V V V V V H J * & & & * 9   9 * & & & = J H V V V V V V V V V V V V 6.W.T.T.T.T.@+@+@+/.V V V V V V V V V V V V V V V V V V V V V V V V V V V V V V V V V V V V V V V V V V V V V V V V V V V V V V V V V I C @ & & & & 3 ] * & & & ",
"U & & & * b @ & & & & + C I V V V V V V V V V V V V V V V V V V V V V V V V V V V V V V V V V V V V V V V V V V V V V V V V V V V V V V V V V V V V V V F V V V V V V V V V V V V V V V V F J % & & & * 9   9 * & & & = J H V V V V S F V V V V V V F F S E E ` E E Y t.V V V V V V V V V V V V V V V V V V V V V V V V V V V V V V V V V V V V V V V V V V V V V V V V V V V V V V V V V I C 3 & & & & + a * & & & ",
"U & & & * b @ & & & & 3 C I V V V V V V V V V V V V V V V V V V V V V V V V V V V V V V V V V F V V V V V V V V V V V V V V V V V V V V V V V V V V V V V V V V V V V V V V V V V V V V V H J * & & & * 9   9 * * & & % J H V V V F {.<+Z ` V V V V V V V V V V F G W.<+V V V V V V V V V V V V V V V V V V V V V V V V V V V V V V V V V V V V V V V V V V V V V V V V V V V V V V V V V I C 3 & & & & 3 / * & & & ",
"U & & & * b @ & & & & @ C I V V V V V V V V V V V V V V V V V V V V V V V V V V V V V V V V V V V V V V V V V V V V V V V V V V V F V V V V V V V V V V V V V V V V V V V V V V V V V V V H J % & & & * 9   9 * & & & * J G V V V V F #.#+A.{.V V V V V V V V V V S Z.W.V V V V V V V V V V V V V V V V V V V V V F V V V V V V V V V V V V V V V V V V V V V V V V V V V V V V V V V V V I C 3 & & & & 3 a * & & & ",
"< & & & * b @ & & & & 3 C I V V V V V V V V V V V V V V V V V V V V V V V V V V V V V V V V V V V V V V V V V V V V V V V V V V V V V V V V V V V V V V V V V V V V V V V V V V V V V V V F J % & & & = 9   9 = & & & * J F V V V V Y /.#+;.I V V V V V V V V V V G Z.W.V V V V V V V V V V V V V V V V V V V V V V V V V V V V V V V V V V V V V V V V V V V V V V V V V V V V V V V V V I C 3 & & & & + a * & & & ",
"U & & & * b @ & & & & 3 C I V V V V V V V V V V V V V V V V V V V V V V V V V V V V V V V V V V V V V V V V V V V V V V V V V V V V V V V V V V V V V V V V V V V V V V V V V V V V V V V H J * & & & * 9   9 * & & & % J F V V V V {.*+;.G V V V V V V F G V V V G Z.W.V V V V V V V V V V V V V V V V V V V V V V V V V V V V V V V V V V V V V V V V V V V V V V V V V V V V V V V V V I C 3 & & & & @ / * & & & ",
"U & & & * b @ & & & & 3 C I V V V V V V V V V V V V V V V V V V V V V V V V V V V V V V V V V V V V V V V V V V V V V V V V V V V V V V V V V V V V V V V V V V V V V V V V V V V V V V V H J * & & & * 9   9 * & & & = J F V V V S }+Z Y S V V V V 6.X L E E E E ;.++W.V V V V V V V V V V V V V V V V V V V V V V V V V V V V V V V V V V V V V V V V V V V V V V V V V V V V V V V V V I C 3 & & & & @ a * & & & ",
"U & & & * b @ & & & & 3 C I V V V V V V V V V V V V V V V V V V V V V V V V V V V V V V V V V V V V V V V V V V V V V V V V V V V V V V V V V V V V V V V V V V V V V V V V V V V V V V V F J % & & & * 9   9 * & & & % J F V V V G #.Z Y G V V V G I.&+&+&+&+&+P.&+~+U.V V V V V V V V V V V V V V V V V V V V V V V V V V V V V V V V V V V V V V V V V V V V V V V V V V V V V V V V V I C 3 & & & & + a * & & & ",
"< & & & * b @ & & & & @ C I V V V V V V V V V V V V V V V V V V V V V V V V V V V V V V V V V V V V V V V V V V V V V V V V V V V V V V V V V F V V V V V V V V V V V V V V V V V V V V V S J * & & & * d   d * & & & % J F V V V V ;.*+*+;.G V V V <+=+-+S.-+`.-+=+&+U.V V V V V V V V V V V V V V V V V V V V V F V V V V V V V V V V V V V V V V V V V V V V V V V V V V V V V V V V V I C 3 & & & & + / & & & & ",
"U & & & * b @ & & & & 3 C I V V V V V V V V V V V V V V V V V V V V V V V V V V V V V V V V V V V V V V V V V V V V V V V V V V V V V V V V V V V V V V V V V V V V V V V V V V V V V V V H J % & & & = d   d * & & & * J F V V V F #+*+<+Q.I V V V V V V G F F F S Z.W.V V V V V V V V V V V V V V V V V V V V V V V V V V V V V V V V V V V V V V V V V V V V V V V V V V V V V V V V V I C @ & & & & @ a * & & & ",
"U & & & * b @ & & & & 3 C I V V V V V V V V V V V V V V V V V V V V V V V V V V V V V V V V V V F V V V V V V V V V V V V V V V V V V V V V V V V V V V V V V V V V V V V V V V V V V V V F J % & & & = d   d * & & & % J F V V V F Y Y Y ` V V V V F V V V V V V G Z.I.V V V V V V V V V V V V V V V V V V V V V V V V V V V V V V V V V V V V V V V V V V V V V V V V V V V V V V V V V I C @ & & & & 3 ] * & & & ",
"U & & & * b + & & & & 3 C I V V V V V V V V V V V V V V V V V V V V V V V V V V V V V V V V V V V V V V V V V V V V V V V V V V V V V V V V V V V V V V V V V V V V V V V V V V V V V V V F J * & & & * d   d = & & & * J F V V V F #+{.#+E V V V V V V V V V V V S Z.U.V V V V V V V V V V V V V V V V V V V V V V V V V V V V V V V V V V V V V V V V V V V V V V V V V V V V V V V V V I C 3 & & & & + a * & & & ",
"U & & & * b + & & & & 3 C I V V V V V V V V V V V V V V V V V V V V V V V V V V V V V V V V V V V V V V V V V V V V V V V V V V V V V V V V V V V V V V V V V V V V V V V V V V V V V V V H J * & & & * d   d * & & & % J F V V V I #+S {.{.V V V V V V V V V V V t.Z.U.V V V V V V V V V V V V V V V V V V V V V V V V V V V V V V V V V V V V V V V V V V V V V V V V V V V V V V V V V I C 3 & & & & @ b * & & & ",
"U & & & * b + & & & & 3 C I V V V V V V V V V V V V V V V V V V V V V V V V V V V V V V V V V V V V V V V V V V V V V V V V V V V V V V V V V V V V V V V V V V V V V V V V V V V V V V V H J % & & & * d   d = & & & * J H V V V V |+,+*+G V V V V V V V V V V V V {.;.V V V V V V V V V V V V V V V V V V V V V V V V V V V V V V V V V V V V V V V V V V V F V V V V V V V V V V V V V I C 3 & & & & @ b * & & & ",
"< & & & * b + & & & & 3 C I V V V V V V V V V V V V V V V V V V V V V V V V V V V V V V V V V V V V V V V V V V V V V V V V V V V V V V V V V V V V V V V V V V V V V V V V V V V V V V V F J * & & & = d   d = & & & % J H V V V V #+R R Y V V V F E E V V F Y <+^.Z V V V V V V V V V V V V V V V V V V V V V V V V V V V V V V V V V V V V V V V V V V V V V V V V V V V V V V V V V V I C 3 & & & & @ b * & & & ",
"U & & & * b 3 & & & & 3 C I V V V V V V V V V V V V V V V V V V V V V V V V V V V V V V V V V V V V V V V V V V V V V V V V V V V V V V V V V V V V V V V V V V V V V V F V V V V V V V V F J % & & & * d   d * & & & * J H V V V V E E #+{.V V V G N.I.V V E T.~+O.$+N F V V V V V V V V V V V V V V V V V V V V V V V V V V V V V V V V V V V V V V V V V V V V V V V V V V V V V V V V I C 3 & & & & @ b * & & & ",
"U & & & * b @ & & & & 3 C I V V V V V V V F V V V V V V V V V V V V V V V V V V V V V V V V V V V V V V V V V V V V V V V V V V V V V V V V V V V V V V V V V V V V V V V V V V V V V V V F J * & & & = d   d * & & & = J F V V V G Y {.,+Y G G V G `.Y.V V *+$+<+,+%+}+V V V V V V V V V V V V V V V V V V V V V V V V V V V V V V V V V V V V V V V V V V V V V V V V V V V V V V V V V I C 3 & & & & + a * & & & ",
"U & & & * b @ & & & & 3 C I V V V V V V V V V V V V V V V V V V V V V V V V V V V V V V V V V V V V V V V V V V V V V V V V V V V V V V V V V V V V V V V V V V V V V V V V V V V V V V V H J % & & & * d   d = & & & = J F V V V V E Y {.Z G G V G S.Y.V G <+T.S H .+U.V V V V V V V V V V V V V V V V V V V V V V V V V V V V V V V V V V V V V V V V V V V V V V V V V V V V V V V V V I C 3 & & & & + ] * & & & ",
"U & & & * b @ & & & & 3 C I V V V V V V V V V V V V V V V V V V V V V V V V V V V V V V V V V V V V V V V V V V V V V V V V V V V V V V V V V V V V V V V V V V V V V V V V V V V V V V V H J * & & & = d   d & & & & = J F V V V V {.}+{.t.V V V V Y.Y.V V <+T.F H Z.W.V V V V V V V V V V V V V V V V V V V V V V V V V V V V V V V V V V V V V V V V V V V V V V V V V V V V V V V V V I C 3 & & & & @ b * & & & ",
"U & & & * b @ & & & & 3 C I V V V V V V V V V V V V V V V V V V V V V V V V V V V V V V V V V V V V V V V V V V V V V V V V V V V V V V V V V V V V V V V V V V V V V V V V V V V V V V V F J = & & & & d   d = & & & = J F V V V S <+}+Y Y V V V V S.Y.V V <+.+S F Z.W.V V V V V V V V V V V V V V V V V V V V V V V V V V V V V V V V V V V V V V V V V V V V V V V V V V V V V V V V V I C 3 & & & & @ b * & & & ",
"p & & & * b @ & & & & 3 C I V V V V V V V V V V V V V V V V V V V V V V V V V V V V V V V V V V V V V V V V V V V V V V V V V V V V V V V V V V V V V V V V V V V V V V V V V V V V V V V F J = & & & * d   d * & & & = J F F V V S }+/./.{.V V V G `.Y.F V 1+++S H Z.W.V V V V V V V V V V V V V V V V V V V V V V V V V V V V V V V V V V V V V V V V V V V V V V V V V V V V V V V V V I C 3 & & & & @ b * & & & ",
"U & & & * b @ & & & & 3 C I V V V V V V V V V V V V V V V V V V V V V V V V V V V V V V V V V V V V V V V V V V V V V V V V V V V V V V V V V V V V V V V V V V V V V V V V V V V V V V F F J * & & & * d   d = & & & * J F V V V V {.}+*+E V V V V `.Y.V V <+T.I H Z.W.V V V V V V V V V V V V V V V V V V V V V V V V V V V V V V V V V V V V V V V V V V V V V V V V V V V V V V V V V I C @ & & & & @ b * & & & ",
"U & & & * a + & & & & 3 C I V V V V V V V V V V V V V V V V V V V V V V V V V V V V V V V V V V V V V V V V V V V V V V V V V V V V V V V V V V V V V V V V V V V V V V V V V V V V V V V H J * & & & & 9   d = & & & * J F V V V F #+*+<+/.I V V G Y.Y.V V <+++S G Z.W.V V V V V V V V V V V V V V V V V V V V V V V V V V V V V V V V V V V V V V V V V V V V V V V V V V V V V V V V V I C @ & & & & + b * & & & ",
"U & & & & / @ & & & & 3 C I V V V V V V V V V V V V V F V V V V V V V V V V V V V V V V V V V V V V F V V V V V V V V V V V V V V V V V V V V V V V V V V V V V V V V V V V V V V V V V V H J = & & & = 9   d & & & & = J F V V V H {.` Y Y G V V V Y.=+G F U..+H G Z.W.V V V V V V V V V V V V V V V V V V V V V V V V V V V V F V V V V V V V V V V V V V V V V V V V V V V V V V V V V I C 3 & & & & + b * & & & ",
"U & & & * b @ & & & & 3 C I V V V V V V V V V V V V V V V V V V V V V V V V V V V V V V V V V V V V V V V V V V V V V V V V V V V V V V V V V V V V V V V V V V V V V V V V V V V V V V V F J * & & & * 9   9 = & & & = J F V V V F {.*+*+Y 6.G G G <+&+2+=+&+N.V t.2+W.V V V V V V V V V V V V V V V V V V V V V V V V V V V V V V V V V V V V V V V V V V V V V V V V V V V V V V V V V I C 3 & & & & @ b * & & & ",
"U & & & * b + & & & & 3 C I V V V V V V V V V V V V V V V V V V V V V V V V V V V V V V V V V V V V V V V V V V V V V V V V V V V V V V V V V V V V V V V V V V V V V V V V V V V V V V V F J = & & & * 9   9 * & & & % J H V V V V {./.}+*+;.G V V E -+T.%+Z.;.V V ;+;.V V V V V V V V V V V V V V V V V V V V V V V V V V V V V V V V V V V V V V V V V V V V V V V V V V V V V V V V V I C 3 & & & & @ b * & & & ",
"U & & & * b @ & & & & 3 C I V V V V V V V V V V V V V V V V V V V V V V V V V V V V V V V V V V V V V V V V V V V V V V V V V V V V V V V V V V V V V V V V V V V V F V V V V V V V V V V H J % & & & * 9   9 * & & & % J H V V V V Y Q.<+Y t.V V V V G I E S V V V V V V V V V V V V V V V V V V V V V V V V V V V V V V V V V V V V V V V V V V V V V V V V V V V V V V V V V V V V V V I C 3 & & & & @ b * & & & ",
"U & & & * b @ & & & & @ C I V V V V V V V V V V V V V V V V V V V V V V V V V V V V V V V V V V V V V V V V V F V V V V V V V V V V V V V V V V V V V V V V V V V V V V V V V V V V V V V F J * & & & * 9   9 * & & & * J G V V V F {.Y Y ` V V V V F {.<+<+<+<+<+<+;.V V V V V V V V V V V V V V V V V V V V V V V V V V V V V V V V V V V V V V V V V V V V V V V V V V V V V V V V V V I C 3 & & & & @ b * & & & ",
"p & & & * b @ & & & & 3 C I V V V V V V V V V V V V V V V V V V V V V V V V V V V V V V V V V V V V V V V V V V V V V V V V V V V V V V V V V V V V V V F V V V V V V V V V V V V V V V V S J = & & & * 9   9 * & & & * J F V V V V #+}+R Q.I V V V {.V.O.P.P.&+O.O.T.` V V V V V V V V V V V V V V V V V V V V V V V F V V V V V V V V V V V V V V V V V V V V V V V V V V V V V V V V V I C 3 & & & & + a * & & & ",
"U & & & * a @ & & & & 3 C I V V V V V V V V V V V V V V V V V V V V V V V V V V V V V V V V V V V V V V V V V V V V V V V V V V V V V V V V V V V V V V V V V V V V V V V V V V V V V V V F J = & & & * 9   9 * & & & % J F V V V G {.E {.{.G V V G U.T.*+;+#+;+;+}+%+}+V V V V V V V V V V V V V V V V V V V V V V V V V V V V V V V V V V V V V V V V V V V V V V V V V V V V V V V V V I C 3 & & & & + ] * & & & ",
"U & & & * a + & & & & 3 C I V V V V V V V V V V V V V V V V V V V V V V V V V V V V V V V V V V V V V V V V V V V V V V V V V V V V V V V V V V V V V V V V V V V V V V V V V V V V V V V H J * & & & * 9   9 = & & & = J F V V V G #+{.{.E t.V V V Y.S.G V F V V G .+U.V V V V V V V V V V V V V V V V V V V V V V V V V V V V V V V V V V V V V V V V V V V V V V V V V V V V V V V V V I C 3 & & & & @ b * & & & ",
"U & & & * / @ & & & & 3 C I V V V V V V V V V V V V V V V V V V V V V V V V V V V V V V V V V V V V V V V V V V V V V V V V V V V V V V V V V V V V V V V V V V V V V V V V V V V V V V V F J = & & & * 9   9 * & & & % J F V V V S ,+` S I E V V G `.N.V V V V F G Z.W.V V V V V V V V V V V V V V V V V V V V V V V V V V V V V V V V V V V V V V V V V V V V V V V V V V V V V V V V V I C 3 & & & & @ b * & & & ",
"< & & & * b @ & & & & @ C I V V V V V V V V V V V V V V V V V V V V V V V V V V V V V V V V V V V V V V V V V V V V V V V V V V V V V V V V V V V V V V V V V V V V V V V V V V V V V V V H J = & & & * d   d * & & & % J H V V V F ,+<+,+E t.V V F Y.Y.V V V V V S Z.U.V V V V V V V V V V V V V V V V V V V V V V V V V V V V V F V V V V V V V V V V V V V V V V V V V V V V V V V V V I C 3 & & & & @ a * & & & ",
"U & & & * b @ & & & & 3 C I V V V V V V V V V V V V V V V V V V V V V V V V V V V V V V V V V V V V V V V V V V V V V V V V V V V V V V V V V V V V V V V V V V V V V V V V V V V V V V V H J = & & * * d   d = & & & * J F V V V F {.<+<+E V V V G `.Y.V V V V V G Z.U.V V V V V V V V V V V V V V V V V V V V V V V V V V V V V V V V V V V V V V V V V V V V V V V V V V V V V V V V V I C @ & & & & @ b * & & & ",
"U & & & * b @ & & & & 3 C I V V V V V V V V V V V V V V V F V V V V V V V V V V V V V V V V V V V V V V V V V V V V V V V V V V V V V V V V V V V V V V F V V V V V V V V V V V V V V V V F J = & & & * 9   d = & & & % J F V V V V E X #+Y V V V V `.Y.V V V V V S Z.W.V V V V V V V V V V V V V V V V V V V V V V V V V V V V V V V V V V V V V V V V V V V V V V V V V V V V V V V V V I C @ & & & & + b * & & & ",
"U & & & * b @ & & & & 3 C I V V V V V V V V V V V V V V V V V V V V V V V V V V F V V V V V V V V V V V V V V V V V V V V V V V V V V V V V V V V V V V V V V V V V V V V V V V V V V V V H J * & & & * 9   d * & & & * J F V V V V E #+#+6.V V V V `.Y.G V V V V G Z.W.V V V V V V V V V V V V V V V V V V V V V V V V V V V V V V V V V V V V V V V F V V V V V V V V V V V V V V V V V I C 3 & & & & + b * & & & ",
"< & & & * b 3 & & & & 3 C I V V V V V V V V V V V V V V V V V V V V V V V V V V V V V V V V V V V V F V V V V V V V V V V V V V V V V V V V V V V V V V V V V V V V V V V V V V V V V V V H J = & & & = d   d * & & & % J F V V V S #+*+}+Z G G V G `.Y.V V V V V S Z.W.V V V V V V V V V V V V V V V V V V V V V V V V V V V V V V V V V V V V V V V V V V V V V V V V V V V V V V V V V I C 3 & & & & @ b * & & & ",
"U & & & * b + & & & & 3 C I V V V V V V V V V V V V V V V V V V V V V V V V V V V V V V V V V V V V V V V V V V V V V V V V V V V V V V V V V V V V V V V V V V V V V V V V V V V V V V V F J = & & & * d   d * & & & * J F V V V H {.{./.;.G G V G Q.Q.V V V V V G N.<+V V V V V V V V V V V V V V V V V V V V V V V V V V V V V V V V V V V V V V V V V V V V V V V V V V V V V V V V V I C 3 & & & & @ b * & & & ",
"U & & & * b + & & & & 3 C I V V V V V V V V V V V V V V V V V V V V V V V V V V V V V V V V V V V V V V V V V V V V V V V V V V V V V V V V V V V V V V V V V V V V V V V V V V V V V V V F J * & & & & d   d * & & & % J H V V V G Y #+*+S V V V V H G V V V G V V G G V V V V V V V V V V V V V V V V V V V V V V V V V V V V V V V V V V V V V V V V V V V V V V V V V V V V V V V V V I C 3 & & & & @ b * & & & ",
"U & & & * b + & & & & 3 C I V V V V V V V V V V V V V V V V V V V V V V V V V V V V V V V V V V V V V V V V V V V V V V V V V V V V V V V V V V V V V V V V V V V V V V V V V V V V V V V F J = & & & = d   d = & & & * J H V V V V K.Z *+;.V V V V #+U.U.U.U.U.Q.U.A.{.V V V V V V V F V V V V V V V V V V V V V V V V V V V V V V V V V V V V V V V V V V V V V V V V V V V V V V V V V I C 3 & & & & @ b * & & & ",
"U & & & * b @ & & & & 3 C I V V V V V V V V V V V V V V V V V V V V V V V V V V V V V V V V V V V V V V V V V V V V V V V V V V V V V V V V V V V V V V V V V V V V V V V V V V V V V V V F J = & & & * 9   9 = & & & * J F V V V V E Y #+;.V V V V I.P.&+&+O.~+&+&+&+Q.V V V V V V V V V V V V V V V V V V V V V V V V V V V V V V V V V V V V V V V V V V V V V V V V V V V V V V V V V I C @ & & & & + a & & & & ",
"U & & & * b @ & & & & 3 C I V V V V V V V V V V V V V V V V V V V V V F V V V V V V V V V V V V V V V V V V V V V V V V V V V V V V V V V V V V V V V V V V V V V V V V V V V V V V V V V H J = & & & * 9   d * & & & = J F V V V V ` Y X G V V V G E ;.Z ;.N.T.{.;.{.I V V V V V V V V V V V V V V V V V V V V V V V V V V V V V V V V V V V V V V V V V V V V V V V V V V V V V V V V V I C 3 & & & & + / * & & & ",
"< & & & * b + & & & & 3 C I V V V V V V V V V V V V V V V V V V V V V V V V V V V V V V V V V V V V V V V V V V V V V V V V V V V V V V V V V V V V V V V V V V V V V V V V V V V V V V V H J * & & & * 9   d = & & & = J F V V V V G V V V V V V V V G V V <+T.G F V V V V V V V V V V V V V V V V V V V V V V V V V V V V V V V V V V V V V V V V V V V V V V V V V V V V V V V V V V V I C 3 & & & & @ b * & & & ",
"U & & & * b @ & & & & 3 C I V V V V V V V V V V V V V V V V V V V V V V V V V V V V V V V V V V V V V V V V V V V V V V V V V V V V V V V V V V V V V V V V V V V V V V V V V V V V V V V F J = & & & * 9   d * & & & = J F V V V V X Y G G V V V V V V V V <+.+S V V V V V V V V V V V V V V V V V V V V V V V V V V V V V V V V V V V V V V F V V V V V V V V V V V V V V V V V V V V V I C 3 & & & & @ b * & & & ",
"U & & & * b + & & & & 3 C I V V V V V V V V V V V V V V V V V V V V V V V V V V V V V V V V V V V V V V V V V V V V V V V V V V V V V V V V V V V V V V V V V V V V V V V V V V V V V V V F J = & & & * 9   9 * & & & = J F V V V I *+#+{.Y V V V V V V V V <+T.H V V V V V V V V V V V V V V V V V V V V V V V V V V V V V V V V V V V V V V V V V V V V V V V V V V V V V V V V V V V V I C 3 & & & & + b * & & & ",
"U & & & * b @ & & & & 3 C I V V V V V V V V V V V V V V V V V V V V V V V V V V V V V V V V V V V V V V V V V V V V V V V V V V V V V V V V V V V V V V V V V V V V V V V V V V V V V V V H J = & & * * 9   9 * & & & * J F V V V H }+}+/.Y V V V V V V V V <+.+H V V V V V V V V V V V V V V V V V V V V V V V V V V V V V V V V V V V V V V V V V V V V V V V V V V V V V V V V V V V V I C 3 & & & & @ b * & & & ",
"U & & & * b + & & & & 3 C I V V V V V V V V V V V V V V V V V V V V V V V V V V V V V V V V V V V V V V V V V V V V V V V V V V V V V V V V V V V V V V V V V V V V V V V V V V V V V V V H J * & & & * 9   9 * & & & = J F V V V V ;.*+#+t.V V V V V V V V <+T.S V V V V V V V V V V V V V V V V V V V V V V V V V V V V V V V V V V V V V V V V V V V V V V V V V V V V V V V V V V V V I C 3 & & & & @ b * & & & ",
"U & & & * b @ & & & & 3 C I V V V V V V V V V V V V V V V V V V V V V V V V V V V V V V V V V V V V V V V V V V V V V V V V V V V V V V V V V V V V V V V V V V V V V V V V V V V V V V V H J = & & & * 9   9 * & & & = J F V V V S *+{.{.S V V V V V V V V <+T.t.V V V V V V V V V V V V V V V V V V V V V V V V V V V V V V V V V V V V V V V V V V V V V V V V V V V V V V V V V V V V I C 3 & & & & + a * & & & ",
"< & & & * b @ & & & & @ C I V V V V V V V V V V V V V V V V V V V V V V V V V V V V V V V V V V V V V V V V V V V V V V V V V V V V V V V V V V V V V V V V V V V V V V V V V V V V V V V H J * & & & * 9   9 * & & & = J H V V F S *+Y E S G G V G E {.#+{.Y.T.*+{.{.E V V V V V V V V V V V V V V V V V V V V V V V V V V V V V V V V V V V V V V V V V V V V V V V V V V V V V V V V V I C @ & & & & + a * & & & ",
"U & & & * b + & & & & 3 C I V V V V V V V F V V V V V V V V V V V V V V V V V V V V V V V V V V F V V V V V V V V V V V V V V V V V V V V V V V V V V V V V V V V V V V V V V V V V V V V H J = & & & * 9   9 * & & & = J H V V V V {.#+*+6.G G V G N.P.O.P.~+~+P.O.O.Q.V V V V V V V V V V V V V V V V V V V V V V V V V V V V V V V V V V V V V V V V V V V V V V V V V V V V V V V V V I C 3 & & & & @ / * & & & ",
"U & & & * b @ & & & & 3 C I V V V V V V V V V V V V V V V V V V V V V V V V V V V V V V V V V V V V V V V V V V V V V V V V V V V V V V V V V V V V V V V V V V V V V V V V V V V V V F V F J * & & & * 9   9 * * & & % J H V V V G {.{.}+Y V V V V #+Q.Q.Q.Q.Q.Q.Q.Q.{.V V V V V V V V V V V V V V V V V V V V V V V V V V V V V V V V V V V V V V V V V V V V V V V V V V V V V V V V V I C 3 & & & & @ b * & & & ",
"U & & & * b @ & & & & 3 C I V V V V V V V V V V V V V V V V V V V V V V V V V V V V V V V V V V V V V V V V V V V V V V V V V V V V V V V V V V V V V V V V V V V V V V V V V V V V V V V F J = & & & * 9   9 * & & & = J G V V V t.*+}+;.Y V V V V V V V V V V V V {.E V V V V V V V V V V V V V V V V V V V V V V V V V V V V V V V V V V V V V V V V V V V V V V V V V V V V V V V V V I C 3 & & & & @ b * & & & ",
"U & & & * b @ & & & & 3 C I V V V V V V V V V V V V V V V V V V V V V V V V V V V V V V V V V V V V V V V V V V V V V V V V V V V V V V V V V V V V V V V V V V V V V V V V V V V V V V V F J * & & & * 9   9 = & & & * J F V V V V E E G G V V V V V V V V V V F H Z.U.V V V V V V V V V V V V V V F V V V V V V V V V V V V V V V V V V V V V V V V V V V V V V V V V V V V V V V V V V I C 3 & & & & + b * & & & ",
"U & & & * b @ & & & & 3 C I V V V V V V V V V V V V V V V V V V V V V V V V V V V V V V V V V V V V V V V V V V V V V V V V V V V V V V V V V V V V V V V V V V V V V V V V V V V V V V V F J % & & & * 9   9 * & & & = J F V V V V V V F V V V V V V V V V V V V G Z.W.V V V V V V V V V V V V V V V V V V V V V V V V V V V V V V V V V V V V V V V V V V V V V V V V V V V V V V V V V I C 3 & & & & + b * & & & ",
"p & & & * b @ & & & & 3 C I V V V V V V V V V V V V V V V V V V V V V V V V V V V V V V V V V V V V V V V V V V V V V V V V V V V F V V V V V F V V V V V V V V V V V V V V V V V V V V V H J * & & & * 9   9 * & & & % J F V V V F {.{.{.#+` V V V V V V V V V V G Z.I.V V V V V V V V V V V V V V V V V V V V V V V V V V V V V V V V V V V V V V V V V V V V V V V V V V V V V V V V V I C 3 & & & & @ b * & & & ",
"U & & & * b @ & & & & 3 C I V V V V V V V V V V V V V V V V V V V V V V V V V V V V V V V V V V V V V V V V V V V V V V V V V V V V V V V V V V V V V V V V V V V V V V V V V V V V V V V H J % & & & * 9   9 * & & & % J F V V V S <+{.Z *+{.V V V V V V V V V V t.Z.U.V V V V V V V V V V V V V V V V V V V V V V V V V V V V V V V V V V V V V V V V V V V V V V V V V V V V V V V V V I C 3 & & & & @ a * & & & ",
"U & & & * b @ & & & & @ C I V V V V V V V V V V V V V V V V V V V V V V V V V V V V V V V V V V V V V V V V V V V V V V V V V V V V V V V V V V V V V V V V V V V V V V V V V V V V V V V F J * & & & = d   d & & & & = J F V V V G #+S V Y Z V V F {.}+}+}+}+}+}+<+@+W.V V V V V V V V V V V V V V V V V V V V V V V V V V V V V V V V V V V V V V V V V V V V V V V V V V V V V V V V V I C @ & & & & + b * & & & ",
"U & & & * b @ & & & & 3 C I V V V V V V V V V V V V V V V V V V V V V V V V V V V V F V V V V V V V V V V V V V V V V V V V V V V V V V V V V V V V V V V V V V V V V V V V V V V V V V V H J = & & & & d   9 = & & & = J F V V V V Y ,+*+#+t.V V V N.P.P.P.O.O.P.P.~+W.V V V V V V V V V V V V V V V F V V V V V V V V V V V V V V V V V V V V V V V V V V V V V V V V V V V V V V V V V I C 3 & & & & @ b * & & & ",
"U & & & * b @ & & & & 3 C I V V V V V V V V V V V V V V V V V V V V V V V V V V V V V V V V V V V V V V V V V V V V V V V V V V V V V V V V V V V V V V V V V V V V V V V V V V V V V V V H J = & & & = d   9 * & & & = J F V V V V E Q./.` V V V V Y #+#+#+#+#+#+#.T.W.V V V V V V V V V V V V V V V V V V V V V V V V V V V V V V V V V V V V V V V V V V V V V V V V V V V V V V V V V I C 3 & & & & @ b * & & & ",
"U & & & * b + & & & & 3 C I V V V V V V V V V V V V V V V V V V V V V V V V V V V V V V V V V V V V V V V V V V V V V V V V V V V V V V V V V V V V V V V V V V V V V V V V V V V F V V V F J = & & & * d   9 * & & & = J F V V V S *+*+}+{.V V V V V V V V V V V G Z.W.V V V V V V V V V V V V V V V V V V V V V V V V V V V V V V V V V V V V V V V V V V V V V V V V V V V V V V V V V I C 3 & & & & @ b * & & & ",
"< & & & * b + & & & & 3 C I V V V V V V V V V V V V V V V V V V V V V V V V V V V V V V V V V V V V V V V V V V V V V V V V V V V V V V V V V V V V V V V V V V V V V V V V V V V V V V V F J % & & & = d   9 * & & & = J F V V V S {.{./.Y V V V V V V V V V V F F Z.W.V V V V V V V V V V V V V V V V V V V V V V V V V V V V V V V V V V V V V V V V V V V V V V V V V F V V V V V V V I C 3 & & & & + b * & & & ",
"U & & & * b + & & & & 3 C I V V V V V V V V V V V V V V V V V V V V V V V V V V V V V V V V V V V V V V V V V V V V V V V V V V V V V V V V V V V V V V V V V V V V V V V V V V V V V V V H J * & & & * d   9 * & & & * J F V V V V Y *+<+I V V V V V V V V V V V F Z.W.V V V V V V V V V V V V V V V V V V V V V V V V V V V V V V V V V V V V V V V V V V V V V V V V V V V V V V V V V I C 3 & & & & + b * & & & ",
"U & & & * b + & & & & 3 C I V V V V V V V V V V V V V V V V V V V V V V V V V V V V V V V V V V V V V V V V V V V V V F V V V V V V V V V V V V V V V V V V V V V V V V V V V V V V V V V H J * & & & * d   9 * & & & = J F V V V S *+Y Y F V V V V V V V V V V F G N./.V V V V V V V V V V V V V V V V V V V V V V V V V V V V V V V V V V V V V V V V V V V V V V V V V V V V V V V V V I C 3 & & & & @ b * & & & ",
"U & & & * b 3 & & & & 3 C I V V V V V V V V V V V V V V V V V V V V V V V V V V V V V V V V V V V V V V V V V V V V V V V V V V V V V V V V V V V V V V V V V V V V V V V V V V V V V V V H J = & & & = 9   9 * & & & = J F V V V F #.#+{.t.V V V V V F G F F G F H I S V V V V V V V V V V V V V V V V V V V V V V V V V V V V V V V V V V V V V V V V V V V V V V V V V V V V V V V V V I C 3 & & & & 3 b * & & & ",
"U & & & * b @ & & & & 3 C I V V V V V V V V V V V V V V V V V V V V V V V V V V V V V V V V V V V V V V V V V V V V V V V V V V V V V V V V V V V V V V V V V V V V V V V V V V V V V V V F J * & & & * 9   9 * & & & * J F V V V V |+#+*+{.F F V V /.2+2+2+2+=+2+2+=+#.V V V V V V V V V V V V V V V V V V V V V V V V V V V V V V V V V V V V V V V V V V V V V V V V V V V V V V V V V I C @ & & & & 3 ] * & & & ",
"U & & & * b @ & & & & 3 C I V V V V V V V V V V V V V V V V V V V V V V V V V V V V V V V V V V V V V V V V V V V V V V V V V V V V V F V V V V V V V V V V V V V V V V V V V V V V V V F F J = & & & * 9   9 * & & & % J F V V V G #+#+}+/.6.V V V S.O.T.T.&+&+@+@+O.W.V V V V V V V V V V V V V V V V V V V V V V V V V V V V V V V V V V V V V V V V V V V V V V V V V V V V V V V V V I C 3 & & & & + a * & & & ",
"p & & & * b @ & & & & 3 C I V V V V V V V V V V V V V F V V V V V V V V V V V V V V V V V V V V V V V V V V V V V V V V V V V V V V V V V V V V V V V V V V V V V V V V V V V V V V V V V H J * & & & * 9   9 * * & & % J H V V V H {.S {.E V V V V S.S.I S Q.T.E E ++W.V V V V V V V V V V V V V V V V V V V V V V V V V V V V V V V V V V V V V V V V V V V V V V V V V V V V V V V V V I C 3 & & & & 3 / * & & & ",
"U & & & * b @ & & & & 3 C I V V V V V V V V V V V V V V V V V V V V V V V V V V V V V V V V V V V V V V V V V V V V V V V V V V V V V V V V V V V V V V V V V V V V V V V V V V V V V V V H J = & & & * 9   9 * & & & * J H V V V S {.#+}+;.V V V G `.N.G V <+T.S G Z.W.V V V V V V V V V V V V V V V V V V V V V V V V V V V V V V V V V V V V V V V V V V V V V V V V V V V V V V V V V I C 3 & & & & 3 a * & & & ",
"U & & & * b @ & & & & 3 C I V V V V V V V V V V V V V V V V V V V V V V V V V V V V V V V V V V V V V V V V V V V V V V V V V V V V V V V V V V V V V V V V V V F V V V V V V V V V V V V F J * & & & * 9   9 * & & & * J H V V V G #+*+X E G G V V `.Y.V V /.++S F Z.W.V V V V V V V V V V V V V V V V V V V V V V V V V V V V V V V V V V V V V V V V V V V V V V V V V V V V V V V V V I C 3 & & & & + a * & & & ",
"U & & & * b @ & & & & 3 C I V V V V V V V V V F V V V V V V V V V V V V V V V V V V V V V V V V V V V V V V V V V V V V V V V V V V V V V V V V V V V V V V V V V V V V V V V V V V V V V H J % & & & * 9   9 = & & & % J H V V V V {.}+#+t.G G G V `.Y.V G /.++S F Z.W.V V V V V V V V V V V V V V V V V V V V V V V V V V V V V V V V V V V V V V V V V V V V V V V V V V V V V V V V V I C 3 & & & & @ / * & & & ",
"U & & & * a + & & & & 3 C I V V V V V V V V V V V V V V V V V V V V V V V V V V V V V V V V V V V V V V V V V V V V V V V V V V V V V V V V V V V V V V V V V V V V V V V V V V V V V V V H J * & & & = 9   9 * & & & = J F V V V S #+S {.{.G V V V `.Y.V V /.Z.S F .+W.V V V V V V V V V V V V V V V V V V V V V V V V V V V V V V V V V V F V V V V V V V V V V V V V V V V V V V V V V I C 3 & & & & @ a * & & & ",
"U & & & & / @ & & & & 3 C I V V V V V V V V V V V V V V V V V V V V V V V V V V V V V V V V V V V V V V V V V V V V V V V V V V V V V V V V V V V V V V V V V V V V V V V V V V V V V V V F J % & & & * 9   9 * & & & % J F V V V H ;.G E Y G V V G `.Y.G V R T.G H Z.U.V V V V V V V V V V V V V V V V V V V V V V V V V V V V V V V V V V V V V V V V V V V V V V V V V V V V V V V V V I C 3 & & & & + a * & & & ",
"p & & & * b @ & & & & 3 C I V V V V V V V V V V V V V V V V V V V V V V V V F V V V V V V V V V V V V V V V V V V V V V V V V V V V V V V V V V V V V V V V V V V V V V V V V V V V V V V S J * & & & * d   d * & & & % J F V V V V ;.;+}+#.E V V F S.Y.V V <+Z.H F Z.W.V V V V V V V V V V V V V V V V V V V V V V V V V V V V V V V V V V V V V V V V V V V V V V V V V V V V V V V V V I C 3 & & & & + / & & & & ",
"U & & & * b + & & & & 3 C I V V V V V V V V V V V V V V V V V V V V V V V V V V V V V V V V V V V V V V V V F V V V V V V V V V V V V V V V V V V V V V V V V V V V V V V V V V V V V V V H J % & & & = d   d * & & & * J F V V V V t.t.{.{.G V V G }+,+V F E ;.F G /.*+V V V V V V V V V V V V V V V V V V V V V V V V V V V V V V V V V V V V V V V V V V V V V V V V V V V V V V V V V I C @ & & & & @ a * & & & ",
"U & & & * b @ & & & & 3 C I V V V V V V V V V V V V V V V V V V V V V V V V V V V V V V V V V V V V V V V V V V V V V V V V V V V V V V V V V V V V V V V V V V V V V V V V V V V V V V V F J % & & & = d   d * & & & % J F V V V F {.}+}+E V V V V F V F F G F G F F V V V V V V V V V V V V V V V V V V V V V V V V V V V V V V V V V V V V V V V V V V V V V V V V V V V V V V V V V V I C @ & & & & 3 ] * & & & ",
"U & & & * b @ & & & & @ C I V V V V V V V V V V V V V V V V V V V V V V V V V V V V V V V V V V V V V V V V V V V V V V V V V V V V V V V V V V V V V V V V V V V V V V V V V V V V V V V F J * & & & * d   d = & & & * J F V V V V {.}+}+,+E V V V H /.-+-+-+`.-+`.#.G V V V V V V V V V V V V V V V V V V V V V V V V V V V V V V V V V V V V V V V V V V V V V V V V V V V V V V V V V I C 3 & & & & + a * & & & ",
"< & & & * b @ & & & & 3 C I V V V V V V V V V V V V V V V V V V V V V V V V V V V V V V V V V V V V V V V V V V V V V V V V V V V V V V V V V V V V V V V V V V V V V V V V V V V V V V V H J * & & & * d   d * & & & % J F V V V V #+,+Y Y H V V V ,+&+V.$+@+%+%+&+V.{.V V V V V V V V V V V V V V V V V V V V V V V V V V V V V V V V V V V V V V V V V V V V V V V V V V V V V V V V V I C 3 & & & & @ b * & & & ",
"U & & & * a @ & & & & 3 C I V V V V V V V V V V V V V V V V V V V V V V V V V V V V V V V V V V V V V V V V V V V V V V V V V V V V V V V V V V V V V V V V V V V V V V V V V V V V V V V H J % & & & * d   d = & & & * J F V V V I 1+,+{.;.V V V V N..+L M E ` E ;.T.<+V V V V V V V V V V V V V V V V V V V V V V V V V V V V F V V V V V V V V V V V V F V V V V V V V V V V V V V V V I C 3 & & & & @ b * & & & ",
"U & & & * a + & & & & 3 C I V V V V V V V V V V V V V V V V V V V V V V V V V V V V V V V V V V V V V V V V V V V V V V V V V V V V V V V V V V V V V V V V V V V V V V V V V V V V V V V F J * & & & = d   d = & & & % J H V V V H /.Q.Q.;.V V F F `.`.V V V V V H Z.W.V V V V V V V V V V V V V V V V V V V V V V V V V V V V V V V V V V V V V V V V V V V V V V V V V V V V V V V V V I C 3 & & & & @ b * & & & ",
"U & & & * / @ & & & & 3 C I V V V V V V V V V V V V V V V V V V V V V V V V V V V V V V V V V V V V V V V V V V V V V V V V V V V V V V V V V V V V V V V V V V V V V V V F V V V V V V V F J % & & & * d   d * & & & * J H V V V V {.}+*+t.V V V V `.`.V V V V V H Z.W.V V V V V V V V V V V V V V V V V V V V V V V V V V V V V V V V V V V V V V V V V V V V V V V V V V V V V V V V V I C 3 & & & & @ b * & & & ",
"< & & & * b @ & & & & @ C I V V V V V V V V V V V V V V V V V V V V V V V V V V V V V V V V V V V V V V V V V V V V V V V V V V V V V V V V V V V V V V V V V V V V V V V V V V V V V V V F J * & & & = d   d * & & & = J F V V V G Y {.*+Y G V V G `.Y.V V V V V H Z.W.V V V V V V V V V V V V V V V V V V V V V V V V V V V V V V V V V V V V V V V V V V V V V V V V V V V V V V V V V I C 3 & & & & + a * & & & ",
"U & & & * b @ & & & & 3 C I V V V V V V V V V V V V V V V V V V V V V V V V V V V V V V V V V V V V V V V V V V V V V V V V V V V V V V V V V V V V V V V V V V V V V V V V V V V V V V V H J % & & & * d   d = & & & = J F V V V V E X #+{.G G V G `.Y.V V V V V H Z.U.V V V V V V V V V V V V V V V V V V V V V V V V V V V V V V V V V V V V V V V V V V V V V V V V V V V V V V V V V I C 3 & & & & + ] * & & & ",
"U & & & * b @ & & & & 3 C I V V V V V V V V V V V V V V V V F V V V V V V V V V V V V V V V V V V V V V V V V V V V V V V V V V V V V V V V V V V V V V V V V V V V V V V V V V V V V V V H J * & & & = d   d & & & & = J F V V V V {.}+*+S V V V V `.Y.V V V V V H Z.W.V V V V V V V V V V V V V V V V V V V V V V V V V V V V V V V V V V V V V V V V V V V V V V V V V V V V V V V V V I C 3 & & & & @ b * & & & ",
"U & & & * b @ & & & & 3 C I V V V V V V V V V V V V V V V V V V V V V V V V V V V V V V V V V V V V V V V V V V V V V V V V V V V V V V V V V V V V V V V V V V V V V V V V V V V V V V V F J = & & & & d   d = & & & = J F V V V F *+*+,+E G V V V `.`.V V V V V H Z.W.V V V V V V V V V V V V V V V V V V V V V V V V V V V V V V V V V V V V V V V V V V V V V V V V V V V V V V V V V I C 3 & & & & @ b * & & & ",
"< & & & * b 3 & & & & 3 C I V V V V V V V V V V V V V V V V V V V V V V V V V V V V V V V V V V V V V V F V V V V V V V V V V V V V V V V V V V V V V V V V V V V V V V V V V V V V V V V F J = & & & * d   d * & & & = J F F V V I *+t.;.#+V V V G `.Y.V V V V V G Z.W.V V V V V V V V V V V V V V V V V V V V V V V V V V V V V V V V V V V V V V V V V V V V V V V V V V V V V V V V V I C 3 & & & & @ b * & & & ",
"U & & & * b + & & & & 3 C I V V V V V V V V V V V V V V V V V V V V V V V V V V V V V V V V V V V V V V V V V V V V V V V V V V V V V V V V V V V V V V V V V V V V V V V V V V V V V V F F J * & & & * d   d = & & & * J F V V V V {.#+#+#.E G V F #+#+V V V V V G ,+{.V V V V V V V V V V V V V V V V V V V V V V F V V V V V V V V V V V V V V V V V V V V V V V V V V V V V V V V V V I C @ & & & & @ b * & & & ",
"U & & & * b + & & & & 3 C I V V V V V V V V V V V V V V V V V V V V V V V V V V V V V V V V V V V V V V V V V V V V V V V V V V V V V V V V V V V V V V V V V V V V V V V V V V V V V V V H J * & & & & 9   d = & & & * J F V V V V F F V V V V V V V V V V V V V V V V V V V V V V V V V V V V V V V V V V V V V V V V V V V V V V V V V V V V V V V V V V V V V V V V V V V V V V V V V I C @ & & & & + b * & & & ",
"U & & & * b + & & & & 3 C I V V V V V V V V V V V V V V V V V V V V V V V V V V V V V V V V V V V V V V V V V V V V V V V V V V V V V V V V V V V V V V V V V V V V V V V V V V V V V V V H J = & & & = 9   d & & & & = J F V V V V V V V V V V V V V V V V V V V V V V V V V V V V V V V V V V V V V V V V V V V V V V V V V V V V V V V V V V V V V V V V V V V V V V V V V V V V V V V I C 3 & & & & + b * & & & ",
"p & & & * b + & & & & 3 C I V V V V V V V V V V V V V V V V V V V V V V V V V V V V V V V V V V V V V V V V V V V V V V V V V V V V V V V V V V V V V V V V V V V V V V V V V V V V V V V F J * & & & * d   d = & & & * J F V V V V V V V V V V V V V V V V V V V V V V V V V V V V V V V V V V V V V V V V V V V V V V V V V V V V V V V V V V V V V V V V V V V V V V V V V V V V V V V I C 3 & & & & 3 a * & & & ",
"U & & & * ] @ & & & & 3 C I V V V V V V V V V V V V V V V V V V V V V V V V V V V V V V V V V V V V V V V V V V V V V V V V V V V V V V V V V V V V V V V V V V V V V V V V V V V V V V V F J % & & & * d   d * & & & = J H V V V V V V V V V V V V V V V V V V V V V V V V V V V V V V V V V V V V V V V V V V V V V V V V V V V V V V V V V V V V V V V V V V V V V V V V V V V V V V V I C + & & & & + / * & & & ",
"U & & & * a + & & & & 3 C I V V V V V V V V V V V V V V V V V V V V V V V V V V V V V V V V V V V V V V V V V V V V V V V V V V V V V V V V V V V V V V V V V V V V V V V V V V V V V V V H J * & & & * d   d * & & & = J H V V V V V V V V V V V V V V V V V V V V V V V V V V V V V V V V V V V V V V V V V V V V V V V V V V V V V V V V V V V V V V V V V V V V V V V V V V V V V V V I C 3 & & & & @ a * & & & ",
"U & & & * a @ & & & & 3 C I V V V V V V V V V V V V V V V V V V V V V V V V V V V V V V V V V V V V V V V V V V V V V V V V V V V V V V V V V V V V V V V V V V V V V V V V V V V V V V V F J % & & & * d   d * & & & * J F V V V V V V V V V V V V V V V V V V V V V V V V V V V V V V V V V V V V V V V V V V V V V V V V V V V V V V V V V V V V V V V V V V V V V V V V V V V V V V V S C 3 & & & & 3 b * & & & ",
"U & & & * b @ & & & & 3 C I V V V V V V V V V V V V V V V V V V V V V V V V V V V V V V V V V V V V V V V V V V V V V V V V V V V V V V V V V V V V V V V V V V V V V V V V V V V V V V V H J % & & & = d   d * & & & * J F V V V V V V V V V V V V V V V V V V V V V V V V V V V V V V V V V V V V V V V V V V V V V V V V V V V V V V V V V V V V V V V V V V V V V V V V V V V V V V V I C 3 & & & & + a * & & & ",
"$ & & & * b @ & & & & 3 C I V V V V V V V V V V V V V V V V V V V V V V V V V V V V V V V V V V V V V V V V V V V V V V V V V V V V V V V V V V V V V V V V V V V V V V V V V V V V V V V H J * & & & * d   d = & & & % J F V V V V V V V V V V V V V V V V V V V V V V V V V V V V V V V V V V V V V V V V V V V V V V V V V V V V V V V V V V V V V V V V V V V V V V V V V V V V V V V I C 3 & & & & 3 / * & & & ",
"@ & & & * b + & & & & 3 x Z E E L E E E L E L X E X Y E E X E Y X E E E Y X E X E X E E X E E X E E Y E E X E E L L E E Y E E X E X E E X E E X E E Y E E X E Y X E E X E E X X X X X X E &.K % & & & * d   d * & & & = K E F I I I I I I H I I t.I I I S I I I I I S I S I S I S I I S I S I I J.I S I M S S I I I I S I I J.I I I I S I S I S S I I S I S S I I I I I I S M S S I S S S X w + & & & & 3 a * & & & ",
"3 & & & * b @ & & & & 3 z y y w y y y y y y y B w w y y y y B w y B w w w B w y w y y y y y y y w w y y y y w w y B w w w w w y y w y y y y y y w w y y y y B w y B w w w w y y B y B B w y u = & & & & d   d * & & & 0.u $+t t t ++t t t t t t '+$+t t t t t t t t t t t t t t t t t t t t t t t t t t t t t t t t t t t t t t t t t t t t t t t t t t t t t t t t t t t t t t t t t t t s O $ & & & & + a * & & & ",
"3 & & & * b 3 & & & & - , g g g g j g g g g g g g g g g g j g g g g g g g g g g g g g g g g g g g k g g g g g g g g j j g j j g j j g g g g g g g g g g g j g g g g g g g g g j g j g g g g l & & & & = d   d * & & & & , ] a a a a a a a a a a a a c a a ] a a u b c a a a a a a a a a a a a a a a a a a a a a ] u a a a a a a a ] a a a a a a a a c a c u a a a a a a a a a a a a a a a a | - & & & & + b * & & & ",
"< & & & * b + & & & & & & & & & & & & & & & & & & & & & & & & & & & & & & & & & & & & & & & & & & & & & & & & & & & * & & & & & & & & & & & & & & & & & & & & & & & & & & & & & & & & & & & & & & & & * d   d * & & & & & = * & & * & & * * * & * * >+& & & * * & & 0.* * & >+* * * & & * * * & & >+& * >+& * & & * * & >+* & & * & & & * * * & * * * * * * * * ; & & & & * * * & >+* & 0.* * & & & & & 3 a * & & & ",
"< & & & * b + & & & & & & & & & & & & & & & & & & & & & & & & & & & & & & & & & & & & & & & & & & & & & & & & & & & & & & & & & & & & & & & & & & & & & & & & & & & & & & & & & & & & & & & & & & & & * d   9 & & & & & & & & & & & & & & & & & & & & & & & & & & & & & & & & & & & & & & & & & & & & & & & & & & & & & & & & & & & & & & & & & & & & & & & & & & & & & & & & & & & & & & & & & & & & & + / * & & & ",
"3 & & & & b + & & & & & & & & & & & & & & & & & & & & & & & & & & & & & & & & & & & & & & & & & & & * & & & & & & & & & & & & & & & & & & & & & & & & & & & & & & & & & & & & & & & & & & & & & & & & * d   9 = & & & & & & & & & & & & & & & ; & & & & & & & & & & & & & & & & & & & & & & & & & & & & & & & & & & & & & & & & & & & & & & & & ; & & & & & & & & * & & & & & & & & & & & & & & & & & & + a * & & & ",
"+ & & & * ( a , ' ' ' l = & & & & & & & & & & & & & & & & & & & & & & & & & & & & & & & & & & & & & & & & & & & & & & & & & & & & & & & & & & & & & & & & & & & & & & & & & & & & & & & & & & & & & & = d   9 * & & & & & & & & & & & & & & & & & & & & & * & & & & & & & & & & & & & & & & & & & & & * & & & & & & & & & & & & & & & & & & & & & & & & & & & & & & & & & & & & & & & & & & * # . 2 2 . j / * & & & ",
"+ & & & & 4 { ~ { ~ ! 0 % & & & & & & & & & & & & & & & & & & & & & & & & & & & & & & & & & & & & & & & & & & & & & & & & & & & & & & & & & & & & & & & & & & & & & & & & & & & & & & & & & & & & & & & d   9 = & & & & & & & & & & & & & & & & & & & & & & & & & & & & & & & & & & & & & & & & & & & & & & & & & & & & & & & & & & & & & & & & & & & & & & & & & & & & & & & & & & & & & & % d ~ ) ~ ) ! 6 & & & & ",
"$ & & & * 4 q { { { { h = & & & & & & & & & & & & & & & & ; & & & & & & & & & ; & & & & & & & & & & & & & & & & & & & & & & & & & & & & & & & & & & & & & & & & & & & & & & & & & & & & & & & & & & & * 9   9 * & & & & & & & & & & & & & & & & & & & & & & & & & & & & & & & & & & & & & & & & & & & & & & & & & & & & & & & & & & & & & & & & & & & & & & & & & & & & & & & & & & & & & & - h { { { { : 4 & & & & ",
"< & & & & 1 : { { { { 0 - & & & & & & & & & & & & & & & & & & & & & & & & & & & & & & & & & & & & & & & & & & & & & & & & & & & & & & & & & & & & & & & & ; & & & & & & & & & & & & * & & & & & & & & * 9   9 * & & & & & & & & & & & & & & & & & & & & & & & & & & & & & & & & & & & & & & & & & & & & & & & & & & & & & & & & & & & & & & & & & & & & & & & * & & & & & & & & & & & & & & = 0 { { { { { 1 * & & & ",
"+ & & & & 6 : ! { ! o h = & & & & & & & & & & & & & & & & & & & & & & & & & & & & & & & & & & & & & & & & & & & & & & & & & & & & & & & & & & & & & & & & & & & & & & & & & & & & & & & & & & & & & & * d   d * & & & & & & & & & & & & & & & & & & & & & & & & & & & & & & & & & & & & & & & & & & & & & & & & & & & & & & & & & & & & & & & & & & & & & & & & & & & & & & & & & & & & & & % 0 { { { ! : 1 & & & & ",
"> $ + + + A i : : { : ^ + + < + + + + + + + + + + + + + + + + + 3 $ @ + 3 + + 3 + + + + + + 3 3 + + $ + + + + + + < + + + + + $ + + + + + + + + 3 3 3 + + + + + + 3 @ @ 3 + + 3 + + + + + + 3 3 + 3 3 + 0   0 < - - < < < < < - < < < < < - < < < - < < < - < < < - < < < < < - < < < < < - < < < < < < - < < < < < - < < < < - < < - < < < - < < < < < < < < < < < < < < < < < < < < < < < + h : : { ! i 1 $ < - - "};
