/* XPM */
static char * 1_xpm[] = {
"380 379 122 2",
"  	c #3E3526",
". 	c #5E4325",
"+ 	c #68522B",
"@ 	c #6B4925",
"# 	c #755835",
"$ 	c #78572B",
"% 	c #846335",
"& 	c #967240",
"* 	c #B48D55",
"= 	c #564622",
"- 	c #363725",
"; 	c #312914",
"> 	c #393127",
", 	c #31291F",
"' 	c #6C491F",
") 	c #3A2804",
"! 	c #171008",
"~ 	c #615A54",
"{ 	c #6C6357",
"] 	c #655A4A",
"^ 	c #696452",
"/ 	c #594B41",
"( 	c #514B45",
"_ 	c #36241D",
": 	c #282118",
"< 	c #1E170C",
"[ 	c #181710",
"} 	c #1A0F10",
"| 	c #210F04",
"1 	c #211806",
"2 	c #29180F",
"3 	c #110E03",
"4 	c #0F0907",
"5 	c #42392F",
"6 	c #59524C",
"7 	c #4B3716",
"8 	c #716C59",
"9 	c #7C6C62",
"0 	c #726B65",
"a 	c #797361",
"b 	c #7D766F",
"c 	c #6A5A51",
"d 	c #4B4238",
"e 	c #332929",
"f 	c #31312A",
"g 	c #443015",
"h 	c #84736A",
"i 	c #877B6A",
"j 	c #847263",
"k 	c #726359",
"l 	c #62534A",
"m 	c #433029",
"n 	c #54493A",
"o 	c #5D5242",
"p 	c #8C7B72",
"q 	c #3A3131",
"r 	c #414230",
"s 	c #211819",
"t 	c #8B847E",
"u 	c #8D7A6B",
"v 	c #4B4132",
"w 	c #4C3831",
"x 	c #968374",
"y 	c #8A8471",
"z 	c #54494A",
"A 	c #4C4142",
"B 	c #2A2121",
"C 	c #988D7B",
"D 	c #97867C",
"E 	c #6B5A4C",
"F 	c #232116",
"G 	c #52524A",
"H 	c #7C6A5C",
"I 	c #4B4A43",
"J 	c #5C5152",
"K 	c #43423B",
"L 	c #3A3932",
"M 	c #423839",
"N 	c #746354",
"O 	c #55462F",
"P 	c #837B63",
"Q 	c #8C846C",
"R 	c #453620",
"S 	c #928266",
"T 	c #A38874",
"U 	c #9C947C",
"V 	c #2A210D",
"W 	c #515340",
"X 	c #392918",
"Y 	c #130F00",
"Z 	c #948C74",
"` 	c #52391F",
" .	c #A99586",
"..	c #9E9684",
"+.	c #9D8D70",
"@.	c #A89C84",
"#.	c #8D7260",
"$.	c #A59578",
"%.	c #B4A68D",
"&.	c #605238",
"*.	c #675E47",
"=.	c #3A290D",
"-.	c #837458",
";.	c #A99774",
">.	c #746B53",
",.	c #381F0C",
"'.	c #30210F",
").	c #655A5A",
"!.	c #494A38",
"~.	c #595A47",
"{.	c #2A2922",
"].	c #513926",
"^.	c #554547",
"/.	c #635254",
"(.	c #482C1C",
"_.	c #221700",
":.	c #282927",
"<.	c #171816",
"[.	c #20211F",
"}.	c #30322F",
"|.	c #383937",
"1.	c #0F110D",
"  . . . . . . . . . . . . . . . . . . . . . . . . . . . . . . . . . . . . . . + + . . + + @ @ . . + + @ @ + + @ @ + + + + # # # # $ $ # # # # $ $ # # $ $ % % $ $ % % # # % % % % % % % % % % % % & & % % & & % % & & % % & & % % & & % % & & & & & & & & & & & & & & & & & & & & & & & & & & & & * * & & * * & & * * * * * * * * * * * * * * * * * * * * * * * * * * * * * * * * * * * * * * * * * * * * * * * * * * * * * * * * * * * * * * * * * * * * * * & & * * & & * * & & & & & & & & & & & & & & & & & & & & & & & & & & & & & & & & & & & & & & & & % % & & % % % % % % % % % % % % $ $ % % $ $ $ $ $ $ $ $ $ $ $ $ # # $ $ # # $ $ # # $ $ # # # # $ $ # # $ $ # # + + # # + + # # + + # # + + + + @ @ + + @ @ + + @ @ + + . . + + . . @ @ . . . . + + . . @ @ . = = = - - ; ",
"> . . . . . . . . . . . . . . . . . . . . . . . . . . . . . . . . . . + + . . @ @ . . + + @ @ + + @ @ + + @ @ + + + + # # # # # # # # $ $ # # $ $ # # $ $ $ $ % % $ $ % % $ $ % % % % % % % % & & % % & & % % & & % % & & % % & & % % & & & & & & & & & & & & & & & & & & & & & & & & & & & & & & & & * * & & * * * * * * * * * * * * * * * * * * * * * * * * * * * * * * * * * * * * * * * * * * * * * * * * * * * * * * * * * * * * * * * * * * * * * * & & * * & & & & & & & & & & & & & & & & & & & & & & & & & & & & & & & & & & & & & & & & % % & & % % & & % % & & % % % % % % % % $ $ % % $ $ $ $ $ $ $ $ $ $ $ $ # # $ $ # # $ $ # # # # $ $ # # $ $ # # $ $ # # + + $ $ @ @ + + + + # # + + # # @ @ + + @ @ + + . . + + . . @ @ . . . . + + . . @ @ . . . . + + . . . . > >   ",
"  . . . . . . . . . . . . . . . . . . . . . . . . . . . . . . . . . . + + . . @ @ . . + + @ @ + + @ @ + + @ @ + + + + # # # # # # # # $ $ # # $ $ # # $ $ $ $ % % $ $ % % $ $ % % % % % % % % & & % % & & % % & & % % & & % % & & % % & & & & & & & & & & & & & & & & & & & & & & & & & & & & & & & & * * & & * * * * * * * * * * * * * * * * * * * * * * * * * * * * * * * * * * * * * * * * * * * * * * * * * * * * * * * * * * * * * * * * * * * * * * & & * * & & & & & & & & & & & & & & & & & & & & & & & & & & & & & & & & & & & & & & & & % % & & % % & & % % & & % % % % % % % % $ $ % % $ $ $ $ $ $ $ $ $ $ $ $ # # $ $ # # $ $ # # # # $ $ # # $ $ # # $ $ # # + + $ $ @ @ + + + + # # + + # # @ @ + + @ @ + + . . + + . . @ @ . . . . + + . . @ @ . . . . + + . . . . > >   ",
"  . . . . . . . . + + . . + + . . + + . . + + . . + + @ @ + + @ @ $ $ @ @ $ $ + + # # + + # # + + # # + + # # + + # # + + # # $ $ # # $ $ # # $ $ # # $ $ $ $ # # $ $ $ $ $ $ $ $ % % $ $ % % % % % % % % & & % % & & % % & & & & & & & & & & & & & & & & & & & & & & & & & & & & & & & & & & & & * * & & * * * * * * * * * * * * * * * * * * * * * * * * * * * * * * * * * * * * * * * * * * * * * * * * * * * * * * * * * * * * * * * * * * * * * * * * * * * * * * & & * * & & & & & & & & & & & & & & & & & & & & & & & & & & & & & & & & & & & & % % & & % % % % % % % % % % % % % % % % % % % % $ $ % % $ $ % % $ $ % % $ $ $ $ $ $ $ $ $ $ $ $ # # $ $ $ $ $ $ $ $ $ $ $ $ $ $ $ $ # # $ $ $ $ + + $ $ + + # # + + + + @ @ + + @ @ + + . . + + . . . . + + . . + + . . . . >   , ",
"  . . . . . . . . + + . . + + . . + + . . + + . . + + @ @ + + @ @ $ $ @ @ $ $ + + # # + + # # + + # # + + # # + + # # + + # # $ $ # # $ $ # # $ $ # # $ $ $ $ # # $ $ $ $ $ $ $ $ % % $ $ % % % % % % % % & & % % & & % % & & & & & & & & & & & & & & & & & & & & & & & & & & & & & & & & & & & & * * & & * * * * * * * * * * * * * * * * * * * * * * * * * * * * * * * * * * * * * * * * * * * * * * * * * * * * * * * * * * * * * * * * * * * * * * * * * * * * * * & & * * & & & & & & & & & & & & & & & & & & & & & & & & & & & & & & & & & & & & % % & & % % % % % % % % % % % % % % % % % % % % $ $ % % $ $ % % $ $ % % $ $ $ $ $ $ $ $ $ $ $ $ # # $ $ $ $ $ $ $ $ $ $ $ $ $ $ $ $ # # $ $ $ $ + + $ $ + + # # + + + + @ @ + + @ @ + + . . + + . . . . + + . . + + . . . . >   , ",
"> . . . . . . . . . . + + . . + + @ @ + + @ @ + + @ @ + + @ @ + + + + $ $ + + # # + + # # + + $ $ + + $ $ + + + + + + # # $ $ # # $ $ # # $ $ $ $ # # $ $ $ $ % % $ $ % % $ $ % % % % % % % % & & % % & & % % & & % % & & & & & & & & & & & & & & & & & & & & & & & & & & & & & & & & & & & & * * * * * * * * * * * * * * * * * * * * * * * * * * * * * * * * * * * * * * * * * * * * * * * * * * * * * * * * * * * * * * * * * * * * * * * * * * * * * * * * * * * * * * & & & & & & & & & & & & & & & & & & & & & & & & & & & & & & & & & & & & % % & & % % & & % % % % % % % % % % % % % % % % % % % % $ $ % % $ $ % % $ $ % % $ $ $ $ $ $ $ $ # # $ $ ' ' $ $ $ $ $ $ $ $ $ $ $ $ # # $ $ $ $ + + $ $ + + $ $ + + + + + + + + @ @ + + . . + + . . + + + + . . + + . . . = = . > - - ",
"  . . . . . . . . . . + + . . + + @ @ + + @ @ + + @ @ + + @ @ + + + + $ $ + + # # + + # # + + $ $ + + $ $ + + + + + + # # $ $ # # $ $ # # $ $ $ $ # # $ $ $ $ % % $ $ % % $ $ % % % % % % % % & & % % & & % % & & % % & & & & & & & & & & & & & & & & & & & & & & & & & & & & & & & & & & & & * * * * * * * * * * * * * * * * * * * * * * * * * * * * * * * * * * * * * * * * * * * * * * * * * * * * * * * * * * * * * * * * * * * * * * * * * * * * * * * * * * * * * * & & & & & & & & & & & & & & & & & & & & & & & & & & & & & & & & & & & & % % & & % % & & % % % % % % % % % % % % % % % % % % % % $ $ % % $ $ % % $ $ % % $ $ $ $ $ $ $ $ # # $ $ ' ' $ $ $ $ $ $ $ $ $ $ $ $ # # $ $ $ $ + + $ $ + + $ $ + + + + + + + + @ @ + + . . + + . . + + + + . . + + . . = = . . > -   ",
"> . . . . . . + + . . . . + + @ @ + + @ @ + + @ @ + + @ @ + + @ @ + + + + # # + + # # + + # # # # # # + + # # + + # # + + # # # # # # # # $ $ # # $ $ $ $ $ $ $ $ % % $ $ % % % % % % % % % % % % & & % % & & % % % % & & & & & & & & & & & & & & & & & & & & & & & & & & & & & & & & & & & & & & * * & & * * * * * * * * * * * * * * * * * * * * * * * * * * * * * * * * * * * * * * * * * * * * * * * * * * * * * * * * * * * * * * * * * * * * * * * * * * * * * * & & & & & & & & & & & & & & & & & & & & & & & & & & & & & & & & & & & & & & & & % % % % & & % % % % & & % % & & % % % % % % % % $ $ % % $ $ % % $ $ % % $ $ # # # # # # # # # # # # $ $ $ $ $ $ $ $ # # $ $ # # $ $ # # $ $ # # + + # # + + # # @ @ + + @ @ + + . . + + . . + + . . . . + + . . + + . . . . >   , ",
"> . . . . . . + + . . . . + + @ @ + + @ @ + + @ @ + + @ @ + + @ @ + + + + # # + + # # + + # # # # # # + + # # + + # # + + # # # # # # # # $ $ # # $ $ $ $ $ $ $ $ % % $ $ % % % % % % % % % % % % & & % % & & % % % % & & & & & & & & & & & & & & & & & & & & & & & & & & & & & & & & & & & & & & * * & & * * * * * * * * * * * * * * * * * * * * * * * * * * * * * * * * * * * * * * * * * * * * * * * * * * * * * * * * * * * * * * * * * * * * * * * * * * * * * * & & & & & & & & & & & & & & & & & & & & & & & & & & & & & & & & & & & & & & & & % % % % & & % % % % & & % % & & % % % % % % % % $ $ % % $ $ % % $ $ % % $ $ # # # # # # # # # # # # $ $ $ $ $ $ $ $ # # $ $ # # $ $ # # $ $ # # + + # # + + # # @ @ + + @ @ + + . . + + . . + + . . . . + + . . + + . . = . >   , ",
"> . . . . @ @ . . . . . . @ @ . . @ @ . = @ @ . . + + @ @ + + @ @ + + @ @ . . + + . . + + @ @ + + @ @ # # + + # # + + # # # # # # $ $ # # $ $ # # $ $ $ $ $ $ # # $ $ $ $ $ $ $ $ $ $ $ $ $ $ % % % % % % % % % % % % & & % % % % % % & & % % & & & & & & & & & & & & & & & & & & & & & & & & & & & & & & & & & & & & & & & & * * * * * * * * * * * * * * * * * * * * * * * * * * * * * * * * * * * * * * * * * * * * * * * * * * * * * * & & * * & & & & & & * * & & & & & & & & & & & & & & & & & & & & & & & & & & & & % % % % % % % % % % & & % % % % % % % % % % % % % % % % % % % % $ $ % % $ $ $ $ $ $ $ $ $ $ $ $ # # $ $ $ $ # # $ $ # # + + # # + + $ $ + + $ $ + + $ $ @ @ $ $ @ ' + + @ @ + + + + @ @ + + @ @ . . . . @ @ . . @ @ . . @ @ + + + + . . + + . . . = = . - -   ",
"> . . . . @ @ . . . . . . @ @ . . @ @ . . @ @ . . + + @ @ + + @ @ + + @ @ . . + + . . + + @ @ + + @ @ # # + + # # + + # # # # # # $ $ # # $ $ # # $ $ $ $ $ $ # # $ $ $ $ $ $ $ $ $ $ $ $ $ $ % % % % % % % % % % % % & & % % % % % % & & % % & & & & & & & & & & & & & & & & & & & & & & & & & & & & & & & & & & & & & & & & * * * * * * * * * * * * * * * * * * * * * * * * * * * * * * * * * * * * * * * * * * * * * * * * * * * * * * & & * * & & & & & & * * & & & & & & & & & & & & & & & & & & & & & & & & & & & & % % % % % % % % % % & & % % % % % % % % % % % % % % % % % % % % $ $ % % $ $ $ $ $ $ $ $ $ $ $ $ # # $ $ $ $ # # $ $ # # + + # # + + $ $ + + $ $ + + $ $ @ ' $ $ @ ' + + @ @ + + + + @ @ + + @ @ . . . . @ @ . . @ @ . . @ @ + + + + . . + + . . . = . . > - - ",
"> . . . . . . = = = . ) ) ! ! ~ ~ { { ] ] ^ ^ / / / (           > > - , ,     _ _ : : ! ! ! ! ! ! ! ! ! ! ! ! ! ! ! ! ! ! < < ! ! ! ! ! ! ! ! ! ! ! ! ! ! ! ! ! ! [ [ [ } | | ! ! < < ! ! ! ! ! ! ! ! ! ! ! ! ! ! ! ! ! ! ! ! < < < < ! ! [ [ ! ! 1 < [ } ! ! ! ! [ [ } ! < 1 ! ! < < ! ! < < ! ! < 1 ! ! < < ! ! < < ! ! < 1 ! ! < 1 ! ! 1 1 ! ! < 1 ! ! 1 1 ! ! 1 1 ! ! < < ! ! 1 1 | | 1 1 | | | 1 | | 1 | | | 1 | | | | 1 | | 1 1 | | 1 1 | | 1 1 1 | | < ! ! < < ! ! < 1 ! ! 1 | ! ! | 1 ! ! < < ! ! 1 1 | 1 2 2 | | 1 < | | ! ! ! ! < < ! ! [ [ } ! } ! ! ! < [ 3 3 } ! } ! } } ! } } [ [ } ! < ! ! < [ 3 ! < [ 3 ! ! ! ! ! [ [ ! ! ! ! ! ! ! [ 4 4 ! ! ! ! ! ! ! ! ! ! ! ! ! ! ! ! < < : : : : > > - > > - > > >   5 5 ( ( 6 6 ~ ~ ^ ^ ^ ^ ^ { ! ! 7 7 . . + + . . . . . . - - ; ",
"  . . . . . . = = . . ) ) ! ! ~ ~ { { ] ] ^ ^ / / / (       > > > - > , ,     _ _ : : ! ! ! ! ! ! ! ! ! ! ! ! ! ! ! ! ! ! < < ! ! ! ! ! ! ! ! ! ! ! ! ! ! ! ! ! ! [ [ [ } | | ! ! < < ! ! ! ! ! ! ! ! ! ! ! ! ! ! ! ! ! ! ! ! [ < < < ! ! [ } ! ! < < [ } ! ! ! ! [ [ ! ! < < ! ! 1 < ! ! < [ ! ! < < ! ! 1 < ! ! < < ! ! 1 < ! ! < 1 ! ! 1 1 ! ! < < ! ! 1 < ! ! 1 1 ! ! < 1 ! ! 1 1 | | 1 | | | 1 1 | | 1 1 | | 1 | | | 1 1 1 | | 1 1 | 1 1 | | 1 1 | 1 < < ! ! 1 < ! ! < 1 ! ! 1 | ! ! | 1 ! ! [ < ! ! < 1 1 1 2 2 | | 1 < | | ! ! ! ! < 1 ! ! [ [ 3 ! } ! } } [ [ 3 ! } } ! } } [ } ! } [ [ } ! < ! ! < [ ! ! < [ ! ! ! ! ! ! [ [ ! ! ! ! ! ! ! [ 4 4 ! ! ! ! ! ! ! ! ! ! ! ! ! ! ! ! < < : : : : > > - > > > > - > > 5 5 ( ( 6 6 ~ ~ ^ ^ ^ ^ { { ! ! 7 7 . . + + . . = . . . - - ; ",
"> . . = . . . = . . = 7 7 < < { { 8 8 9 9 8 8 9 9 0 0 a a 0 0 b b 0 0 a a 0 0 0 0 { { { { { { { { c c ^ ^ ~ ~ ( ( d d > > - > > > > > - > , , : : : : ! ! ! ! ! ! ! ! ! ! ! ! ! ! ! ! ! ! ! ! ! ! ! ! ! ! ! ! ! ! ! ! ! ! ! ! 1 < ! ! ! ! ! ! ! ! ! ! ! } ! } } [ ! ! ! } ! ! | | ! ! 1 < } ! [ < ! ! < < ! ! 1 < ! ! 1 < ! ! < 1 ! ! < < ! ! 1 < ! ! 1 < ! ! | | ! ! | | ! ! | | ! ! | | ! ! | | ! ! | | ! ! | | ! ! | | ! ! | | ! ! | | ! ! | | ! ! | | ! ! < 1 | ! ! ! ! ! ! ! ! ! | | ! ! 1 < | | 1 | ! ! | 1 | | 1 | ! ! ! ! ! ! ! ! ! ! ! ! ! ! ! ! ! ! ! } ! } } [ ! ! ! } ! ! < [ ! 3 3 ! 4 4 ! ! ! ! ! [ 4 3 } } ! ! : : : : e e , ,     f - > > f > d d 6 6 ~ ~ 6 6 ~ ~ ~ ~ 0 0 { { 0 0 { { b b 0 0 a a 8 8 9 9 0 0 0 0 0 0 0 0 a 9 9 9 { { < < g g . . . . . . . = . =     ; ",
"  . . = . . . = . = = 7 7 < < { { 8 8 9 9 8 8 9 9 0 0 a a 0 0 b b 0 0 a 9 0 0 0 0 { { { { { { { { c c ^ ^ ~ ~ ( ( d d > > > - > > > > > > , , : : : : ! ! ! ! ! ! ! ! ! ! ! ! ! ! ! ! ! ! ! ! ! ! ! ! ! ! ! ! ! ! ! ! ! ! ! ! < < ! ! ! ! ! ! ! ! ! ! ! [ ! ! < [ ! ! } ! } } | | ! ! < < ! ! < < ! ! 1 < ! ! < < ! ! 1 < ! ! 1 < ! ! < 1 ! ! 1 1 ! ! < 1 ! ! 1 | ! ! | | ! ! | | ! ! | | ! ! | | ! ! | | ! ! | | ! ! | | ! ! | | ! ! | | ! ! | | ! ! | | ! ! < 1 | ! ! ! ! ! ! ! ! ! | | | ! < < | | | | ! ! < 1 | | 1 | ! ! ! ! ! ! ! ! ! ! ! ! ! ! ! ! ! ! ! } ! } } [ ! ! } ! } } [ ! ! 3 3 ! 4 4 ! ! ! ! ! } 3 3 ! } ! ! : : : : e e , ,     f f - > > f d d 6 6 ~ ~ 6 6 ~ ~ ~ ~ 0 0 { { 0 0 { { b b 0 0 a a 8 8 9 9 0 0 0 0 0 0 0 0 a 9 9 9 { { < < g g . . . . . . = = . =     ; ",
"  . . . . . . . . . . ) ) < < { { 0 0 0 0 h h 9 9 9 a 0 0 b b 0 0 b b 0 0 b b 0 0 b b 9 9 9 a 9 9 a a 9 9 i i a a h h a a h j j j a a 9 9 9 a k k 0 0 { { { { ~ ~ ^ ^ l l c c / / d d m m m       > >       > ! ! ! ! ! ! ! ! ! ! ! ! ! ! ! ! ! ! ! ! 4 4 [ [ } ! ! ! ! ! ! ! ! ! ! ! ! ! ! ! ! ! ! ! ! ! < < ! ! ! ! ! ! < 1 ! ! 1 | ! ! < < ! ! < 1 ! ! } ! } } [ ! ! } } ! } } ! ! ! ! ! ! ! ! ! ! ! ! ! ! ! ! ! ! ! ! ! ! ! ! ! ! ! ! ! ! ! ! ! ! ! ! 1 1 ! ! < < ! ! } ! ! ! ! ! ! ! < < ! ! ! ! ! ! | | ! ! ! ! ! ! ! ! ! ! ! ! ! ! ! ! ! ! ! ! ! ! < < < < _ _       > >   > >   m m   n n ( ( ~ ~ ^ ^ ~ ~ ^ ^ { { 8 8 8 k k 8 0 0 b b a a h j 9 9 9 a a a h j h h i i h h i h a a h j 9 9 9 a a 9 h h a 9 9 9 a 9 9 9 0 0 b b 0 0 a a 0 0 0 0 | | g g . . . . . . . . . .     ; ",
"  . . . . . . . . . . ) ) < < { { 0 0 0 0 b h 9 9 9 a 0 0 b b 0 0 b b 0 0 b b 0 0 b b 9 9 9 a 9 9 a a 9 9 i i a a h j 9 a j j j j a a a 9 a a 8 k 0 0 { k k { ~ ~ ^ ^ l l c c / / d d m m         > >         ! ! ! ! ! ! ! ! ! ! ! ! ! ! ! ! ! ! ! ! 4 4 [ [ } ! ! ! ! ! ! ! ! ! ! ! ! ! ! ! ! ! ! ! ! ! < < ! ! ! ! ! ! < < ! ! 1 < ! ! < 1 ! ! | 1 ! ! } ! ! ! ! } ! ! ! } ! ! ! ! ! ! ! ! ! ! ! ! ! ! ! ! ! ! ! ! ! ! ! ! ! ! ! ! ! ! ! ! ! ! ! ! ! ! 1 1 ! ! < < ! ! ! ! ! ! ! ! ! ! < < ! ! ! ! ! ! | | ! ! ! ! ! ! ! ! ! ! ! ! ! ! ! ! ! ! ! ! ! ! < < < < _ _         > >   > m m     n n ( ( ~ ~ { { ~ ~ ^ ^ { { 8 8 8 k 8 8 0 0 b b a a j h 9 9 a a 9 a h h i h i i h h h i a a h j 9 9 a a 9 a h h 9 9 a 9 9 9 a 9 0 0 b b 0 0 a a 0 0 0 0 | | g g . . . . . . . . . .     ; ",
"- . . . . . . . . . . 7 7 ! ! { { 0 0 b b ^ ^ o o n n 6 6 ( ( 0 0 a 9 b b 0 0 b b b b b h 9 a j h a a h j h i i h a a h j h i p p a a h i i h h i i h b b b b b b b b b b b b h h b b h h 9 a b b 9 a b b 8 8 0 0 { k 0 0 0 0 { { { { ~ ~ ( ( 5 5 > > q q > > q q > > >   < < | | ! ! ! ! ! ! ! ! ! ! ! ! ! ! ! ! ! ! ! ! ! ! | | ! ! | 1 ! ! | | ! ! | | ! ! < [ ! ! < [ ! ! } [ ! ! < < ! ! [ < ! ! < 1 ! ! < 1 ! ! 1 < ! ! < 1 ! ! < < ! ! 1 < ! ! < 1 ! ! 1 | ! ! ! ! ! ! ! ! ! ! 1 1 ! ! | | [ < > > - > > > 5 5 r 5 > > ( ( ( ( { { { { { { { { 0 0 0 0 b b 0 0 b b a a h b a a h b 9 9 i h h b b b h h i i h h b b h h i p p i i h b b b h h i h h i h i i h h i i h h i h a a h j 9 a a a 8 k a a 8 k 9 9 k k / / d d ( ( d d / / 0 0 0 0 { { < < ) ) . . = . . . = . . . -   ; ",
"- . . . . . . . . . . g 7 ! ! { { 0 0 b b ^ ^ o o n n 6 6 ( ( 0 0 a 9 b b 0 0 b b b h h i a a h j 9 a h h i h i i a a h j h i p p a a i i h h i i i h b b b b b b b h b b b b b h b b b h a a h b 9 a b b 8 8 0 0 { { 0 0 0 0 { k ^ ^ ~ ~ ( ( 5 5 > > q q > > q q > > - > < < | | ! ! ! ! ! ! ! ! ! ! ! ! ! ! ! ! ! ! ! ! ! ! | | ! ! 1 | ! ! | | ! ! | | ! ! [ [ } ! < [ 3 ! } [ ! ! 1 1 ! ! < < ! ! < 1 ! ! < < ! ! < 1 ! ! < < ! ! < < ! ! 1 < ! ! 1 < ! ! | | ! ! ! ! ! ! ! ! ! ! | 1 ! ! | | [ < > > > - > > 5 5 5 r > > ( ( ( ( { { { { { { { { 0 0 0 0 b b 0 0 b b a a b b a a h b 9 a h h b b b b h h i h h h b b b h p p i i i h b b b b b h h i h h i i h i i i h h h i a a h j 9 a a a 8 8 9 a 8 k 9 9 k k / / d d ( ( d d / / 0 0 0 0 k k < < ) ) . . = . . . = . . .     ; ",
"  . . . . . . . . . . ) ) < < { { a a 8 k 6 6 < < < < ! ! < 1 1 < < < < [ : : s s : : : : _ _ d d / ( ( ( ( ( ( ( 6 6 6 6 6 6 b b b b b h b b b b b b b h t t b b b b b h t t b b b h h i p p p i i i i h p p i i i p h h i u i i u i h h i h i j i i h h i h h i h i 0 0 b b a 9 9 a 8 8 k 8 k k 8 8 o o / /     v v 5 5 m m   m m   _ _ _ _ ! ! | | ! ! ! ! ! ! ! ! ! ! ! ! ! ! ! ! ! ! | < < ! ! ! ! ! | | ! ! | | ! ! < < ! ! 1 < _ _   m > > - > , _ w w m m 5 5 ~ ~ 8 8 k { { 8 8 8 9 a 0 0 a a 0 0 h h b b b h b b h i j j u i h h x x j j u u i h u i h u x x u i p p i i y y y p h b b h h i b b b b p p t t h h b b b h b b b b b b h b b b 6 6 6 6 z z z z z z z z d d A A B B f - < < s s < < < < [ < < < < [ < < ! ! ! ! ~ ~ 9 9 0 0 0 0 | | g g . . . . . = = = . .     ; ",
"  . . . . . . . . . . ) ) < < { { a a 8 8 6 6 < < < < ! ! < < < < < < [ < : : s s : : : : _ _ d d ( ( ( ( ( ( ( ( 6 6 6 6 6 6 b b b b b b h b b b b b b b t t h b b b b b t t h b b b h i p p i i i p i i u p p i i y h h i u i i u p h h i h i j i i h h i h i i h h 0 0 b b a 9 a a 8 k k k { k k 8 o o / /     v v 5 5 m m   m m m _ _ _ _ ! ! | | ! ! ! ! ! ! ! ! ! ! ! ! ! ! ! ! ! ! | < < ! ! ! ! ! | | ! ! | | ! ! 1 1 ! ! 1 1 _ _   m > > - > , _ w w m m 5 5 ~ ~ 8 8 { { { { 8 8 9 9 0 0 a a 0 0 h h b b b h b b i i h j i u i h x x j j u u i i u p h i x x u u i p u i p y y p b b b b p i b b b b p i t t h b b b b b b b h b b b b b b b 6 6 6 6 z z z z z ( ( ( d d A A B B f f < < s s < < < < [ < < < < < < [ ! ! ! ! ~ ~ 9 9 0 0 0 0 | | g g . . . . . . . = . .     ; ",
"- . . . . . . . . . . 7 7 < < 0 0 0 0 0 0 ( ( > > ( ( 6 6 ( ( 6 6 A A > > f f - f , ,     , ,     , , ! ! ! ! ! ! ! ! s s < < < < < [ s s < < : : : : , , , , ( ( 6 6 6 6 6 6 6 6 ( / l l l l y y p i i p p i i p p i i p u i x x u p p y u i p u p p y y y p C C p p t t b b t t p p b b 9 a i i h p p p i h h b b b h i a a j h h h a 9 k k 9 9 k 8 8 k 8 k { { ~ ~ 6 6 d d 5 5 > > > - > > > > m m n n ^ ^ ^ { { ^ ^ ^ { { 0 0 { { b b 9 9 i p h b i i h h i p p i i p y y p y u i i p p p y y b b t t h b D D t t h b p p y y u i x x u i x x u i x x y y p y y y x x u p x x u u E E 6 6 6 6 / / 6 6 o o / o ( ( > > : : : : [ [ s s < < s s < < : F } ! } } [ ! ! } 3 3 > > , , > > , , > > f e > > - > 6 6 ( ( 6 6 ( ( 6 G > > ~ ~ 0 0 0 0 { { < < ) ) = = . . . . = . . . -   , ",
"- . . . . . . . . . . 7 7 < < 0 0 0 0 0 0 ( ( > > ( ( 6 6 ( ( 6 6 A A > > > f f f , , > > , ,     , , ! ! ! ! ! ! ! ! s s < < < < < [ s s < < : : : : , , , , ( ( 6 6 6 6 6 6 6 6 / / 6 l l l y y p i p p i i p u u i p u p u x x u p y y p i p p p y y u p p C C p p t t b b t t p p b b a a i i i h p p h h b b b h i i a a h h i h a a 8 k 9 9 k 8 8 8 k { { { ~ ~ 6 6 d d 5 5 > > > > - > > > m m n n ^ ^ ^ { { ^ { { { { 0 0 { { b b 9 9 p p b b i i h h i p i i p p y y p y y i i p p y y y b b t t b b D D t t h b p p p y y u x x u p x x u u x x y y p y y y x x u p x x u i E E 6 6 6 6 / / l 6 o o / o ( ( > > : : : : [ [ s s < < s s < < : F } } ! } } ! } ! ! 3 > > , , > > , , > > e e > > - > 6 6 ( z 6 6 ( ( 6 G > > ~ ~ 0 0 0 0 { k < < ) ) = = . . . . . = . . >   , ",
"  . . . . . . . . . . ) ) < < { { a a 0 0 6 6 m m ~ ~     { { { { { { { { { { H H 8 8 k { { ^ ^ ^ { { / / 8 8 k { { k ~ ~ 8 k ~ c c ~ > >   m     5 5 > > 5 5 > > 5 5 ! ! ! ! ! ! ! ! ! ! : : ! } : : < < : F s s B B B B , , ( I 6 6 6 G 6 6 6 6 J J J 6 ~ ~ b b t t b b t t t t t t t t t t t t t t p p C D p p C D b b p p y p p y y u y y p i p p i i h p h h i h a a h h a 9 a a 9 a h j 9 9 j j j j i u j j u u j j u u i u i p u p x x u p y p x x y y p y D D y y x D D D t t b b C C t t t t t t t t b b t t ~ ~ ~ ~ J J 6 J ( ( 6 6 ( ( 6 6 , ,     F s : : < < < < < [ : : < < : : ! } ! ! ! ! ! ! > > 5 5 > >       m m   m m     c c 8 8 ^ ^ 8 8 c c 8 k ~ c ] ] ^ ^ ^ { { k k 8 8 8 9 a 0 0 0 0 c c ~ ~ { { n n ] ]     6 6 9 9 0 0 k k ! ! 7 g . . . . . . . . . = - - ; ",
"- . . . = . . . . . . ) ) < < { { a a 0 0 6 6 m m ~ ~     { { { { { { { { k k 9 H 8 8 8 k { { ^ { { { / / 8 8 { { { { ~ ~ { { c c ~ ~ > >   m     5 5 > > 5 5 > > 5 5 ! ! ! ! ! ! ! ! ! ! : : ! } : : < < : F s s B B B B , , ( I 6 6 6 G 6 6 6 6 J J J 6 J ~ b b t t b b t t t t t t t t t t t t t t p p x D p p x D b b p p p y y u y i y y p i p p i i i h h i h i a a h j 9 a a a 9 9 j j 9 9 j j j j u i h j i u j j i u u i p u p u x x u p y p x x y y y p D D y y x D D D t t h b D C t t t t t t t t b b t t ~ ~ ~ ~ J J 6 J ( ( 6 6 ( ( 6 6 , ,     F F : : < < < < < < : : < < : : ! } ! ! ! ! ! ! > > 5 5 > >       m m   m m     c c 8 k ^ ^ 8 8 c c 8 k c c ] ] ^ ^ ^ ^ { { k 8 8 k 9 9 0 0 0 0 c c ~ ~ ^ ^ n n ] ]     6 6 9 9 0 0 k k ! ! 7 g . . . . . . . . . . - - ; ",
"- = = . . . . . . . . 7 7 | | { { 0 0 0 0 6 6 5 5 ~ ~ _ _ ] ] ~ ~ ^ ^ b b 9 9 j j a 9 j h { { 9 9 5 5 h h a 9 a 9 j h i i h b b b 9 9 b b b b b h 8 8 k 8 b b b b b h b b b b b b 0 0 b b 0 0 b b 0 0 d d 5 5 K K 5 5 r 5 L L M M L L ! ! ! 3 3 ! 4 ! < 1 < < < < [ < < < < < s s : : > > , , 6 6 ( / 6 6 6 6 ~ ~ ] ] ~ ~ ] ] y y p y D D p y x D p p y y y y p y y p p i i p u u h h i u i u i h j j y y p i p y u i y y p i p p x x C C p y N N o o E E o o E c l l l ] 6 6 6 l , , , _ : : : : : : : : < < < < s s B : ! } [ [ } ! 5 5 r 5 L 5 5 r M M 5 5 M M 5 5 M M d d 0 0 0 0 0 0 b b b b b h b b a a h i b b b b b h h h ^ ^ a a h j 9 a h h h i h i 0 a a 9 a 9 9 9 l l 8 8 k { 9 9 i h 9 9 9 a 0 0 { { ] ] 6 6 : : ^ ^     c ] 8 8 9 9 { { < < ) ) . = . . . . . . . .     ; ",
"- = = . . . . . . . . 7 7 | | { { 0 0 0 0 6 6 5 5 ~ ~ , _ ] ] ~ ~ { { b b 9 9 j j 9 9 h h ^ { 9 9 5 5 h h a 9 a 9 h h i h i j b b 9 9 b b b b b h 8 8 8 k b b b b b h b b b b b b 0 0 b b 0 0 b b 0 0 d d 5 5 K K 5 5 r 5 L 5 M M 5 L ! ! ! 3 3 3 ! } < < < < [ < < < < < < < s s B : > > , , 6 6 ( / 6 6 6 6 ~ ~ ] ] ~ ~ ] ] y y p y D D y y x D p p y y y y y p i p p x i i u p h i i i u p h i j j y y p i p y u i p y u i p u x x C C p y N N o o E E o o E c l l l ] 6 6 6 l , , , _ : : : : : : : : < < < < s s : : } ! } [ ! ! 5 5 r 5 L 5 5 5 M M L 5 M M L 5 M M d d 0 0 0 0 0 0 b b b b b b h b a a h i b b b h h i h h ^ ^ a a j h a a j h h i i h a a a 9 a 9 9 9 l l 8 8 8 k 9 9 p i a 9 9 9 0 0 { k ] ] 6 6 : : ^ ^     c ] 8 8 9 9 { { < < ) ) . = . . . . . . . .     ; ",
"  . . . . = . . . . = ) ) 1 1 ^ ^ 8 8 8 8 6 6 m m c c v v n n o o 8 8 k 8 a a 9 H a a 9 H H H a a o o O O O O j j u u i P u i p u Q Q P P u u R R u i o o S S S S x x T T C C C C C C Q Q E E 9 9 k 8 D D D C C C C U U U C C C C x x ^ ^ i i x x x x x x x x a a u i n n n n w w v v w w v v R R O O R R v v ! ! ! ! F : < < < < V V < < : F < < : F : : > > n n o o d d / o b b p y u i S S u i p y W W W ( F : X X V V : : : : : : F s : F } < F : ! ! ! 3 3 Y Y Y v v w v R R O O R R O O R R O O a a S S S S j j S S D D y y D D i i a a i i C C C Z C C x x C C x x x x Q Q a a o o E c D D y y y y x D x x x x j j ^ ^ H H     h h i h i i i i P P a a 9 a i i O O v v V V a a 8 k a a a 9 i i a a a a 9 H o o V V ~ ~ ~ ~ 5 5 6 6 0 0 8 8 k { ! ! 7 g . . . . . . . = = =     ; ",
"  . . . . = . . . . = ) ) 1 1 ^ ^ 8 8 8 8 6 6 m m c c v v n n o o 8 8 8 k a a 9 H H a H H H H a a o o O O O O j j u u i P u i p u Q Q P P u u R R u i o o S S S S x x T T C C C C C U Q Q E E 9 9 k 8 D D D C C C C U U U C C C C Z x ^ ^ i i x x x x x x x x a a i i n n n n w w v v w w v v R R O O R R v v ! ! ! ! F F } < < < V V < < : F < < F : : : > > n n o o d d / o b b p y u i S S u u y y W W ( ( F F X X V V : : : : : : : F F : < < F : ! ! ! 3 3 Y Y Y v v v w R R O O R R O O R R O O a a S S S S j j S S x D p y D D i i a a h i C C C Z C C x x C C x x x x y y a a o o c c D D y y y y x D x x x x j j ^ ^ H H     h h h i u i u i i P a a 9 a i i O O v v V V a a 8 8 a a 9 a i i a a 9 a 9 9 o o V V ~ ~ ~ ~ 5 5 6 6 0 0 8 8 8 k ! ! 7 g . . . . . . . . = =     ; ",
"> ` ` . . . . = . . . g g ! ! { { { H 9 9 l 6 5 5 ~ ~ ] c N N 8 8 k 8 k 8 9 H a a H H a a H H a a H H o o H H P P j j u u i u y y x D p y u i o o R R R R S S S S T T T T x x  . .C C E E d d E E 8 8 ......U U C  . . . .....U C O O y y 9 9 C C C C U .. . . . .C C ....y y ] ] y p x D ....U C C C  . .....U C t t h b b i b b a a b b 8 8 5 5 r 5 L 5 v v       > >   > m i i h p y y S S S Q ] ] 1 1 > > 5 5 R R R R 5 5 v v 5 5 h b b b b b h b b b i i ....U ....U ....C C  . .....x x o o u i C C C C  . .+.+.@.@.C C ....C C N N j j k k C C  . .C C C C U U U U C Z a a c c v w p p C D u i C D p y D x x x u i E E     _ _ p p i i p y i i u p h i i i i u l l O O a a 9 a 9 9 8 8 9 a a 9 h h 9 a 8 8 ^ ^ 8 8 c ~ { { 5 5 ~ ~ 8 8 0 0 { { < < ) ) = = . . . . . . . . > > , ",
"> ` ` . . . . = . . . g g ! ! { { { H 9 9 6 6 5 5 ~ ~ c c N N 8 8 8 k 8 k H H a a H H a a H H a a H H o o H H P P j j i u u i y y x D p y u i o o R R R R S S S S T T T T x x  . .C C E E d d E E 8 8 ....U C C C  . . . .....U C O O y y 9 9 C C C C .... . . . .C C ....y y ] ] p p C D ....U C C C  . .....C C t t h b b i b b 9 a b b 8 8 5 5 r 5 L 5 v v R       > >   > i i h p y y S S S Q ] ] 1 1 > > 5 5 R R R R 5 5 v v 5 5 h b b b b b h b b b i i ....U ........U C C  . .....x x o o u i C D C C  . .+.+.@.@.C C ....C C N N j j k k C C  . .C C C C C U U U Z C a a c c v w p p x D u i C D y y x D x x u u E E     _ _ p p i i p y i i i u p h i i i i l l O O a a a 9 a 9 8 8 9 a a a h j 9 a 8 8 ^ ^ 8 8 c ~ { { 5 5 ~ ~ 8 8 0 0 { k < < ) ) = = = . . . . . . . > > , ",
"- . . . . = . . . . = ) ) 1 1 { { 0 0 0 0 6 l m m { { { { { N 8 8 k 8 k 8 a a 9 H H a H H P j k 8 9 a H H a a a a u u j j u u i u y Q P j i u u i u i x x T T #.#.+.+.T T C C +.+.Z C x x E E E E  . .....U U C U @.@.@.@.@. .C U E E   R O O $.$.@.@.C U U C @.@.@. .Z C N N N N ^ ^ E E %.%. . ...U @. . . . .@.C C ^ ^ a a c c t t t t Z C Z C ....y y x D ] ] a a 8 k     y y x D x x +.+.Q Q { {     a a { { 8 8 i i h b b i ....C C C C C Z x y 9 a ^ ^ C C .... . . . .@. . . .U U N N # # &.&.E E C C $.$.%.%. . . . .@. .C C R R R R o o $.$.U U  . .+.Z $.$.Z C Z +.*.*.*.*.&.&.y y x D x C C Z C Z Z C Z +.x x u u P P x x u u u i p u Q Q P P j P a a u u j j u u a a 9 H N N 9 9 9 H a a H H a a 8 k 8 8 ^ ^ 8 k ~ c 5 5 6 l a a 0 0 { { | | g g . . . . . . . . . .     ; ",
"- . . . . . . . = . . ) ) 1 1 { { 0 0 0 0 6 l m m { { { { { N 8 8 k 8 k 8 a a H H a a 9 H j j k 8 9 a H H a a a a u u j j i u u i u Q P j u i p u p u x x T T #.#.+.+.+.T C C +.+.+.Z x x E E E E  . .....U U U C @.@.@.@. . .C U E E   R O O $.$.@.@.C U U U  .@.@. .C Z N N N N ^ ^ E E %.%. . .C U  . . . .@. .C C ^ ^ a a c c t t t t Z Z C Z ....y y D D ] ] a a 8 8     y y x D x x T +.Q Q { {     a a ^ { 8 8 i i h b b i ....U C C C C C p y a a { ^ C C .... . . . . .@. . .C U N N # # &.&.E E C C $.$.%.%. . . . . .@.C C R R R R o o $.$.$.U  . .+.Z $.$.Z Z +.+.*.*.*.*.&.&.y y x D x C Z C Z Z Z C Z +.x x u u P P x x u u u i p u Q Q P P P j a a u u j j i i a a H H N N 9 9 9 9 a a 9 9 9 a 8 8 k 8 ^ ^ 8 k ~ c 5 5 l l a a 0 0 { { | | g g . . . . . . . . . .     ; ",
"> . . . . . . = . . . g g | | 0 0 0 0 0 0 o o 5 5 ^ ^ 8 k 8 8 j j N N 9 a H H a a H H a a H H H H P j i u a a h i a a h i a a i i u i p u j j x x u p x x #.#.+.+.Q S T T C C C C Z x  . . . .@. . . .C C C C  . .@.@.@. .U U  .@.+.+.Z C C C  . .+.Z  . . .@.@.@.U U  .@.Z C E E X X  . . .@. . . . .@. . . .@.@.E E n n d d E ] ....U C C C C U U C C C ^ ^ k k { ^ / o R   y y x D x C S S Z C ^ ^ 5 5 ] ] a a &.&.y y x D C C C C U ......U C ^ ^ n n      . ..... . .%.%. . . . . . .@. .N N =.=. . .$.$.U $.@.@.@.@.U $.@. .C C C C C C ....C C  . . .@.U U +.+.Z C $.$.U $.@.@.@. .Z D ....x x C C +.+.U U +.+.+.T Q Q x x y y y y p i u i P P u i h j j j 9 a i i a a h j 9 a h j 9 9 a a 9 a 9 9 8 k 9 9 8 8 8 k 8 k { {     c ~ 0 0 a 9 ^ ^ 1 1 ) ) = = . . . . . = . . - > , ",
"> . . . . . . = . . . g g | | 0 0 0 0 0 0 o o 5 5 ^ ^ 8 k 8 8 j j N N a a 9 H H a H H a a H H H H P j i i a a i i a a i i a a u i p u p u j j x x u u x x j #.+.+.S S T T C C C C x x  . . . .@. . . .C C C C  . . .@.@.@.U $. . .+.Z $.C C C  . .+.+.@. . .@.@.@.C U  . .+.Z E E X X  . . .@. . . . . .@. . . .@.E E n n d d E ] ....U C C C C U C C C C ^ ^ 8 k ^ ^ o o     y y x x C C S S Z Z ^ ^ 5 5 l ] a a &.&.y y D D D C C C ........U C ^ ^ / n      . ..... . .%.%. . . . . . .@. .N N =.=. . .$.$.U $.@.@.@.@.U $. . .C C C C C C ....C C  . .@.@.C U +.+.Z C $.$.$.U  .@.@.@.D D ....x x C C +.+.U U +.+.T +.Q Q x x y y y y u i u i P P u u j j j j a a u u a a h j 9 a h j 9 9 9 a a 9 a a 8 k 9 9 8 8 8 8 k { { k     c ~ 0 0 a 9 ^ ^ 1 1 ) ) = = . . . . . . = . - > , ",
"> . . . . . . . . . = ) ) 1 1 { { 9 9 k k o o m m { k k 8 8 8 H H H H 8 8 9 9 8 8 9 H H H a a H H j j j j j j a a j j u u i u u i S Q u i p u S S S S S S D x x x C C +.+.Z C S S Z Z U U C U U U C U U U U C U U $.$.Z C  . .U U $.$.U $.@.@.$.$.U $.@. .$.$.$.U  .@.$.$.@. .$.$. . . . .%.%. .@.%.%. . .%.%. . . . .E E E E C C  . .C C C ..U U ....x Z C Z R R R   H H = = x x C C C C $.$.$.U ^ ^     6 6 m   ; ; y y C C C D  . .C C  . .C C  . .E E C U @. . . . . .%.%. .@.@. .@.@.@. . .@.@. .@.@.@.@.U $.$.$.U $.@. . . .@.@.$.$.@. .$.$.U $.@. . ...C C ....U C C C C U  .@.C C C C C C x x x C $.$.T T T T x x S S S S u i S S S S j P P j -.-.P P -.-.j j a a j j 9 a j j a a j j 8 8 9 a a H a a 8 8 9 a ^ ^ 8 k ^ c 5 5 6 6 9 9 k 8 8 { ! ! g g O O . . . . . . = .     ; ",
"> . . . . . . . = . . ) ) 1 1 { { 9 9 { k / o m m { k k k 8 8 H H H H 8 8 9 H 8 8 9 9 H H a a H H j j j j j j a a h j u i p u p u Q Q u i p u S S S S S S x x x x C C +.+.Z Z S S Z Z U U U C U U U U U C U U U U $.$.Z C  . ...U $.$.U $.@.@.$.$.$.U  .@.$.$.$.U  .@.$.$. . .$.$.@. . . .%.%. .@.%.%. . .%.%. . . . .E E E E C C  . .C C U U C U U ..C Z C Z R R R   H H = = x x C C C C $.$.$.$.^ ^     6 6 m   ; ; y y C C C x  . .C C  . .U C  . .E E C U  . . .@. . .%.%. .@. . . .@. . .@.@. .@.@.@.@.@.U $.$.$.$.U  .@. . .@.@.$.$.@.@.$.$.U $.@. . ...C C ....C C C C C C  .@.C C C C C C Z x Z C $.$.T T T T x x S S S S u u S S S S P P j P -.-.j P -.-.j P a a h j 9 a h j 9 a j h 8 8 9 a a H a a 8 k a a ^ ^ 8 k ^ c 5 5 6 6 9 9 8 8 { { ! ! g g O O . . . . . . = .     ; ",
"  . . . . . . = . . . g g < < { { a 8 0 0 / / 5 5 ^ ^ 8 8 k N H H H H a a 8 k 9 9 H H H H H H a a a a j h H H P j i j i u j j Q Q u u x x Q Q u u S S u u S S D C +.+.C C x x x Z C Z Z U U C U U Z C $. . . .@. .$.$.@. . . . . .+.+.U $.@.@.@.@.@. . .@.$.$.@. .$.$.@.@.@.@.@. .@.@.@.@.@.@.%.%. .@.%.%.$.$.@. . . . . .U .. . . . .U ..U U C U U Z C C x x x Z i i h j R R x x C C $.$.U $.@. .^ ^ v v C C C Z C C ....U C C D  . . . . .@. . .C C  . .C U @. . . .%.%. . . . . . .@. . .@.%.%. .@.%.%. . . . . . . . .@. . . .@. . .@.@. . . .@. .%.%.....U C C C ....U C  . ...U $.U +.Z C Z x x C C +.+.+.T Q S T T S S T +.x x u u u u y Q Q S S S j P P P a a j h a a j j a a j j H H a a H H a a 8 k 8 8 8 k 8 8 { { ^ ^ 5 5 ~ ~ 8 8 0 0 c c < < ) =.O O . . . . . . . . f - , ",
"  . . . . . . . = . . g g < < k k 8 8 0 0 / / 5 5 ^ ^ 8 8 N N 9 9 H H a a 8 8 9 9 H H H H H H a a 9 a h j H H P j i j u i h j Q Q u u x x y y u i S S u i S S C C +.+.Z C x x x C Z C Z ..C C ..U Z C $. . . . .@.U $.@. . . . . .+.+.U $.@.@. .@.@.@.@. .$.$. .@.$.$.@. .@.@. .@.@.@.@. .@.@.%.%. .@.%.%.$.$.@. . . . . ..... . . . .....U U U U C Z C C x x x Z i i j j R R x x C C $.$.U $.@. .^ ^ v v C C C C C U ....C C C D  . . . .@. . . .C C  . .U C  . . . .%.%. . . . .@. . . .@. .%.%. .@.%.%. . . . .@. . . .@. . . . . .@. . . .@. . . .%.%.....U C C C ....C C  . .C U U U C Z C C x x C C +.+.T +.S S T +.S S T +.x x u u u u Q Q S S S S j P P P a a j h a a j j 9 a j j 9 9 a a H H a a 8 8 k 8 8 8 8 k { { ^ { 5 5 ~ ~ 8 8 0 0 c c < < ) =.O O . . . . . = . . f - , ",
"> . . . . . . . = . . ) ) 1 1 { { 0 0 8 8 6 6 5 5 k k { k 8 8 k N a a 8 k 9 9 8 8 9 9 H H a a 9 H j j 9 a a a h j u u j j i u j P u u S S u u u i S S u u i p x x C C x x C C C C C ..U Z U U C U U U U C ....C C C U @. . .@.$.$. .@.@.@. .@.@.@.%.%.%.%.$.;.@.@. .@.;.;.@.@.@. .@.@.$.$.@. . . .%.%.%.%. .@.%.%. . . .@.@. .@. . .@.C C C C U $.@. .x x C C C C x x u i O O x x  . .+.T C U U C ^ ^     Q Q x Z C ..C C C D C C  . .+.T  . .$.$. . . .@. . .@.@.@. .@.@.%.%. . . . .@.@. .@.@.@.@. .@. . .@.@. .@.@.@. . .@.@.@. .@.@.@.@. .$.$.@. .C C  . .@.@.@.@. . .@. .C U  . .C C C C C C C ..x x x x x x x x u u i p u p x x S S x D u i S S u u P P j j j j a a j j a a 9 a 9 9 8 a H H a a H H a a H H 8 8 k 8 k { { c v w ] ] 0 0 { { { { ! ! 7 7 . . . . . . . = . .     ; ",
"> . . . . . . . = . . ) ) 1 1 { { 0 0 8 8 6 6 5 5 k k k 8 8 8 N N 9 a 8 8 9 9 8 8 H H H H a a H H j j a a a a h j u u j j u u i P u u S S u i p u S S u i p u x x C C x x C C C C U U C U U U U C U U C U U ..C C ..U  . .@.@.$.$.@.@.@.@.@. .@.@.%.%.%.%.;.;.@.@. .@.;.;.@.@.@.@. .@.;.;.@.@. .@.%.%.%.%.@.@.%.%. . . .@. . . . .@. .C C C C $.$. . .x x C C C C x x u u O O x x  . .+.T U U C C ^ ^     Q Q x Z C ..C C C x C C  . .+.T  . .$.$. . . .@.@. .@.@.@. .@.@.%.%. . . .@. . .@.@.@.@.@. . .@.@.@.@. .@.@.@.@. . . .@.@. .@.@. . .$.$. . .C C  . .@.@.@.@.@. . .@.U U  .@.Z C C C C U U U x x x x x x x x u u u u u i x x S S D x u i S S u u P P P j j j a a h j 9 a a a 9 H a a H H a a H H a a H H 8 8 k 8 k { { c w w ] ] 0 0 { k ^ { ! ! 7 7 . . . . . . . = . .     ; ",
"  . . . . . . . = . . g g ! ! { { { { 0 0 6 6 v v k k { k ^ ^ N N N N 8 8 k 8 a H H H H H H H a a H H j j a a h j 9 a u i p u p u u i p u S S S S S S x x S S C C C Z C C Z C ....C C C U C C  .@.C C @. .C C  . .C C  . .@.@. .@.@. . . .@.@. .@.@. . .@.@.@.%.%.%.%. . .$.$.%.%. .@.%.%. . .%.%.%.%.%.%.@. .%.%.@.@. .@.@.@.@. .$.$.@. .U U  .@. . ...U C C  . .x x x C O O C C  .@. . .+.Z $.$.^ ^ v v Q Q  . .@.@. .@.C C  .@. . . . . .@. . . .@.%.%. .@. . . .@.@. .%.%.%.%.@. .@.@. .@.%.%. . . .@.@.@.%.%. .@.@.@.@.@. . .@.@.@.@.U U @.@.@. .$.$.C C %.%. . .@. .U U  . .C C U U C C U C C Z x x u u Z x S S S Q #.#.S S #.#.T T u u u u u u u u a a j j a a j j H H a a H H H H H H H H H H a a 8 8 a a ^ ^ ^ ^ ~ ~ ^ ^ 5 5 ~ ~ k k k 8 ~ ~ < < =.=.O O . . = . . . . . -   , ",
"  . . . . . . . = . . g g ! ! { { { k 0 0 6 6 v v k k 8 k ^ ^ N N N N 8 8 8 8 H H H H H H H H a a H H j j a a j j a a u u u u u u u u u u S S Q S S Q x x S S C C U C Z x Z x ....C C U C Z C @.@.U C  . .C C  . .C C @. . .@.@.@.@. . .@.@.@.@.@.@. .@.@.@. .%.%.%.%. . .U $.%.%. .@.%.%. . .%.%.%.%.%.%. . .%.%. .@. . .@.@.@. .U $. . .C U @.@.@. .U U C C @. .x x Z x O O C C  .@.@. .Z x $.$.^ ^ v v Q Q  . .@.@.@. .C C  .@. . .@. . . .@. . . .%.%. .@. . . .@. . .%.%.%.%.@.@.@. .@.@.%.%. .@.@.@.@. .%.%. .@.@.@.@.@. .@.@.@.@.@.U U @.@. . .$.$.C C %.%. .@. . .U U  . .U C C U C Z C C C Z x x u u Z x S S S Q #.#.S S #.#.T T u u u u u u u u a a j j a a j j H H a a H H H H H H H H H H a a 8 8 a a ^ ^ ^ ^ ~ ~ ^ ^ 5 5 ~ ~ k k k 8 ~ ~ < < =.=.O O . . . . . . . . m   , ",
"  . . . . . . . = . . g g < < ^ ^ 0 0 0 0 6 6 > > ^ ^ v w 8 8 H H H H a 8 8 8 8 8 j j a a a a H H j j a a j j a a j j j j u u u u u u u u S Q u u Z Z x Z x x S Q Z x Z x x x Z Z C C Z x C C U ......C C  . .....C U @. .U $.$.$.@.@.$.$.@.@.@.@. .@.@.@.@.@.@. .%.%.$.$.%.%.%.%.%.%. .@. . . . .@. . . .%.%. .@. . .U C @. .@.@.@. .$.$.@.@.@. .@.@.$.$.$.$.C C C U C Z O O u u  . .C U $.$.+.+.^ ^ v w Z x Z C @. .U U  . . . .@.@.@.@. . .$.$.@.@.@. . . .@. . . .@.@.%.%. .@.@.@.%.%.%.%.@.@.@. . .@.@.@. .@.@.@.@.@.@.@.@.@.@. .@.@.@.@. . . . .@. . . .@. . .@.U U  . .U U  .@.C C U C x x Z x u u Z C T T x x Z x S S #.#.x x u u u u u u Q Q u u P P a a j j a a a a a a a a H H a a 8 8 H H 8 8 H H 8 N ^ ^ N k o o c c m m 6 6 9 9 8 8 { { ! ! =.=.. . . . = . . . . = - - F ",
"  . . . . . . . = . . g g < < ^ ^ 0 0 0 0 6 6 > > ^ ^ v w 8 8 H H 9 9 8 8 8 8 8 8 j j a a a a H H j j a a j j a a j j j j u u u u u u u u Q Q u u Z C x x Z x S Q Z Z x Z x x Z x Z C x x Z C ........C C  . .....C U  . .$.$.$.$.@.@.$.$.@.@.@.@.@. .@.@.@.@.@. .%.%.$.$.%.%.%.%.%.%. . .@. . . .@. . . .%.%. .@.@.@.C C  .@. .@.@.@.U $.@.@.@.@.@. .$.$.$.$.C C U U C Z O O u u  . .C U $.$.+.+.^ ^ v w Z Z C C @. .U U @. . . .@.@.@.@. . .U $. .@.@. . .@.@.@. . .@.@.%.%. .@. . .%.%.%.%.@.@. . .@.@.@.@. .@.@. . .@.@.@.@.@. . .@.@. .@. . . . . .@. . . .@. . .U U  . .U U @.@.C C U C x x x Z u u Z C T T x x Z x S Q #.#.x x u u u u u u Q Q u u P P a a j j a a a a a a a a H H a a 8 8 H H 8 8 a 9 N N ^ ^ N k o o c c m m 6 6 9 9 8 8 { { ! ! =.=.. . . . . = . . = = - - F ",
"> . . . . . . . . . . 7 7 | | { { k k 0 0 / / m m ~ ~ _ _ ] ] ] ] N N 8 8 { N 8 8 8 8 a a H H a a H H j j a a j j j j u i u u y y u u u u u u Q Q Q Q x x Z x Z x Z C Z C Q Q x x x Z U U C C  . .C C C C U ..U U  . . . .;.;.@.@.@. .@.@.$.$.@.@. . .@.@.@. .%.%. . .@. .%.%.%.%.@.@. .@.@.@.%.%. .@.%.%. .@. . . .@.@. .U $.@.@.@.@.%.%.@.@.@. .@.@.@.@.$.$.@. .U C C C v v x x Z C  . .C U $.$.^ ^ v w Z Z  . .C U $.$. . .@. .%.%. .@.@.@. . .@. . . .@. .%.%. . .%.%. .@.%.%. .@. . . .@.%.%. .@. . . .@.@.@.@. .%.%. . .@. . . .@. . . . .@. . . .@.C C U C  . .@. .C C  .@. .@.U U x x Z x u u Z x x Z x +.x x T T u u #.#.u u u u u u u u u u u u P P i u j j u i a a i u H H j j 8 8 H H N N 8 8 8 8 8 8 ] ] n n _ _ c c     ] ] 8 8 0 0 ~ ~ < < =.=.= = = . . . . = . . -   ; ",
"> . . . . . . . . . . 7 7 | | { { k k 0 0 / / m m ~ ~ _ _ c ] ] ] N N 8 8 N N 8 8 8 8 a a H H a a H H j j a a j j j j u i u u y y u u u u u u Q Q Q Q x x Z x Z Z x Z C Z Q Q x x Z C C U U C  . .C C C C ....C U @. . . .;.;.@.@.@.@. .@.$.$.@.@. . . .@.@. .%.%. .@. . .%.%.%.%. .@.@.@. .@.%.%. .@.%.%. .@. . .@. . . .$.$.@.@.@.@.%.%.@.@.@.@. .@.@.@.$.$.@. .C C U C v v x x C C  .@.C C U $.^ ^ v w Z Z  . .U $.$.$.@. . .@.%.%. .@. . . .@.@.@.@. . .@.%.%. . .%.%.@.@.%.%.@.@. . .@. .%.%. .@.@. . .@.@.@.@.@.%.%.@. . .@. . . .@. . . . . .@. . .C C U C  . . .@.C C  .@. .@.U U x x Z x u u Z x x Z x +.x x T T u u #.#.u u u u u u u u u u u u P P i i j j u i a a i i H H j j 8 8 H H N N 8 8 8 8 8 8 ] ] n n _ _ ] c m   ] ] 8 8 0 0 ~ ~ 1 1 =.=.= = . = . . = = . . -   ; ",
"  . . . . . . . . . = g g < < c c 0 0 k k 6 6 > > ^ ^ v w n n o o H H N N 8 8 8 8 H H 8 8 a a H H j j a a j j a a j j j j y y u u u u u u u u u u S S u u Z x x x Z C Z x Z C Z Z C U C C  . .C U C C U ..U U U C U U $.$.@.@.@.@.@.@.T T @.@.@. .@.@.@.@.@. .@.@.%.%.@. .%.%. . .%.%.@. .%.%.%.%. . .%.%.%.%.%.%.%.%. .@.@.@. .@.%.%.@.@.@.@.$.;.%.%.$.$.@. . . .@. .C Z n n x x  . .@. .$.$.$.$.^ ^ v v  . .@.@.@.@. .@.@.@.@. .%.%. . .%.%.%.%.%.%. .@.%.%. .@. .@.@.@.%.%. .@.%.%. .@.%.%.@.@.@. .@.@.@.@.@. .%.%.$.$.@.@.@.@. . .@.@.@.@.$.$.@. . .@.@. .U U @. .U U  . . . .U U C Z C C Z x y y u u Z C x x x Z x x x Z u u u u u u Q S #.#.S S #.j u i u P P i i j H H a a H H H H H H H H H H 8 8 a a 8 8 n n v v ] ] ] l     ] ] a a ^ { { k ! ! g g O O . . = . . = . =   - F ",
"  . . . . . . . . . = g g < < c c 0 0 k k 6 6 > > ^ ^ v w n n o o H H N N 8 8 8 8 H H 8 8 a a H H j j a a j j a a j j j j y y u u u u u u u u u u Q S u u Z x x x C C C Z x Z x Z U U C C  . .C U C C C U ..U U U U C $.$.@.@.@.@.@.@.T T @.@.@.@. .@.@.@.@.@. .@.%.%. .@.%.%. . .%.%. . .%.%.%.%. . .%.%.%.%.%.%.%.%. . . .@.@.@.%.%. .@. .@.;.;.%.%.$.$. . .@. . . .Z C n n x x  . .@. .$.$.$.$.^ ^ v w  . .@.@.@.@. .@.@.@.@.@.%.%. . .%.%.%.%.%.%. .@.%.%. .@.@.@. .@.%.%. .@.%.%. .@.%.%.@.@.@. . .@.@.@.@. .%.%.$.$. .@.@.@. .@.@.@.@.@.$.$.@. . .@. . .C U  . .C U  . . .@.U U x Z C C x x y y u u C C Z x x x Z x x x u u u u u u Q S #.j S S #.j u i u P i u j j H H a a H H H H H H H H H H 8 8 a a 8 8 n n v v ] ] ] l     ] ] a a ^ { { k ! ! g g O O . . = . . . = = - - F ",
"> . . . . . . . . . . 7 7 ! ! { { k k 0 0 / o 5 5 ~ c c ~ ^ ^ 8 8 8 8 a a H H a a H H a a H H a a H H j j a a j j j j j P P i i u P P i i u u S Q Q Q x x Z x x Z x Z Z C C Z U U C U  . ..... . .C Z  . .C U  . .$.$.$.$.$.$. .@.;.;.@.@.$.$.;.$.$.$.$.$.$.$. . .@. .%.%.@.@. . .@.@.%.%.%.%.%.%. .@.%.%.%.%.%.%.%.%.%.%.%.%.%.%.@.@.%.%.@. .%.%.%.%.%.%.$.$.$.$.C C U C n n C C U C @.@.$.;.$.$.E E n n C C C Z U U @. . . . . .@. .%.%.@.@.@. . .@.@.@.@.@.@. . .@.@.@.$.$.%.%.%.%. .@. . .%.%.@.@.@. . .@.%.%.;.$.@.@. .@.@. .@.@.@. .$.$. . .@.@.@. .C Z  . .U C C U U C Z C C C U ..U U U C y y x x Z x x x x x Z x u u x x u u S S Q S S S Q S S S #.j P P j j u i H H j j H H j j H H j j H H a a N N H H N N N N ~ ~ ~ ~     ] ] 0 0 0 0 ^ ^ < < =.=.= = . . = . = . . . -   ; ",
"> . . . . . . . . . . 7 7 ! ! { { k k 0 0 o o 5 5 ~ c ~ ~ ^ ^ 8 8 8 8 a a H H a a H H a a H H a a H H j j a a j j j j P P P i i u u P u u u u Q S Q Q x x Z x Z x Z x C C Z x U U C U  . .U .. . .C Z  . .C U  . .$.$.$.$.$.$. .@.;.$.@.@.$.$.$.$.$.$.$.$.$.$. . . .@.%.%. .@.@.@. .@.%.%.%.%.%.%. .@.%.%.%.%.%.%.%.%.%.%.%.%.%.%.@.@.%.%.@. .%.%.%.%.%.%.$.$.$.$.C C C U n n C C U U  .@.$.$.$.$.E E n n C C U C C U  . .@. . . .@. .%.%. .@.@.@. . . .@.@.@.@. .@.@.@.@.$.$.%.%.%.%. .@. . .%.%. .@. .@. .@.%.%.$.$.@.@.@. .@. .@.@.@.@.U $. . .@.@.@. .C Z  . .C C C U U C Z C C C C U ..U U C y y x x Z x x x x x x Z u u x x u u S S S Q S S S S S Q #.j j P P j i u H H j j H H j j H H j j H H a a N N H H 8 k k N ~ ~ ~ ~     ] ] 0 0 0 0 ^ ^ < < =.=.= = . . . = = . . . -   ; ",
"> . . . . . . . . . = ) ) < < c ~ 0 0 k k o l     ^ ^ c c N N N N 8 8 8 8 H H 8 8 H H H H a a H H j j a a j j j j j j j j u u P j u i S S u u u u x x S Q Z x Z x x Z Q Q C C U C  . .C C U ..U U  . .C U  . . . . .@.@. .;.$.$.$.$.$.$.$.$.$.$.$.@.@.@. .$.$.$.$.@.@.@.@.%.%. .@. .@.%.%.%.%.@. . .@.@.@.%.%. .@.@.@. .@.$.$.@.@.%.%.$.$. .@.;.;.@.@.$.;.C C >.>.H H ^ ^ O O y y ....C C Z U U U ^ ^ v w u u P j N N  . .@.@.@.@. .@.@.@.%.%. .@.%.%. .@.@.@.@. .@.@.@.@.@. .@.@.@.@. .@.%.%. .@.%.%.@.@.$.$.C C @. .$.$.@. . .@. . . .@.@.@.$.$.@. . .@. .@.C U U C U U @. .U U @.@.C C C U C Z C Z Q Q x x Q Q x x Z x x x u u S S #.#.u u P j u u P j Q Q j j j P P P P j H H a a H H a a H H H H 8 8 H H 8 k H H N N N { ~ ~ 5 5 6 6 0 0 k k { { ! ! g g O O . . = . . . . =   - ; ",
"  . . . . . . . . . = ) ) < < c ~ 0 0 k k l l     ^ ^ ~ c N N N N 8 8 8 8 H H 8 8 H H H H a a H H j j a a j j j j j j j j u i j j u i S S u u u u Z x S S C Z x Z C Z Q Q Z C C U  . .U C ....C U @. .U C @. .@. . .@.@.@.;.$.$.$.$.$.$.$.$.$.$.$.@. . .@.$.$.$.$.@.@.@.@.%.%. .@.@.@.%.%.%.%. .@. .@.@.@.%.%.@. . . .@. .$.$.@.@.%.%.$.$.@.@.$.;.@.@.$.$.C C >.>.H H ^ ^ O O y y ....C U C C U C ^ ^ v w u u P P N N  . . .@.@.@.@. .@.@.%.%. .@.%.%. .@.@.@.@.@. .@.@.@.@.@. .@.@.@.@. .%.%. .@.%.%. .@.$.$.C C @.@.$.;. . .@. . . .@. . . .$.$.@. . .@. .@.U U C U U U @. .U U @.@.C C U C Z C Z Z Q Q Z x Q Q x x Z x x x u u S S #.#.u u P j u i u P i Q #.j j j P P P j H H a a H H a a H H H H 8 8 H H 8 8 H H N N { { ~ ~ 5 5 6 6 0 0 ^ { { k ! ! g g O O . . . = . . . = - - ; ",
"> . . . . . . . . . . g g ! ! { { k k 8 8 o o 5 5 ~ c ^ ^ ^ ^ 8 8 { N H H 8 8 H H H H H H H H a a H H j j a a j j j j j P P j u i S S u u u u u u u u S S Q S Z x Z x x Z Z x Z C x x C C C C U ..U U U C U U  . .@.@.@.@.$.$.@.@.$.U ;.;.$.$. .@. .@.@.@. .@.@.@.$.$.@. .$.$.@. . .@. .@.%.%.%.%.@.@. .@.@.@.%.%.@. . . . .@.@.@.@. .%.%. .@.%.%.$.$.@.@.N N O O v v ] ] v v x x  . .C C +.+.$.$.^ ^ n n ] ] O O R R  . .$.$.@.@.$.;. .@.@. . .@. . .%.%. .@.@.@.@. .@.@.@.@.@. .@.@.@.@.@.@.%.%. .@.%.%. .@. .@.;.$.$.$.T T @.@.@.@.@. .@.@.@.@.@. .%.%.$.U U C U U U U U C Z C C Z C C x Z x Z Q Q x x u u Z x x x x x u u u u u u #.#.S S S S #.j u u a a u u P j u u a a j j H H a a H H a a 8 8 H H 9 H H H N N N N 8 k ^ { 5 5 ] ] 8 k 0 0 { { < < =.=.= = . . = . . . = . -   ; ",
"> . . . . . . . . . . g g ! ! { { { k k 8 o o 5 5 c c ^ ^ ^ ^ 8 8 { N H H 8 8 H H H H H H H H a a H H j j a a j j j j j P P j u u S S u u u u u u u u Q S Q Q C Z x Z C Z Z Z C C x Z C C U C ....C U C C C U  . . .@. . .$.$.@.@.$.$.;.;.$.$.@. .@. .@.@.@.@.@. .$.$. . .U $. .@.@.@.@. .%.%.%.%. .@. .@.@.@.%.%.@.@.@. .@.@.@. .@.@.%.%. .@.%.%.$.$.@.@.N N O O v v ] ] v v x x  . .U C +.+.$.$.^ ^ n n ] ] O O R R  . .U $. .@.$.$.@.@.@.@.@. . .@.%.%.@.@.@. .@.@.@.@.@. .@.@.@.@.@.@.@. .%.%. .@.%.%.@.@.@. .$.$.$.$.T T @.@.@.@.@.@. .@.@.@.@.@.%.%.$.U U C U U U U C C U C Z C Z Z Z x Z x Q Q x x u u Z x x x Z x u u u u u u #.#.S S S S #.j u u a a u u P j u u a a j j H H a a H H a a 8 8 H H H H H H N N N N 8 k { { 5 5 ] ] N k 0 0 { { < < =.=.= = . . = . . . = . -   ; ",
"  . . ` ` . . . . . = ,.,.< < c ~ 0 0 ^ { 6 6 > > ^ ^ ~ c N N N N 8 k 8 8 H H 8 8 H H H H a a H H j j a a j j j j j j j j u u P j u u S S u u u u u u u u x x Z C Z C y y x x Z x Z C C U C Z C C U U C Z C U U C  . . .@.%.%.@.@.$.$.$.$.@. . .@. .@.@. .%.%.@. .@. .%.%.%.%.@.@. . .@. .%.%. .@. .@.@.@.%.%. . .%.%.@. .%.%.%.%.%.%.@.@.%.%.%.%.%.%.$.$.@. .*.*.*.] y y O O x x  . .U C C U U U ^ ^ v w Z x o o ....C U @.@.@. .%.%.$.$.@.@.@.@.%.%. .@.@.@. .@. . .@.@.@.@. .@.@.@.@.@.@.@. .@.%.%.@.@.@. .$.$.@.@.U $. . .@.@.@.@. .@.@.@.$.$.@. .$.$.C U U C Z C C Z  . .C U C C U U C Z S Q Z x Q Q x x Z x x x u u #.#.S S u u u u u u j j j j u u P j u Q #.j P P j j H H j j H H j j a a H H 8 8 8 8 { N H H N N N N ~ ~ 5 5 6 6 0 0 { { k k ! ! g g O O . . . . . . . =   - F ",
"  . . ` ` . . . . . = ,.,.< < c ~ 0 0 ^ { 6 6 >   ^ ^ c c N N N N 8 8 8 8 H H 8 k H H H H a a H H j j a a j j j j j j j j u u P j u Q S S u u u u u u u u x x x Z C Z Q Q x x Z x Z C C U C Z C C U U x Z U U C U  . . . .%.%. .@.$.$.$.$.@. .@.@.@. .@. .%.%. . . . .%.%.%.%.@.@. . .@. .%.%. .@.@.@. .@.%.%. . .%.%. .@.%.%.%.%.%.%.@.@.%.%.%.%.%.%.$.$.@. .*.*.*.] y y O O x x  . .C C U ..U U ^ ^ v w Z x o o ....C U @.@.@. .%.%.$.$.@.@.@. .%.%. .@.@.@.@. .@.@.@.@.@. .@.@.@.@.@.@.@.@. .@.%.%.@.@.@.@.$.$. .@.$.$. . .@.@.@.@. .@.@.@.$.$.@. .$.$.$.C C U C C Z x  . .C U C C U U U C Q Q x x Q Q Z x x x Z x u u #.#.S S u u u u u u j j j j u u j j Q Q j j j P j j H H j j H H j j a a H H 8 8 8 8 { N H H N N N { ~ ~ 5 5 6 6 0 0 k k { { ! ! g g O O . . . . . . . =   - F ",
"> ` ` . . . . . . = = ) ) | | { { { k k { o o 5 5 c ] ^ ^ ^ ^ 8 8 N N H H 8 8 H H 9 H H H H H a a H H j j a a j j j j j P P j i u S Q u u S S u u S S Q S S u Z C x x Z x Z x x Z Z x C U U C  . .U U C U U U  . .C U  . . .@.@.@.U $. .@.@.@. .@.$.$.@.@.@.@. . . .@.@.@.@. .@.@. . .%.%. .@. . .@. . . .@. . . .@.@. .@. .@.%.%.@.@.%.%. .@.%.%. .@.@.@. . .@. .C Z x x v v C C U ..U C T +.$.$.^ ^ v v C Z C C U U @. .U $.@.@.@.@. .@.@.@.%.%. .@. . .@.@.@.@. .@.@.@.@.@.@.@.@. .@.@.@.@.@. .@.@.@.@.$.$. .@.@. .@.@.$.$.@. . .@. .@.$.$.$.$.$.$.@.@.C C C Z x x C C Z x Z Z x Z C Z C C Z x y Q Z x x x x Z #.#.#.#.u u S Q j j u i S u u u P j u i u u P P j j j j a a j j H H j j a a a a 8 8 H H 8 8 H H N N N N { { ^ ^ > > ~ ~ k k { { ~ ~ 1 < =.=.= = . . . . . . . . -   ; ",
"> ` ` . . . . . . = = ) ) | | { { k k N { o o 5 5 ] ] ^ ^ ^ ^ 8 8 N N H H 8 k H H H H H H H H a a H H j j a a j j j P P P j j u i S S u u S S u u S S S S u u Z x Z x x Z Z x Z x Z x C U U C  . .U U U C U U  . .C U  . . .@.@.@.$.;. .@.@.@.@. .$.$. .@.@.@. .@.@.@.@.@. .@.@.@. . .%.%. .@. . . .@. . . .@.@.@.@.@.@.@. .@.%.%. .@.%.%. .@.%.%. .@. .@.@.@. . .C C x x v v C C U ..U C +.+.$.$.^ ^ v w Z Z C C U C  . .$.$.@.@.@.@.@.@.@.@.%.%.@. . . .@.@.@. .@.@.@.@.@. .@.@.@.@.@.@.@.@.@. .@.@.@.@.$.$. .@.@. .@.@.$.$.@. .@. . .@.$.$.$.$.$.$.@.@.C U C C Z x x C Z x Z C Z Z Z C C Z x Z Z Q Z x x x x x #.#.#.#.u u S Q j j u i u u u u P j u u u u P j j j j j a a j j H H j j a a a a 8 8 H H 8 k H H N N N N { { { ^ > > ~ ~ ^ ^ 8 { ~ ~ 1 < =.=.. = . . . . . . . .     ; ",
"  . . ` ` . . . . . . ,.,.< < c ~ 0 0 { { 6 6 m m ^ ^ 0 0 8 8 { N ^ ^ ^ ^ 8 8 8 8 H H 8 8 H H 8 k H H 8 8 j j a a i P P j j j j P Q Q u u u u u u Q S Q u S Q x x T +.x x +.+.Z C C U C C U C ..C C U C Z U U C Z  . .C U  .@.@. . .@. . .@.@. . .@. .U U %.%. .@. .@.@.@.%.%. .@.%.%.@.@.%.%. .@. .@.@.@.%.%.@.@.%.%.@. .%.%.@.@.%.%.%.%.%.%.@. .%.%. .@. .@.;.$.C C Q Q n n y y  . .C C C C U U ^ { 5 5 x x Z C  .@.@.@. .@.$.$. . .@. .%.%.@.@. . .%.%. .@. .@.@. . .@. . .@. .%.%.%.%.@. . .@. . . .@. . . . .U U  . . . .@.@. . .U U C U U U  . .U C  . .C C C C Z C C U C C C U ..U C +.x x Z Z y y C C Z x x x u u x x #.j u i u u u u S Q u u P j u Q j j a a 8 8 H H 9 H H 9 9 H H H N k k 8 k N 0 0 k k 8 8 { N 8 8 { ^ 5 5 o o 0 0 k k c c ! ! g g . . . . . . . . ` ` > > ; ",
"  . . ` ` . . . . . . ,.,.< < ~ ~ 0 0 k k 6 6 m m ^ ^ 0 0 8 8 8 { N ^ ^ ^ 8 8 8 8 H H 8 8 H H 8 8 H H 8 8 j j a a j P P j j j P P Q Q u u u u u u Q Q u u S S x x T +.x x T +.Z C C U C C U U C U U U U C U U C Z  . .U $. .@.@. . .@. . . .@. . . . .U U %.%. .@. .@.@.@.%.%.@. .%.%. .@.%.%. .@. .@.@.@.%.%.@. .%.%. . .%.%.@. .%.%.%.%.%.%. .@.%.%. .@.@.@.$.$.C C Q Q n n y y  . .U C C U U U ^ { 5 5 x x Z C  .@.@.@.@. .$.$. . .@.@.%.%.@. . . .%.%. .@. .@.@.@. . . .@. . .%.%.%.%. .@.@.@. . .@. . .@. . .U $. .@. . .@.@.@. .C U U C U U  . .U C  . .U C C U Z C C U C C U U U C U U x x Z Z y y C C Z x x x u u Z x j j u i S u u u S S u u P j u Q j j a a 8 8 H H 9 H H 9 H H H H N k k 8 k N 0 0 k k 8 8 { N 8 8 { ^ 5 5 o o 0 0 k k c c ! ! g g . . . . . . . . ` ` > > ; ",
"> ` ` . . . . . . = = g g ! ! ~ ~ k k { 8 o o v v { { k k ^ ^ 8 8 8 8 H H 8 8 H H 8 8 H H 9 H H a H H a a a a P P j j u u P j P P j j u u u u x x u u u u Q S x x Z x Z C S S x x x Z x Z Z x C C C U U C U U U U C U U U C U  .@.@. .@.@.U U  .@. . .@.@.@.@. .@.@.@.%.%. .@.@.@.@.@. . . .@.%.%. .@.@.@. .@. .@.@.@. .@.@.@.@.@. .@.%.%. .@.@.@.$.$.@. .$.$.$.$.x x Z Z v v C Z  . .@. .C U @.@.^ ^ n n C Z C C U $. . .C U @. .@.@. . . . .@. .@.@.%.%. .@.%.%. .@. . .@. . . .@. . . .@.@. . .@. .%.%. . .@. .C U  . . . .@.@.$.U @. .U U @. . .@. . .C C C U C Z C C Z C C U C C U C x x Z C Z x x Z u y x x u u u u u u Q S u u S Q #.j S S Q S S S P P j j H H j j H H H H H H 8 8 { ^ k k 8 k 9 9 8 8 9 9 c c ^ { { ^ k k m m ] ] ^ { 0 0 ~ ~ < < g g = = = . . . . . . .     , ",
"> ` ` . . . . . . = = g g ! ! ~ ~ k k { 8 o o v v k { { ^ k ^ 8 8 8 8 H H 8 8 H H 8 8 H H H H a a H H a a a a P P j j u u P P j i j j u i S u x x u u u u Q Q x x Z x Z C S S x x x x Z x x x C C U ..U U U C U U U C U U U U @.@.@. .@.@.U U  .@. . . .@.@.@.@. .@.@.%.%. .@.@. .@. . . . . .%.%. .@.@.@.@. . .@.@.@.@.@.@.@.@. .@.@.%.%. .@.@.@.$.$.@.@.$.;.$.$.x x Z Z v v C Z  . . . .C U  .@.^ ^ n n Z C C U $.$. . .C U  . . .@. .@.@. .@.@.@. .%.%. .@.%.%. .@. . . .@. . .@. . . .@.@.@. . .@.%.%. .@. . .U U  . . . .@.@.$.U  . .C U  . . .@. . .C C C U C C U C Z C C U U C C Z x x C Z x x Z x u y x x u u u u u u Q S u u S Q j j Q S S Q S S P P j j H H j j H H H H H H 8 8 { ^ 8 k k 8 9 9 8 8 9 9 c c ^ { ^ ^ N k m m ] ] ^ { 0 0 ~ ~ < < g g = = . . . . . . . .     , ",
"> . . . . = . . . . = ) ) ! ! ~ ~ k k { { 6 6 5 5 { {     8 8 8 8 8 8 8 8 8 8 8 8 8 8 8 8 8 8 N N 8 8 N N a a j j u u u P j j H H a a j j u u u u u u j P x x Z x +.+.+.Z +.+.Z x +.+.x x x x Z x Z C C C  .@.C C C Z x Z U U C U  . . . . .@. . . .@. . . . .U U @.@. . .@. . .@.%.%. .@. .@.@.@. .@.@.@.%.%. .@. . . .@.@.@.@. .%.%.@.@.@. .@.@.@.@.C C U $.C C U C ..C n n u u  . .U $. .@.U U a a d d C C U .. . .C U U C $.$.@. .@. . . .@.@.@.@. .@. . .@.@. .@.@.@.%.%.@. .%.%.@.@.%.%.@.@.@. .@. .%.%. .@. . .C U  . . .@. . . .@. . .C C U U C Z C U Z C $.U C C C U C Z x Z Q Q Z C x x Z x u u x x Z x x x x x S S u u u u u u S S a a j j j j u u a a j j H H H H N N H H N N H 9 8 8 H H 8 N 0 0 k k ^ ^ 8 8 6 6 8 8 5 5 6 6 0 0 k k ^ { ! ! g 7 . . . . . . . . ` ` -   ; ",
"  . . . . . . . . . = ) ) ! ! ~ ~ ^ ^ 8 { 6 6 5 5 { {     8 8 8 8 8 8 8 8 8 8 8 8 8 8 8 8 8 8 N N 8 8 N N a a j j u u u P j j H H a a j j u i S u u u P P x x Z x +.+.+.+.Z +.x x T +.x x x Z x x x C C C  .@.C C C C Z x U U U C  . . . .@. . . .@. . . .@.@.C U @.@. . .@. . .@.%.%. .@.@.@. .@.@.@.@. .%.%. .@.@. . .@.@.@.@. .%.%.@.@.@.@. .@.@.@.C C U $.C C C U C Z n n u u  . .U $. .@.U U a a d d C C U .. . .U U U C $.$.@. . .@. . .@.@.@. .@. . . .@.@. .@. .@.%.%.@.@.%.%.@. .%.%.@.@. . .@. .%.%.@. . .@.U U  . .@. . . .@. . . .C C U C Z C C U Z C $.U C C $.U Z x Z C Q Q C Z x x Z x u u x x x Z x x x x S S u u u u u u S S a a j j j j u u a a j j H H H H N k H H N N H 9 8 8 H H N N 0 0 k k { { 8 8 6 6 8 8 5 5 6 6 0 0 k k { { ! ! g 7 . . . . . . . . ` ` -   '.",
"  ` ` . . . . . . . . g g ! ! { { { ^ k 8 ( ( 5 5 ~ c _ _ c ] ] ] 8 8 8 8 8 8 8 8 8 8 8 8 { N 8 8 { N 8 8 N N a a a a P i j j j j a a i P u u y y u u y y x x Z x x x C C S S x x u u Z x u u Z C x x Z x Z C C C C Z U C C Z U U U C @. .@. . . .@. . . .@. . . .C U @. . . .%.%. . .@. .@. .%.%. .@.%.%.@.@.@.@.@. .@.@.@.@.@. .@.@.@.@.@.@.@. .U $.$.$.C C  .@.C U U C R R y y C C C U ..U @.@.8 8 d d C Z  .@.@. . .@.+.+. . .$.$.@. . .@. . . .@. . .@.@.@. .$.$.%.%. .@. .@.@.@.%.%. .@. . .@. .@. .U U C U  . .U U  .@. . . . .@. .C U  . .Z x Z C Z Z Z C x x Z x u y Z x Z C Z Z u u y y Q Q x x Q Q x x S Q Z x u u u u S S u u j j j j H H S S #.j P P H H 8 8 N N 8 8 N N a H 8 k H H 9 9 H H ^ ^ 0 0 ] ] l o : : c c   m 6 l { { 0 0 ~ ~ < < g g . = . . . . . . . . > > , ",
"  ` ` . . . . . . . . g g ! ! { { ^ ^ 8 k ( ( 5 5 ~ c _ _ c ] ] ] 8 8 8 8 8 8 8 8 8 8 8 8 { N 8 8 { N 8 8 N N a a a a P i j j j j a a j P u u S Q u u Q Q x x Z x x x C C Q S x x u u x x u u C C Z x x x C C U C Z C Z Z Z Z C U C C  .@. .@. . .@. . . .@. . . .C U @.@.@. .%.%.@.@.@.@.@. .%.%. . .%.%. .@. .@.@.@.@. .@.@.@.@.@. .@.@.@.@.@. .U $.$.$.C C @. .U U C C R R y y C C C U ..U @.@.8 8 d d C Z  .@. . .@. .+.+. . .U $. .@.@. . . .@. . . .@.@.@.@.$.;.%.%. .@. .@.@.@.%.%.@. . .@. . . .@.U U C U  . .U U @. . . . . . .@.C C @. .x Z x Z C Z C C x x x Z u y Z x Z C Z Z u u y y Q Q x x Q Q x x Q Q Z x u u u u Q S u u P j j j H H S S #.j P P H H 8 8 N N 8 8 8 k H H N N 9 9 H H H H ^ ^ 0 0 ] ] l o : : c c m m l l { { 0 0 ~ ~ 1 < g 7 . = . . . . . . . . > > , ",
"> . . = . . . = . . = g g < < c ~ k k N { 6 6 > > ^ ^ 5 5 n n { { k 8 8 8 8 8 8 8 N N ^ ^ 8 k 8 8 H H N N H H H H j j j j u u j j j P j j u i u u u u j j Q S u u Z x u u Z x u u u u Q S x x C C C Z u u Z x x x C C U C Z C C U U C U U  . .U C @. .@. . .@.C U @.@.$.$.@.@.@.@.@.@. .@.@.@. .@.@.@.$.;. .@.@.@.%.%.@.@.@. .@. .@.@.$.;.$.$.$.$.@. .C C @. .x C C U C Z n n Z C C U C Z @.@.C C 0 0 v v C Z  ... . . .@. . . .@. . . . . .@. . .@. .%.%.%.%. .@. .@.@.@. .@.@.@.@.@. . .%.%. .@. .@.@.@. . .U U  . .U U  . .C U  . .C C  .@.C U C C Z x U U U C C Z x x Z x u y Z Z u u Z x j j j j u u y y u u x x u u u u Q S u u j j j P P j j j j j j j a a a a 8 8 H H N N 0 8 { N H k k 8 9 9 8 8 8 8 { N / / V V { { ~ c 5 5 6 6 0 0 k k ^ { ! ! 7 7 = = . . . . . . . .     ; ",
"> . . . = . . . = . = g g < < c ~ k k N { 6 6 >   ^ ^ 5 5 n n { { 8 8 8 8 8 8 8 8 N N ^ ^ 8 k 8 8 H H N N H H H H j j j j u i j j j P P j u u u u u u j j Q Q u u x x u u x x u u u u S S x x C C C Z u u Z x x x C C C U C Z C C U U C U  . .C U  . . .@. . .U U @. .;.$.@.@.@. .@.@. .@.@.@. .@.@.@.$.;. .@.@.@.%.%. .@. .@.@.@. .@.$.$.$.$.$.$.@. .U C  . .C C U C Z C n n C C U C C C  .@.C C 0 0 v v C Z .... . . .@. . . .@. . . . . . . . . .@.%.%.%.%.@.@. .@.@.@.@.@. .@.@.@.@. .%.%. .@. .@.@.@. . .U U @. .U U @. .U U  . .U C  . .C U C C Z C $.U C U U C x x Z x u y Z Z u u Z x j j j j u u y y u u x x u u u u S S u u P j P P P j j j j j j j a a a a 8 8 H H k k 8 k N N N N N { 9 9 8 8 8 8 { N / / V V { { ~ c 5 5 6 6 0 0 { { k k ! ! 7 7 = = . . . . . . . .     ; ",
"  . . . . . . . . . . g g ! ! { { ^ k 8 8 6 6 5 5 ~ ~ k k ^ ^ N k 8 8 { N 8 k k 8 ^ ^ 8 8 N N H H 8 8 8 8 8 8 a a a a P j j j u u j j j P P j u u u u u u x x x Z u u Q Q u u S Q u u u u u u Z C Q Q Q Q x Z x Z x x Z C C Z U U U C U U C U U U U C @.@.C U @.@.$.$. .@.@. .@. . . . . .@.@.@.@. .@.@.@.@.@.@.@.@.@. .@.@.@. . .C Z $.$.$.$.@.@. . .@. . . .j j u i x x v v x x U U C U U x  . .{ { d d x x E E u u  .@.@.@. .@.@.@. . .C U @. .@.@.%.%.%.%. .@.$.$.@. . .@. . .@. .%.%. .@.@.@. . .@. .C U  . .@.@.%.%.$.U @.@.C C U U C U  . .Z x Z C Z Z Z C x x C C x x Z x u y Z x P P j i u u Z C x Q Q Q Q Q x x Q S u u j j Q S P P Q S #.j u u P j a a H H a a 8 8 H H H H 8 k N N N N 8 k 9 9 8 k k 8 8 8 a a ^ ^ ^ ^ > > ] ] ^ { { { ~ ).< < 7 g . . . . . = . . . . > > ; ",
"  . . . . . . . . . . g g ! ! { { { ^ k 8 6 6 5 5 ~ ~ ^ ^ 8 { k k 8 k N 0 k k 8 8 ^ ^ 8 8 N N H H 8 8 8 8 8 8 a a a a P j j j u i j j j P j j u u u u u u x x Z x u u u Q u u Q Q u u u u u u Z Z Q Q Q Q Z x Z x x Z C C C Z U U U C U U U C U U U U @.@.C U @.@.$.$.@.@.@. . .@.@. . .@.@.@.@.@. .@.@.@.@.@. .@.@.@.@.@. . . .@.C Z $.$.$.$.@.@. . . .@.@.@.j j u i x x v v x x U U C U U x  . .{ { d d x x E E u u  .@.@.@. . .@.@. . .C U @. .@.@.%.%.%.%. .@.$.$.@. . .@. . .@. .%.%. .@. . . .@.@.@.C C  .@. .@.%.%.$.U @.@.C C U U C U  . .Z Z x Z C Z C C x x Z C Z x x x S Q Z x P P j i u u C C Q S Q Q Q Q Z x Q S u u j j S S P P Q S j j u i j j a a H H a a 8 8 9 9 H H 8 8 { N 8 k k k 9 9 8 k 8 8 8 8 a a ^ ^ ^ ^ > > ] ] ^ { { { ~ ).< < g g . . . . . . . . . . - > ; ",
"> . . = . . . = . = = ) ) < < ^ { 8 8 { ^ 6 6 > > c c ^ { 8 8 { N 8 8 8 8 { N ^ ^ 8 8 { N 8 8 8 8 H H 8 8 H H H H j j a a j P j j u i j P u u u u Z x x x x x P P Q Q x x C C x x x Z x x u u y y x x u u C C Z C Z Z Q Q C Z C C U $.C C  . .C U  . .C C @. .@. . .@.$.$.@. .C C @.@.$.;. .@.U U @.@. .@.@.@. .@.%.%.@.@.%.%.$.U $.$.$.$.@. . .@.@.@.C C H H # # N N o o n n y y  . .C U  . .C C 8 8 d d *.*.>.>.&.&.C C  .@. .@.%.%. .@.@.@. .@. .@.@.@.%.%.@. .$.$.$.$. .@.@. .@.@.@. .%.%. .@. . . .@. . .U $. .@.@. . . . .@.U U C C  .@.C C C C x x Z x Z C Z Z Z C x Z x Z Q Q j j x x u u x x x x Z x u u x x u u u u P P P j j j u u a a j j j j P j 8 8 a a H H H H a 9 9 a 8 8 9 9 8 8 8 8 8 8 8 8 8 8 9 9 { { k k ~ ~ 5 5 6 6 0 0 k k { { ! ! 7 7 . . . . . = . . . . >   F ",
"> . . = . . . = . = = ) ) < < { { k 8 ^ ^ 6 6 > > c c ^ ^ 8 k 8 { 8 8 8 8 { N ^ ^ 8 8 { N 8 8 8 8 H H 8 8 H H H H j j a a j P j j u i j P u u u u x x x x Z x P P Q S x x C C x x x x Z x u u u Q x x u u C C C Z x Z Q Q Z C x C C U C Z @. .U C  . .C C @. .@. . .@.$.$.@. .C C  .@.$.$.@.@.$.U @.@. .@.@.@. .@.%.%. .@.%.%.$.$.$.$.$.$. . .@.@.@. .C U H H # # N N o o n n y y  . .U C  . .C C 8 8 d d *.*.>.>.&.&.C C @. .@. .%.%. .@. .@.@.@. . .@.@.%.%.@. .$.$.$.$.@.@.@.@. .@. . .%.%. .@. . . .@. . .U U  .@. .@.@. . .@.U U C U  . .Z C C Z x x C Z x Z C C x Z C Z x Z Q Q j j x x u u x x x x x Z u u x x u u u u P P j j j j u u a a j j j j j P 8 8 a a H H 9 9 H H a a 8 8 H H 8 8 8 8 8 8 8 8 8 8 9 9 { { { k ~ ~ 5 5 6 6 0 0 k k ^ { ! ! 7 7 . . . . . . . . . . >   F ",
"  ` ` . . . . . . . . g g ! ! { { k k { { ( ( 5 5 ~ ~ k k { { k k 8 k N N 8 8 8 8 a a a a N N H H 8 8 H H H H a a H H j j j j j j a a u u i u u u u u Q y x x u u P P x x Q Q x x u u u u u u Z x u Q Z C x C Z x Z x x Z Z Z C U C C @. .@. . .@.$.U U C U U  . .U U  .@.C C U C  . .@.@.@. .$.$. .@.$.$.@. . .@. .@.@.@. . .@. . .@. . . . .%.%. .@. . .+.+.&.&.'.'.Z C v v Q Q Z C U U C Z C C ^ ^ v d o o     ; ; @.@.@. .%.%. .@.%.%.$.U @.@.@. .@. .@. . . .$.$. .@.$.$.%.%. .@. .@.@.@. . .Z C C U  . .@. .C U  . .C C  .@.C U C U U C  . .Z x Z C x x Z C Q Q Z x Z x x Z u u y y u u u u Q S C C Q S Q Q u u Q Q P P i i j j j P j j u i a a j P a a a a 8 8 a a 9 9 a a 8 8 9 H 8 k a a 8 8 j j 8 8 a a ^ { { k k ^ ^ ^ > > ~ ~ k k { { ~ ~ < < g g . . . . . . . . . .     ; ",
"  ` ` . . . . . . . . g g ! ! { { k k { { ( ( 5 5 ~ ~ ^ ^ 8 { k k k 8 k N 0 k 8 8 a a a a N N H H 8 8 H H H H a a H H j j j j j j a a i u u i u u i u y y x x u u P P x x S Q Z x u u u u u u x x Q Q x Z C C x Z C x x Z C Z C U U C  . . . . .@.U U C U U C  . .U U @.@.C C U U @. . . .@.@.$.;. .@.U $.@. .@. . .@.@. . .@. . .@. . .@.@. .%.%. .@. . .+.+.&.&.'.'.Z C v v Q Q C Z U U C Z C C ^ ^ v d o o     ; ; @.@.@. .%.%. .@.%.%.$.$.@.@.@.@.@. .@. . .@.$.$. .@.$.$.%.%.@.@.@. .@.@. . .C Z U U  . . . .U U @. .U C  . .C U $.U U C  . .Z Z C C x Z C Z Q Q C Z x x x Z u u Q Q u u u u y y C C Q S Q Q u u y y P P i i j j P P j j u u a a i P a a a a 8 8 a a H H a a 8 8 9 H 8 k a a 8 8 j j 8 8 a a { { k k ^ ^ ^ ^ > > ~ ~ k k { { ~ ~ 1 < g g . . . . . . . . . .     ; ",
"  . . . . . . . . . = ) ) < < ~ ~ k 8 { ^ 6 z 5 5 { ^ ~ ~ 8 8 { N 8 8 ^ ^ N k { { 9 9 8 8 8 8 k k 8 8 8 8 a a a a j j a a u u a a j j j j u u i u u i u u u u u u Q Q u u Z x u u u u u u x x x x C C C Z x x Z x Z Z x Z x Z C Z C U U C U U U U @.@.U U C U U U  . .U U C U U U $.$.@. . .@.$.$.@. .@. . .@. . .@.@.$.$. .@.@. .%.%. . . .@.@.@. . .C C ;.$.C C  .@.u u v v Q Q  . .C U  . .C U ^ { v v Q Q Z C C U U U U C @.@.%.%.@. .@.@.@. .%.%. .@.@. .$.$. .@.@. .@.@.@.@.%.%.@.@.@. .@. .@. .U C  . . . .@. .$.$.U U  .@. .@.U U U C U C C C Z x x C Z x x x S Q Z x u Q Z x Q Q Z x x x y y u u y y Q y y Q y y x x u u u u u u u u j P j j a a i u a a j j 8 8 j j H H H H 8 8 0 0 k k 8 8 { { k k ^ ^ ^ { { ^ ^ ^ ~ ~ 5 5 6 6 { { k k ~ ~ ! ! 7 7 = = . . . . . . . . -   F ",
"  . . . . . . . . = = ) ) < < c ~ k 8 { ^ 6 z 5 5 { ^ ~ ~ k 8 { { k 8 ^ ^ 8 k { { 9 9 8 8 8 8 8 { N 8 8 8 a a a a P j a a i P a a j j j j u i u u u u u u u u u u Q y u u x x u u u u u u Z x x x C C C Z x x x Z x Z Z x Z Z x Z U U U C U U U U @.@.U U U C U U  . .U U U C U U $.$.@. . .@.$.$.@.@. . .@. . .@. . .$.$. .@.@. .%.%. . .@.@.@. . . .C C $.$.C C @. .u u v v Q Q  . .U C  . .C U ^ { v v Q Q Z C C U U U U U  .@.%.%. .@. .@.@.@.%.%.@. .@.@.$.$.@. .@.@.@. .@.@.%.%.@.@.@. .@.@. . .U C  . . . . .@.$.$.$.C @.@. . .C U U U C C C U x x Z C Z x x x Q Q x Z Q Q x x Q Q x x x x y y u u y y Q y y Q Q Q x Z u u u u u u u u j j j j a a i i a a j j 8 8 j j H H a 9 8 8 0 0 k k 8 8 { { { k k ^ ^ ^ { ^ ^ ^ ~ ~ 5 5 6 6 { { k k ~ ~ ! ! 7 7 = = . . . . . . . .   - F ",
"> . . . . . . . . . . 7 g ! ! { { ^ k 8 8 z z M M ~ ~ k k { { k k ^ { { { ~ c { { ^ ^ 8 8 { N H H 8 8 H H 9 H j j a a j j j j j j j j u u j j u u u u Q y u u y y Q y x x x x Z x u y Z x x x Z x x x C C S Q Z x x x C C Z x x C C C  .@.C C  . .C U  . ...U @. .@.@. .@.C C  .@.$.C  . .@. .@.@.@.@.@.@.@. .@.@.$.$.$.$.@.@.@.@.@.@.@. . .@. . .C C $.$.C C @. .C C Z x v v C Z U U  . .U C  . .{ ^ !.!.x x U ..$.$.@. .C C @.@.@. . .@. . .@. .@.@.@. .$.$. .@.@.@.@. .$.$.%.%. .@.@.@.%.%. .@.%.%.@. . .@.%.%.@.@. . .@. . . .@. .@.@.C C U C x x Z C Z x x Z Q Q x x S Q Z x u Q Z x Z x Q y u u x x u u y y u u x x Q Q u u u u i u u i j j a a j j a a P P H H a a H H j j 8 8 H H 8 N 8 8 { N 8 8 ^ ^ 0 0 k 8 0 0 ~ ~ ^ ^ > > ~ ~ ^ ^ 8 { ~ ~ < [ g g . . . . . . . . . . - > ; ",
"> . . . . . . . . . . 7 g ! ! { { { ^ k 8 6 z M M ~ ~ ^ ^ 8 { k k { { k k ~ c ^ ^ ^ ^ 8 8 N N H H 8 8 H H H H j j a a j j j j j j j j u u j j u i u P Q Q u u y y Q y x x Z x x x Q Q x x Z x Z C S x C C Q Q C Z x x C C Z x x C C C @. .U C @. .U U  . .$.U  .@. .@.@. .C C  .@.C U  . . .@.@.@.@.@. .@.@.@.@.@.$.$.$.$. .@.@.@. .@.@. . . . .@.C C $.$.C C @. .C C x x v v C Z U U @. .U C  . .{ ^ !.!.x x ....$.$.@. .C C @.@.@.@. . .@. . .@. .@. . .$.$.@. .@.@.@. .$.$.%.%.@.@.@. .%.%. .@.%.%. . .@. .%.%.@.@. . . .@. . . .@.@.@.C C U U x x C C x x x Z Q Q x x Q Q x x Q Q C Z x x y y u u x x u u y y u u x x S Q u u u u P i u u j j a a j j a a P P H H a a H H j j 8 8 H H 8 N 8 8 { N 8 8 ^ ^ 0 0 k 8 0 0 ~ ~ ^ ^ > > ~ ~ { { k k ~ ~ [ [ 7 g . . . . . . . . . . > > ; ",
"- . . . . . . . . = = ) ) < < ~ ~ 8 8 { ^ 6 6 5 L { { ~ c 8 8 { N 8 8 ^ ^ { { ^ ^ 8 8 8 { N 8 8 8 a a H H a a a a j j a a j j a a i i u u i u j j u i S u u u i u Q Q u u x x x Z x x u u Z C Q Q C Z x Z x Z x x Z x x Z C Z x x Z C C U  . .C C  .@.C U U U C U  . .U U  . .@. . . .$.$.@. .@. . .@. .@.@.@.$.$.$.$.$.$. .@.@.@.%.%.@. .@.@.C U  . .@. .C Z +.+.Z x Q Q v v P P  . .C U C C U U ^ { r r Z C C U C C U C @.@.@. .@.@.@.@.@. .@.@.%.%. .@.$.$.$.$.@.@. . .%.%. .@.%.%.@. . .@.C U  . . .@.@.@.@. .@.@.@.@.@.@.U U %.%.$.U U C x x Z Z x Z x x Q Q x x Z x Z C S Q Z x Q Q x x u u x x u u Z x u u u y u u y y u u i u u i u u i u u i a a a a a a a a a a j j a a H 9 8 8 0 0 k k 8 8 { N 8 8 ^ ^ 0 0 k k ^ { ~ ~ 5 5 6 6 { { { ^ k ^ ! ! g g = = . . = . . . . . > > F ",
"  . . . . . . . . = = ) ) < < ~ ~ k 8 { { 6 6 L L { { ~ c 8 8 { N 8 8 ^ ^ ^ ^ 8 ^ 8 k 8 { 8 8 8 8 a a H H a a a a j j a a j j a a i u u i u u j j u i S u u u i i Q Q u u x x x x Z x u u x Z Q Q x Z x Z C Z Q x x Z x x x C C x C C C Z  . .C U  .@.U U C U U U  . .U U @. . . .@.@.$.$.@.@.@. .@.@.@.@.@.@.$.$.$.U $.$.@.@.@.@.%.%. .@. .@.C C  .@. .@.C C Z +.+.Z Q Q v v P P  . .U C C U U U ^ ^ 5 r Z C C U C C U C @.@.@.@. .@.@.@.@.@. .@.%.%.@.@.$.;.$.$. .@. . .%.%. .@.%.%.@. .@.@.C U  . . . .@.@.@.@. .@.@.@.@.@.U U %.%.U U U C x x Z Z Z x Z x Q y x x Z x Z C S Q Z x Q Q x x u u x x u u x x u u y y u u y y u u i u u i u u i i u u a a a a a a a a a a P j a a a H H 8 0 0 k k 8 k N 0 k 8 { { 0 0 { { k k ~ ~ 5 5 6 6 { { { ^ k ^ ! ! g g = = . . . . . = . .   - F ",
"> . . . . . . . . . . 7 g ! ! { { { ^ k 8 6 ( 5 5 ~ c { { k k { { { { k k { { 0 0 k 8 9 9 8 8 9 9 8 8 a a H H 9 a H H a a a a u u i i u u i j u u P j u u u u y y Q Q x x u u y y u u y Q Q Q x Z x x C C Q Q x x x x x Z x x x Z x x C C C C  . .U U  . . . .U U Z x @.@.@. . .@.U U  .@.+.+. . . .@.@. .@.@. .@.$.$.$.$.$.$.@.@. .@.@.@.U U $.$.C C C C C C $.$.C Z Q Q v v i i C C C $.C C @.@.^ ^ d d x x  . .U U $.$.$.C @.@.U U  . . .@. . .$.$.@. .$.$.$.$.C C @.@.$.$.@. .U U $.$.$.$. . .U U %.%. . . .@. . .@.@.$.U Z C C U Z C x x x Z x x C Z Z Q x x Q Q Z x x x x Z u u Q Q Q Q u u u u x x Q Q u u u u u u u i i u u u y y y y u u u u j j 8 8 a a a a a a a a a a 8 8 9 9 k k k 8 8 k k 8 k k 8 k ~ ~ { { c c ^ ^ > > ~ ~ { { { { ~ ~ [ [ ) ) . . . . . . . . . . > > , ",
"> . . . . . . . . . . 7 g ! ! { { { { 8 8 ( ( 5 5 ~ ~ { { { { { k k { { { { k 0 0 8 8 9 9 k 8 a 9 k 8 a a H H a a H H a a a a i i u i i u i P u u P P u u u u y y y y x x u u y y u u y Q Q Q x x x Z x C Q Q x x x x Z x x x x C x x C C C C @. .U U  . . .@.U U Z x @.@.@. . .@.U U  .@.+.+. . . .@.@. .@.@.@.@.U $.$.$.$.$.@.@. .@.@.@.U U $.$.C C C C C C U $.C Z Q Q v v i i C C C $.C C @.@.^ ^ d d x x  . .U U $.$.C U  .@.U U  . . .@. . .$.$.@. .$.$.$.$.C C @.@.$.$.@. .$.U $.$.$.$. . .U U %.%. . . .@. . .@.@.$.U Z C U U Z C x x x Z x x C C Q Q x x Q Q Z Z x x x x u u Q Q Q Q u u u u x x Q Q u u u u i u u u u i u u Q Q y y u u u P j j 8 8 9 a a a a a a a a a 8 8 9 9 k k 8 k k k 8 k k k k 8 ~ ~ { { c c ^ ^ > > ~ ~ { { { { ~ ~ [ [ ) ) . . . . . . . . . . > > , ",
"  . . . . . . . . = = ) ) < < { { 8 8 k { 6 6 5 5 { { > > 0 0 0 0 { { ~ c k k { { 8 8 8 k 8 8 k 8 9 9 8 8 9 9 k 8 a 9 H H j j i i j j i u u u u i u u i i u i P j u u u u x x i i Q Q j j x x Q Q Z x x x x x Q Q Z Z x x Q Q Z x C C C C $.C  . . .@.Z x C C C C C C C C  . . .@. . .$.$.$.$.C U  .@. . . .@.$.$.U $.+.+.$.U $.$.$.$.$.$.C C S S +.+.+.+.C C Z x C C x x = = u u U U Z C U U $.U { { r r U U $.U C C +.+.C C C C C C +.+. . . .@. . .C U @.@.U $. . . .@.@. .$.$.$.$.$.U @.@.U C @.@.@. .@.@.U U  . .U $.C Z C C C C C Z C C C x C C x x x x Z x x Z x x x Z u u y Q u u u u i u x x u u x x u u y y u u i i u i y y u p i i j j j j a a H H 8 8 9 a 8 8 9 a 8 8 8 k 8 N a a 8 8 k 8 N k k 8 k k { { { { / / ~ ~ 5 5 6 6 { { { { k { ! ! g g = = . . . . . . . .     ; ",
"  . . . . . = . . = = ) ) < < { { 8 8 { { 6 6 5 5 { { > > 0 0 0 0 { { ~ c k k { { 8 8 k 8 8 8 k 8 9 9 k 8 a H 8 8 9 a 8 H j j i u j j i u u u u u i u u i u u P j u u u u x x i i Q Q j j x x Q Q x Z x x x x Q Q Z Z x x Q Q Z x C C C C U $. . . .@.Z Z C C C C C C C C @. . . .@. .$.$.$.$.C U @.@. .@.@.@.U $.U $.+.+.$.U $.$.$.$.$.$.C U S S +.+.+.+.C C Z x C C x x = = u u U U Z C U U U $.{ { r r U U $.U C C +.+.C C C C C C +.+. . . . .@. .C U  .@.$.$. . . . .@.@.$.$.$.$.$.$. .@.U C @.@. . . .@.U U  .@.$.$.C U C C C C C C U Z Z Z C C x x x x x Z x C x x x Z u u Q Q u u u u i u x x i u x x u u y y u u u u u i y y u p i i j j j j a a H H 8 8 a 9 8 8 9 a 8 8 8 8 k N a a 8 8 k 8 N k 8 8 k { { { { { / / ~ ~ 5 5 6 6 { { { { k { ! ! g g = = . . . . . . . .     ; ",
"> . . . . . . . . . . g g ! ! { { { { k 8 ( ( 5 5 ~ ~ > > l l l l c c k k { { 8 k ^ ^ 8 8 ^ ^ 8 8 8 k 9 9 8 8 H H 8 8 9 a 8 8 j j 8 8 j j a a i i u i y y u u u u u u x x i u Q Q y y x x Q Q Q Q x Z x Z x x Z x C Z x x Q Q C Z Z x C C C C C U C C C C C C C C C Z  . .U U $.U Z +. . .C C U $.C C U $.$.$. . .$.$.$.$.$.$.@. .U $.C C +.+.C C C C C C x x C C Z x x x v v y y U U $.U C U  .@.^ ^ v v y Q U U Z x C U U Z C U U U $.$.C C  .@. . . .@.$.$.$.$.$.$.$.$.$.$.$.$.C U  .@.$.$.$.$.$.$. . .U U $.U +.+. . .Z x @.@.Z x C Z Z x C Z Z Z x x x x C C x x x Z Q Q x x Q Q Q Q Q Q C C x x u u u u i u j j i u u i y y u u j j a a a a a a j j 8 8 a a 8 8 a 9 H H a a ^ ^ 8 8 8 8 k 8 8 8 0 0 { ^ ^ 8 6 6 ( ( : : ^ ^ > > 6 6 { { 0 0 ~ ~ [ < ) ) . . . . . . . . . . > > , ",
"> . . . . . . . . . . g g ! ! { { { { k 8 ( ( 5 5 ~ ~ > > l l l l c c k k k { { 8 ^ ^ 8 8 ^ ^ 8 8 8 8 a 9 8 8 H H 8 8 a 9 8 8 j j 8 8 j j a a i i u i y y u u u u i u x x u u y Q y y x x Q Q Q Q x x C Z x x Z Z x C Z x Q Q C Z Z Z Z C C C U U Z C U C C C C C C Z  . .U $.C U Z +. . .U C $.$.C U C $.$.$.@. .U $.$.$.$.$. . .U $.C U +.+.C C C C C C x x C C Z Z x x v v y Q U U $.U C U  . .^ ^ v v Q Q U U Z x U U Z C U U U U $.$.C C  . . .@. . .$.$.$.$.$.$.$.$.$.$.$.$.C U @.@.U $.$.$.$.$. . .U $.C U +.+. . .C Z  . .Z x C Z Z Z C C Z Z x x x x C C x x Z C Q Q Z x Q Q Q Q Q Q C C x x u u u u i u j j u i i u y y u u j j a a a a a a j j 8 8 a a 8 8 a 9 H H a a ^ ^ 8 8 8 8 8 8 k 8 0 0 { ^ { { 6 6 ( ( : : ^ ^ > > l 6 { { 0 0 ~ ~ [ < ) ) . . . . . . . . . . > > , ",
"  . . . . . . . . = = ) ) < < { { 8 8 { { 6 6 > > ~ ~ 5 5 d d d d 8 8 ^ ^ 8 8 k { { 8 { ^ ^ ^ 8 k 9 9 8 8 H H 8 8 a 9 a a j j a a a a a a j j a a j j a a i u u u u i u u i u P P y y u u x x u u x C x x x x Z x C C Q Q Z x x x x Z Z x C Z Z C C $.x Z C C C C U C C C  . .U U C C U U $.U +.+.+.+.+.+.$.$.$.$.$.$.$.$.C U C C $.U $.$. . . .@.$.$.x x C U S S y y y y O O i i  . .U C C C Z Z ^ ^ r r Q Q u u x x C C C U Z +. .@.@. .@.@.U U  .@.+.+. . . . . .@. . . . .U C $.$. . .$.$.+.+. . .U U @. .C C C C Z x C Z  . .U C x x C C Z x x x S S x x x Z x x Q Q Z x Q Q x Z Q Q Q Q u u y Q x x Q Q u u Q Q u u u P i i j h H H 8 8 8 8 9 a a a a a a a H H 8 8 a a a a 8 8 8 k 8 8 8 >.8 8 k 8 8 8 { { n n : : ] ] ~ ~ > > 6 6 0 0 { ^ { { ! ! g g . . . . . . . . . .     ; ",
"  . . . . . . . . = = ) ) < < { { 8 8 { { 6 6 > > ~ ~ 5 5 d d d d 8 8 ^ ^ 8 8 k { { 8 ^ ^ ^ ^ 8 k 9 9 8 8 H H 8 8 a a a a j j a a a a a a j j a a j j a a u u u u i u u i u u P P y y u u x x u u Z Z Z x x x x Z x C x Q x x x x x Z Z Z x C Z Z U U Z Z C C C C U C C C @. .U U Z C U U C U Z +.+.+.+.+.$.$.$.$.$.$.$.$.U U C C $.U $.$. . .@.@.U $.x x C U S S y y y y O O i i  . .U C C C C Z ^ ^ r r Q Q u u x x C C U U Z +. .@.@. .@.@.U U  . .+.+. . . . . .@. . . .@.Z C $.$.@. .$.$.+.+. . .U U  . .C C C C Z Z C C @. .C C x x C C x x x Z S S x x x x Z x Q Q Z x Q Q Z C Q Q Q Q u u Q Q x x Q Q u u y y u u i i i u i h H H 8 8 8 8 9 a a a a a a a H H 8 8 a a a a 8 8 k 8 8 8 >.>.8 8 8 k 8 8 8 { n n : : ] ] ~ ~ > > 6 6 0 0 { ^ { { ! ! g g . . . . . . . . . . >   ; ",
"> . . . . . = . . . . g g ! ! { { { { k 8 ( ( 5 5 ~ ~ 6 6 { { ^ ^ ^ ^ 8 8 k 8 8 8 { { 8 8 { { 8 8 k 8 9 9 8 8 9 a a a h h H H a a H H 9 9 8 8 H H H H a a i i Q Q u u x x Q Q y y y y u u u u Q Q Z x x x i u Q Q Z x x Z x x x x x x C U C C @. .C C C C C C @.@.Z C U U $.U C U +.+.C U U $.$.C +.+.$.U $.$. .@.U $.$.$.C U C C C C  . .C C @. .C C C C x x H H a a *.*.v v i i C U Z C Q Q Z C ~.~.d d P P P P &.&.Z x C Z  . .U $.$.$.$.C U U Z +.U U Z +. . . .@.$.$.C C U $. . . . .U U $.U C C C C U $. . . . .U C x Z C U C C C C x x x x S S x x u u y y u u x x Q Q Z x Q Q x x u u y y u u x x u u y Q P P P i a a j j a a H H 8 8 a a a a a a H H a a 8 8 9 9 a a 8 8 8 8 9 9 N N 8 8 k 8 8 8 >.>.0 0 { ^ { c l l ~ ~ > > 6 6 { { 0 0 ~ ~ < < 7 g . = . . . . = . . . > > > ",
"> . . . . . = . . . . g g ! ! { { { { 8 8 ( ( 5 5 ~ ~ 6 6 { { ^ ^ ^ 8 8 8 k k 8 k k { 8 8 ^ ^ 8 8 8 k 9 9 k 8 a a a a j h H H a a H H H a 8 8 9 9 N H a a i i Q Q u u x x y y y y Q Q u u u u y Q x x x x u u y Q x x Z x x x x x x x C U C C @. .U C C C C C @.@.Z Z C U U U $.U C +.C U U $.$.C +.+.$.U $.$.@. .$.$.$.$.C C C C C C  . .U C @.@.U C C C x x H H a a *.*.v v i i U U Z C Q Q Z C ~.~.d d P P P P &.&.Z x C Z  . .U U $.$.C U U $.+.+.C U +.+. . . . .$.$.C U C $. . . .@.U U U U Z C U C U U  . . . .U C x Z C C C C C C x x x x S S x x u u y y u u x x Q Q Z x Q Q Z x u u y Q u u x x u u Q Q P P P i a a j j a a H H 8 8 9 a a a a a H H 9 a 8 8 H H a a 8 8 8 k 9 9 N N 8 8 k 8 8 8 >.>.0 0 { { ~ c l l ~ ~ > > 6 6 { { 0 0 ~ ~ < < g g . = . . . . . = . . > > - ",
"  . . . . . . . . = = ) ) < < ~ ~ 0 0 { ^ 6 6     ^ ^ c c k k ^ ^ 8 8 ^ ^ 8 k ^ ^ 8 k k 8 8 8 k 8 a a 8 k 9 9 k 8 a a 8 8 9 a a a a a a a a a a H a a H H j j j j u i u u x x Q y x x i u Q y u u y y u p y y u p x x x Z x x Q y x x Z x Z C C Z D D x x  .@.U C C C x x C C C C C Z C C @. .C C C U Z +.U U U $.U C $.$.C U +.+.C U U U $.U C U  . .U $.H H R R v v i h O O j j C C x x x Z Z C ^ ^ v v o o R R R R S S @.@.U U U U Z C  . .U ..U U Z C U U U U U U $.U  . .U C @.@.@. .@. .U C C C x x Z C C C C C C C C C C Z +.Z Z Z C C Z x x C x x x x u u Q Q y y y y u u i i u u u u i u x y u u u i a a i i j j a a H H a a a a i i j j a a 8 8 9 a 8 k 9 a 0 0 8 8 k 8 0 0 8 8 8 k { { 8 k ^ ^ 8 k ^ { 8 8 { { ^ ^ c ~ 5 5 6 6 0 0 { { { { < < 7 7 . . = . . = . . ` ` > > ; ",
"  . . . . . . . . = = ) ) < < ~ ~ 0 0 { ^ 6 6 >   ^ ^ c ~ { { { { 8 8 ^ ^ 8 k ^ ^ k k 8 8 8 8 k 8 a a 8 k 9 9 8 8 9 a 8 8 a a a a a a a a a a a H a a H H j j j j u u u u x x y y x x i u Q y u u y Q u p y y u p x x x x Z x Q y x x x x Z C C C D D x x  .@.U U Z C x x C U C C Z x C Z  . .U C C U $.+.C U U U $.U $.$.C U +.+.C U U U U $.U C  . .U $.H H R R v v i h O O j j C C x x Z C Z C ^ ^ d d o o R R R R S S @.@.U C U U Z C  . .U ..U U U Z C U U U U U U U  . .C C @. . . . .@.Z C C C x x C C C C C C C C C C C Z +.Z Z Z C C Z x Z x x x x x u u y Q y y y y u u u u i u u i u u y y u u i i a a i i j j a a H H a a a a i i j j a a 8 8 a 9 8 k 9 a 0 0 8 8 8 k 0 0 8 8 8 8 k { { 8 ^ ^ 8 k ^ { 8 8 ^ ^ ^ ^ c ~ 5 5 6 6 0 0 { ^ { { < < 7 7 . . . . . . . . ` ` > > ; ",
"- . . . . . . . . . . g g ! ! { { { { 8 8 o o 5 5 ~ c ^ ^ ^ ^ ^ 8 ^ ^ 8 8 c c k k ^ { 8 8 8 8 h h 9 9 8 8 8 8 9 a 8 8 a 9 k 8 a a h h i i j j a a H H 9 a j j i u j j u i u u x x y y y y u u Q Q y y x x u p y y u u x x Q Q C C Z x C C C C  . .C C C Z Z x C Z Z Z C C C Z C C Z x $.U C C $.U +.C $.$.U U $.U C U +.$.C Z U U Z C  .$.C Z U U Z C  . .U C o o O O i p w w i i C C C C C Z Z C ~ ~ v v i i *.*.Q Q U $.C Z U U C C @. .C C C U U U Z C U U U $.$.C @. .U $.$.$.C C C C C C C C x x x Z x x Z C C C C C C Z C C Z Z +.+.C Z +.+.x x x Z u u Q Q u u C C u u x x u u u u i u x y y y y y i i j j j j j j j j j j a a u i j j j j H H a a a a 8 8 8 8 9 a 0 0 a a 8 8 0 0 { ^ { { ^ ^ 8 k ^ ^ 8 8 ^ ^ { { { { ^ ^ > > l l { { { { ~ ~ [ < g g = = @ @ . . . . . . -   , ",
"- . . = . . . . . . . g g ! ! { { { { k 8 o o 5 5 ~ c ^ ^ ^ ^ ^ ^ 8 ^ 8 8 c c k k ^ { 8 8 k 8 h h 9 9 k 8 8 8 9 a 8 8 a 9 8 8 9 a h h i i j j a a H H 9 a j j u i j j i u u i x x Q Q Q y u u y y y y x x i p y y u u x x Q y C C Z x C C C C  . .C C Z C x Z C U Z C C C C Z C C Z x $.U C Z $.U $.C $.$.U U U $.U C $.$.C Z U U C C $.$.U C C U C C @. .C C o o O O i p w w i i C U C C Z Z C Z ~ ~ v v i u *.*.Q Q U $.C Z U U C C  . .U C C U U $.C C U $.$.$.$.C @. .U U $.U C C C C C C C Z C x x C x x C C C C C C Z C C C Z Z +.+.+.C Z +.x x x Z u u Q Q u u U C u u x x u u u u u i y y y y y y i u j j j j j j j j j j a a i i j j j j H H a a a a 8 8 8 8 a 9 0 0 a a 8 8 0 0 { ^ { { ^ ^ 8 k ^ { 8 8 { ^ { { { { ^ ^ >   l l { { { { ~ ~ < < g g = = @ @ . . . . . .     , ",
"  . . . . . . . . O O =.=.< < ~ ~ 8 8 k { l l m m l l l c k k { { 8 k k k { { { { { { c c k 8 0 0 a a H H h h 9 a 0 0 8 8 9 9 8 8 i i a a i i a a i i j j i i j j j j a a u i x x x Z u u Q Q y y x D y y y y u i i u u u x x C C C C Z x C C C C x D x x  .@.C C Z Z Q Q Z x x x x Z C U Z +.+.C Z +.C C U $.C C $.$.S S U U Z +.U U Z C  .$.+.+.$.$.$.C @. .U C C C u u O O i p C C x x C C x x ^ ^ r r Z C u u U U U Z C U C Z C U C C C C C C C U Z +. .@.C C @. .C C C U U U U $.C C C C x x x Z x x U C C Z C U Z Z C U x x x Z Z Z +.+.x x x x u u u u P j u u Q Q x x x x S Q u u y y u u i i u i j j a a i i i i u i P j i i a a j j H H a a H H 9 a 8 8 9 a 0 0 a a 8 8 8 8 k k { { { ^ 8 k ^ { 8 8 { { { { c c ^ ^ ] ] > > l 6 { { { { ~ ~ ! ! g g . . . = . . . . ` ` > > ; ",
"  . . . . . . . . O O =.=.< < ~ ~ 8 8 k { l l m m l l l c k k ^ ^ k k k { { 8 k k k k c c k 8 0 0 a a 9 9 h h 9 a 0 0 8 8 9 9 8 8 i i a a i i a a i i j j i i j j j j a a i i x x x Z u u Q Q y y x D y y y y u u u u i i x x C C C C x Z C C C C x D x x  . .U C C Z Q Q x Z x Z C Z C C +.+.Z C +.+.C U +.$.C Z $.$.S S U U Z +.U U C C U $.+.+.$.$.C U  . .U C C U u u O O i p C C x x C C x x ^ ^ r r Z Z u u U C C C U C C Z C U C C C C C C C U Z +. .@.C C @. .C C C U $.C U U Z C U C x x x Z x x C C x Z C C Z Z C Z x x x Z Z Z +.+.x x x x u u u u P P u u Q Q Z x x x Q Q u u y y u u i i u i j j a a i u i i u i P j i i a a j j H H a a H H 9 9 8 8 a a 0 0 a a 8 8 k 8 N k 8 { { { 8 8 ^ ^ 8 8 ^ ^ { k c c k k ] ] > > 6 6 { { { { ~ ~ ! ! g g . . . = . . . . ` ` > > ; ",
"- . . . . . = . . . = 7 7 ! ! ~ ~ { { k k o o m m l o ] ] { { { { ^ ^ 8 8 ^ ^ ^ ^ ] ] { { { { { k { ^ 0 0 { k 9 a 8 8 9 a a a a a 9 9 a a a a j j a a j j j j u i a a j j j i x x u u u u u u Q y u u y y i i u i P j i i u u U C x x Z C Z C @. .C C D x Z x C Z Z Z C C C C C Z C x C C Z Z C Z x Z $.$.C U $.$.+.+.+.+.+.+.+.+.C Z +.$.$.C U U C C U $. . . . .x x x Z R R u u x x x x x Z Z Z ^ ^ v v y y U C x x U U Z C U U U C C U C Z C U x x C U U U $.U C U  . .Z x C Z Z Z Z C x x Z C x Z x Z x x x x x x Z C U x C Z x x x Z x x x x i u u u P j u u i i u i u u y Q u u u u u u Q y i i u i a a j j a a j j a a a a H H j j j j a a 8 8 a a a a a a 8 8 k 8 8 8 0 0 { ^ 8 8 ^ ^ ^ ^ { { 8 8 ^ ^ ^ ^ 8 ^ ^ ^ c ~ ~ ~ > > 6 6 { { ^ ^ ~ ~ [ < g g . . . . . . = . . . >   , ",
"- . . . . . = . . = = g 7 ! ! ~ ~ { { k k o o m m l o ] ] { { k k { { 8 ^ ^ ^ ^ ^ ] ] { { k { { { { ^ 0 0 { k a a 8 8 9 9 a a a a a 9 9 a a a j j a a j j j j i u a a j j j P x x u u u u u u y y i i Q Q u i i u i P j i u u U C x x x Z Z C @. .C C D D x Z C C Z Z C Z C C C C x x C C Z Z C Z x Z $.$.C U $.$.+.+.+.+.+.+.+.+.+.C U $.$.C U U C C C U  . . .@.x x x Z R R u u x x x x x x Z Z ^ ^ v v y y C C x x C U U Z C U C U U U Z x U C x x U U U $.U C U U  .@.Z x C Z Z Z Z C x x Z C Z x C Z x x x x x x C C C Z x Z C x x C x x x x u u u u j j i u u i u u u u Q y i u u u u i y y i i u i a a j j a a j j a a a a H H j j j j a a 8 8 9 a a a a a 8 8 k 8 8 8 0 0 { { 8 8 ^ ^ ^ ^ { { 8 8 { { ^ { { { ^ ^ c ~ ~ ~ > > 6 6 { { ^ ^ ~ ~ < < g g . . . . . . . = . .     , ",
"  . . . . . . . . O O =.=.< < ~ ~ { { ~ c l 6 >   6 6 ~ ~ ~ ~ ~ ~ ~ c c c ^ ^ ^ ^ ^ ^ ^ 8 ^ 8 { { 0 0 0 0 8 8 9 9 9 a 8 8 9 a a a h j j j u i h h i i a a j j a a j j H H j P P P i u u u u i u u i u P j u i j j u i u u i i u i x x x Z x C x x C C x x C C Z x Z x x x Z C C U C C Z Z +.+.S S U C C U $.$.C C C C Z +.C U U Z C U C C $.$.C U  . .U C C U U Z C U u u R R u i C D u u x x x x ^ ^ r 5 Z x C Z Z C Z C U U U U $.U C C C U Z x C C C Z C U Z Z  . . .@.U U x x Z C x x C C x x x Z x x x x Q Q Z x x x Z C x Z +.+.S S x Z Q Q Q Q j P u u u u u u j j u i j j Q Q u u u u P j u i H H j j a a j j a a a a a a j j a a j j a a a a 8 8 9 a a a a a 8 k 9 9 8 8 8 k { { 8 8 { ^ { 8 { ^ { ^ ^ ^ c c ^ ^ ~ ~ 6 6 5 5 6 6 { { { { k { [ [ g g . . . . . . . . ` ` > > ; ",
"  . . . . . . . . O O =.=.< < ~ ~ { { c c 6 6   > 6 6 ~ ~ ~ ~ ~ ~ c c c c ^ ^ ^ ^ ^ ^ ^ ^ 8 8 { ^ 0 0 0 0 8 8 9 a a a 8 8 9 a a a h j j j i u j h h i a a j j a a j j H H j P P P u u u u i u u i u P j j u i j j u u u u i u u i x x x Z x C x x C C x x C C x x Z x x x Z C C C U C C Z +.+.S S C C C C $.$.C U C C +.+.C U +.Z C U C C $.$.C Z  . .U C C U C C C C u u R R u i C D u u x x x x ^ ^ 5 5 Z x C Z Z C Z Z C U U U U U Z C U C x x C C C Z C C Z Z  . . .@.U U x x C C Z x C C x x Z C Z x x x S Q x x x Z Z C x Z +.+.S S Z C Q Q Q Q j P u u u u i u j j i i j j Q Q u u u u j j i u H H j j a a j j a a a a a a j h a a j j a a a a 8 8 H 9 9 a a a k k 9 9 8 8 8 8 { ^ 0 8 { ^ { 8 ^ ^ ^ ^ ^ ^ ] c ^ ^ ~ ~ 6 6 5 5 6 6 { { ^ ^ { { [ [ g g . . . . . . . . ` ` > > ; ",
"- . . . . . . = . . . g g ! ! ~ ~ { { c { n n m m l 6 ] ] ] ] ] c ^ ^ ] c c c k k c c k k ^ ^ k 8 { ^ 0 8 { { 0 0 8 8 9 a 8 8 a a a a i i a a i i i u i u a a a a 9 H j j a a j j j j u u u u i u j j i i u u i u u u y Q P j u i u u x x x x C C x x Z x x x x Z x x x x x x C U C C U U Z x x Z x Z C C +.+.$.$.x x C U C C U U Z +.U U C C C U C C Z C C Z Z C Z C y y     u u x x x x Q Q Z Z ^ ^ v v y y C C Z Z +.+.Z x C Z C C U C Z x x C Z C +.+.x x C C C C @. .U C C C C C C Z x x x x x Z x C x x x x Q Q Z x Z x C Z S S +.+.S S x x i u u u u u x x u u u u j j u i u u i u u u u i j j j j a a a a 9 H a a a a j j a a i i j j a a H H 9 a 8 k a a a a 0 0 8 8 9 a 8 8 8 8 k { 8 8 { { 8 k c ] ^ ^ c ~ ~ ~ l l ~ ~ > > 6 6 { { { { ~ c < < ) ) = = . . . . . . . . >   , ",
"- . . . . . . . = . . g g ! ! ~ ~ { { c { n n m m l 6 ] ] ] ] c c ^ ^ ] c c c k k ] c k k ^ ^ 8 8 ^ ^ 8 8 k { 0 0 8 8 9 a 8 8 9 a a a h i a a i i i i u i a a a a H H j j a a j j j P u u u u i u j j i i i u u u u u Q Q P j u i u u x x x x Z C x Z x x x Z x x x x x x x x Z C C C C $.Z x x Z C Z C C +.+.$.$.x x C U C C U U Z C U C C C U U Z C U C Z Z C U C C y y     u u x x x x Q Q x Z ^ ^ v v y y C C C Z +.+.C Z +.C C C U C Z x Z x C Z +.+.x x C C C C @. .C C C C C C C Z x x x x Z x x Z x x x x Q Q x x x Z C Q Q S +.+.S S x x u u u u u u x x u u u u P j u u i u u u u i u u j j j j a a a a H H a a a a j j a a i u j j a a H H a a 8 k a a a a 0 0 8 8 9 a 8 8 k 8 8 { 8 8 { { 8 k ] ] { { ~ ~ ~ ~ l l ~ ~ > > 6 6 { { { { c ~ < < ) ) = = . . . . . . . . >   , ",
"> . . . . . . . . = = ) ) < < 6 6 { { c c ( ( > > l l     ^ { { { k k c c { { { { 8 0 { { ^ ^ 8 k 0 0 { k a a 0 0 9 9 a a i i j j j j a a a a a 9 i i j j j j H H a a a a j j j j u i h i i u i P i i u i y y u u x x y y y y u p x x Q Q x Z Z x x x Q Q Z C x x Z C y y U C x x C C Z Z U U Z x U C +.+.U C +.+.C U U Z U U Z C U C +.+.U C C C  . .U C C U u x C C u u R R i i C Z u u x x x Z ^ ^ r 5 x x x Z x +.x x C C x x Z C Z x Z x C Z Z C Z Z U U Z C U U U C Z x x x Z C y Q x x Z x x x x Z x x u u x x Q y x x Z x C C S S x x Q S x x u u u u i u Q Q u u u u i i u i P j j j a a j j j j u i h i j j H H j j a a j j a a j j a a a a H H a a 8 8 9 9 8 8 0 0 0 0 0 0 { ^ 8 8 8 k 8 8 { ^ ^ ^ c ] ^ { { { ( ( 6 6 5 5 ( ( { { ~ c ).).} } g g . . . . . . . . ` ` - > ; ",
"  . . . . . . . . = = ) ) < < 6 6 { { c c ( ( > > 6 l m   ^ { { { k k c ] { { { { 8 0 { { { { k { 0 0 { k a a 0 0 a 9 9 a i i j j j j a a a a a H i i j j j j H H a a a a j j j j u i i u i P i i i u i P y y u p x x Q Q Q Q u u x x Q Q Z Z Z x x x Q Q Z C x x C C y y U C x x C C C Z C U Z C x C +.+.C U +.+.C U U C C U C C Z C +.+.C C C C  . .U C C C x x C C u u R R i i C Z u u x x x x ^ ^ r 5 x x x x Z +.x x C C x x C C Z x Z Z x C Z Z C Z Z U Z C U C C C Z x x x Z C Q Q x x x x x x x x Z x u u x x Q y x x x x Z C S S x x Q S x x u u u u u i y y i i i u i P i u P j j j a a j j j j i u u i j j H H j j a a j j a a j j a a a a 9 H a a 8 8 H 9 8 8 0 0 0 0 0 0 { { 8 8 8 k 8 8 { ^ ^ ^ c ] ^ { { { ( ( 6 6 5 5 ( ( { { ~ c ).).} } g g . . . . . . . . ` ` - > ; ",
"> ` ` . . . . = . = . 7 g ! ! ~ ~ c c { { n n m m l 6 > > l 6 / / ~ ~ { { c c k k ^ 8 8 k { { 9 9 8 8 8 8 9 9 a a 8 8 9 a a a a a 9 a a a a a a a a a j j a a a a H H j j j j u u j j P P P j u i j h p y i i Q Q u u x x u u y y x x x Z x x x x x x Z C Q Q x x x Z x x x x C C Z Z C U x x +.+.x x +.+.C Z +.+.+.+.U U Z +.U C +.+.$.U Z x C C C C C C x x x x Q Q u u R R u i x x x Z u Q x x ~ ~ v v u u y Q u S +.+.Z x C C x x C Z Z x C Z x x +.+.x x x x C C x C Z x C C Z x x Z x x x Z x x Z C x x x Z u Q x x x Z x x Q y +.+.S Q x x i i Q Q j P u u u u u i u u i u P j j j j j j j a a j j i i u i P j j j a a a a H H 9 a H H j j H H a a 8 8 8 8 0 0 a a 8 8 0 0 ^ ^ 8 8 ^ ^ 8 8 c c ^ ^ ~ ~ { { o o ( ( , , 6 6   > 6 6 ~ ~ { { c ~ < < g g = = = . . . . . . .     , ",
"> ` ` . . . . = . . . 7 g ! ! ~ ~ ~ c { { n n m m l 6 > > 6 6 / / ~ ~ { { c ~ { { 8 8 k k 8 k 9 9 8 8 8 8 9 9 9 a 8 8 a 9 a a a a a a a a a a a a a a j j a a a a H H j j j j i u j j P P P j i i j h p y i i y y u u x x u u y Q x x Z x x x Z x x x x C y y x x x x x Z x x Z C x Z C U Z x +.+.x x Z +.+.C Z +.+.+.C U +.+.C Z +.+.U U Z Z C C C C C C x x x x y y u u R R u i x x x x S Q x x ~ ~ v v u u Q Q y S +.+.x x C C Z x C Z x C Z Z Z x +.+.x x x x C C C C x x U C x x x Z x x x Z x x Z C x x x x S Q x x x x x Z u Q +.+.S Q x x u u Q Q j P u u u u u u i u u i u P j j j j j j a a j j i u u i j j j j a a a a H H 9 a 8 H j j H H a a 8 8 8 8 0 0 a a 8 8 0 0 { { 8 8 { { 8 8 c c ^ ^ ~ ~ { { o o ( ( , , 6 6 >   6 6 ~ ~ { { c ~ < < g g = = . . . . . . . .     , ",
"  . . . . = . . . = = ) ) < < ~ ~ { { ^ ^ ( ( > > l l d d 5 5 o o c c ^ ^ ^ ^ 8 k 8 8 ^ ^ 8 8 8 8 k 8 a a a a 8 8 9 a 8 8 8 8 k 8 a 9 8 8 9 9 8 8 a a a a a a j j j j H H j j j j j j u i P P S S P P P i u u P j u u u u i u u i x x Q Q x x x x Z x Q Q x x Q S Z x x x U C x x x C x x C Z x x x Z S S U C +.+.+.+.x x x Z x x Z C Z C U C C C U U Z C Q Z *.*.Q Q j j O O j j C C y y y y Q Q ^ ^ r r Q Q ] ] j j Q Q Z C x Q x Z x x C U C C Z Z Q Q x x Q Q C Z Q Q x Z x C Z Z y Q x x y y x x y y x x u u x x Q y C D y y x x u p x x u u u p i u u u j j i u j j u u P i u u P j P j H H a a a a i i a a i i a a j j H H H H 8 8 a a a a a a 9 H h h 9 a H H N N 9 9 8 8 8 8 ^ ^ 8 8 ^ ^ { ^ ] c ^ ^ c ~ 5 v     6 6 6 6 5 5 6 6 { { c ~ ~ ~ ! ! g g . . . . . . . . ` `   - ; ",
"  . . . . = . . . = = ) ) < < ~ ~ { { ^ ^ ( ( > > l l d d 5 5 o o c c ^ ^ ^ ^ k k 8 8 ^ ^ 8 8 8 8 8 8 a 9 a a 8 8 9 a 8 8 8 8 8 k 9 9 8 8 9 a 8 8 a 9 a a a a j j j j H H j j j j j j u i P P S S P P P i u u j j i u u i u u u u x x Q Q x x x x x x Q Q x Z Q Q Z x x x U C x Z C x x x x Z x x Z C S S U C +.+.+.+.x x x Z x x Z C Z Z C U C C C U U Z C Q *.*.Q Q j j O O j j C C y y y y y Q ^ ^ r r Q Q ] ] j j Q Q Z C x Q Z x x x Z C C C C Z Q Q Z x Q Q Z Z Q Q x Z Z x C Z Q Q x x y y x x y y x x u u x x y y D x y y x x u p x x u u u p u u u u j j u u P j u u i u u u j h P j H H a a a a i i a a i i a a j j H H H H 8 8 a a a a a 9 H a h h 9 a H H N N 9 9 k 8 8 8 { ^ { 8 ^ ^ ^ ^ c ] ^ ^ c ~ 5 v     6 6 6 6 5 5 6 6 { { ~ ~ ~ ~ ! ! g g . . . . . . . . ` `   - ; ",
"- = = . . . . . . . . g g ! ! ~ ~ c c { { ( ( > > ~ ~ { { c c ^ ^ c ~ ~ ~ c c ^ ^ ^ ^ 8 k ^ { 8 8 { k 9 a 0 9 9 a 8 8 9 9 8 8 a a 9 9 a 9 k 8 a H 9 9 h h a a j j a a j j H H a a a a i i j j u u P j u u i u i i j j i u u u u i x x x Z u u x x x Z Z Z Q Q x x Z x x x x Z x D x x x x Q Q Z x Q S x x Z x C Z Z Z +.+.S Q x x x Z Z Z Z x C Z x x Z C ^ ^ *.*.o o O O R R j j Q y x x u u x x ] ] v v ] ] ] c O O S S x x x x Q Q Z x x x C U S S x x Z Z C U x x Z x C Z x x Z C C Z Q y y y u u y y y y x x Q y x x u u x x u p x x x x x x u u u u P j h h i h h i i i i u i u j j H H a a H H a a H H a a a a a a H H 9 a 8 8 H H H H j j H H j j H H a a N N 8 8 8 k 9 9 ^ ^ ^ ^ 8 ^ ^ { c ~ ^ ^ 6 6 ] ] 6 6 { { l l ~ ~ > > l 6 { { { { ~ ~ < < g g = = . . . . . . . .   > , ",
"- = = . . . . . . . . g g ! ! ~ ~ c c { { ( ( > > ~ ~ { { c ~ { ^ ~ ~ ~ ~ ~ c ^ ^ ^ ^ k 8 { ^ { 8 k k 9 a H H 9 a H 8 a 9 8 8 9 a H H 9 a H 8 9 9 a 9 h h 9 a j j a a j j H H a a a a i i j j u u P j u u u P i i j j u u i i u i x x x x u u x x x Z Z Z Q Q x x x x Z x x Z x D x x x x Q Q x x S S x x x Z C U Z Z +.+.S Q x x x x Z Z Z Z C C x x x Z ^ ^ *.*.o o O O R R j j Q y x x u u x x ] ] v v ] ] ] c O O S S x x x Z Q Q Z x x x C C S S x x Z Z C C x x x Z Z Z x x C C Z Z Q y y y u u y y y y x x y Q x x u u x x u p x x Z x x Z u u u i j j j h h i i i i i u i u u P j H H a a H H a a H H a a a a a a H H 9 a 8 8 9 9 N H j j H H j j H H a a N N 8 8 8 8 9 9 ^ ^ ^ ^ 8 ^ ^ { c c ^ ^ 6 6 ] ] 6 6 { { l l c ~ > > 6 6 { { { { ~ ~ < < g g = = . . . . . . . . > > , ",
"> . . . . . . . . = = ) ) < < ~ ~ { { ^ ^ 6 6 _ _ ] ] ] l l ] ] ] ^ ^ c ~ { ^ ] c ^ ^ 8 k 8 8 k 8 8 8 >.>.0 9 k 8 9 9 8 8 a a 9 9 9 a 8 8 9 9 k 8 a a a a j j H H j j H H a a H H j j a a j j Q S u u P j u u P j u u i u y y y y x x u u x x x x Z x x x x x x Z x x u u x x p y x x u u x x p u x x y y x x x Z x +.x x x Z x x Z C x x C C Z Z C Z x Z x x o o ; ; a a v v a a x x u u y y Q Q ^ ^ r r O O &.&.O O i p x x Q Q Z x Q S x x x Z x x u S C C x x Z C Z x Q Q Q Q Q Q Q Q x x u u u u u u x x y y x x y y Z x y y x x u p Z x u Q y y j h h i h j u i u u i u j j i u j j j j a a j j H H a a a a a a a a 9 H 8 8 9 9 k 8 H H H H a a a a 8 8 N N 8 8 ^ ^ 9 9 ^ ^ 8 8 ^ ^ 8 8 ^ ^ ^ ^ ^ ^ { { ~ c ).~ ] ] ~ ~ 6 6 5 5 ( ( { { c ~ ~ ~ ! ! g g . . . . . . . . . .     ; ",
"  . . . . . . . . = = ) ) < < ~ ~ { { ^ ^ 6 6 _ _ ] ] ] l ] ] ] l ^ ^ c ~ { ^ ] ] { { k { 8 8 k 8 8 8 >.>.0 9 k k 9 a 8 8 9 a a a a a 8 k 9 9 8 8 a a 9 a j j H H j j H H a a H H j j a a j j S Q S u P P u u P j u u i i Q Q y y x x u u x x x Z x C x x x x x x Z x u u x x u p x x u u x x p u x x Q Q Z x x x +.+.x x x Z x x Z C x x C C C Z Z C Z x Z x o o ; ; a a v v a a x x i u Q y Q Q ^ ^ 5 r O O &.&.O O i p x x Q Q C Z Q Q Z x x x x x Q S C C x x x Z Z x Q Q y Q Q Q Q Q x x u u u u u u x x Q Q x x y y Z x y y x x u p x Z y Q y y h h i h j j u i u u i u j j u i j j j j a a j j H H a a a a a a a a H H 8 8 H H 8 8 H H H H a a a a 8 8 N N 8 8 { ^ 0 9 ^ ^ 8 8 ^ ^ 8 8 ^ ^ ^ ^ ^ ^ ^ { ~ ~ ~ ~ l ] ~ ~ 6 6 5 5 ( ( { { ~ ~ ~ ~ ! ! g g . . . . . . . . . .     ; ",
"- = = . . . . . . . . 7 g ! ! ~ ~ ~ c { { ( ( > > ] ] ] l ] l ^ ^ 6 l ^ { c ] ] { c c k k ^ { 8 8 { ^ { 8 ^ ^ 8 8 k 8 9 9 9 9 a a a 9 9 a 8 8 9 9 9 9 h j j j j j H H a a H H j j a a j j j j u i j j u u u u u i u u i Q u u C C x x x Z Z Z Z C u u Q Q y y x x i u x x x Z x x Q y x x Q Q Q Q Q Q Z x Q Q x x x C +.+.S S Z Z x x x x x x Z x x x Z C C x x x S Q u u R   a a i i x y P P y y ] ] v v u u y Q u u Z C Q Q x x x x Z x Q y x x Q Q Z x x x y y y y x x y y Q Q y y y y u u y y u u y Q y y x x Q Q Z x x x D x y y y y u u x x u u u u j h i i u i u p i u h h j j j j H H j j a a j j 8 8 j j H H j j H H H H 8 8 H H H H j j H H a a 8 8 8 8 ^ ^ 8 8 ^ ^ { k ^ ^ 8 8 ^ ^ { ^ ~ ~ { { o 6 ~ ~ { { ^ ^ 6 6 ~ ~ > > l 6 ~ ~ { { c ~ < < g g = = . . . . . . . . > > , ",
"- = = . . . . . . . . 7 g ! ! ~ ~ ~ ~ { { ( ( > > l ] ] 6 l l { { l l { { l ] ] { c c k k ^ ^ 8 k ^ { 8 8 { ^ 8 k 8 8 a 9 H H a a H H 9 a H 8 9 9 9 a 9 h j j j j H H a a H H j j a a j j j P u u P j u u i i i u i P y Q u u C C x x Z C Z x Z Z u u Q Q Q Q x x i u x x x x Z x Q y x x Q Q y Q Q Q Z x Q Q x x Z C +.+.S S x Z x x x Z x x Z C x x C C x x x Z u Q u u R   a a i i x y P P y y ] ] v v i i Q Q u u C Z Q Q x x x x x Z u Q x x Q Q x x x x Q Q Q Q x x y y Q Q y y Q Q u u y y u u y y y y x x y y x x x x x C y y y y u i x x u u u u j h i i i u i p i u h h h j j j H H j j a a j j 8 8 h j H H j j H H H H 8 8 H H H H j j H H a a 8 8 8 8 ^ ^ 8 k ^ { 8 k ^ ^ k 8 ^ ^ ^ ^ ~ ~ { { o 6 ~ ~ { { ^ ^ 6 6 ~ ~ > > 6 6 ~ ~ { { c ~ < < g g = = . . . . . . . . > > , ",
"  . . . . . . . . = = ) ) < < ~ ~ { { ~ c / / > > ~ ~ ~ ~ ~ ~ ~ ~ ~ ~ o o c ] ] 6 c c c c ^ ^ k k { { ^ ^ ^ ^ ^ ^ a a H H 9 a j 9 9 a 8 8 9 a H H 9 a H 9 j j j j a a a a j j j P j j P j S S j j i u j j u u u u y y i u U C x x x Z x x x x Q u x x Q Q x x Z x x x x x x x y Q x x x x Z C Q Q x x y Q C Z Q Q Z x Q Q x x Z x x C Q y x x y y C C x x C C x x Q Q j j v v a a i i i i i u i P ] ] > > i i u i x x Q Q Q Q Q Q x Z Q Q Q Q Q Q Q Q Q Q x x i u x x Q S Z C Q Q Q Q u u y y i i Q y u u x x y y x x y y y u u i y y u p y y u u u p i u u u u u i p i u u u P j j j j j a a H H j j H H a a H H j j a a a a H H j j a a a a H H 9 a 8 H a a N N 8 8 ^ ^ N N E E 8 8 ^ ^ ^ ^ ] ] ~ ~ ] ] ~ ~ 6 6 ~ ~ 6 6 ] ] l l 5 5 ( ( { { ~ ~ ~ ~ ! ! g g . . . . . . . . . . > > ; ",
"  . . . . . . . . = = ) ) < < ~ ~ { { c ~ / / > > ~ ~ ~ ~ ~ ~ ~ ~ ~ ~ o o c ] l l ] c c c ^ ^ 8 k ^ { ^ ^ ^ ^ ^ ^ a a H H 9 a H 9 a a 8 8 9 a 9 9 a a a 9 j j j j a a a a j j j j j j j j S S P j u u P j u u i i y y u p x C x x Z C Z x x x u u x x Q Q x x x x Z x x x x x Q y x x x x Z Z Q Q x x Q y x Z Q Q x Z Q Q x x x Z Z Z Q y x x y y C C Z x Z C x x y y j j v v a a i i i i u u P i ] ] > > i i i u x x Q Q Q Q Q Q x Z Q Q y y y y Q Q Q Q x x i u x x Q Q Z x Q S Q Q u u y y u u Q y u u x x Q y x x y y y u u u y y u p y y u u u p i u u u i i u p i u u u j j j j j j a a H H j j H H a a H H j j a a a a H H P j a a a a H H 9 a H 9 a a N N 8 8 ^ ^ N N E E 8 8 { ^ { ^ ] ] ~ ~ ] ] ~ ~ 6 6 ~ ~ 6 6 ] ] l l 5 5 ( ( { { c ~ ~ ~ ! ! g g . . . . . . . . . . > > ; ",
"> ` ` . = . . . . . . g g ! ! ~ ~ ~ ~ ^ ^ ( (     6 6 ~ ~ ~ ~ ~ ~ ] ] ] c c ] ^ { c c ^ ^ ~ c k 8 c c k 8 k k 8 8 8 8 a 9 H H a 9 k 8 a H 9 9 9 a 9 H H a a a a a H H j j H H j j P j i u j j j j j j j P P y y y u u y y y y x x u u x x Q Q Z x u u x x x x Z x u u Z x u u x x u u x x u u y y x x C C C Z Z C S S x x x Z Z x x x Z C x x x Z x x x x Q Q Q Q u u j j R R j j j j i u j j u u ~.~.d v i P Q Q Q Q Q Q u u y Q y y x x i u Q y S S x x u u y Q y y y y y y x x i u u u i i Q Q u u Q Q u u Q y y y x x u p x x u p y y u u i i u i u u u u i p u u u u j j j j H H u u H H j j a a a a H H 9 a H 9 a a H H a a a a j j H H H H 8 8 9 a 8 8 a 9 8 N 8 8 ^ ^ 8 8 ^ ^ 8 8 ^ ^ ^ ^ c ] c c c ~ ~ ~ ~ ~ ~ ~ ] ] ~ ~ > > l 6 ~ ~ { { c ~ < < ,.,.= = . = . . . . . .     , ",
"> ` ` . = . . . . = . g g ! ! ~ ~ ~ c { { ( ( > > l 6 ~ ~ ~ ~ ~ ~ l ] c c c ] ^ { c c ^ ^ ] c 8 8 c c k 8 k k k 8 8 8 9 9 a 9 H 9 k 8 a H 9 9 a a H H 9 a a a a a 9 H h j H H j j P j u u P j h j j j j P P y y y u u y Q y y x x u u x x Q y x x u u x x x x x x u u Z x u u x x u u x x i u Q y x x C C Z x Z Z S S x x x Z Z Z x x x Z C x Z x x x x x Q Q Q Q u u P j R R j j j j u i j j u u ~.~.d v P P y y y Q Q Q u u Q Q Q Q x x u u y Q S S x x u u Q Q y y y y y y x x u u u u i u Q y u u y y u u Q y y y x x u p x x p y y u i i u i P i u u u u p p i u u u j j j j a 9 u u H H j j a a a a H H a a H H a a H H 9 a a a j j H H H H 8 8 9 a 8 8 a 9 8 N 8 8 ^ ^ 8 8 ^ ^ 8 8 ^ ^ { ^ ] ] ] c c ~ ~ ~ ~ ~ ~ ~ ] ] ~ ~ > > l 6 ~ ~ { { ~ c < < ,.,.= = . = . . . . . .     , ",
"- = = = = . . . . . = ) ) < < 6 6 ^ ^ ~ ~ ( ( > > ~ ~ ~ ~ ~ ~ ~ c { { ] ] ^ ^ c c { ^ ^ ^ k k ^ ^ 8 8 ^ ^ ^ ^ ^ ^ a a a 9 8 8 k k 9 9 8 8 a a 9 9 9 H k k 9 a 8 8 a a 8 8 a a H H j j j j j j H H P P j j u u u u u u u u x x y y u u P P x x u u Q Q u u x Z Q Q x x u u Q Q u u Q Q u u x x Q Q x x u u x Z Q Q x x Q Q x x x x x x y Q x x y y x x u u i u u u Q y a a v v a a i i a a i P P P ] ] r r u u u u Q S S S u u P P Q Q u u Q S u u Q Q u u u u i i Q y u u y y Q Q y y i i u u u u y y u u y y u u Q Q u u u u u i p p p i i p u u x x y y u u u u u i h h h h a a j j j j j j j j j j H H a a 9 9 H H H H P j 8 8 H H 8 8 H H k 8 H H N N H H 8 8 H 9 8 8 8 8 k N 8 8 ^ ^ ^ ^ ~ ~ ^ ^ c ] ^ ^ ^ ^ ^ ^ ~ ~ { { ] ] r 5 ( ( { { ~ ~ ~ ~ ! ! g g . . . . . . . . ` ` > > ; ",
"- = = = = . . . . = = ) ) < < 6 6 ^ ^ ~ ~ ( ( > > ~ ~ ~ ~ ~ ~ c c { ^ ] ] ^ ^ c ] ^ ^ ^ ^ k k ^ ^ 8 8 ^ ^ ^ ^ ^ ^ a a 9 9 8 8 k N 9 9 8 8 a a 9 9 H H k 8 a a 8 8 a a 8 8 a a H H P j j j j j H H P j j j i u u u u u u i x x Q Q u u P P x x u u Q Q u u x x y Q x x u u Q S u u Q S u u x x Q Q x x u u Z Z Q Q x x Q Q x x x x x x Q y x x Q Q x x u u i u u u y y a a v v a a i i a a i P P P ] ] r 5 u u u u S S S S u u P P Q Q u u Q Q u u Q Q u u u u u i Q y i i y Q Q Q y y u i i u i i p y u u y y u u y y i u u u u i p p p i p p u u x x y y u u u u i p h h h h a a j j j j j j j j j j H H a a 9 9 H H H H j j 8 8 H H 8 8 H H 8 8 H 9 N N H H 8 8 9 9 8 8 8 k N N 8 8 ^ ^ { { ~ ~ { ^ ] ] ^ ^ ^ ^ ^ ^ ~ ~ ^ { ] ] 5 5 ( ( { { ~ ~ ~ ~ ! ! g g . . . . . . . . ` ` > > ; ",
"  ` ` . . . . . . O O =.=.! ! ~ ~ ~ ~ ~ c ( ( 5 5 6 6 l l l 6 ^ ^ c c ^ ^ c ] ^ ^ ^ ^ 8 8 ^ ^ k 8 8 k N 8 8 k N 8 8 8 k 8 8 k N 8 8 k 9 9 8 8 9 9 8 k 9 H k 8 j j N N 8 8 k 8 j j a a j j -.-.j j j P P P i i u i i i u i i u Q y u i x x p u y Q P P u u Q Q x x Q Q Q Q u u u u u u x x u u Z x Q y x x u u u u P P u u Q Q x Z x x x x y y Z x Q Q y y u u u u i p j j R R a a i P i i u i i u ~.~.r r P P Q y u i Q Q u u u u u u Q Q u u Q Q S S S Q P P P i i i u i i u y y i u y y i u u u u u i u i i u u u u Q Q u u y y Q y x x Q u u u h h u u a a i p h h u u a a j j H H P i a a i P a a 9 9 8 8 H 9 N 8 H 9 N 8 H H 8 8 9 H ^ ^ 8 8 N N 8 8 8 k N 8 8 8 a a N N 8 8 8 8 k N ^ ^ ^ ^ ] ] ~ ~ c ] ^ ^ ] ] ~ ~ ~ ~ ~ ~ > > 6 6 ~ ~ ~ ~ J J < < ,.,.= = . . . . . . . .     , ",
"  ` ` = . . . . . O O =.=.! ! ~ ~ ~ ~ ~ c ( ( 5 5 6 6 l l l 6 ^ ^ c ] ^ ^ ] ] ^ ^ ^ ^ 8 8 ^ ^ 8 8 N k k 8 8 k N 8 8 8 8 8 k N 8 8 k k 9 H 8 8 H H 8 k 9 H 8 8 j j N N 8 8 8 8 j j a a j j -.-.j j j P P P i i u u u u i p u u Q Q u u x Z u u y Q P P u u Q Q x Z Q Q y y u u u u u i x x u u x x Q Q x x i i u i i P u u Q y Z x x x x x Q Q x Z Q Q y y u u u u u u j j R R a a i P i i u i i u ~.~.r r P P Q y u i Q Q u u u u u u y Q u u Q Q S S S Q P P P i i u i i u i y y i u y y u i u u u u i u i i u u u u Q y u i Q Q y y x x u u u u h h u u a a i p h h u u a a j j H H P i a a i P a a 9 9 8 8 H H 8 8 9 H 8 8 H H 8 8 H H ^ ^ 8 8 N k 8 8 k N 8 8 8 8 a a N N 8 8 8 8 8 k ^ ^ ^ ^ ] ] ~ ~ c ] { { ] ] ~ ~ ~ ~ ~ ~ > > 6 6 ~ ~ ~ ~ J J < < ,.,.= = . . . . . . . .     , ",
"f = = ` ` . . . . . . ) ) < < ~ ~ ^ { ~ ~ z z > > ] ] > > { { { { ] ] ] ] l l 6 l ^ ^ ^ ^ k 8 ^ ^ 8 8 k 8 8 8 k N 9 9 8 8 9 9 8 8 8 8 ^ ^ k k ^ ^ k 8 8 8 a a 8 8 k 8 8 k 9 H a a j h a a h h a a i p h h h u u i i u j j u u u u y Q u u u u i p u y u u Z x u u Q Q u u u u P P x x u u x x Q Q x x u u x Z u u u u i p x x Q Q x x Q Q x x u u y y y Q Q y u p p i a a v v 8 8 u u u u i h a a ~ ~ 5 5 i i p y p p y y Q y i i x x u u u u u u x x u u y y P j i u P j i u y y j i i i i i u i u i i u u u u i Q y i u y y u u Q Q u u x x Q Q Q y j j u i j j u i a a j j j j j j a a p u a a a a 8 8 k 8 8 k 8 8 k 8 a a N k k 8 8 8 k 8 8 k 8 8 N N H 9 8 k 9 H 8 k k 8 9 9 8 k k k 8 k c c c c c ] ^ ^ ] ] ^ ^ { { d d 6 6 > > ( ( ~ ~ ~ ~ ~ c ! ! =.=.O O . . . . . . ` ` > > F ",
"f = = ` ` . . . . . . ) ) < < ~ ~ ^ { ~ ~ ( z > > ] ] > > { { { { ] ] ] ] l l l 6 ^ ^ ^ ^ 8 8 ^ ^ 8 8 8 k 8 8 k 8 9 9 8 8 9 9 8 8 8 8 ^ ^ { k ^ ^ k 8 8 8 a a 8 8 k 8 8 k 9 9 a a j h a a j h a a i u h h u u i i i u j j u u u u y Q u u u u u i x y u i Z x u u Q Q u u u u P i x x u u x x Q Q x x u u Z x Q u u u u i x x y y x x Q Q x x u u y y y Q Q y p p i p a a v v 8 8 u u u u i h a a ~ ~ 5 5 i i p y p p p y y y i u y x u u u u u u x x u u y y j j u u P j u u y Q i u P i i u i u i p u u i u u u Q y u u y y u u Q Q u u x x y y y y j j u i a j u i a a j j j j j j a a u i a a a a 8 8 k 8 8 k 8 8 8 8 a a 8 k k 8 8 8 8 k N 8 8 k k N H 9 8 k 9 9 8 k k 8 H 9 N 8 k k 8 k c c c ] ] ] ^ ^ ] ] ^ ^ { { d d 6 6 > > ( ( ~ ~ ~ ~ ~ ~ ! ! =.=.O O . . . . . . ` ` > > F ",
"> ` ` . . = = . . O O =.=.! ! ~ ~ ~ ~ ~ ~ d d > - ( ( , _ o o ( ( o o ] ] l l c c c ] ^ ^ ^ ^ ^ { { { 8 8 k N 8 8 k k 8 8 k 8 a H ^ ^ k 8 8 k k 8 k k 9 H 8 8 8 8 k N 8 8 8 8 a 9 9 9 a a a 9 9 a j h u u h h u p p i u u u u i u u u u u u u y Q Q Q y y u u Q Q u u u u h j j P u u u u x x x x x x Q y u i u u u u Q y y y Z x u u x x u u Q Q u u x x Q Q u i 8 8 b b     0 0 i i u i a a j h 6 6 5 5 b b i i { { t t i i u i i u y Q u u u u u u Q y i i j j u i i i j j u i i i x x u u i i i i u u i i y y u u y y i i p y p u Q y i i p y u u i i j j j j a a i u a a 9 a a 9 i i a a a 9 H H 9 a 8 8 k 8 8 8 a a a a a a 8 8 8 8 ^ ^ 8 8 8 8 k 8 8 8 8 8 k 8 a H k k 9 a ^ ^ 8 k c ] ] c c ] ] l l 6 c c ( ( ( ( _ _ ] ] r 5 ( ( ~ ~ { { 6 6 < < ,.,.. . . . . = = = = = - - , ",
"> ` ` . . = = = . O O =.=.! ! ~ ~ ~ ~ ~ ~ d d > - ( ( , _ o o ( ( o o ] ] ] l l c ] ] ^ ^ ^ ^ ^ ^ 8 { 8 8 k N 8 8 k k 8 8 8 k H H ^ ^ k 8 8 k k k 8 k 9 9 8 8 8 8 8 k 8 8 8 8 9 a 9 9 9 a a 9 9 a h h u u i h u p i i u i u i u u u u u u i i p y Q Q y y u u y y u u u u h j P P u u u u x x x x x x Q y u u u u i h y y Q y Z x u u x x u u Q Q u u x x y y i u 8 8 b b     0 0 i i i u a a j h 6 6 5 5 b b i i { { t t i i u i i u y Q u u u u i p u y i i j j i i u i a j u i i i x x u u u u u u u u u i y y u u y y i i y y i u y y i i p y i u u u j j j j a a i i a a a a 9 a i i a a a a H 9 a 9 8 8 8 k 8 8 a a a a a a 8 8 8 8 ^ ^ 8 8 8 8 k 8 8 8 8 8 8 k H 9 8 k 9 9 ^ ^ 8 k ] ] c c c ] ] ] l 6 c c ( ( ( ( _ _ ] ] r 5 ( ( ~ ~ ^ { 6 6 < < ,.,.. . . . . . = = = = - - , ",
"- = = ` ` . . = = O O ) ) < < ~ ~ { ^ ~ ~ I I > > 6 6 5 5 v v o o ~ ~ c ] c c c ~ { ^ ~ c { ^ ^ ^ 8 8 ^ ^ k 8 ^ ^ 8 8 N k H H 8 8 8 8 k N 8 8 k k 9 9 H H a a 8 8 9 9 8 8 9 9 8 8 a a 8 k a a 9 9 H j j P u u u u u i p u u u i i u u u u u u u u y y i u u u u u Q y i i i u a a i u i i x x u u x Z i i u i i i u u u u x x Q Q y Q u u y Q u u Q Q u u a a 8 8 0 0 o o v v 8 8 u i i j h h a a 6 6 > - ] ] 9 9 ] ] 9 a i u a a Q Q P P x x P P u u i i j j a a x x u u u u j j u i i u u u j j u u j j u u u u y y u u u u i u Z x u u i i j j i p p i u i a a j h a a i i a a 9 a a 9 a a H H H a 8 8 0 0 8 8 a a 0 0 a a 8 8 8 8 ^ ^ k 8 8 k a a 8 8 8 8 ^ ^ { k ^ ^ 8 8 N k 8 k c ] ^ ^ c ] ^ ^ ] c c ] ] ] d d 5 5 ~ ~ / / > > ( ( ~ ~ ~ ~ ~ ~ ! ! =.=.O O . . . . . . ` ` > > F ",
"- = = ` ` . . = = O O ) ) < < ~ ~ ^ { ~ ~ I I > > 6 6 5 5 v v o o ~ ~ c ] c c c ~ { ^ ~ c ^ ^ ^ ^ k 8 ^ ^ 8 k ] ^ k 8 8 k H H 8 8 8 8 8 k N 8 8 k 9 9 H H a a 8 8 9 9 8 8 9 9 8 8 a a 8 8 a a H H j j j P u u u u u u i p u u i i u u u u u u u u y y i u u u u u Q Q u u i i a a u u u u x x u u x Z i i i u u i u u u u x x Q Q y Q u u Q Q u u Q y u i a a 8 8 0 0 o o v v 8 8 u i h h h h a a 6 6 > - ] ] 9 a ] ] 9 a i i a a Q Q P P x x P P u u i i j j a a x x u u i i j j i i u i i u j P u u j j u u u u y y u u u u u u x Z i i i i j j i p i i u i a a j h a a i i a a a a 9 a a a H H 9 9 8 8 0 0 8 8 a a 0 0 a a 8 8 8 8 ^ ^ k 8 8 8 a a 8 k 8 8 ^ ^ k 8 ^ ^ 8 8 N k 8 k c c ^ ^ ] c { ^ ] c c ] ] ] d d 5 5 ~ ~ / / > > ( ( ~ ~ ~ ~ ~ ~ ! ! =.=.O O . . . . . . ` ` > > F ",
"- ` ` . = ` ` . . O O =.=.! ! ~ ~ ~ ~ ~ c ( ( 5 5 ] ] l 6 l l ] ] l ] ~ ~ ] ] c c c c k k ^ ^ ^ ^ ^ ^ ^ { ^ ^ 8 k k k 8 8 8 8 H 9 N 8 8 8 k 8 a H k 8 a a 8 8 9 9 8 8 8 8 8 8 H H 8 8 a a 9 a a a 9 9 j j j j u u h j u i i i u u u u i p u u u u u u i p u u u u u u i i j j i P u u Q Q u u u u u u u u j j y y Q y y y i u y y i u u u u i Q Q u u i i o o v w > > a a     0 0 a a i i a a h h G G 5 5 n n     _ _ a a 9 a i i i u i u u u Q y i i u u u u i i i i i i P j y y j j u i i u i u 9 j u u u u i u i i u i i u y Q y y i u j j j j a a a a 9 a i i h h u u a a a a 9 a i j H H a a 8 8 0 0 8 8 a a 0 0 a a 9 9 a a 8 8 k 8 8 8 9 9 8 8 8 8 N N 8 k ^ ^ k k 8 k c ^ ^ ^ 8 { c c ^ ^ ] ] c c c ] ] c c ~ ~ ~ J 6 c ~ > > 6 6 ~ ~ ~ ~ J 6 } } =.=.. . . . . . ` ` = = f - , ",
"> ` ` . = ` ` = . O O =.=.! ! ~ ~ ~ ~ ~ c ( ( 5 5 ] ] 6 6 l l ] ] l ] ~ ~ c ] c c c c k k ^ ^ ^ ^ ^ ^ ^ { ^ ^ k 8 k k 8 8 8 8 H H 8 8 8 8 8 8 H H 8 8 a a 8 8 9 9 8 8 8 8 8 8 H H 8 8 a a 9 9 a a 9 9 j j j j u u h j P i i u i i u i i u i i u i u u u u u u u u u u i i j j i P u u Q Q u u i u u u u i h j y y y Q y y u u Q Q u u i u i i Q Q u u i i o o v w > > a a     0 0 a a i P a a j h G G 5 5 n n     _ _ a a a 9 i i i u i u i i Q Q u u u u u u i i i i i i j j y y j j u i i i i u a h i h u u i u i i i u i i y y Q y i u h j P j a a a 9 a a i i j h i i a a a a a a j j H H a a 8 8 0 0 8 8 a a 0 0 a a a 9 a a 8 8 k 8 8 8 9 9 8 8 8 8 N N 8 k ^ ^ 8 k k k ^ ^ ^ ^ k 8 c c ^ ^ ] ] ] c c ] ] c c ~ ~ ~ 6 6 ~ ~ > > 6 6 ~ ~ ~ ~ J 6 } } =.=.. . . . = . ` ` = . f - , ",
"- = = ` ` . . ` ` O O ,.,.< < 6 6 ~ ~ ~ ~ I I > > ~ ~ 6 6 ~ ~ ] ] ~ ~ ] ] ~ ~ 6 6 E E E c { N E E N N ^ ^ ^ ^ ^ { 8 8 k 8 8 k 8 8 8 8 8 k H 9 8 8 H H 8 8 8 8 k 8 a 0 { { 8 8 k 8 a H k 8 j j H H a a 9 9 j h h j u i j j u i i u u u h j i i u i i u i u u u j j u u j j j j j j u u u u u u u i y y i i u i P i u p p i Q Q u u Q S S S u u u u y Q P P P i i j j j 8 8 v v N N i i a a u u h j ~.~.> > a a n n i i a a u u i i Q S j j Q Q P P u u h j i y j j u i i i i i j j i i j j u i j j i i j j i i j j u u P j j j u i Q y u u u u i i i u i i u i a a i P j a a a 8 8 a a 9 9 9 a 8 8 0 0 { { 0 0 0 0 a a 8 8 k 8 8 8 8 8 8 8 a a 8 k a H k 8 8 8 k N 8 8 k k 8 8 c c k 8 8 k ^ ^ ] c c c ] ] ] c c ~ ~ ~ 6 l l 6 l 6 > > ( ( ~ ~ ~ ~ ~ c ! ! =.=.` ` = . ` ` . = ` ` > > , ",
"- . = ` ` . = ` ` O O ,.,.< < 6 6 c ~ ~ ~ I I > > ~ ~ 6 6 c ~ ~ ] ~ ~ ] ] ~ ~ 6 6 E E E c N N E E N N ^ ^ ^ ^ ^ { 8 8 8 k 8 8 k 8 8 8 8 8 H 9 8 8 H H 8 8 8 8 8 k a 0 { { 8 8 k 8 a H k 8 j j H H a a 9 9 j h j j u i a j i i u i i u j j u i i u u u u u u i j j u u h j j j j j u u u u u u u u y y u i i u i i u p p i Q Q u u Q S S S u u u u Q y i P P u j j j j 8 8 v v N N i i a a u u h j ~.~.> > a a n n i i a a u i i u S S j j Q Q P P u u j j Q Q j j u i i u i i j j i i j j u u j j i i j j i i j j i i j j j j u i Q y i i u u i i i i u i i P a a i i a 9 a a 8 8 a a 9 9 a a 8 8 0 0 { { 0 0 0 0 a a 8 8 k 8 8 8 8 8 8 8 a a 8 8 9 H k 8 8 8 8 k N 8 8 k k 8 c c k 8 k k ^ ^ c c c ] ] ] ] c c ~ ~ ~ 6 l l 6 l 6 > > ( ( ~ ~ ~ ~ ~ ~ ! ! =.=.` ` . . ` ` = = ` ` > > , ",
"f ` ` . = ` ` = . . = =.=.! ! ~ ~ ~ ~ ~ ~ d d 5 L 6 6 l l ] l l ] l l ~ ~ 6 l ] ] l l c ] E E *.*.*.E ^ ^ c ] N N 8 k 8 8 k N 8 8 8 8 8 8 k 8 a H k 8 j 9 8 k a a 8 8 8 8 ^ ^ k 8 8 8 9 9 H H a a H H P j j j j h h j h h a a i i u i i u j j u i j j u i j j j i j j u u j j u i i u u i i i u u i i u i u u u u i u u u u u i p u u S S S Q u u u u i p u u u u h j a a     8 8 j j j j j j j j 6 6 5 5 9 9 i i u i i u i u p p S S u u P P u u j j u i j j u i j j i i u u h u h j P i i i i i a a u i j j i h j j u u u u i u j j u i i i y y i u u i i j a a 9 a a a 9 a a 9 8 8 a a 0 0 a a 8 8 8 8 8 8 a a 0 0 0 0 8 8 a 9 8 8 9 a 8 8 8 8 N N 8 8 N N 8 k ^ ^ k 8 ^ ^ ^ ^ ^ ^ { 8 ^ ^ 8 k l l ] c l l ~ ~ 6 6 l l 6 l 6 6 > > 6 6 c ~ ~ ~ 6 6 } } ,.,.O O ` ` . . ` ` ` ` f - , ",
"f ` ` . = ` ` . . = = =.=.! ! ~ ~ ~ ~ ~ c d d 5 L 6 6 l l ] l ] ] l ] ~ ~ 6 l ] ] l l c ] E E E *.E E ^ ^ c ] N N N 8 8 8 N N 8 8 8 8 8 8 k 8 a H k 8 j 9 k k a a 8 8 8 8 ^ ^ 8 8 k 8 a H H H a a 9 H j j j j h h h j h h a a h i i u i i P j u i j j i i j j j i j j u u h j i i u i u i h i u u u i u i u u u u i i u u u u u i p u S S S Q u u u u u i p u u u j j a a     8 8 j j j j j j j j 6 6 5 5 9 9 i i i u i i u i u p S S u u P P u u j j u i j j i i j j i i u i u u h j i i i u i i a a u u j j i h j j u u i u u u j j u i i i y y u i u i i j a a a 9 a a a 9 a a 8 8 9 a 0 0 a a 8 8 8 8 8 8 a a 0 0 0 0 8 8 H H 8 8 a a 8 8 k 8 8 k 8 8 N N 8 k ^ ^ k k ^ ^ ^ ^ ^ ^ 8 { c ^ k 8 l l ] c l l ~ ~ 6 6 l l 6 6 l 6 > > 6 6 ~ ~ ~ ~ 6 6 } } ,.,.O O ` ` . . ` ` ` ` - - , ",
"- ` ` ` ` . . ` ` O O '.'.< < 6 6 ~ ~ ~ ~ ( ( > > 6 6 o o 6 6 l 6 l l 6 l ~ ~ c ] c c ] ] c c c ] ^ ^ c ] ^ ^ ^ ^ 8 8 ^ ^ 8 8 k 8 a H k 8 j 9 k 8 H 9 8 8 0 0 8 8 a 9 { { 8 8 8 k 8 8 k 8 9 a a 9 9 H H 9 j j a a i i a a P j j j i u u u i u j j u i j h i u j j u u j j u i j j i i u u u u u i i u i i u i j j u i i u u u a a i p u u Q Q P P u u i P u u u u u p a a   R 8 8 j j j j j j H H 6 6 > - a a i P i j u i i i j j u i -.-.u u h j i i j j h j j j i i j j i i a a u u i u u u j j j j a a j j j j u u i i u i a a i i a a i u u u u p j h h i a a a a 9 a a a 8 8 H H 9 9 a a 8 8 0 0 8 8 0 0 0 0 a a 8 8 H 9 8 8 9 9 8 8 8 8 8 8 H 9 8 8 k k ^ ^ k k ^ ^ c c c ] ] c c ] ^ ^ c ] l l o o ] ] ] ] l ] o o 6 6 6 l > > ( ( ~ ~ J J ~ ~ ! ! =.=.` ` = . ` ` ` ` 7 7 > > , ",
"- ` ` ` ` . . ` ` O O '.'.< < 6 6 ~ ~ ~ ~ ( ( > > 6 6 l o 6 6 l 6 l l l 6 ~ ~ c ] c c ] ] ] c c ] ^ ^ c ] ^ ^ ^ ^ k 8 ^ ^ 8 8 k 8 a H k 8 j 9 k 8 9 9 8 8 0 0 8 8 9 9 { { 8 8 k k 8 8 8 8 a a 9 9 H H 9 9 j j a a i P a a j j j j u u u u i u j j u i j j i i j j u u j j i i j j i p i u u u u u i i u i u u j j i i i u i i P a u u u u y Q P P u u j P u u u u u p a a   R 8 8 j j j j j j H H 6 6 > - a a i u a j u i i i j j u i -.-.u u h j P i i j h j P j i i j j u i a a i p u u u u j j j j a a j j j j u i i i u i a a u i a a i u u u p p h h i h a a a a a 9 a a 8 8 H 9 9 9 a a 8 8 0 0 8 8 0 0 0 0 a a 8 8 9 9 8 8 9 a 8 8 k 8 8 8 9 9 8 8 k N ^ ^ k 8 ^ ^ c c ] ] ] c ] ] ^ ^ ] E l l o o ] ] l ] ] ] l o 6 6 6 l > > ( ( ~ ~ 6 J ~ ~ ! ! =.=.` ` = . ` ` ` ` 7 7 > > , ",
"f ` ` = = ` ` . . = = =.=.! ! ~ ~ ~ ~ ~ c ( ( 5 5 6 6 6 l ( ( 6 6 l 6 6 6 l l ] c l l l ] *.*.E E E c ^ ^ c ] N N { { { { N N H 9 8 8 H H 8 8 a 9 8 8 8 8 8 8 0 0 8 8 k 8 8 k 8 8 8 8 9 9 a a h h a 9 j j a 9 9 a a 9 j j a a i i j j i p i i u u j j i i i i i i j h j j j j u i i u y y i i u i i i i i j j h j a a u i j j a a j j y y i u Q S j j j P i i u i a j H H R R 8 8 H H j j a a a a o o 5 5 H H P i j j u i a j j j j j S S S Q u u j j j j a 9 u u a a j j i i h i j j h i j j u i j j h j j j i i j j i i j j u u h j i i j j u i a a j h a a a 9 a a a 9 a a a a 9 9 H H 8 8 0 0 8 8 0 0 { { 0 0 8 8 0 0 8 8 a 9 { 8 8 k ^ ^ 8 8 H H 8 8 N N 8 k ^ ^ k k c ] ^ ^ ] c c c l l ^ ^ c ] l E l l l ] c l ] ] l o 6 6 > > ( ( ~ ~ ~ ~ 6 J ! ! ,.,.O O ` ` = . ` ` ` ` - - , ",
"f ` ` = = ` ` . . . = =.=.! ! ~ ~ ~ ~ ~ ~ ( ( 5 5 6 6 l 6 ( ( 6 6 6 l 6 6 l l ] c l ] ] ] *.*.E E E E ^ ^ ] c N N ^ { { { { N H H 8 8 9 H 8 8 H 9 8 8 k 8 8 k a 0 8 8 k 8 8 k 8 8 8 8 9 9 9 a h h a 9 j j a 9 a a 9 a i j a a i P i j u u P i i i j j i i u u u i j j j j j j u i i u y y i i i u i i i i j j j h a a u u j j a a h j y Q u u Q S j j j P u u i i j j H H R R 8 8 H H P j a a 9 a o o 5 5 9 H i i j j i p a a j j j j S S S Q u u j j j j a 9 u i a a j j i i h i j j i i j j u u h j h j j j i i j j i i j j u u h j i i j j i i a a h h a a a a 9 a a a 9 a a a 9 9 H H a 8 0 0 8 8 0 0 { { 0 0 8 8 0 0 8 8 H 9 8 8 k 8 ^ ^ 8 8 H H 8 8 N N 8 k ^ ^ k k ] ] ^ ^ ] E c c ] l ^ ^ ] c c c l l ] c l ] ] ] o o 6 6 > > ( ( ~ ~ ~ ~ 6 J ! ! ,.,.O O ` ` . . ` ` ` ` - - , ",
"- = = ` ` . . ` ` O O ,.,.< < 6 6 ^ ^ c ] A A e e 6 6 l 6 6 6 c ~ l l ] c l ] ] ] E E *.E E E *.E E E E c N N N N N N N N 8 8 8 8 H H 8 8 9 a 8 8 8 8 k k 0 0 8 8 0 0 8 8 0 0 { { 9 9 0 0 a a 9 9 9 a a 9 9 a a 9 h h a a j j P j i i i i i p i i i i j j i u i u u u j j i i j j u i a j i i i u i i P j h h 9 a P j a a j j a a i p P P Q S -.-.j j H H j j j j a a N N     ^ ^ j j H H H H 8 8 6 6 > > 8 8 H H j j H H a a 9 a S S j j u i j j j j a a i i i u i i u i u p h j j j a a j j j j u i j j h i j j i i P j i u i u u u u i u u j j P i j j u i a a a 9 a a a 9 a a a 9 9 9 a a 8 8 0 0 { { 0 0 8 8 a a 8 8 8 8 k 8 8 8 8 8 8 8 8 8 k 8 8 k k k c c k k c c ^ ^ ] l c c ] ] ] c ] ] ] c l l ] c l ] l l ] c l ~ o o > > ( ( ~ ~ ~ ~ 6 6 4 4 =.=.` ` . . ` ` ` ` ` ` > > F ",
"> = = ` ` . = ` ` O O ,.,.< < 6 6 ^ ^ c ] A A e e 6 6 l 6 6 6 ~ ~ 6 l ] ] ] c c ] E E *.E E E E E *.E E E N N N N N N N N 8 8 k 8 a H k 8 a a 8 8 8 8 k k 0 0 8 8 0 0 8 8 0 0 { k 9 H 0 0 a a 9 9 a a 9 a a a 9 a h h a a j j P j i u u u y p i i u u j j i i u i u u j j i i j j u i a j i i i i u i a j h h a 9 j j 9 a j j a a i p P P Q S -.-.j j H H P j j j a a N k     ^ ^ j j H H H H k 8 6 6 > > 8 8 H 9 9 j H H a a a 9 S S j j u u h j j j a a i i i i u i i u i u j j j j a a j j j j u i j j h i j j h i j j i i i i u u i u u u P j P i j j i i a a a a a a a 9 a a a 9 a a 9 a 8 8 0 0 { { 0 0 8 8 9 a 8 8 8 8 k 8 8 k 8 8 8 8 8 8 8 8 k k 8 k c c { N c c ^ ^ ] l c c ] ] ] c ] ] E E l l ] c l ] l l l ] c ~ o o > > ( ( ~ ~ ~ ~ 6 6 4 4 =.=.` ` . . ` ` ` ` ` ` > > F ",
"> ` ` . = ` ` . . O O =.=.! ! 6 6 ~ ~ ~ ~ d d q q o o 6 6 / / 6 6 l l ] l ] ] ] c c ] E E E *.E E E E N N ^ { N N ^ { 8 8 k N N k k 8 9 9 8 k k k 8 8 8 8 k k 8 k k { 0 0 8 k 0 0 0 0 a a 9 9 a a a 9 h h a a j h a a j h a a i i j h u u i i u i a a i u i i i u j j i i j j u u j j j h h j h i a a j j a a i P i j j j u i i u j j Q S a a -.-.H H H H H H j j 8 8 H 9 R R 8 8 H 9 9 a a 9 a a ( ( > > ^ ^ 9 a 9 9 a a 9 9 H j j j j P i j S S a a j j j j i i j j u i j j u i a a u u j j i i h j u u j j j j h j i i u u i i j j i i j j h i a a j h a a a a 9 a a a 8 8 H 9 8 8 9 a 8 8 8 8 k 8 8 8 k 8 8 8 8 8 0 0 { { 8 8 ^ ^ 8 8 8 8 8 k ^ ^ 8 8 ^ ^ { k ^ ^ ^ ^ c c c ] ] ] ^ ^ c ] c c ] ] ] c ] ] E ] ] l 6 l o o ] l > > 6 6 ~ ~ ~ ~ 6 J ! < ,.,.O O ` ` . . ` ` ` ` {., , ",
"> ` ` = = ` ` . . O O =.=.! ! ~.6 c ~ ~ ~ d d q q o o 6 6 / / 6 6 6 l l ] c ] ] c c ] E E E E *.E E E N N ^ ^ k N ^ ^ 8 8 k N N k k k 9 a k k 8 k k 8 8 k N 8 8 k k { 0 0 8 k 0 0 0 0 a a 9 9 a a 9 9 j h a a j h a a j h a a u i j h u u i i u u a a i u i i u u h j i i a j u i j j j h h j h i a a j j a a i P i j j j u i i i j j S S a a -.-.H H H H H H j j 8 8 H H R R 8 8 H H a a 9 a a 9 ( ( > > ^ ^ a a H H a a 9 H j j j P i j j j Q S a a j j j j i i j j i P j j i i a a u u j j i i j j u u j j j j h j i i i u u i j j i i a j u i 9 a h h a a a a 9 a a a 8 8 9 9 8 8 9 a 8 8 8 8 k 8 8 8 8 k 8 8 8 8 0 0 { { 8 8 ^ ^ 8 8 8 8 8 k ^ ^ 8 8 ^ ^ 8 k ] ^ ^ ^ c ] c c c ] ^ ^ ] c c c l ] ] c c ] E ] ] l 6 l o o o ] > > 6 6 ~ ~ ~ ~ 6 6 } < ,.,.O O ` ` . . ` ` ` ` , , {.",
"- = = ` ` . . ` ` O O ,.,.< < 6 6 c ~ ~ ~ ( ( > > 6 6 5 5 ^ ^ c ~ 6 l c c c ] ] ] c c c ] ] E E E N N E E N N ^ ^ N N N N N k k N 8 8 8 8 8 k ^ ^ 9 9 { ^ k 8 ^ ^ 8 8 ^ ^ 8 k N k 0 0 0 0 a a 9 9 a a 9 9 h h a a a a a 9 a a a 9 j j a a i i j j h h a a i i j h i i j j i i j j u i a j i i i i j i a a j j j P i j j j i u a a P P P j j j -.-.j j H H H H N N a a 8 8     ^ ^ j j H H j j H H 6 6 > > 8 8 8 8 a 9 8 8 a a a 9 h j j j j j j j j j a a j j a a i i j j u i j j i i u u i i j j h i j j j j a a i i i i u u h j j j a a j j a a a a 9 a i j a a a 9 a a a 9 8 8 a a 8 k a H { { 8 8 ^ { 0 0 8 8 0 0 { k { { { { 8 8 ^ ^ k 8 ^ ^ k 8 ^ ^ 8 8 k k 8 k c c ^ ^ c ] ^ ^ ] c c c ] ] ] c ] ] E c l 6 ^ ^ c ~ d d 6 6 > > ( ( ~ ).~ ~ ~ ~ ! } =.=.` ` = . ` ` ` ` ` ` > > F ",
"- = = ` ` . . ` ` O O ,.,.< < 6 6 ~ ~ ~ ~ ( ( > > 6 6 5 5 ^ ^ c ~ l l ] c c c ] ] ] c ] E E c E E N N E E N N ^ { N N N N N N k N 8 8 8 8 k k ^ ^ 9 9 { ^ k k ^ ^ k 8 ^ ^ 8 8 k N 0 0 0 0 a a 9 9 a a 9 9 j h a a 9 a a a 9 a a a j j a a i i j j h h a a i i j j i i j h i i j j u i a j i i i i h i a a j j j j u i j j i u a a j P P j j j -.-.j j H H H H N N a a 8 8     ^ ^ j j H H j j H H 6 6 > > 8 8 8 8 a a 8 8 a a a a j j j j j j j j j j a a j h a a u u h j i i j j u i u u i i j j i P j j j j a a i h i i i i j j j j a a j j a a a a a 9 h h a a 9 a a a 9 a 8 8 a a 8 k a H { { 8 8 { { 0 0 8 8 0 0 { { { { { { 8 8 ^ ^ 8 8 ^ ^ 8 8 ^ ^ 8 8 8 k 8 8 c c ^ ^ ] c { ^ ] c c c ] ] ] c ] ] E c 6 6 ^ { ~ ~ d d 6 6 > > ( ( ~ ).~ ~ ~ ~ } } =.=.` ` = . ` ` ` ` ` ` > > F ",
"> ` ` = = ` ` . . O O =.=.! ! 6 6 E E ~ ~ d d 5 L ( ( > > ( ( d d o o ~ ~ ] ] c c ] E E E E E *.E E E E E E c N N ^ ^ 8 8 N k H H ^ ^ 8 8 ^ ^ k 8 ^ ^ ^ ^ ^ 8 { c ^ { { { { 8 8 8 ^ ^ 9 9 H H a a H 9 9 a a 9 j h a 9 a a 9 a a a 8 8 9 a a 9 i i j j i i h j i i j j i u a a i i 9 a i i i u i i a a 9 a a H h j a a P i j j j j -.-.j j H 9 j j a a j j H H ^ ^ a a 6 l m m 8 8 H H j j H H H H W W - - c c k 8 k k 9 a a 9 h h -.-.j j a a j j 9 a h j H H j j H H P i 9 a u i 9 a h j j j u i a a j j a a i j a a i P i j j j a 9 j j 9 a a a H H a a 9 a a a 9 a a a 9 a a a 9 9 a a 8 8 8 8 ^ ^ 8 8 0 0 0 0 8 8 { { { { { { { { 8 8 8 k ^ ^ ^ ^ k k 8 k k { ^ ^ ^ ^ ] c { ^ ] c c c c ] ^ ^ ] ] c c ~ ~ ~ ~ n n v v , , 6 6 > > ( ( ~ ~ ~ ~ 6 6 } < ,.,.O O ` ` . . ` ` ` ` , , , ",
"> ` ` = = ` ` = . O O =.=.! ! 6 6 c ] ~ ~ d d 5 L ( ( > > ( ( d d o o ~ ~ ] ] c c ] E E E E E E *.E E E E E E N N ^ ^ 8 8 N N H H ^ ^ 8 8 ^ ^ k 8 ^ ^ ^ ^ ^ ^ 8 { c ^ k k ^ ^ k 8 { { 9 9 H H a a H 9 a a 9 a i j a 9 9 a a 9 9 a 8 8 a a 9 a i i j j i i j j i i j j i u a a h i 9 a u u h u i i a a 9 a a H h j a 9 u u j j j j -.-.j j 9 9 j j a a j j H H ^ ^ a a 6 l m m 8 8 H H j j H H H H W W - - ] c 8 8 k 8 a H a a j h -.-.j j a a j h a a j j 9 9 j j 9 9 i i 9 a u u a a j j j j i i a a j j a a j h a a i u a j j j a a h j a 9 a a 9 9 a a a 9 a a a 9 a a a 9 9 a a 9 9 a 8 8 8 8 ^ ^ 8 8 0 0 0 0 8 8 k ^ ^ ^ ^ ^ 8 { 8 8 k N ^ ^ ^ ^ 8 k k k k k ^ ^ ^ ^ c c ^ ^ ] c c c c ] ^ ^ ] c c c ~ ~ ~ ~ n n v v , , 6 6 > > ( ( ~ ~ ~ ~ J 6 [ [ ,.,.O O ` ` . . ` ` ` ` , , {.",
"- = = ` ` . . ` ` O O ,.,.< < 6 6 ~ ~ 6 l d d > > 6 6 5 5 v d o o ] ] ] c c ] E E c c c ] c c c ] c c c ] ^ ^ ] c { N N N 8 8 8 N k k ^ ^ k 8 { ^ k 8 ^ ^ k k c c 8 8 ^ ^ 8 8 8 k 0 0 0 0 9 a a 9 9 a a 9 9 a 9 9 a a 9 a a 9 a a a 9 a a j h a 9 i i j h h u u i i i a a j h a a h i j j i i 9 a h h a a a a 8 8 a a a a h h a a j j H H H H H H j j a a o o n n n n ^ ^     ^ ^ a a 9 a a a 8 8 6 6 > > n n n / / n 8 8 b b a a j j H H j j a a a a a 9 a a H 9 a a H H j j H H i i j j j j a a j j a a j j 9 a j h a a h j a a j j 9 a P j H H a a a a j h a 9 a 9 8 8 a 9 8 8 a a 9 9 a 9 8 8 a a 8 8 0 0 { { 8 8 ^ ^ k 8 ^ ^ 8 8 ^ ^ k 8 ^ ^ 8 8 ^ ^ 8 8 ^ { { { c c ^ ^ ] c c c c ] ] c ] ] c c ] E ] l l o 5 5 L 5 6 6 ( ( 5 5 ( ( ~ ~ J J 6 6 ! ! =.=.` ` = . ` ` ` ` ` ` > > F ",
"- = = ` ` . . ` ` O O ,.,.< < 6 6 ~ ~ l l d d > > 6 6 5 5 v d o o ] ] ] ] ] c c ] E E c c c c ] c c c c ] ^ ^ ] c N N N N 8 8 8 k N N ^ ^ 8 k ] ^ k k ^ ^ k 8 c c k 8 k k 8 8 k N 0 0 0 0 a a a 9 a a 9 a a a 9 a a a 9 9 a a a 9 a a a 9 j h a 9 i i j h i i u i i P a a j h a a i i h j i h a a j j a a a a 8 8 9 a a a h h a a h j H H H H H H j j a a o o n n n / ^ ^     ^ ^ a a 9 a a a 8 8 6 6 > > n n n / n n 8 8 b b a a j j H H j j a a a a a a a a H H a a 9 9 H j j H i i j j j j a a j j a a j j a a j h a a h j a a j j a a P j H H a a 9 a i j a 9 a a 8 8 a 9 8 8 a a H H 9 9 8 8 a a 8 8 0 0 { k { 8 ^ ^ 8 8 ^ { 8 8 ^ ^ k 8 ^ ^ 8 8 ^ ^ 8 8 ^ ^ 8 ^ ] c N ^ ] c c c l ] c c ] ] ] c ] ] l l o o 5 5 L 5 6 6 ( ( 5 5 ( ( ~ ~ J J 6 6 } ! =.=.` ` . . ` ` ` ` ` ` > > F ",
"> ` ` . = ` ` . = O O =.=.< < 6 6 6 6 ~ ~ d d > > 6 6 l 6 6 o ~ ~ 6 l c c c ] ] c ] ] ] c c ] E E E E E c c ] N N ^ { 8 8 N N 8 8 ^ ^ k 8 ^ ^ k k ^ ^ k 8 { ^ { { { { 8 8 { { 0 0 8 8 0 0 8 8 9 a 8 8 H H 8 8 a 9 9 9 a a 9 a a a 9 a j h a 9 h h a a i i j j i i a a j j 9 a j h a a i i a a j j a a a a 8 8 H H 8 8 a a 9 9 9 a H H j j H H P j j j j j a a / / n n 8 8 > > { ^ k 8 a a 0 0 a 9 ( ( > > w w n n v v a a 9 9 h b a a 9 a a a j j H H a a 9 9 a a H H h j H H P i a a i u a a a H a a j j a a h j a a i P a a j j a a j j a a j j H H a a a 9 a a a 9 a 9 8 8 a a 8 8 a a 8 8 0 0 8 8 0 0 8 8 k 8 8 c { { { { 8 8 { { 8 8 { ^ k 8 8 k k 8 ^ ^ { k ~ ~ ^ { ~ c c ] ] ] c ] ] E c c c ] ] c ] l ^ ^ ~ ~ ~ ~ J 6 6 6 > > ( ( ~ ~ ~ ~ ( G < < ,.,.O O ` ` . . ` ` ` ` , , , ",
"> ` ` = = ` ` = . O O =.=.< < 6 6 6 6 c ~ d d > > 6 6 6 l o o ~ ~ l l ] c l ] c c ] ] ] c ] ] E c c ] ] c c c N N ^ { 8 8 N N 8 k ^ ^ k k ^ ^ 8 k ] ^ 8 8 ^ ^ k { { { 8 8 ^ ^ 0 0 8 8 0 0 8 8 H 9 8 8 9 a 8 8 H H 9 9 9 a a 9 a a a a j h a a j h a a i P j j i i 9 a j j 9 a j h a a h i a a j j a a a a 8 8 H 9 8 8 9 a 9 9 9 a H H j j H H j j j j j j a a o / / n 8 8 > > { ^ 8 8 a a 0 0 9 9 ( ( > > w w n n d d a a 9 9 h b a a 9 a a a j j H H a a 9 9 a a H H h j H H i i a a i P a a a H 9 a j j 9 a j j a a i P a a j j a a h j a a j j H H a a a a 9 a a a a 9 8 8 a a 8 8 a a 8 8 0 0 8 8 0 0 8 8 8 8 ^ ^ k { ^ ^ 8 8 ^ ^ 8 8 ^ ^ 8 8 N k 8 k { { { { ~ ~ ^ { ~ c c c ] ] ] c ] ] E c c ] c c ] l { { ~ ~ ~ ~ 6 J 6 6 > > ( ( ~ ~ ~ ~ ( G < < ,.,.O O ` ` . . ` ` ` ` {., , ",
"f = = ` ` . = ` ` O O ,.,.< < ( ( 6 6 l l ( ( _ , 6 6 ] ] c ~ 6 6 c ~ l l c ~ 6 l ] ] ] l l c ] E E c c ] ] c ] ] N N N N N k ^ ^ 8 k ] ^ k k ^ ^ ^ ^ ^ ^ ^ ^ ^ { ^ k k ^ 0 0 { { 0 0 { { 8 8 8 k a a 8 8 9 9 8 8 H H 9 9 a a 9 a a a 9 a a a a a j h a a i i a a j j H H a a a 9 j j 9 a a a H H a a 8 8 H H 8 8 a a 9 H a a 9 9 j j H H 9 a H H j j H 9 a a 9 9 a a { { m m ~ ~ 8 8 k 8 a a 8 8 6 6 > > 8 8 0 0 b b a a 9 a 0 0 a a 9 a a 9 a a a 9 a a 9 9 8 8 9 a 8 8 a a H H a a 9 H a a 9 a P j a a a a H H a a 9 a j j a a j j 9 a j j H H a a 9 9 a a a 9 a a 8 8 a a 8 8 a 9 8 8 0 0 { { 8 8 { { 0 0 { { 8 8 ~ ~ ^ { ^ ^ ^ ^ ^ { ^ k k k 8 k k 8 k k c c ^ ^ ^ ^ ] c ] ] c c ] E E E E E ] ] l l c ] E E ~ ~ 6 l ] ~ 6 6 > > d d ~ ~ 6 6 l 6 } ! =.=.` ` . = ` ` ` ` ` ` > > F ",
"- = = ` ` . . ` ` O O ,.,.< < ( ( 6 6 l l ( ( _ , 6 6 ] ] ~ ~ 6 6 ~ ~ ] l c ~ l l ] c l ] c c c ] ] c ] ] c c c ] N N N N N k ^ ^ k 8 ^ ^ k k ^ ^ ^ ^ ^ ^ ^ ^ ^ ^ { 8 ^ { 0 0 8 k 0 0 { { 8 8 8 8 a a 8 k a H 8 8 H H 9 9 a a a 9 a a a 9 a a a a h j a a i i a a j j H H a a a 9 j j a a a a H H a a 8 8 H H 8 8 a a 9 H a a H H j j H H a a H 9 j j 9 9 a a H 9 9 a 8 { m m ~ ~ 8 8 k 8 a a 8 8 6 6 > > 8 8 0 0 b b a a a 9 0 0 a a 9 a a a 9 a a a 9 a 9 9 8 8 9 a 8 8 a a H 9 9 a H H a a 9 a P j H a 9 a H H a a 9 a j j a 9 h j 9 a j j H H a a a 9 9 a a 9 9 a 8 8 a a 8 8 9 9 8 8 0 0 { { 8 8 { { 0 0 { { 8 8 ~ ~ { ^ ^ ^ ^ ^ ^ { ^ k k k k 8 k k 8 k c c ^ ^ ^ ^ c ] c c c c ] ] ] c ] ] E ] l l ] c c c c ~ l l ~ ~ 6 6 > > d d ~ ~ 6 6 l 6 ! ! =.=.` ` . = ` ` ` ` ` ` > > F ",
"- ` ` . = ` ` . . O O =.=.! ! ~.6 6 6 l 6 M M f f ( ( 6 6 l 6 6 l 6 6 6 6 6 l 6 l l o o ] l l l ] c l ] l o o ] ] E E N N ^ ^ ] c N N ^ ^ ] ] ^ ^ ] l c ~ ~ ~ 8 k c ] ^ { { { { { { { { { k 8 9 9 9 9 a a 8 8 k 8 8 k 8 8 N k k 8 8 8 a a 9 a a a 9 a a a 9 9 j j a a a a a 9 9 a a 9 9 a 8 8 H H 8 8 8 8 8 8 8 8 8 8 a 9 8 8 H H 8 8 H H 8 8 a a H H a a a 9 a a 8 8 ^ ^     ^ ^ 8 8 H 9 8 8 8 8 ( ( > > ~ ~ 0 0 8 8 a a 8 8 8 8 H H a a 8 8 a a a a 9 a a H a a 8 8 H H N N H H 9 9 H H H H a a H 9 a H 8 8 H H 8 8 a a H H 9 a H H a a 8 8 9 9 8 8 H H 8 8 a 9 8 8 H H 8 8 8 8 N k k 8 ^ ^ { { { { 8 8 ^ { { { { { ^ ^ c ] l ~ ] ] ^ ^ ] ] 8 8 ^ ^ k { c c ^ ^ ] l c ] o o ] ] o o ] l l l l o o o o ] ] ] ~ ~ 6 l ] ] / / n / , , ( ( 6 6 ~ ~ I I ! ! ,.,.O O . . . . ` ` ` ` f - , ",
"- ` ` = = ` ` . . O O =.=.! ! 6 6 6 6 l 6 M M f f ( ( 6 6 l 6 6 6 l 6 6 6 6 6 6 l o o l l ] l ] ] l 6 l l l o E E *.E N N ^ { c c k k ^ ^ c ] ^ ^ ] l c ~ ~ ~ { k c ] ^ { { { { { { { { { 8 k H 9 9 9 a a 8 8 8 k N 8 8 k k 8 8 8 8 k a a 9 9 a a 9 9 a 9 a a j h a a a a a 9 a a H H H a 8 8 H 9 8 8 k 8 8 8 { 8 8 8 a 9 8 8 H H 8 8 H H 8 8 a a H H a a a a a a 8 8 ^ ^     ^ ^ 8 8 H H 8 8 8 8 ( ( > > ~ ~ 0 0 8 k a a 8 8 8 k H H a a 8 8 a a 9 a a a 9 H a a 8 8 H H N N H H H H H H H H a a 9 H a a 8 8 H H 8 8 8 a H H a a 9 H a a 8 8 9 9 8 8 H 9 8 8 9 a 8 8 H 9 8 8 k 8 k k 8 8 ^ ^ { { { { 8 8 { ^ { { { { ^ ^ ] c ~ ~ c ] { ^ ] c 8 8 ^ ^ k { c c { ^ ] l l ] l o ] ] o o ] ] o l l o o o l l ] c l ~ l l ] l o / / n , , ( ( 6 6 ~ ~ ( ( ! ! ,.,.O O . . . . ` ` ` ` - - , ",
"- ` ` ` ` = = ` ` O O '.'.< [ ( ( 6 6 l 6 d d , , d d n n ( ( ( ( 6 6 ( ( o o ( ( o o ( ( o o ( ( 6 6 ( ( n n ( ( 6 l l 6 l ] ] c c ] E ] l ] o o o o o o ] ] ] ] c c ] ] ] c ] ] E ] l ] ^ ^ { ^ ^ ^ ^ ^ 8 8 ^ ^ k 8 ^ ^ ^ ^ { { 8 8 8 8 a a 0 0 0 0 0 0 a a 0 0 0 0 8 k 9 H 8 8 8 8 N N 8 8 ^ ^ { k ^ ^ 8 8 { { 0 0 8 8 k 8 8 k 8 8 N k a a 8 8 8 8 k k k 8 c c ^ ^ 6 6 m m ^ ^ a a 8 8 8 k k ^ ( ( > > c ~ { { 0 0 ^ ^ k k N N H 9 N k k 8 8 8 a a 9 9 8 k ^ { { { { { { { { ^ ^ ^ ^ k 8 ^ 8 8 k 8 8 k k k ^ ^ k 8 8 k 0 0 8 8 0 0 { ^ 8 8 ^ ^ ^ ^ ^ { { { { { { { ^ ^ k 8 ^ ^ k k c c ^ ^ ] l ~ ~ ~ ~ { { ~ ~ ~ c c ] ] ] 6 6 ~ ~ ] l ~ ~ c ] c c ] ] ] ] l 6 o o v v / / n n o o n n o o o / / o o n o o ( ( ( o n n / ( d d f - d d ~ c 6 6 6 6 ! ! =.=.O O = . ` ` = = ` ` > > ; ",
"- ` ` ` ` = = ` ` O O '.'.[ [ ( ( 6 6 l 6 d d , , d d n n ( ( ( ( 6 6 ( ( o o ( ( o o ( ( o o ( ( 6 6 ( ( n n ( ( l l 6 l ] ] ] c c ] E ] l ] o o o / o o ] ] ] ] c c c ] ] c ] ] c ] ] *.^ ^ ^ ^ ^ { ^ ^ 8 8 ^ ^ k 8 ^ ^ ^ ^ { { 8 8 8 k a a 0 0 0 0 0 0 9 a 0 0 0 0 8 k 9 9 8 8 8 8 N N 8 8 ^ ^ 8 k k k 8 8 { { 0 0 8 8 8 k N 8 8 k k 8 a a 8 8 8 8 k k 8 8 c c ^ ^ 6 6 m m ^ ^ a a 8 8 8 k { { ( ( > > ~ ~ ^ { 0 0 { ^ k 8 k N H 9 { k 8 8 8 8 a a H H 8 8 ^ ^ ^ ^ k ^ ^ ^ ^ ^ { 8 ^ { 8 8 k 8 8 8 8 k k 8 c ^ k 8 8 k 0 0 8 8 0 0 { { >.8 ^ ^ ^ ^ { { { { { { { k ^ ^ k 8 { { { { ~ c { ^ ] l ~ ~ ~ ~ { { ~ ~ c c ] ] c ] 6 6 ~ ~ ] l ~ ~ ] ] c c ] ] c ] 6 6 o o v v / / / n / o n n o o o / o o o n o o ( ( o / / n ( ( d d f - d d ~ c 6 6 6 6 ! ! =.=.O O . . ` ` = = ` ` > > ; ",
"> 7 7 = = R R = = ` ` =.=.! ! G G 6 6 ~ ~ d d d d ( ( 6 6 ( ( o o o / l l 6 l ] ] 6 6 6 l c ~ ~ c c ~ ~ ~ 6 6 6 l 6 6 l 6 6 6 ] ] l l c ] l l ] l o o l c l l E E ] ] c ~ 6 l ] ] l ] ~ ^ ] c ^ ^ ] ] ^ ^ ^ ^ ^ ^ ] c ^ ^ ~ ~ ^ ^ ~ ~ ^ { ~ ~ { { ^ ^ ^ ^ c c ^ ^ ~ ~ ^ { ^ k k 8 k k 8 k c c { N c c { N c c ^ ^ c ~ c c c ] c c c ] ] c E c ^ { ] ] ] ] l 6 l l 6 6 l 6     8 k 9 H 8 8 8 8 0 0 6 6 > > I ( 6 6 6 6 ~ ~ ] ] ] c c c c c c ] ] c ] ] c ] ] ] ^ ^ ^ ^ ^ ^ { { 8 8 { { 8 8 ^ ^ ^ { ^ ^ k k ^ ^ ^ ^ ^ ^ 8 8 ^ ^ k k ^ ^ ^ { ~ ~ ~ c c ~ ~ c ] ] c ] c ~ ^ { ^ ^ ^ ^ ^ ^ ^ { ~ ~ ~ c ~ ~ ^ ^ ~ c c c ] ] c c 6 6 ] ] l l ~ ~ l l ] ] l 6 ] ] 6 6 l l l o ] ] l l ] ] l l ] ] l o ] l o o o l l 6 ] l l o o l ( ( ( / 5 5 ( ( 6 6 6 6 6 6 < < ,.,.O O . . = . ` ` ` `     , ",
"> 7 7 = = R R = = ` ` =.=.! ! G G G 6 ~ ~ d d d d ( ( 6 6 ( ( / o o l l l 6 6 ] ] 6 6 o l ~ ~ ~ c ] ~ ~ ~ 6 6 l l 6 6 l l 6 6 l ] ] l ] ] l ] ] ] l o c l l l ] ] ] ] ] c l l l ] l l ^ ^ c c ^ ^ ] l ^ ^ ^ { ^ ^ c c ^ ^ ~ ~ ^ ^ c ~ ^ ^ c ~ ^ { ^ ^ ^ ^ ] c ^ ^ c ~ ^ ^ k k k 8 { N k k c c k k c c ^ { c c ^ ^ c ~ c c c ] c c c ] c c ] c ^ ^ ] ] c ] ] l 6 l l 6 6 6     k k 9 9 8 8 8 8 0 0 6 6 > > ( ( 6 6 6 6 ~ ~ ] ] c ] c c c ] c c c c c ] c c c ] ^ ^ ^ { ^ ^ { { 8 8 { N 8 8 ^ ^ ^ ^ { ^ k k ^ ^ ^ ^ { ^ 8 8 ^ ^ k k ^ ^ { { ~ ~ c ] ~ ~ ~ c ] ] ] c ~ ~ ^ { ^ ^ ^ ^ ^ ^ ^ { ~ ~ c c ~ ~ ^ ^ ~ ~ ~ c ] ] c c 6 6 ] ] l l ~ ~ l l l ] l 6 ] ] l 6 l l l o ] l l l ] ] o ] ] ] l o l l o o l l 6 6 6 l l o o o ( ( / o 5 5 ( ( 6 6 6 6 6 6 < < ,.,.O O . . = . ` ` ` `     , ",
"- ` ` ` ` ` ` ` ` O O ,.,.< < z z ~ ~ l 6 d d ( ( 6 6 6 6 ~ ~ ] ] c ] c ~ ~ c ] ] c c ~ ~ ^ { ^ ^ ^ { ^ ^ c c c ] c { { { { { ~ ~ ^ ^ ^ ^ 8 8 ^ ^ 8 8 N N 8 8 { ^ ^ ^ { { 8 8 ^ ^ ^ { ^ ^ 0 0 8 8 0 0 8 8 8 8 { ^ 8 8 N k 8 8 N k k 8 k k 8 k k k 0 0 8 8 8 8 8 k k 8 k k 8 8 8 8 9 9 k k 8 k k { 0 0 0 0 8 8 c c ^ { { { 8 8 N k 0 0 { { 8 8 { { 8 8 { ^ ^ k k k 0 0 { { v v ~ ~ k k 8 k k 8 k k 6 6 > > { { { { { { { { { { ^ ^ ^ { ~ c 9 9 k 8 9 9 k 8 8 8 8 8 0 0 8 8 0 0 8 8 0 0 0 0 0 0 8 8 0 0 8 8 0 0 k 8 8 8 8 k 8 8 8 8 8 8 ^ ^ k 8 8 k 8 k k 8 9 9 k 8 0 0 8 8 8 8 N k 0 0 k k 0 0 k { 0 0 k 8 8 8 c c ^ { ^ ^ ^ { ~ ~ ^ ^ c ~ ^ { c ~ ^ { c c k k ^ ^ ^ ^ c c k k c c c ] c c ^ ^ c ~ ^ { ~ ~ c ~ ] ] ~ ~ l l ~ ~ c ~ 6 6 d d ~ ~ l 6 6 6 ! ! =.=.` ` . . ` ` = = ` ` > > ; ",
"- ` ` ` ` ` ` ` ` O O ,.,.< < z z ~ ~ l 6 d d ( ( 6 6 6 6 ~ ~ c ] ] c ~ ~ c ~ 6 ] ] c ~ ~ ^ { { { { { ^ ^ c ~ c ] ^ { { { { { ~ ~ ^ { ^ { 8 8 ^ ^ 8 8 N N 8 8 { { ^ ^ { { 8 8 ^ ^ { { { ^ 0 0 8 8 0 0 k 8 8 8 ^ ^ 8 8 N k 8 8 N k 8 8 8 N k k k 8 0 0 8 8 8 8 8 N k 8 8 k k 8 8 8 9 9 k 8 8 8 { ^ 0 0 0 0 8 8 c c ^ { ^ { 8 8 { N 0 0 { { 8 8 ^ ^ 8 8 { ^ { { { { 0 0 { { v v ~ ~ k k k 8 k k 8 k 6 6 > > { { { { { k k ^ ^ { ^ ^ ^ { ~ c 9 9 k 8 9 9 k 8 8 8 8 8 0 0 k 8 0 0 8 8 0 0 0 0 0 0 8 8 0 0 8 8 0 0 k 8 8 8 8 8 k 8 8 8 k 8 ^ ^ k k 8 k 8 8 k 8 9 9 8 8 0 0 k 8 8 8 { N 0 0 k 8 0 0 k { 0 0 8 8 8 8 c c ^ { ^ { { { ~ ~ ^ { c c ^ { ~ ~ ^ { c c k k ^ ^ ^ { ~ c k k c c c c c ] ^ ^ c ~ ^ { ~ ~ ~ c ] ~ ~ ~ ] l ~ ~ ~ ~ l 6 d d ~ ~ l 6 6 6 ! ! =.=.` ` . . ` ` = = ` ` > > ; ",
"> 7 7 = = R R = = ` ` =.=.} } 6 6 6 6 6 6 5 5 6 6 6 6 ~ ~ l l ~ ~ l l ] ] l 6 l ] ] c ] c ~ ~ ~ c ] ] c ~ ~ ~ ^ { c c ^ { ^ ^ ^ { ^ ^ 8 8 ^ ^ ^ ^ ^ { ^ k ^ ^ k k ^ ^ k 8 { ^ { 8 { ^ { 8 ^ ^ k 8 { { 8 8 { N H H H H H 9 8 8 H H 8 8 H 9 k 8 8 8 { N 0 0 8 8 a 9 H 9 9 a 8 8 9 9 8 8 8 8 0 0 a a 0 0 a a 0 0 a a 0 0 0 0 8 8 0 0 8 8 9 9 0 0 a 9 8 8 a a k k 8 8 0 0 0 0 w w ^ ^ ^ { 9 9 ^ ^ ^ { ( ( d d 0 0 0 0 8 k 0 0 c c k k c c k k 9 9 9 a 9 9 a 9 { { a a a a b b 0 0 a a 8 8 8 8 0 0 0 0 8 8 9 a 0 0 0 0 8 8 a a 8 8 a 9 8 8 >.8 k 8 8 8 8 k a a >.8 0 0 k k 0 0 8 8 8 8 ^ ^ ^ { ^ k k k ^ ^ 0 0 { { 8 8 { N 8 8 { ^ { 8 c c ^ { c c ^ { ~ ~ ^ { ^ ^ ^ { c c c ] c l ~ c c c ^ ^ c ~ ^ { c c c ] c l ~ ~ c ] ~ ~ l l ~ ~ 6 6 d d 6 6 ~ ~ l 6 < < ,.,.O O ` ` = . ` ` ` ` -   ; ",
"> 7 7 = = R R = = ` ` =.=.} } 6 6 6 6 6 6 5 5 6 6 6 6 ~ ~ ] l ~ ~ l l ] l 6 6 ] ] l ] ] c ~ ~ ~ c ] ] c ~ ~ ~ ^ { c c { { { { { ^ ^ ^ k 8 { ^ ^ ^ { ^ k k ^ ^ k 8 { ^ 8 8 ^ ^ 8 8 ^ ^ k 8 { ^ 8 8 { N 8 8 N k H H H H 9 9 8 k H H 8 8 H 9 k 8 8 8 8 k 0 0 8 8 a a H 9 9 a 8 8 9 9 8 8 8 8 0 0 a a 0 0 a a 0 0 a a 0 0 0 0 8 8 0 0 8 8 9 9 0 0 a 9 8 8 a a 8 k k 8 0 0 0 0 w w ^ ^ ^ { 9 9 ^ ^ ^ { ( ( d d 0 0 0 0 8 k 0 0 c c k k c c k k 9 9 9 9 a 9 9 9 ^ { a a a a b b 0 0 a a 8 8 8 8 0 0 0 0 8 8 a a 0 0 0 0 k 8 a a 8 8 a a 8 k 8 8 N N 8 8 8 8 a a 8 8 0 0 { { 0 0 8 8 8 8 ^ ^ ^ { ^ k k k k ^ 0 0 { { 8 8 { { 8 8 { ^ { { ~ c ^ { ~ c ^ { ~ ~ ^ { ^ ^ ^ ^ { c c c 6 l ~ c c c ^ { c c ^ { ~ c c c 6 l ~ ~ c ] ~ ~ l l ~ ~ l 6 d d 6 6 ~ ~ 6 6 < < ,.,.O O ` ` = . ` ` ` ` -   ; ",
"- R R R R ` ` R R O O '.'.[ [ z z 6 6 6 6 d d ( ( 6 6 > > { ^ ^ ^ c ~ ] ] ] ] l 6 l ] l l ~ ~ ] ] > > ^ ^ ^ { ~ ~ 8 k ^ { k 8 ^ ^ ^ { c c E E R R 8 8 ^ ^ 8 8 ^ ^ 8 k c c ^ { ~ ~ ^ { ~ ~ l o 8 8 c c k k k 8 k k 0 0 { { a a k { c ~ ^ ^ 0 0 { { 8 8 { { H H 8 8 a a H H 0 0 ] ] 8 8 ^ ^ 9 9 8 8 0 0 8 k 0 0 ^ ^ ^ ^ c l { k 0 0 0 0 0 0 0 0 ^ ^ 8 8 ^ ^ k k 6 6 { { { { d d ~ ~ 0 0 { { 0 0 k { ( ( 5 5 8 8 6 6 { { { { 8 8 N k 0 0 k k 0 0 8 8 { N ] ] 8 8 8 8 a a a a a a a a a a 8 k 8 8 c ~ ^ { 0 0 a a 8 8 0 0 k 8 9 9 a a 0 0 6 6 0 0 ] l a a a 9 8 8 8 8 a 9 k 8 9 9 ^ ^ ^ { c c ~ ~ ^ { ^ k k 8 0 0 k k 8 k k { ] ] ^ { 6 6 { { { { c c ^ { ~ ~ c c ~ ~ c c ~ ~ c c ( ( c c 6 l c c ~ ~ c c ] ] c ~ l l ^ { c ~ d d o o l 6 d d ~ ~ 6 6 G 6 ! ! =.=.` ` = . ` ` . = ` `     ; ",
"- R R R R ` ` R R O O '.'.[ [ z z 6 6 6 6 d d ( ( 6 6   > { ^ ^ ^ c ~ ] ] l ] 6 6 ] ] l ] 6 ~ ] ] > > ^ ^ ^ ^ c ~ { { k ^ k 8 ^ ^ ^ { c c E E R R 8 8 ^ ^ 8 8 ^ ^ k k c c ^ ^ c ~ ^ { ~ ~ o o 8 8 c c k k 8 k k 8 0 0 { { a a { { ~ ~ ^ ^ 0 0 k { 8 8 ^ ^ H H 8 8 a a H H 0 0 ] l 8 8 ^ ^ 9 9 8 8 0 0 8 k 0 0 ^ ^ { { l l k k 0 0 0 0 0 0 0 0 { { k 8 ^ { { { ~ 6 { { { { d d ~ ~ 0 0 { { 0 0 k k ( ( 5 5 8 8 6 6 { { { { 8 8 { N 0 0 { { 0 0 k 8 { N ] ] 8 8 8 8 9 a a a a a a a a a 8 8 8 8 ~ ~ ^ { 0 0 a a 8 8 0 0 k 8 9 9 a 9 0 0 6 6 0 0 6 l a a a 9 8 8 8 8 H 9 k 8 9 9 ^ ^ ^ ^ { c c ~ ^ ^ k k k k 0 0 k k 8 k k { ] ] ^ { 6 6 { { k k c c ^ ^ c ~ c c ~ ~ c c ~ ~ c ] ( ( c c l l ] c c ~ ~ c c ] ~ ~ l l { { ~ ~ d d o o 6 6 d d ~ ~ 6 6 G 6 ! ! =.=.` ` . . ` ` = = ` `     ; ",
"> 7 7 = = R R = = R R =.=.! ! 6 6 6 6 ~ ~ 5 5 6 6 o o , , d d d d d d l l 6 6 l ] l l ] l 6 6 / / , , l l d d ~ ~ c c k k c c ^ ^ c ] ^ { o o w w ] ] v v ] ] ^ { ] ] ^ { ^ ^ k 8 ] ] n n n n ^ ^ n n 8 8 ^ ^ 8 8 ^ { 0 0 8 8 0 0 v v 0 0 n n 0 0 8 8 0 0 8 8 H H 8 8 H H / / { { l ] d d k k 8 8 k k k 8 ^ { { { ~ 6 { { ~ ~ ( ( { { 0 0 { { { { { { 0 0 ^ ^ { { ~ ~ ( ( d d ^ ^ { { 0 0 k { 8 k d d d d ( ( 9 9 6 6 { { { { 0 0 k 8 0 0 8 8 8 k / / a a o o 8 8 9 a 9 a 8 8 a a 0 0 a a o o { { l ] n n 8 8 0 0 8 8 8 8 k 8 0 0 { { l l ] l 6 ( ^ ^ k 8 { k 9 9 k 8 9 9 8 8 ] ] l ] ( ( 6 6 { { { { 8 8 { N 0 0 { { { ^ n n 6 6 , , ^ ^ c ~ ^ { c c ^ { ^ { { { c ] ( ( d d , , l ] ^ { ~ ~ c ] ~ ~ ~ ~ ] l l l d d d d : : 6 6 ( ( / ( 6 6 6 6 6 6 < < =.=.O O ` ` ` ` ` ` ` ` _ _ ; ",
"> 7 7 = = R R = = R R =.=.! ! 6 6 6 6 ~ ~ 5 5 6 6 o o , , d d d d d d 6 l l 6 ] ] l 6 l ] 6 6 ( / , , l l d d ~ ~ c ] k k c c ^ ^ ] ] ^ { o o w w ] ] v v ] ] ^ { ] ] ^ { ^ ^ k 8 ] ] n n n n ^ ^ n n 8 8 { { 8 8 { ^ 0 0 8 8 0 0 v v 0 0 n n 0 0 k 8 0 0 8 8 H H 8 8 H H / / { { c ] d d k k 8 8 8 k 8 8 { ^ { k 6 6 { { ~ ~ ( ( { { 0 0 k k { { { { 0 0 ^ ^ { { c ~ ( ( d d ^ ^ k k 0 0 { { { { d d d d ( ( 9 9 6 6 { { { { 0 0 k 8 0 0 8 8 8 k / / a a o o 8 8 9 a H 9 8 8 a a 0 0 a a o o { { c ] n n 8 8 0 0 8 8 8 8 k k 0 0 { { l ] ] ] ( ( { { 8 8 N k 0 9 8 8 a 9 8 8 ] ] ] l ( ( 6 6 { { { { 8 8 { N 0 0 { { { { n n 6 6 , , ^ ^ c ~ { { ~ c { { { { { ^ ] ] ( ( d d , , l ] ^ { ~ ~ ~ c ] ~ ~ ~ ~ l l ] d d d d : : 6 6 ( / ( ( 6 6 6 6 G G < < =.=.O O ` ` ` ` ` ` ` ` _ _ ; ",
"- R R R R ` ` R R O O '.'.[ [ z z 6 6 6 6 d d ( ( ~ ~ 5 5 m m d d 6 6 6 6 ] ] l ] 6 ~ ] ] c ~ o o 5 5 m   d d k { c ] c c ^ { ^ { { k ^ ^ c c     ; ; o o l ] ] ] ^ ^ ^ ^ ^ ^ c c ^ { 6 6 w w _ _ c c ^ { 8 8 N k 0 0 k k 0 0 k 8 v v ; ; v v { { a 9 8 8 a 9 8 8 0 0 { { ( ( , , ; ; ~ ~ k 8 8 N k 8 8 k 0 0 { { v d , ,     l l ^ { { { { { { ^ 8 8 N k ( ( , _ _ , ~ ~ d d 6 l 0 0 0 0 0 0 { { ( ( 5 5 d d , , , , ^ ^ 8 8 8 8 9 a 8 8 9 9 0 0 d d , _ _ , 8 8 a a 8 8 a a k 8 9 a ^ ^ n n : : ; ; ^ ^ 0 0 8 8 0 0 { { { { { { k k w w ; ; l l 8 8 0 0 0 0 { { 9 9 k 8 8 8 d d ; ; : : c c ^ { ^ { { k 8 8 ^ ^ 8 8 ~ ~ 5 5 : : / / c c c ] c ~ ^ { c c { { { { c ] 5 5 ; ; l o c c ~ ~ c c ~ ~ ~ c ] ~ ~ l l l 5 5 > > 6 6 ( / ( z d d ~ ~ 6 6 G 6 ! ! =.=.` ` . . ` ` ` ` 7 7     ; ",
"> R R R R ` ` R R O O '.'.[ [ z z 6 6 J J d d ( ( ~ ~ 5 5 m m d d 6 6 6 6 l ] ] l ~ ~ c ] ~ ~ o o 5 5     d d k { c c c ] ^ ^ ^ ^ { k ^ ^ c c     ; ; o o c ] ] ] ^ ^ ^ ^ ^ ^ c ~ ^ { 6 6 w w _ _ c c ^ { 8 8 { N 0 0 { { 0 0 8 8 v v ; ; v v { { a 9 8 8 a 9 8 8 0 0 { { ( ( , , ; ; ~ ~ k 8 k k 8 k k 8 0 0 ^ ^ d d , _     l l { { { { { k k ^ 8 8 k k ( ( , _ _ , ~ ~ d d l l 0 0 0 0 0 0 ^ ^ ( ( 5 5 d d , , , , ^ ^ 8 8 8 8 a 9 8 8 a 9 0 0 v d , _ _ , 8 8 a a 8 8 a a k 8 a a ^ ^ n n : : ; ; ^ ^ 0 0 8 8 0 0 { { { { { { k k w w ; ; o l 8 8 0 0 0 0 k { 9 9 k 8 8 8 d d ; ; : : c c ^ { ^ { { k 8 8 { N 8 8 ~ ~ 5 5 : : / / c c c ] c ~ ^ ^ c ~ ^ { ^ ^ c ] 5 5 ; ; o o c c ~ ~ c c ~ ~ ~ ~ c ] ~ ~ l l 5 5 > > 6 6 ( / ( z d d ~ c 6 6 l 6 ! ! =.=.` ` . . ` ` ` ` 7 7     ; ",
"> 7 7 = = R R = = R R =.=.! ! G 6 6 6 ~ ~ 5 5 ( ( ( / o o ( ( 6 6 6 6 l l 6 6 l ] l l l ] l 6 ~ ~ l 6 ] ] c ] c ~ ] ] ^ { ] c ^ { ~ c ^ ^ c ] N k o o E E c c ^ { ^ { { k ^ ^ ^ { ^ ^ { { c ] N k ^ ^ ^ { ^ { 8 8 ^ ^ k k 8 8 0 0 k { { { { { 0 0 k 8 8 8 8 8 8 8 ^ ^ 8 8 k { 8 8 { { 0 0 0 0 9 9 k 8 k k ^ ^ { k 0 0 k { c ] 8 8 ^ ^ 8 8 ^ ^ ^ ^ k k k k { { { ^ 6 6 { { w w c ~ { ^ ^ ^ k k k ^ ( ( d d 0 0 ~ ~ c ~ { { { { 0 0 k k 9 9 0 0 0 0 c c ^ { 8 8 0 0 8 8 a a a 9 a a 0 0 a a { { { { 8 8 0 0 8 8 8 8 ^ { 0 0 k { 8 8 { k k 8 ^ ^ k 8 { ^ 8 0 k 8 8 8 k k 8 k k 8 k 8 { ^ { ^ c ~ c c c ~ { { { { { ^ ^ ^ 8 k c c ~ ~ c ~ ^ { ~ ~ ^ { ~ ~ ^ ^ c ~ ^ { ~ ~ ] ] l ] ] ^ c ~ c c ~ ~ c ] ] l ~ ~ ~ ~ ] l l 6 ] c l 6 ] l ( ( I I 6 6 6 6 6 z [ [ =.=.O O ` ` ` ` ` ` ` ` , , , ",
"> 7 7 = = R R = = R R =.=.! ! G 6 6 6 ~ ~ 5 5 ( ( ( ( / o o ( 6 6 6 6 6 l 6 6 ] ] ] l ] ] 6 6 ~ ~ 6 6 ] ] l ] c c c ] ^ ^ c c ^ { c c ^ ^ c ] N N o o E E E c ^ ^ ^ { ^ k k ^ ^ ^ ^ { ^ ^ c c k k ^ ^ ^ { { { 8 8 ^ ^ { k k 8 0 0 k { { { { { 0 0 8 8 8 8 k 8 8 8 ^ ^ k 8 { ^ 8 8 { { 0 0 0 0 a 9 k k 8 k ^ ^ k k 0 0 { { c c k 8 { N 8 8 ^ ^ ^ { ^ k k k { { { ^ 6 6 { { w w c ~ { { ^ ^ { k { { ( ( d d 0 0 ~ ~ c ~ { { { { 0 0 { { 9 9 0 0 0 0 c c k k ^ 8 0 0 8 8 9 a 9 9 a 9 0 0 a 9 { { { { 8 8 0 0 k 8 8 8 k { 0 0 k { 8 8 N k k k ^ ^ k k ^ ^ 0 0 k 8 8 8 k { 8 8 N k 8 8 ^ ^ ^ { ~ ~ c c ~ ~ { { { { { ^ ^ ^ k k c c c ~ ~ c ^ ^ c ~ ^ { ~ ~ ^ ^ c ~ ^ { ~ ~ ] ] ] l ~ ^ c ~ c c ~ ~ ~ c ] l ~ ~ ~ ~ ] ] l 6 c c 6 6 l l ( ( I I 6 6 6 6 6 z [ [ =.=.O O ` ` ` ` ` ` ` ` , , , ",
"- ` ` R R = = ` ` O O '.'.3 3 z z 6 6 J 6 d d d d 6 6 ( ( 6 6 6 6 l 6 6 6 ~ ~ ~ ~ ~ ~ ~ ~ c ~ 6 6 c ~ 6 6 ~ ~ ~ ~ ^ { c ~ ^ { ~ ~ ^ ^ c ~ { ^ c ~ ~ ~ c ] ^ ^ c ~ ^ { ^ ^ ^ ^ { ^ k k ^ ^ { { { { { ^ { { 8 8 { { 8 8 { { 8 8 { { 8 8 k ^ 0 0 k 8 0 0 8 8 0 0 8 8 0 0 ^ ^ 8 8 ^ ^ 8 8 ^ ^ k 8 { ^ { 8 c { 8 8 { k 8 8 ^ ^ k { c ] 0 0 0 0 { { ~ ~ ] c c c 0 0 { { { { { { d d c c k k ^ ^ 0 0 ] c ( ( 5 5 8 k c c ^ { ^ { k k ^ ^ 0 0 { { a 9 8 8 8 8 0 0 0 0 8 8 0 0 { { 0 0 8 8 0 0 8 8 8 k { { 0 0 8 8 9 a 0 0 0 0 8 8 8 8 k 8 0 0 8 8 0 0 { { 8 8 { { k 8 k k 8 8 ^ ^ k k ^ ^ { k ^ ^ { { ~ ~ c c ~ ~ c c ~ ~ ^ ^ ^ { ^ k ~ ~ ^ { ~ ~ ^ { ^ k { { ~ c ^ ^ c ~ ] c c ~ ^ { c c { { ~ ~ c ~ 6 6 ~ ~ ] ] c ~ ~ ~ 6 6 6 6 ( z z ( ( I d d ~ ~ 6 6 6 6 ! ! =.=.R R ` ` ` ` ` ` g g - f : ",
"- ` ` R R = = ` ` O O '.'.3 3 z z 6 6 J 6 d d d d 6 6 ( z 6 6 6 6 6 6 6 6 ~ ~ ~ ~ ~ ~ ~ ~ ~ ~ l 6 c ~ 6 6 ~ ~ ~ ~ ^ { ~ ~ ^ ^ ~ ~ ^ { ~ ~ ^ { ~ ~ ~ ~ c ] ^ ^ c ~ { ^ ^ ^ ^ { ^ ^ { { { { { { { ^ ^ ^ { { k 8 { { 8 8 { { 8 8 { { 8 8 { { 0 0 8 8 0 0 8 8 0 0 8 8 0 0 ^ ^ 8 8 { N 8 8 ^ ^ 8 8 k { { { { { 8 8 { { 8 8 { ^ { { c ] 0 0 0 0 { { ~ ~ ] c c c 0 0 { { { { { { d v ] c k k ^ ^ 0 0 c c ( ( 5 5 8 k c c ^ { ^ { { k ^ { 0 0 k { 9 9 k 8 8 8 0 0 0 0 8 8 0 0 { { 0 0 8 k 0 0 8 8 8 8 { { 0 0 8 8 9 a 0 0 0 0 8 8 8 8 k 8 0 0 8 8 0 0 ^ { 8 8 { { k k { k 8 8 { { 8 k ^ ^ k k ^ ^ { { c ~ ] c c ~ c c ~ ~ { ^ ^ ^ { k ~ ~ ^ { ~ ~ { { { { { ^ ] c ^ ^ c ~ c c ~ ~ { ^ c c ^ { ~ ~ c ~ 6 6 ~ ~ c ] ~ ~ ~ ~ l 6 6 6 z z ( ( ( I d d ~ ~ 6 6 6 6 ! ! =.=.R R ` ` ` ` ` ` g g - f : ",
"> 7 7 ` ` R R = = R R '.'.! ! 6 G G 6 ~ ~ 5 5 : : : : < < < < : : > > > > > > > > > > > f   - 5 5 > > 5 5 > > 5 5 > > m m > > > > > > > > > > > > > >     m m     - > 5 5 m   5 5 > > 5 5 m   5 5     5 5 m   5 5 - f 5 5 5 5 v v 5 5 v v 5 5 5 5     5 5 m   5 5 5 5 5 5 5 5 v v 5 5 v v 5 5 v v 5 5 v v r r d d 5 5 5 5 m m >   5 5 d d 5 5 5 5 m m w w > > 5 5 5 5 d d , _ ^ ^ c ~ ^ { ~ ~ ^ ^ d d > > m m d d w w w w m m 5 5 5 5 d d d d d d 5 5 v v v v d d d d d d 5 5 v v v v v d d d n n v v d d 5 5 v v     5 5 m   5 5 -   w w w w d d 5 5 5 5 5 5 v w     5 5         m m 5 5   m m >   > 5 5 m   5 5 -   5 5 m       5 5 5 5 m   5 5 -   5 5 5 5 5 5 >   w 5 m m 5 5 > > m m > > > > 5 5 5 5     > > : : : : < < : : : : A A J J J J G G < [ '.'.O O ].` ` ` R R ` ` , , , ",
"> 7 7 ` ` R R = = R R '.'.! ! 6 G G 6 ~ ~ 5 5 : : : : < < < < : : > > > > > > > > > > > > f - 5 5 > > L 5 > > 5 5 f > m m >   > > > > > > > > >     > m     m m   >   5 5     5 5 > > 5 5     5 5     5 5     5 5 > - 5 5 5 5 d d 5 5 v v 5 5 5 5 m   5 5     5 5 5 5 5 5 5 5 v v 5 5 d d 5 5 v v 5 5 d d 5 r d d 5 5 5 5 m       5 5 d d 5 5 5 5 m   w w > > 5 5 5 5 d d , _ ^ ^ c ~ { ^ ~ ~ ^ { d d > > m m d d w w w w m m 5 5 5 5 v v v v d d 5 5 d d d d d d v v d d 5 5 d v v d d d d d n n v v v d 5 5 v v     5 5     5 5 m   w w w w d d 5 5 5 5 5 5 w w > > 5 5 > >     m m 5 5 m         > 5 5 m   5 5 -   5 5 m m >   5 5 5 5 m   5 5     5 5 5 5 5 5     5 5 m m 5 5 > > m m > > > > 5 5 5 5 > > > > : : : : < < : : : : A A J J J J G G < [ '.'.O O ` ` ` ` R R ` ` , , , ",
"f R R R R ` ` R R R R '.'.! ! I I ~ ~ l 6 d d : : d d d d d d v d 5 5 5 5 v v d d d d v d ( ( d d d d v v ^.^.d v v d d d n n v d n n d d n n n n ( ( / n n 6 n n ( ( n n / o ( ( 6 6 ( / ( o ( ( ( W ( ( / ( ( ( o o ( ( o o ( ( o o W ( W ( ( ( / ( n n ( ( / n ( ( ( ( o o W ( ( W W ( ( ( n n ( ( ( I G G ( ( 6 G G ( o o ( ( 6 6 ( ( 6 6 ( ( / n d d ( ( d d d d 5 5 , , l o ^ ^ c ] ~ ~ l l ( ( : : / ( d d o o ( ( ( ( d d ( ( / ( 6 6 ( / ( z ( ( 6 6 ( ( 6 6 ( ( o o ( ( ( ( n n 6 6 ( ( / ( n n n n d d ( ( n n 6 6 ( / 6 6 ( z 6 6 ( ( 6 6 6 6 6 6 W ( o o ( ( o o ( ( ^./ / n ( ( n n G ( n n / ( ( ( l o ( ( o / n n n / d d n n d d n n d d n n d v v d d d n n v v d d d d d d 5 5 v v d d ( ( d d d d d d d d d d , , d d J J G G G 6 } } =.=.  R ` ` ` ` ` ` R R f f : ",
"f R R R R ` ` R R R R '.'.! ! I I ~ ~ 6 6 d d : : d d d d d d d v 5 5 5 5 d d d d d d v d ( / d d d d d v ^.^.d d d v d d n n v d n n d d n n n n ( ( n n / / n n ( ( n n o o / ( 6 6 ( ( o o ( ( ( W ( ( ( ( ( ( o o ( ( o o ( ( o o ( ( W ( ( ( ( ( / n ( ( / n ( ( ( ( o o ( ( W W ( ( ( ( n n ( ( ( ( 6 G ( ( 6 G ( ( o o ( ( 6 6 ( z 6 6 ( ( / n d d ( ( d d d d 5 5 , , l o ^ ^ c ] ~ ~ ] l ( ( : : ( ( d d o o ( ( ( ( d d ( ( ( ( 6 6 ( ( ( ( / ( 6 6 ( ( 6 6 ( / ( o ( ( / ( n n 6 6 ( / ( z d n n n d d ( ( n n 6 6 ( / 6 6 ( z 6 6 ( ( 6 6 6 6 6 6 ( ( o o W ( o o ( ( / / n n ( ( n n W ( n n o / ( ( o l / ( o / n n n / d d n n d v n n v v n n v v d d d d n n d d d d d d d v 5 5 d v d d ( ( d d d d d d d d d d , , d d J J G G G 6 } } =.=.R R ` ` ` ` ` ` R R f f : ",
"- g g R R R R ` ` R R '.'.! 3 z G 6 6 c ~ d d > > d d ( ( d d ( ( ( ( ( ( ( ( 6 6 ^.( 6 6 6 6 6 6 ( ( 6 6 ( ^.6 6 o o l l ( ( / o o ( 6 6 o o c ] 6 6 ] ] ] ] l ] 6 6 ] ] l ] c ~ ~ c ^ ^ c ] ~ ~ ~ c ^ ^ ~ ~ ^ ^ ~ ~ ^ { ~ ~ ~ ~ c ] ^ ^ ^ ^ ^ { ^ ^ ^ ^ ~ ~ ^ ^ ~.~.~ ~ ] ] c ~ 6 ~.] ] l 6 ~.~.~.6 ~ ~ ~ ~ c ~ ~ ~ c ~ ~ ~ ~ c ^ ^ { { ~ ~ ~ ~ l 6 ~ ~ l 6 ~ ~ ] l ( 6 , _ c ] n / c ~ o o l ] d d > > o o ~ ~ c ~ 6 ] 6 6 6 6 ] ] ~ ~ ~ ~ c ~ 6 6 ~ ~ ~ ~ ^ ^ c ~ ^ { ~ ~ ~ ~ 6 6 ~ ~ ~ ~ c ~ ~ ~ ^ ^ 6 6 ~ ~ ^ ^ ^ ^ ~ c ^ ^ ~ ~ { { ~ ~ ^ { ~ ~ { { c ~ ^ { ^ ^ { { ~ ~ ~ c c ~ ~ c c ~ ~ c l ] ] c ~ ~ ^ ^ c ~ ~ ~ l l ] ] 6 6 ] l ( 6 ] ] l 6 l l o / 6 6 ( / 6 6 ( ( / n ( ( o o / / ( ( / ( ( ( d d ( ( d d ( ( / ( ( ( , , ( ( 6 G ~ ~ ( G ! ! '.'.O O 7 7 ` ` R R R R , , , ",
"- g g R R R R ` ` R R '.'.! 3 G G 6 6 ~ ~ d d > > d d ( ( d d ( ( ( ( ( ( ( ( 6 6 ( ( 6 6 6 6 6 6 ( ( 6 6 ( ^.6 6 o o l l ( ( o o / ( 6 6 o o l ] 6 6 ] ] ] ] ] l 6 l ] l ] ] c ~ ~ ~ ^ ^ c ] ~ ~ ~ ~ ^ { ~ ~ ^ { c ~ ^ ^ c ~ ~ ~ ] ] ^ ^ ^ { ^ ^ { { ^ ^ ~ ~ ^ ^ ~.~.~ ~ ] l ^ ~ 6 ~.] ] l 6 ~.~.~.6 ~ ~ ~ ~ ~ c ~ ~ ~ ~ ~ c ] ~ { { { { ~ ~ c ~ 6 6 ~ ~ l 6 ~ ~ l l 6 6 _ _ c ] n / ~ ~ l o ] ] v v > > o o ~ ~ ~ c ] ] 6 6 6 6 ] ] ~ ~ ~ ~ ~ c 6 6 ~ ~ ~ ~ ^ ^ c ~ ^ { ~ ~ ~ ~ 6 6 ~ ~ ~ ~ ~ c ~ ~ ^ ^ 6 6 ~ ~ { ^ ^ ^ ~ ~ ^ ^ ~ ~ { { ~ ~ { { ~ ~ { { c ~ ^ { { { { { ~ ~ ~ c ] ~ ~ c c ~ ~ c c ] ~ c c ~ { ^ c ~ ~ ~ ] l l ] 6 6 l l 6 6 l ] l 6 ] l ( / 6 6 ( / 6 6 ( / / / ( ( o o / ( ( ( / ( ( ( d d ( ( d d ( ( ( ( ( ( , , ( ( 6 G ~ ~ 6 G ! ! '.'.O O 7 7 ` ` R R R R , , , ",
", R R 7 7 ` ` R R R R '.'.} } z z 6 6 J 6 5 5 , , ( ( / ( 6 6 ( ( / ( d d ( ( ( ( 6 6 6 6 6 6 ( z 6 6 ( ( 6 6 ( / l l 6 6 l ] l ] ~ ~ ] ] c ~ ] ] ^ ^ ~ ~ ^ { c c { { ~ ~ ^ { ^ ^ { { c ~ ^ ^ c ~ { ^ ~ ~ ^ { ^ ^ { { ^ ^ ^ { ^ k k k { ^ ^ k ^ ^ ^ ^ ^ ^ ^ ^ ^ { ^ ^ { { ^ { ~ ~ ^ ^ ~ ~ c ~ 6 ] ~ ~ ~ ~ ^ ^ c ] ~ ~ c ~ ~ c ^ { ^ { k ^ ^ ^ c ~ c c c ] ^ ^ ^ ^ c ] 6 6 > > ( ( c ] ] l ~ ~ ~ c ( ( e e 6 6 ~ ~ 8 8 c ~ c c c ] ^ ^ c c ^ { ~ c ^ { ~ ~ ^ ^ c ~ ^ { ~ ~ ^ { ^ ^ ~ ~ ~ c ^ ^ ~ ~ ^ { ^ ^ { { ~ ~ ^ { { ^ ^ { ^ ^ ^ ^ { ^ k k ^ ^ { { { { 0 0 { { 0 0 { { { { { k k ^ ~ ~ ^ { ~ ~ ~ c c ~ { ^ ^ ^ ^ { ~ ~ c c l ] ~ ~ l 6 ~ ~ ~ ~ c ~ 6 ] ] ] ] o 6 l l o l o / / 6 6 o o l l ( ( 6 6 n n ( ( ( ( ( / ( ( ( ( d d e e d d 6 6 6 6 6 G ! 3 ,.,.R R ` ` 7 7 ` ` g g - - F ",
", R R 7 7 ` ` R R R R '.'.} } z z 6 6 6 6 5 5 , , ( ( / ( 6 6 ( ( ( I d d ( ( W ( 6 6 6 6 6 ~.( ( 6 6 ( ( 6 6 ( / l l l 6 ] ] ] l ~ ~ ] ] c ~ ] ] ^ ^ c ~ ^ { c c ^ { ~ ~ c { { { { { ~ ~ ^ ^ c ~ ^ { ~ ~ ^ ^ ^ ^ ^ { ^ ^ { { { { { { { { ^ ^ ^ ^ ^ ^ ^ ^ ^ ^ ^ ^ { ^ ^ { ^ ^ ~ ~ ^ ^ c ~ ~ c ] ] ~ ~ ~ ~ { { c ] ~ ~ ~ c ] ~ { ^ 8 k c ^ ^ ^ c ~ c c c ~ { ^ ^ ^ c ] 6 6 > > ( ( ] ] l ] 6 ~ ~ ~ ( G e e 6 6 ~ ~ 8 8 c ~ c c l ] ^ ^ c ~ ^ { c c { { ~ ~ ^ ^ ~ ~ ^ ^ ~ ~ ^ { ^ ^ ~ ~ ~ ~ ^ ^ ~ ~ { { { ^ ^ ^ c ~ { ^ ^ ^ { { ^ ^ { { { { { { k k ^ { { { 0 0 { { 0 0 { { { { { { { { ~ ~ ^ { ~ ~ ~ c c ~ { ^ ^ ^ { { ~ ~ ~ c l l ~ ~ 6 6 ~ ~ ~ ~ ~ ~ l l ] ] o o l 6 l o / o o ( 6 6 o o l l ( ( 6 6 n n ( ( ( ( ( ( / ( ( ( d d e e d d 6 6 6 6 6 G 3 3 ,.,.R R ` ` 7 7 ` ` g g - - F ",
"- g g ` ` R R = = R R '.'.4 4 z z 6 G G 6 5 5 > f ( ( / ( ( ( 6 6 d d ( ( / ( ( ( ( ( 6 6 G 6 6 6 6 6 6 6 6 6 6 6 6 6 ] c ] ] c ~ l ] ~ ~ ] ] ~ ~ ] ] ~ ~ c ] ^ ^ ] ] c ~ ~ ~ ^ ^ ^ ^ { k ~ ~ ^ { c c { { ^ ^ ^ { ^ ^ { { { { { { { ^ k k { { { 8 ^ ^ ^ ^ ~ ~ ^ ^ ~ ~ ^ ^ c ~ ^ { ~ ~ ^ ^ ~ ~ ^ { c c { { ~ ~ { { ~ ~ ^ ^ ] ] ^ ^ ~ ~ ^ ^ c ~ ^ { c c { k k 8 k ^ ] ] l ]     l o 6 6 ~ ~ ~ ~ ~ ~ d d , , l ] ~ ~ c ~ { { ^ ^ ^ { c c ^ ^ c ~ ^ { ^ { { { ^ ^ ^ ^ ~ c { ^ { ^ ^ { c ~ { { ~ ~ ^ ^ ^ ^ { { ^ ^ ^ ^ c ~ { { { { 8 8 { { 0 0 k { 0 0 ~ ~ ^ { ^ ^ { { ^ { { { { { k k ^ { { { { { { ^ ^ ^ k { c ~ ^ ^ ~ ~ c ~ 6 ] ~ ~ c ] ~ ~ l 6 ~ ~ ] l ~ c c c c c o o l l ( / 6 6 ( / 6 6 o o / / ( ( ( ( d d ( ( ( ( / ( ( ( ( ( e e I I 6 6 6 6 I I < < ,.'.O O R R ` ` R R R R , , , ",
"- g g ` ` R R = = R R '.'.4 4 z z z 6 6 J 5 5 > f ( ( / ( ( ( 6 6 d d ( ( / ( ( ( ( ( 6 6 l 6 6 6 6 6 6 6 6 6 6 6 6 6 c c c ] ~ ~ c ] ~ ~ l ] ~ ~ ] ] ~ ~ ] ] ^ ^ c ] c c ~ ~ { ^ ^ ^ ^ { ~ ~ ^ ^ c ~ { ^ ^ ^ ^ ^ { ^ ^ { { { { { ^ ^ k { { { { 8 ^ ^ ^ { ~ ~ { { ~ ~ ^ ^ ~ ~ ^ { ~ ~ { ^ c ~ { ^ ~ c ^ { ~ ~ { { ~ ~ ^ ^ ] ] ^ { ~ ~ ^ ^ c ~ { ^ ~ c k k 8 k k { ] ] l l     l o 6 6 ~ ~ ~ ~ ~ ~ d d , , l ] ~ ~ c ~ { { ^ ^ ^ ^ c ~ { ^ c ~ { ^ ^ { { { ^ { ^ ^ ~ ~ ^ ^ ^ ^ { { ~ ~ ^ ^ c ~ ^ ^ { ^ ^ { ^ ^ ^ ^ c ~ ^ { ^ { 8 8 ^ ^ 0 0 { { 0 0 ~ ~ ^ { ^ k { { { { { { k k ^ { { { { { { { k k ^ { { { c c ^ { ~ ~ c ~ ] ] c ~ l ] ~ ~ l 6 ~ ~ l l ~ c c c c c o o l l ( / 6 6 ( / l 6 o o o ( ( ( ( ( d d ( ( ( ( ( / ( ( ( ( e e I I 6 6 6 6 ( I < < ,.'.O O R R ` ` R R   R , , , ",
", 7 7 R R ` ` R R O O '.'.} } ( ( 6 6 6 6 d d , , ( ( 5 5 { { ~ ~ ( ( ( / ( ( ( ( 6 6 6 6 6 6 6 6 6 6 6 6 6 6 6 6 6 l l 6 ] ] 6 6 ] ] 6 6 ~ ~ ] ] c ~ ~ ~ ^ ^ c c ^ { ^ ^ ^ ^ ~ ~ ^ { { { { { ^ ^ 8 8 k ^ k 8 k k 8 8 ^ ^ 8 8 ^ ^ k 8 { { 8 8 ^ { ^ { { { { ^ ^ { { { ~ ~ ^ ^ ~ ~ { { ~ ~ { ^ c c ^ { ~ ~ c ~ c c ^ { ^ { { ^ ^ ^ c ~ ] ] ] c c c ^ { ^ { { k ] ] ^ { d d > > ( ( ~ ~ 6 6 ~ ~ c ~ d d , {.6 6 { { k k c ~ k k c c ^ ^ ~ ~ c ] ] c { { ~ c { { ~ ~ ^ ^ ~ ~ { { ~ ~ ^ { { { ^ ^ ~ ~ { { ] ] c ~ ~ ~ ^ ^ { { ^ ^ { { { { { { { k k ^ { { ~ ~ ^ { ^ k { { { { { ^ { { { { ^ ^ ^ ^ ^ ^ { { { { { ^ ~ ~ ^ { ~ ~ ~ c ] ] ^ { o l l ] l 6 ~ ] ] l ] ] o o l l o o l l o o 6 6 ( ( ( ( d d o o ( ( ( ( / ( { { ~ ~ M M d d e f K K J J G z z ( ! ! '.,.R R ` ` 7 7 ].].g g - - , ",
", 7 7 R R ` ` R R O O '.'.} } z z J J G G d d , , ( ( 5 5 { { ~ ~ ( ( ( ( / ( ( ( 6 6 6 6 6 6 6 6 6 6 6 l 6 6 6 6 ] l l 6 ] ] 6 6 ] ] l 6 ~ ~ c ] ~ ~ ~ ~ ^ ^ c ~ ^ { ^ ^ ^ { ~ ~ ^ { { { { { { ^ 8 8 k ^ k 8 { k 8 k { ^ 8 8 ^ ^ k 8 { { 8 8 { ^ ^ { { { { ^ ^ { { { ~ ~ ^ ^ ~ ~ ^ ^ ~ c { ^ c c ^ { ~ ~ c ~ c c ^ { ^ { ^ ^ ^ { c c E E c c c ] ^ { { { { { ] ] ^ { d d > > ( ( ~ ~ J J ~ ~ ~ c d d , {.6 6 { { k k ~ ~ k k c c ^ { ~ ~ c ~ ] ] ^ { c c { { ~ ~ ^ ^ ~ ~ ^ { ~ ~ ^ { ^ k ^ ^ ~ ~ { { ] ] ~ ~ ~ ~ ^ ^ { { ^ ^ { { { { { k k ^ { { { { c ~ ^ ^ { { { { { k k ^ { { ^ { ^ ^ ^ ^ { { { { { { { { ~ ~ ^ ^ c ~ ~ ~ ] ] ^ { o l ] ] l 6 l ] l ] ] ] l o l l o o l l o o l 6 ( ( ( ( d d o o ( ( ( ( ( I { { ~ ~ M M d d > f K K J J G z z ( ! ! '.,.R R ` ` 7 7 ` ].g g - - , ",
"- g g ` ` R R = = R R ,.'.! ! I ( ( I 6 6 5 5 f f ( ( > > ( ( d d ( ( ( ( ( ( 6 6 ( ( 6 6 ( ( 6 6 6 6 6 6 6 6 ~ ~ l l ] l l 6 ] ] ] ] l ] 6 6 ] ] l 6 l ] ] c ^ ^ ] c c ~ c ~ ^ { ~ ~ ^ ^ ~ ~ { { { { { ^ ^ ^ k 8 { ^ { 8 c { { { ^ ^ ^ { ^ ^ { { ^ ^ ^ k ^ { { k c ~ ^ { ^ ^ ^ { ~ ~ { { ^ ^ { k k ^ ^ { k ^ 8 8 c ~ { { { { { k ] ] ^ { ~ ~ ~ c ] c { { d d n n d v 5 5 , , 6 6 W ( 6 6 6 6 6 J d K f f 5 5 6 6     ~ ~ c ~ ~ c c c ^ { ] ] c ~ ~ ~ ^ ^ c ~ ^ { ^ ^ { { ^ { { { { ^ 8 8 ^ { ^ ^ ~ ~ ^ { ~ ~ { ^ ~ ~ ^ { ^ k 8 8 ^ ^ k { ~ ~ ^ { ^ k 0 0 { { { { { { { { { { ^ ^ c c ^ ^ ] c ^ ^ ~ ~ ~ c ~ ~ c c ] ] c ~ l ] ] ] l 6 ~.6 6 6 ~ ~ l 6 ~ ~ l l ] ] l o l l l 6 ] ] 6 l 6 6 o / / ( ( / ( ( ( ( ( ( d d d d : : ( ( e e d d ( ( 6 6 ( ( [ [ '.'.O O R R ` ` R R R R , {., ",
"- g g ` ` R R = = R R '.'.! 3 G ( ( I 6 6 5 5 > f ( ( > > ( ( d d ( ( ( ( ( I 6 6 ( ( 6 6 ( ( 6 6 6 6 6 6 6 6 ~ ~ ] l l 6 l l ] l ] ] l ] 6 6 ] ] 6 6 l ] ] ] ^ { ] ] c ~ ~ ~ ^ ^ c ~ { { ~ ~ ^ { ^ ^ ^ { ^ ^ 8 8 { ^ { 8 c { k { ^ ^ { { { ^ c { { ^ ^ k ^ { { k ~ ~ { ^ ^ ^ { ^ ~ /.{ { ^ ^ k k { { { { { ^ 8 8 ~ ~ ^ { ^ k { { ] ] ^ { ~ ~ ] c c ~ ^ { d d n n d v 5 5 , , 6 6 W ( 6 6 6 6 J J K K f f 5 5 6 6 > > { ~ ~ c ] ~ c c ^ { ] ] ~ ~ ~ ~ ^ { ~ ~ { ^ ^ ^ ^ { ^ ^ { { { { 8 8 { ^ ^ ^ ~ ~ ^ { ~ ~ ^ ^ ~ ~ { { { { 8 8 { { { { ~ ~ { { { { 0 0 k { { { { { k k ^ { { { c c { ^ c E ^ ^ ~ ~ c ~ ~ c c ] ] ] c ~ l ] ] ] 6 6 l 6 6 6 ~ ~ ] l ~ ~ l l ] ] o o l l 6 6 ] ] 6 l 6 6 o / / ( ( ( / ( ( ( ( ( d d d d : : ( ( e e d d z z 6 G ( ( [ [ '.'.O O R R ` ` R R R R , {., ",
"'.R R R R ` ` ` ` O O '.'.[ [ z ( ( z z ( K K , , A A > > > > 5 5 o o ( / / n n d ( ( ( ( 6 6 6 6 ~ ~ l 6 6 l l 6 6 6 6 6 ] ] 6 6 ] ] l 6 l l 6 6 ] ] l 6 ~ ~ l 6 ~ ~ ~ ~ ~ c 6 6 { { ~ ~ { { { ^ { { ^ ^ ^ ^ ^ ^ ^ { ^ ^ k { ^ ^ ^ { { ^ ^ { { ^ { { { ^ { { { ^ ^ { c ~ { { ] ~ { { ~ c ] c c c ^ { ^ { { k ] c ^ { c c ^ { ] ] ~ ~ ~ ~ ~ ~ 6 6 ~ ~ ] ] ~ ~ 5 5 5 5 6 6 e e z z ~ ~ 6 6 ~ ~ 6 6 d d e f 6 6 > > 6 6 ~ ~ ~ ~ ~ ~ ^ { c c ~ ~ l 6 { { ~ c ~ ~ ~ ~ { { ] c { ^ c ~ ~ c ] c ^ { c ~ c c ] ] c ] ~ ~ ^ ^ ^ { c { ^ ^ { { { { { ^ ^ ^ k { ~ ~ ^ { c c { { ~ ~ ^ { ~ ~ ^ { c c { ^ ~ ~ ^ ^ ~ ~ ~ ~ c ~ ~ ~ 6 6 ~ ~ ~ ~ 6 6 6 6 6 6 6 6 ~ c 6 6 G 6 6 ( 6 6 o o c ] 6 l ] ] l o o o d d n n n / d ( ( z     > 5 I I I I e e 5 5 6 6 z z ( ( } } =.=.R R = = ` ` ` ` 7 g ; ; V ",
"'.R R R R ` ` ` ` O O '.'.[ [ z z z z ( ( K K , , A A > > > > 5 5 o o ( / / / d d ( ( ( ( 6 6 6 6 ~ ~ 6 6 6 l 6 6 6 6 6 6 c ] 6 6 l ] 6 6 6 l 6 6 ] ] G 6 ~ ~ l 6 ~ ~ ~ ~ ~ ~ l 6 { { c ~ { { { ^ { { ^ ^ ^ ^ ^ ^ { ^ ^ ^ k { ^ ^ ^ { { { { { { { { { { ^ { { { { { { ~ c ^ ^ ~ ~ ^ ^ ~ c ] c c c ^ { ^ { { k ] c { { ~ c { ^ ] ] c ~ ~ ~ c ~ 6 6 ~ ~ ] ] ~ ~ 5 5 5 5 6 6 e e z z ~ ~ 6 6 ~ ~ 6 6 d d e f 6 6   > 6 6 ~ ~ ~ ~ ~ ~ ^ ^ c ] ~ ~ 6 6 { { ~ ~ ~ ~ ~ ~ ^ { c ] ^ ^ ~ ~ ] c c c ^ { ~ ~ ~ c c l ] c c ~ ^ ^ ^ ^ ^ ^ ^ ^ { { { { { { ^ ^ ^ k ~ ~ ^ { c c { { c ~ ^ ^ ~ ~ ^ { c c { { ~ c ^ ^ ~ ~ ~ ~ ~ c ~ ~ 6 6 ~ ~ ~ ~ 6 6 6 6 6 6 6 6 c ~ 6 6 G 6 6 ( 6 6 o o l ] ] l ] ] o o o o d d n n n n ( ( ( (     > 5 I I I I e e 5 5 6 6 ( ( ( ( } } =.=.R R = = ` ` ` ` g g X ; V ",
"    R ].].].` . . ` ` =.) ! ! I ( ( ( 6 6 M M > > d d d d d d n n v v / / n n ( ( / ( ] ] l 6 l ] 6 6 ~ ~ 6 6 6 6 z ^.6 6 6 6 6 l 6 6 ] ] l 6 l ] 6 6 ~ ~ c ~ ~ ~ 6 6 ~ ~ ~ ~ ~ ~ ^ { { { { { { { ~ ~ ^ { ~ ~ ^ { ~ ~ ^ ^ ~ ~ ^ ^ ~ ~ { { ^ ^ ^ { { ^ ^ ^ c ~ { { ] ~ ^ ^ ~ ~ ~ ~ ~ ~ ^ ^ ~ ~ c ~ ~ ~ ^ { c ~ ^ ^ ~ ~ ~ ~ c ~ ~ ~ ~ ~ ~ c ] l 6 6 6 6 ~ ~ 6 6 { { l 6 6 6 e e 6 G G 6 ~ ~ l l ~ ~ K K f > 6 6 ~ ~ ~ ~ ~ ~ ] l ~ ~ l 6 ~ ~ ~ ~ c ~ ~ ~ ^ { ~ ~ c ] ~ ~ ^ { c ~ ^ ^ c ~ ^ ^ c ~ ^ { ~ ~ ] c ~ ~ { { c ~ ^ ^ c ~ ^ { ~ ~ ^ ^ ^ ^ { { ~ ~ ^ ^ N { { { ] c ^ { ~ ~ ~ ~ c ~ { { ] ] ~ c c ~ ~ ~ c ~ ~ ~ 6 6 6 6 6 6 6 6 6 6 6 l 6 6 6 6 l o 6 6 o / o o ( ( 6 6 o o l l 6 6 6 6 / / ( ( n n n / d d ( ( d d n n ( ( ( ( , , d d z z 6 G ( I < < ,.,.O O ` ` ` ` ` ` ` `     ; ",
"  R R ].].` ` . . ` ` =.) ! ! I ( ( ( 6 6 M M > > d d d d d d n n d d / / n n ( ( ( z ] ] l 6 l ] 6 6 ~ ~ 6 6 6 6 ^.^.6 6 6 6 ] l 6 6 ] ] 6 6 l l 6 6 ~ ~ c ~ ~ ~ 6 6 ~ ~ c ~ ~ ~ ^ { { { { ^ ^ ^ c ~ ^ ^ c ~ ^ { ~ ~ ^ ^ ~ ~ ^ ^ ~ ~ { { ^ ^ { { ^ ^ ^ ^ c ~ { { ] ~ ^ ^ ~ ~ ~ ~ ~ ~ ^ ^ c ~ ~ c ] ~ { ^ ~ ~ ^ { ~ ~ ~ c ~ ~ c ~ ~ ~ ~ ~ l l 6 6 6 6 ~ ~ 6 6 ^ ^ 6 6 6 6 e e 6 G 6 6 ~ ~ l 6 ~ ~ K K f > 6 6 ~ ~ ~ ~ ~ ~ l l ~ ~ l 6 ~ ~ ~ ~ ~ ~ ~ c ^ ^ ~ ~ c ] ~ ~ ^ { ~ ~ ^ ^ ~ ~ ^ { ~ ~ { ^ ~ ~ ~ c ~ ~ { { ] c { ^ c c ^ { ~ ~ { { ^ ^ { k ~ ~ ^ ^ { { { { ] c ^ { ~ ~ ~ ~ ~ ~ ^ ^ c ] ~ c c ~ ~ ~ ~ ~ ~ ~ l 6 6 6 6 6 6 6 6 6 6 6 6 l 6 6 o o 6 6 o / o l ( ( 6 6 o o l l 6 6 6 6 ( / ( z n n n / d d ( ( d d n n ( ( ( ( , , d d ( ( 6 6 ( I < < ,.,.O O ` ` ` ` ` ` ` ` R   ; ",
"g ` ` R R . . ` ` O O ,.'.[ [ I I 6 G G ( d d e f I I I I I 6 d d n n d v n n n n 6 6 6 6 6 6 6 6 6 l 6 6 6 6 ( / l 6 / / 6 6 6 6 6 ] l 6 ~ ~ l 6 ~ ~ ~ ~ ~ ~ ~ c ~ ~ 6 6 ~ ~ ~ ~ { { ~ ~ ^ { ~ ~ ^ { ~ ~ ^ ^ ~ ~ { { ~ ~ ^ ^ ~ ~ ~ ~ ~ ~ ^ ^ ~ ~ { { ^ ^ { { ~ ~ { { ~ c ~ ~ ~ ~ { { ~ c ^ { ] ] c ~ ~ ~ ^ ^ ~ ~ c ~ 6 ] ~ ~ ] ] ~ ~ 6 6 ~ ~ 6 6 6 6 6 6 ~ ~ ~ ~ c ~ 6 6 e e z z 6 6 6 6 ] l o o d d e f ~ ~ l 6 ~ ~ ~ ~ ~ ~ 6 6 6 6 6 6 ~ ~ J 6 ~ ~ G 6 ~ ~ ~ ~ ^ { ~ ~ ^ ^ c ~ c c ~ ~ { ^ c ~ ~ c ~ ~ ~ ~ ~ c ^ { ~ c ^ ^ ~ ~ { ^ ] c { ^ ~ ~ ^ ^ ] c { ^ c c { { ~ ~ ~ c c ~ ~ c c ~ ^ ^ c ~ c ] ] ] ~ ~ ~ ~ ~ ~ 6 6 ~ ~ 6 6 ~ ~ 6 6 ~ ~ 6 6 c ~ 6 6 6 6 W ( / / ( ( 6 6 o o l 6 ( ( 6 6 ( ( / o d d n n d v ( ( / n ( ( !.d > f L M 6 6 ( z 6 z [ } g g ` ` = = R R = = 7 g R R X ",
"g ` ` R R . . ` ` O O ,.'.[ [ I I 6 G ( ( d d e e I I I I I I d d n n d v n n n n 6 6 6 6 6 6 6 6 6 l l 6 6 6 / / 6 6 / / 6 6 6 6 6 l 6 6 ~ ~ l 6 ~ ~ ~ ~ ~ ~ ~ ~ c ~ 6 6 ~ ~ ~ c ^ ^ ~ ~ ^ { ~ ~ ^ ^ ~ ~ { { ~ ~ ^ { ~ ~ ^ ^ ~ ~ ~ ~ ~ ~ ^ ^ ~ ~ ^ ^ ^ ^ { { ~ ~ ^ ^ ~ ~ ~ ~ c ~ ^ ^ c ] ^ { ] ] ~ ~ ~ ~ ^ { ~ ~ ~ c l l ~ ~ ] ] ~ ~ 6 6 ~ ~ l 6 6 6 6 6 ~ ~ ~ ~ ~ ~ 6 6 e e ( ( 6 6 6 6 l l l o d d e f ~ ~ ] l ~ ~ ~ ~ c ~ 6 6 J J J J ~ ~ 6 6 ~ ~ 6 6 ~ ~ ~ ~ { { ~ ~ ^ ^ ~ ~ ~ c ] ~ { ^ ~ ~ ~ c ~ ~ ~ ~ ~ ~ ^ ^ c ] ^ ^ c ~ { ^ ] c { ^ ~ ~ { ^ c ~ ^ { c c ^ { ~ ~ ~ c ~ ~ c ~ ~ ~ ^ { c c c ] c l ~ ~ ~ ~ ~ ~ J 6 J ~ 6 6 ~ ~ l 6 ~ ~ 6 6 ~ c 6 6 6 6 ( ( / ( ( ( 6 6 o o l 6 ( ( 6 6 ( ( o o d d n n d d / ( n n W ( d d f > M M 6 6 ( z 6 z } } g g ` ` = = R R = = g g R R X ",
"R g g O O ` ` ` ` ` ` ,.,.! ! I ( ( ( G G M M > f K d ( ( n n ( ( d d ( ( o o l 6 ( o 6 6 / / 6 6 6 6 ] ] l 6 l l / / 6 6 / ( 6 6 6 6 6 l l 6 ~ ~ l 6 ~ ~ 6 6 ~ ~ 6 6 6 6 ( z ~ ~ c ~ c { { ^ ^ ^ ~ ~ ^ ^ c ] ^ ^ c ~ ^ { ~ ~ ~ ~ ] c ~ ~ ] ] ^ ^ ~ ~ ^ ^ ~ ~ { ^ ~ ~ c ~ ] ~ ~ ~ ~ ~ k { ~ ~ ~ ~ ~ ~ ^ { ~ ~ ~ c ] ] ~ ~ 6 6 ] ] 6 6 ( ( / ( 6 6 ( ( 6 6 ~ ~ ~ ~ 6 6 6 6 e e 6 6 6 6 6 6 o o l 6 M M e e / / c ~ 6 6 6 l ( ( 6 6 ( ( d d d d 6 6 6 6 ~ ~ ] c ~ ~ c ~ { { ~ ~ c ~ ~ ~ ~ c c ~ ~ ~ ~ c ^ ^ ~ ~ c ~ ] ] c ~ ~ ~ ^ ^ c c ^ ^ ~ ~ { { ~ ~ ^ ^ { ^ { ^ ~ ~ c ~ ] ~ ~ c ] ~ { ^ ~ c c ~ l l ] l ( ( 6 6 6 6 ~ ~ 6 6 ~ ~ 6 6 ~ ~ 6 6 J 6 / ( ( ( ( I 6 6 o o l 6 ( o 6 6 6 6 ] l 6 6 o o ( ( / ( n n ( ( / n ( / d d ( ( , , d d z z 6 6 ( ( [ < ,.,.= = ` ` ` ` 7 7 g 7 R R R ",
"R g g O O ` ` ` ` ` ` ,.,.! ! I ( ( I 6 6 M M > f d d ( ( n n ( ( d d ( ( o o l 6 ( o 6 6 ( / 6 6 6 6 ] l 6 6 l l o / 6 6 ( z 6 6 6 6 6 l 6 6 ~ ~ 6 6 ~ ~ 6 6 ~ ~ 6 6 6 6 ( z ~ ~ ~ c { { { { ^ ^ ~ ~ ^ ^ c ] ^ ^ c ~ { ^ ~ ~ ~ ~ ] ] c ~ ] ] ^ ^ ~ ~ ^ ^ ~ ~ { { c ~ ~ c ~ ~ ~ ~ ~ ~ ^ ^ ~ ~ ~ ~ ~ ~ ^ { ~ ~ ~ c ] ] ~ ~ 6 6 ] c 6 6 ( / ( z ( 6 ( ( 6 6 ~ ~ c ~ 6 6 J 6 e e 6 6 6 6 6 6 / o 6 6 M M e e ( / c ~ 6 6 6 l o ( 6 6 ( ( d d d d 6 6 6 6 ~ ~ c ] ~ ~ ~ ~ ^ { ~ ~ ~ c ~ ~ ~ c ~ ~ ~ ~ ~ ~ ^ ^ c ~ ~ c l ] ^ c c ~ { ^ c c ^ { ~ ~ { { ~ ~ ^ ^ { ^ ^ { ~ ~ ] c ~ ~ c ~ ~ ~ ^ { c c c ~ l l l o / ( 6 6 6 6 ~ ~ l 6 ~ ~ 6 6 ~ ~ 6 6 6 6 / ( ( ( ( ( 6 6 o o 6 6 / o 6 6 6 6 6 l 6 6 o o ( ( ( ( n n ( ( n n n / d d ( I , , d d z z 6 6 ( z < < ,.,.= = ` ` ` ` 7 7 g 7 R R R ",
"g ` ` ` ` ` ` ` ` ].].=.=.} } I I z z ( ( K d , , I I I I ( ( / n ( ( ( ( 6 6 6 6 G 6 6 6 / / ( ( 6 6 ( / 6 6 ( ( 6 6 ( / 6 6 6 6 6 6 l 6 6 6 6 6 ~ c 6 6 6 J 6 6 6 6 z ( ( I 6 6 ~ ~ ~ ~ ^ ^ ~ ~ ~ c ] ] ~ ~ ] l ^ ^ ] ] { { ~ ~ ^ ^ c ] ^ ^ ~ ~ ^ ^ ~ ~ c ~ ~ ~ ^ { ~ ~ ~ c ~ ~ ~ ~ ~ ~ ~ ~ c ~ { { c ~ ~ ~ 6 6 c ~ 6 6 6 6 6 6 ( ( d d d d >   d d ( ( 6 6 I ( 6 6 ( ( e e z z ~ ~ l 6 ] ] 6 6 d d , {.( ( / ( 6 6 ( ( ( ( 5 5 d d > > > > ( ( 6 6 ( ( ~ ~ l 6 ~ ~ ~ ~ ~ ~ ~ ~ ~ c ~ ~ c c ~ ~ c ~ ~ ~ ~ ~ ~ ~ ^ { ~ ~ ~ c c ~ { ^ c c ^ { ~ ~ { { { ^ ^ ^ c ] 6 ~ ] l ~ ~ ~ ~ ^ ^ ~ ~ c ~ 6 6 6 6 6 6 6 6 6 6 6 6 6 6 6 6 l 6 6 6 6 6 6 6 6 6 6 6 ( ( 6 6 6 6 G 6 ( ( / o o ( / / ( ( o o ( / 6 6 n n o o ( / / / d d ( ( d d e f K K 6 6 ( z 6 z } ! =.=.` ` O O R R ` ` g g R R 7 ",
"g ` ` ` ` ` ` ` ` ].].=.=.} } I I z z ( ( K d , , A I I 6 d ( n n / ( ( I 6 6 6 6 6 6 6 6 o / / ( 6 6 ( / l 6 / ( 6 6 o / 6 6 6 6 6 6 J 6 6 G 6 6 c ~ J 6 6 6 6 6 6 6 ( ( ( I 6 6 ~ ~ ~ ~ { { ~ c ~ ~ ] ] ~ ~ ] l ^ ^ c ] { ^ ~ ~ ^ ^ c ] ^ ^ ~ ~ ^ ^ ~ ~ ~ ~ ~ ~ ^ { ~ ~ ~ c ~ ~ ~ ~ c ~ ~ ~ ~ ~ ^ ^ ~ ~ ~ ~ 6 6 ~ ~ 6 6 6 6 6 6 ( z d d d d > > !.d ( ( 6 6 ( ( 6 6 ( ( e e ( / ~ ~ l 6 ] ] 6 6 d d {.{.( ( / ( 6 6 ( ( ( ( 5 5 d v > > > > ( ( 6 6 ( ( ~ ~ l 6 ~ ~ ~ ~ ~ ~ ~ ~ ~ ~ c ~ ~ c c ~ ~ ~ ~ ~ ~ ~ ~ ~ ^ ^ ~ ~ ] c ~ ~ ^ { c c { { ~ ~ { { { ^ ^ ^ ] ] c ~ l ] ~ ~ ~ ~ ^ { ~ ~ ~ ~ 6 6 6 6 6 6 6 J 6 6 6 6 6 6 6 6 6 6 l 6 6 6 6 6 6 6 6 6 z ( 6 6 6 6 6 6 ( ( o o / ( ( / / ( ( o / / 6 6 / n o o ( / / / d d ( ( d d > f K K 6 6 ( z 6 z } ! =.=.` ` O O R R ` ` (.g R R g ",
"R 7 g ` ` ` ` ` ` R R =.=.! ! I ( ( ( G G M M > f d d ( ( d d d d d d ( ( ( ( ( / ( ( 6 6 ( ( / / ( ( 6 6 / ( 6 6 / ( 6 6 ( ( 6 6 ( ( 6 6 ( ( 6 6 6 6 ~ ~ 6 6 6 6 / ( 6 6 / ( 6 6 ~ ~ ~ ~ ~ ~ ~ ~ ] ] ~ ~ ] ] ~ ~ l ] ~ ~ ~ ~ ^ ^ c ~ ^ ^ ~ c { { ~ ~ ~ ~ ~ ] ~ ~ ~ ~ ] c ~ c ~ ~ ~ ~ ~ ~ ] ] ~ ~ ~ ~ ~ ~ l l ~ ~ 6 6 6 6 W ( ( ( d d : : > > d d 5 5 d d I I 6 6 / ( ( ( B B I I 6 6 ~ ~ 6 6 6 l 5 5 e e ( ( ( ( ( ( ( ( 5 5 > > 5 5 > > {.{.A A I ( ( ( 6 6 c E 6 6 ~ ~ c ~ ~ ~ ~ ~ ] c l l ^ ^ ~ ~ ~ ~ ~ ~ { { ~ ~ c c ~ ~ c c c ~ ~ c c ~ c c ~ c { { ~ ~ ~ c ] ] ~ ~ ] ] c c ~ c ~ ~ ] ] c ~ ( ( / / ( ( 6 6 6 6 ~ ~ 6 6 6 6 6 l 6 6 6 l ~ ~ 6 6 6 l 6 6 6 6 6 l 6 6 ( ( o o ( ( ( ( ( / / ( ( ( / / ( ( ( ( / n ( ( d d A A , , d d I ( ( 6 I I } } ,.,.` ` R R ` ` R R R R g g g ",
"R 7 g ` ` ` ` ` ` R R =.=.! ! ( ( ( ( G G M M f f d d I ( d d d d d d ( ( ( ( / ( ( ( 6 6 ( ( ( / / ( 6 6 / ( 6 6 ( ( 6 6 ( ( 6 6 ( ( 6 6 ( ( 6 6 6 l ~ ~ 6 6 6 6 ( ( 6 6 ( ( 6 6 ~ ~ ~ ~ ~ ~ ~ ~ ] ] ~ ~ ] ] ~ ~ ] l ~ ~ ~ ~ ^ ^ c ~ ^ ^ ~ c { { ~ ~ ~ ~ ] ] c ~ ~ ~ ] c ~ ~ ~ ~ ~ ~ ~ ~ ] ] ~ ~ ~ ~ ~ ~ l l ~ ~ 6 6 6 6 W ( ( ( d d : : > > d d 5 5 d d ( I 6 6 ( ( ( ( B B I I 6 6 ~ ~ 6 6 6 l 5 5 e e ( ( ( ( ( ( ( ( 5 5 > > 5 5 > > {.{.A A z ( ( ( 6 6 ] ] 6 6 ~ ~ ~ ~ c ~ ~ ~ ] c l l ^ ^ ~ ~ ~ ~ ~ ~ { { ~ ~ ~ c c ~ c c ~ c ~ c c ~ c ~ c c { { ~ ~ ~ ~ ] ] ~ ~ ] ] ] c c ~ ~ ~ ] ] c ~ ( ( / / ( ( 6 6 J J 6 ~ 6 6 6 6 6 6 6 l 6 6 ~ ~ 6 6 6 6 6 6 6 6 6 6 l 6 ( ( / o ( ( ( ( ( G / ( ( ( / ( ( ( / ( n n ( ( d d I A , , d d I ( G G I I } } ,.,.` ` R R ` ` R R R R g g g ",
"g g g g (.` ` 7 7 R R '.'.! ! d d G G z z K K , , I I A A ( ( d d n n d d I ( d d ( I ( ( ( ( d d I ( d d / ( ( ( / ( ( ( 6 6 ( ( 6 6 ( ( 6 6 / ( 6 6 6 6 6 l ( ( ( ( G / 6 6 ( ( ~ ~ ~ ~ { ^ ~ ~ ~ ~ ] ] c ] ] c ~ ~ ] ] { { ~ ~ { { c ] ~ ~ ~ ~ ^ ^ ] ] ~ ~ l l c ~ ] ] c ~ ~ ~ ~ c l l ~ ~ ] l ~ ~ ~ ~ ~ ~ l l ] ] 6 6 6 l d d d K [ [ ~ ~ ~ ).> > 5 5 ( ( ( ( G 6 d d {.{.A A 6 6 l ] ] 6 o o M M B B ( ( ( ( G / I I , , 5 5 0 0 5 5 > > 5 5 ( ( ( ( 6 6 6 6 ~ ~ ~ ~ ~ ~ ~ ~ ~ ~ ~ ~ ~ ~ ~ ~ ~ ~ 6 6 l ] ] c ~ c ] ] ~ ~ ~ ~ c c ] ] c ~ ~ ~ { { ~ ~ c c ] ] ~ ~ ] ] ~ ~ ] ] ~ ~ ] ] c ~ 6 6 / ( d d I ( G ( 6 6 6 6 6 l ( ( 6 6 ( ( 6 6 6 6 6 6 6 6 6 6 6 6 6 6 ( ( ( ( ( ( G / d d I ( n n d d n n n n d d ( ( / n ( ( d d , , 5 5 G G z ( ( ( 3 3 '.'.R R R R (.(.` ` g g R R X ",
"g g g (.(.` ` 7 7 R R '.'.! ! d d ( G G z K K , , I I A A ( ( d d n n d d I ( d d / ( ( ( ( G d d I ( d d / ( ( ( / / ( ( 6 6 ( ( 6 6 ( ( 6 6 ( ( 6 6 6 6 6 l ( ( ( ( ( ( 6 6 W ( ~ ~ ~ ~ ^ ^ ~ ~ ~ ~ ] ] c ] ] ] c ~ ~ ] { { ~ ~ { ^ c ] ~ ~ ~ ~ ^ ^ c ] ~ ~ l l c ~ ] ] c ~ ~ ~ ~ ~ l l ~ ~ ] l ~ ~ ~ ~ ~ ~ l l ] ] 6 6 6 l d d d K [ [ ~ ~ ~ ).> > 5 5 ( ( ( ( G 6 d d {.{.A A 6 6 l ] l l o o M M B B ( ( ( ( ( G d I , , 5 5 0 0 5 5 > > 5 5 ( ( ( ( 6 6 6 6 ~ ~ c ~ ~ ~ ~ ~ ~ ~ ~ ~ ~ ~ ~ ~ ~ ~ l 6 ] ] c ] ~ c ] ] ~ ~ ~ ~ c ] ~ ] ] c ~ ~ ^ { c ~ ] c c ] ] ~ ] ] ~ ~ ] ] ~ ~ ] ] ~ ~ 6 6 ( / d d I ( G ( 6 6 6 l 6 6 ( ( 6 6 ( ( 6 6 6 6 6 6 6 6 6 6 6 6 6 6 G z ( ( ( ( G / d d ( I n n d d n n n n d d ( I n n ( ( d d {., 5 5 ( G G z ( ( 3 3 '.'.R R R R (.(.` ` g g R R X ",
"R g g R R g g R R R R '.'.! 3 I I ( ( 6 I 5 5 , , d d ( I d d n n d d d d d d ( ( d d I ( d d / ( d d I ( G ( 6 6 ( ( o / ( ( 6 6 6 l 6 6 ( ( 6 6 ( ( 6 6 / ( ( ( ( ( 6 6 6 l 6 6 6 6 ~ ~ ] ] c ~ 6 6 ] ] 6 6 ] ] ] ] ^ ^ ~ ~ { ^ ] ] ~ ~ ] l ^ ~ l l l ] 6 6 ~ ~ 6 6 l ] 6 6 ~ ~ ~ ~ ~ ~ 6 6 ] ] l 6 ~ ~ ~ ~ ~ ~ 6 6 ~.6 / ( d d 5 5     6 6 b b 5 5 , , I A ( ( 6 6 d d {.B I I ( ( 6 l l 6 6 l L L B B ( ( 6 6 / ( d d , , z z b b I I , , d d d d 6 6 ( ( 6 6 l 6 ~ ~ l l ~ ~ 6 6 c ~ ] c ~ ~ ] l 6 6 6 l ~ ~ ] l ] ] c ] ~ ~ ~ ~ ~ ~ ~ ~ { { ~ ~ c c ] ] ~ ~ ] l ~ ~ l l ~ ~ l l ~ ~ ] ] ] ] l 6 6 6 W ( ( ( ( ( G 6 ( ( 6 6 ( ( 6 6 6 6 6 l 6 6 6 6 / ( 6 6 ( ( 6 6 ( ( ( ( ( ( G / d d ( ( d d n n d d I ( d d / n d d I I , {.K K ( ( ( ( A A ! ! '.'.R R (.(.R R (.g g g g g g ",
"R 7 g R R g g R R R R '.'.! 3 I I ( ( ( 6 5 5 , , d d I ( d d / n d d d d d d ( ( d d ( I d d ( I d d ( ( ( ( G 6 ( ( ( / / ( 6 6 6 6 l 6 ( ( 6 6 ( ( 6 6 ( ( ( ( ( ( 6 6 6 6 l 6 6 6 ~ ~ ] ] c ~ 6 6 l ] l 6 ] l ] ] ^ ^ ] ~ ^ ^ ] ] ~ ~ c ] ] ~ ~ ] c ] 6 6 ~ ~ 6 6 ] c 6 6 ~ ~ c ~ ] ~ o 6 ] c 6 6 ~ ~ ~ ~ c ~ 6 6 6 6 / ( K d 5 5     6 6 b b 5 5 , , A A ( ( 6 6 d d B B ( ( ( ( 6 l 6 6 l ] L L B B ( ( 6 6 ( ( d d {., z z b b I I , , d d d d 6 6 / ( 6 6 6 6 ~ ~ l l ~ ~ 6 6 ~ ~ l ] ~ ~ ] l 6 6 6 6 ~ ~ ] l ] ] ] c ~ ~ ] ~ ~ ~ ~ ~ { { ~ ~ ~ c ] ] ~ ~ ] l ~ ~ ] l ~ ~ ] l ~ ~ ] ] ] ] 6 6 6 6 W ( ( ( ( ( G 6 ( ( 6 6 / ( 6 6 6 6 6 6 l 6 6 6 ( ( 6 6 ( ( 6 6 ( ( ( ( G / I ( d d ( I d d n n d d ( ( d d n n d d ( ( {.{.K K ( ( ( ( A A ! ! '.'.R R (.(.R R g g g g g g g ",
"X g g g g (.(.(.(.R R '.'.[ [ d d G z z ( M M , , I I f f ^ ^ ~ ~ ( ( ( ( G / I ( ( ( d d n / ( ( ( / ( ( ( ( ( ( G 6 ( ( 6 6 ( ( 6 6 6 6 6 l 6 6 6 6 ( ( 6 6 ( ( 6 6 6 6 ~ ~ 6 6 ~ ~ 6 6 ~ ~ ] ] ~ ~ c ] ~ ~ ] ] ^ { ] l ^ ^ ~ ~ ^ ^ ] l ~ ~ ~ ] ~ ~ ] c ~ ~ l ] c ] 6 6 ~ ~ 6 6 ~ ~ 6 6 ] ] 6 J ] ] l l ~ ~ l 6 ] l o o ( ( d d d d {., 6 6 { { d d : : 5 5 ( I 6 6 > > {.{.A I 6 6 6 6 6 l ( ( M M F F 5 5 ~ ~ A A K K q q I I 0 0 d d > > M M ( ( ( ( l l 6 6 ] l 6 6 ~ ~ J J l ] 6 6 ~ ~ 6 6 6 6 6 l 6 6 6 6 ] ] 6 l ~ ~ l ] ] c ~ ~ ~ ~ ] ] c ~ ] ] ~ ~ ] l ~ ~ 6 6 ] ] 6 6 ] ] 6 6 ~ ~ ] l ~ ~ 6 6 6 6 ( ( ( ( ( ( 6 6 6 6 ~ c 6 6 6 6 6 6 6 6 l 6 6 6 ( ( ( ( ( G 6 6 l 6 6 6 ( ( ( ( d d I ( d d d d d d { { ~ ~ 5 5 ( I f f M M ( z z ( I I 4 4 '.'.R R R R 7 g g g g (.R R X ",
"X g g g g (.(.(.(.R R '.'.[ [ d d ( z z ( M M , , I A f f ^ ^ ~ ~ ( ( ( ( G / I ( ( ( d d n / ( ( ( / ( ( ( ( ( ( 6 6 ( ( 6 6 ( ( 6 6 6 6 6 6 l 6 6 6 ( ( 6 6 / ( 6 6 6 6 ~ ~ 6 6 ~ ~ 6 6 ~ ~ ] ] ~ ~ c ] ~ ~ ] ] ^ ^ ] ] ^ ^ ~ ~ ^ ^ ] ] ~ ~ ] l c ~ c E ~ ~ ] l l ] 6 l ~ ~ 6 6 ~ ~ 6 6 ] ] 6 6 ] c l l c ~ 6 6 l ] o o ( ( d d d d {., 6 6 { { d d B : 5 5 I I 6 6 > > {.{.A I 6 6 6 6 6 6 ( ( M M F F 5 5 ~ ~ A A K K q q I I 0 0 d d > > M M ( ( ( ( l l 6 6 ] l 6 6 ~ ~ 6 6 l ] 6 6 ~ ~ 6 6 6 6 6 l 6 6 6 6 ] ] ] 6 ~ ~ ] ] c ] ~ ~ ~ ~ l ] ~ ~ ] ] c ~ ] ] ~ ~ 6 6 l ] l 6 ] ] 6 6 ~ ~ ] l ~ ~ 6 6 6 6 ( ( ( ( ( ( G 6 6 6 ~ ~ 6 l 6 6 6 6 6 6 6 l 6 6 ( ( ( ( ( ( 6 6 l 6 6 6 ( ( ( / d d I ( d d d d d d { { ~ ~ 5 5 I I f f M M ( z ( ( ( ( 4 4 '.'.R R R R g g g g (.(.R R X ",
"g (.g R R g g R R R R ,.,.! ! I I ( ( z z 5 5 e f d K f f v v 5 5 d d I ( G ( ( ( ( ( G / I ( o o ( ( o o ( ( o / ( ( ( / ( ( 6 6 6 l 6 6 J J 6 ~ 6 6 6 6 ( ( 6 6 ( / 6 6 l 6 6 6 6 6 ~ ~ l 6 c ] 6 6 ] ] 6 6 c ~ ~ ] ~ ~ ] ] c ~ c ] ~ ~ ] l ~ ~ ] ] c ~ ~ ~ ~ ~ ] ] c ~ l 6 ] l 6 6 l 6 6 6 6 ] 6 6 ~ ~ 6 6 l ] 6 6 6 6 / ( ( n 5 5 > > ( ( { { 5 5 , , 5 5 {., s s d d {.B z z ( ( 6 6 ( ( 6 6 5 5 B B f f , , F F I I e e ( z ~ ~ K K , , d d ( ( 6 6 6 6 ] l 6 6 ~ ~ 6 6 ] l 6 6 l ] 6 6 ] ] l 6 ~ ~ o 6 ~ ~ l l ] c ] ] c ~ ~ ] ~ ~ l ] ~ ~ ] c ~ ~ ] ] ~ ~ l ] ] ] l 6 c ] 6 6 ] ] l 6 6 6 l 6 6 l l 6 6 6 / ( 6 6 ( ( 6 6 6 l 6 6 ( ( l 6 ( ( ( ( ( ( 6 6 ( ( 6 6 ( ( 6 6 ( z ( ( d d ( ( d d ( ( d d ( ( 5 5 5 5 , {.K d , , d d I I 6 G A A ! } ,.'.R R R R ` ` g g g g X X X ",
"g g (.R R g g R R R R ,.,.! ! I I I ( ( z 5 5 e f K K f f v v 5 5 d d ( ( ( ( G / I ( ( ( ( ( / o ( ( / o ( ( ( / / ( ( ( / ( 6 6 6 l 6 6 6 6 ~ ~ 6 J 6 6 ( ( 6 6 ( / 6 6 6 l l 6 6 G ~ ~ 6 6 l ] 6 6 c ] 6 6 ~ ~ ] ] c ~ ] l /.~ c ] ~ ~ c ] ~ ~ ] ] ~ ~ ~ ~ ~ ~ c l ~ ~ l 6 6 l 6 6 ] 6 6 6 ] l 6 6 ~ ~ 6 6 ] ] 6 6 6 6 / ( ( n 5 5 > > ( ( { { 5 5 , , 5 5 {., s s d d B : z z ( ( 6 6 ( ( 6 6 5 5 B B f f , , F F I I f e ( z ~ ~ K K , , d d ( ( 6 6 l 6 c ] 6 6 ~ ~ 6 6 ] l 6 6 l ] 6 6 ] ] 6 6 ~ ~ 6 6 ~ ~ l l c ~ ] ] c ~ ~ ] ~ ~ l ] ~ ~ ] ] ] ~ ] ] ~ ~ l l ] ] 6 l 6 ] 6 6 ] ] 6 6 6 6 6 l 6 l l 6 6 6 ( ( 6 6 ( ( 6 6 6 l 6 6 ( ( 6 6 ( ( ( ( ( ( 6 6 ( ( 6 6 ( ( 6 6 W ( ( ( d d I ( d d / ( d d ( z 5 5 5 5 , {.d d {., d d I ( G ( ( A } } '.'.R R R R ` ` g g g g X X X ",
"X g g g g (.(.(.(.(.(.'.'.! ! d d G z I I 5 5 , , A A f f > > d d ( I ( ( ( ( ( G / z z ( o o ( ( ( ( ( ( G z z ( I ( ( ( ( G ( ( 6 6 6 6 ~ ~ l 6 6 6 / ( ( ( W ( 6 6 6 6 6 6 6 6 6 6 6 l ] l 6 6 c ] 6 6 ] ] l 6 ~ ~ c l l ] ] ] ~ ~ ] l ~ ~ ] ] c ~ l 6 c ~ ~ ~ ~ ~ J 6 ] ] l 6 6 6 6 6 6 6 6 6 l l 6 6 ~ ~ 6 6 ] l o o l 6 ( ( d d , , z z ~ ~ K d , , d d d d I I M M e e ( I 6 6 6 G G 6 ( ( d K : : ( ( d d A A M M > > d K { { 5 5 f f d d 6 6 I ( 6 6 6 6 ] ] 6 6 ] ] 6 6 ] ] 6 6 ] l l 6 ] ] 6 l ~ ~ 6 6 c ~ c ] ~ ] l l ~ ~ l l ~ ~ l ] ~ ~ ] ] ~ ~ l ] ~ ~ 6 6 ] ] 6 6 ] l 6 6 ] ] 6 6 6 6 6 l 6 6 6 6 6 6 / ( ( ( 6 6 6 l 6 G 6 6 / ( 6 6 ( ( ( ( ( ( ( G / I ( ( ( ( 6 6 / ( ( ( ( ( ( ( ( ( 6 6 ( ( > > {., d d I A f e 5 5 ( I z z ( z 3 3 '.'.R R R R R R g g (.(.; ; ; ",
"X g g g g (.(.(.(.(.(.'.'.! ! d d G z I I 5 5 , , A A f f > > d d ( I ( ( ( ( ( ( G z ( ( / o ( ( ( ( ( ( G z ( ( ( ( ( G z ( ( ( 6 6 6 6 ~ ~ 6 6 6 6 ( ( ( ( W ( 6 6 6 6 6 6 6 6 6 6 6 6 l ] 6 6 c ] 6 6 ] ] 6 6 ~ ~ c l l ] ] ] ~ ~ l ] ~ ~ ] ] c ~ 6 6 c ~ ~ ~ ~ ~ ~.6 ] ] 6 6 6 6 6 6 6 6 6 6 l l 6 6 ~ ~ 6 6 ] l o o l 6 ( ( d d {., z z ~ ~ d d {., d d d d ( I M M e e ( I 6 6 6 G 6 6 z z K K : : ( ( d d A A M M f > d K { { 5 5 e f K d 6 6 W ( 6 6 6 6 ] ] 6 6 ] ] 6 6 ] ] 6 6 6 l 6 6 l ] ] 6 ~ ~ 6 6 c ~ c ] ~ ] l l ~ ~ l ] ~ ~ ] l ~ ~ ] ] ~ ~ ] ] c ~ 6 6 ] ] 6 6 c ] 6 6 c ] 6 6 6 6 6 l 6 6 6 6 6 6 ( ( ( ( 6 6 6 l 6 G 6 6 ( ( 6 6 ( ( ( ( ( ( ( G / I ( ( ( ( 6 6 ( ( ( ( ( ( ( ( W ( l 6 ( ( > > {., d d I A e e 5 5 ( I z z z ( 3 3 '.'.R R R R R R g g g (.; ; ; ",
"g (.(.R R g g R R R R ,.,.3 3 ( ( ( ( G z 5 5 e f K K K K K d ( I ( ( ( ( ( ( 6 6 ( ( G G z ( ( / ( ( 6 6 ( ( 6 6 ( ( ^.^.( ( 6 6 6 6 6 6 6 6 6 6 ( ( 6 6 / ( l 6 6 6 l 6 6 6 6 6 6 6 6 6 J 6 ] l 6 6 ~ ~ ] l ~ ~ ] ] ~ ~ ] ] ] ] c ] ~ ~ ] ] ] l ~ 6 ] ] 6 l ~ ~ l l ~ ~ 6 6 6 6 o / 6 6 l 6 6 l 6 G ~ ~ 6 6 ] l 6 6 G 6 / ( ( ( d d > > ( ( ).).5 5 > > 5 5 A A ( ( ( ( B {.z z ( z 6 6 z z 6 6 5 5 , , M M ( z K K K K f e ( I ~ ~ K d f f A A ( ( 6 6 / ( 6 6 6 6 6 6 6 l 6 ] 6 6 ] l l 6 6 6 6 6 ~ ~ 6 l ~ ~ 6 6 ~ ~ 6 6 c ] l l ~ ~ l l ] ] 6 6 ~ ~ l l ~ ~ l l ~ ~ 6 6 c ] 6 6 ] l l ] ~ ~ 6 6 ~ ~ l 6 6 l ( ( ( ( ( ( G 6 6 6 6 l 6 6 6 6 ( ( ( ( ( ( 6 6 ( ( ( ( ( ( 6 6 ( ( 6 6 6 6 6 6 / ( 6 6 ( ( ( ( d d ( ( I I A A {.{.K d ( I 6 6 I I 3 3 '.'.R R (.g R R X X g g X X X ",
"g (.(.R R g g R R R R ,.,.3 3 ( ( ( ( ( G 5 5 e f K K K K d d ( I ( ( ( ( I 6 ( 6 ( ( 6 G G I / ( ( ( 6 6 z z 6 6 / ( ( ^.( / 6 6 6 6 6 6 6 l 6 6 ( ( 6 6 W ( l 6 6 6 l 6 6 6 6 6 6 6 6 6 J 6 ] ] 6 6 ~ ~ ] ] ~ ~ ] l ~ c ] l ] ] ] c ~ ~ l ] ] ] 6 6 ] ] l ] ~ ~ 6 l ~ c 6 6 ~.6 o o 6 6 6 6 6 l 6 6 ~ ~ J 6 6 ] 6 6 6 6 ( / ( ( d d > > ( ( ).).5 5 > > 5 5 A A ( ( ( ( B {.z z ( z 6 6 ( ( 6 6 5 5 , , M M ( z K K K K e e ( I ~ ~ K d f f A A ( ( 6 6 ( ( 6 6 6 6 6 6 l 6 ] ] 6 6 ] l 6 6 6 l 6 6 ~ ~ l 6 ~ ~ 6 6 c ~ 6 6 c ] ] l ~ ~ ] l ] ] 6 6 ~ ~ l l ~ ~ l ] c ~ 6 6 ] l ] 6 c ] l ] ~ ~ 6 6 ~ ~ 6 6 6 6 ( ( ( ( ( ( G 6 6 6 6 l 6 6 6 6 ( ( ( ( ( ( 6 6 ( ( ( ( G z ( 6 ( ( 6 6 6 6 6 6 / ( 6 6 ( ( ( ( d d ( ( ( ( A A , {.K d I I 6 6 I I 3 3 '.'.R R (.g R R X X g g X X X ",
"'.X X X X (.(.g g (.(.'.'.} } d d G z I I M M , {.A A K K ( ( d d I ( d d ( ( ( ( 6 6 ( z ( ( d d I ( G ( ( ^.^.z 6 6 6 6 6 6 ( ( 6 6 6 6 6 6 ( ( 6 6 ( ( 6 6 ( ( 6 6 6 l 6 6 6 6 6 6 6 6 ] l l 6 ~ ~ ] ] ~ ~ ] ] ~ ~ 6 6 ] ] 6 6 ~ ~ ] ] l ] 6 6 l ] c ] ~ ~ ] l ~ ~ l 6 /.~ l 6 6 6 / o ~ ~ 6 6 ~ ~ ] l 6 l 6 6 6 6 ( ( ( ( d d d d - f ( ( 6 6 5 5 , , d d d d ( I d d e e A A ( ( ( ( ( ( ( G 5 5 , , I I I I A A K K f > A A ).).5 5 > > K d ( ( ( ( ( ( ( ( ~ ~ 6 6 6 l 6 6 ~ ~ 6 6 6 6 l o 6 6 6 l ~ ~ 6 6 ] l l ] ] ] 6 6 ~ ~ ] ] ~ ~ 6 l ~ ~ l ] ~ ~ 6 6 l ] l 6 l ] 6 6 ] ] 6 6 c ] 6 6 ~ ~ 6 6 6 6 6 6 6 6 ( ( 6 6 / ( 6 6 ( ( 6 G z ( ( ( ( ( ( ( ( ( G 6 ( ( 6 6 ( ( ( ( ( ( ( ( ( ( 6 6 I I G ( d d d d d d d d 5 5 , , d d z z ( I A A ! 3 '.'.R R R R g g R R =.=.X X '.",
"'.X X X X g (.g g (.(.'.'.} } d d G z I I M M B {.A A K K ( ( d d ( ( d d ( ( ( ( 6 6 ( z ( ( d d I ( G ( ( ^.z z 6 6 l 6 6 6 ( ( 6 6 6 6 l 6 ( ( 6 6 ( ( 6 6 ( ( 6 6 6 6 l 6 6 6 6 6 6 6 ] c 6 6 ~ ~ ] l ~ ~ ] ] ~ ~ l 6 ] ] 6 6 ~ ~ ] ] ] ] 6 6 ] ] c ] ~ ~ l 6 ~ ~ l 6 ~ ~ 6 6 l 6 o o ~ ~ 6 6 ~ ~ ] l ] l 6 6 6 6 ( ( / ( d d d d f f ( ( 6 6 5 5 , , d d d d I ( d d e e A A ( ( ( ( ( ( ( G 5 5 , , I I I I I A K K f > A A ).).5 5 > > K d ( ( ( ( ( ( z z ~ ~ 6 6 6 l 6 6 ~ ~ 6 6 6 6 o o 6 6 6 l ~ ~ 6 6 l ] l 6 ] ] 6 6 ~ ~ ] l ~ ~ l l ~ ~ l l ~ ~ 6 6 ] ] 6 6 l ] 6 6 ] ] l 6 c ] 6 6 ~ ~ 6 6 6 l 6 6 J 6 ( ( 6 6 / ( 6 6 ( ( 6 6 ( ( ( ( ( ( ( ( ( G 6 ( ( 6 6 6 ( z ( ( ( ( ( ( ( ( 6 G ( ( ( ( d d d d d d d d 5 5 , , d d z z ( I A A 3 3 '.'.R R R R g g R R =.=.X X '.",
"X X X g g (.(.g (.g g ,.,.! ! ( I I ( ( z 5 5 , , M M K K d d d d d d ( ( d d I ( G ( ( ^.d d G z I I z z ( I ( ^.^.z 6 6 / ( 6 6 ( ( 6 6 ( ( 6 6 ( ( 6 6 ( ( 6 6 6 6 6 6 6 6 ~ ~ 6 6 6 6 6 l ] l 6 6 ~ ~ ] ] ~ ~ l 6 ] ] 6 6 ] ] 6 6 l ] 6 6 ] l l 6 ] c l l ~ ~ 6 6 ~ ~ ] l ] E o o 6 6 6 G ] ] 6 6 ~ ~ 6 6 6 6 ( ( ( ( n n ( ( d d > > d d ~ ~ 5 5 , , r 5 d d v v ( ( B B A A ( ( ( ( ( ( ( ( > > {., d d I ( d A K d , , d d J J d d e f d d ( ( ( ( ( ( 6 6 6 6 l 6 l 6 l l 6 ] ~ ~ 6 6 6 6 6 6 ~ ~ l l ~ ~ ] l c c 6 6 ] ] ] l ~ ~ l ] ~ ~ 6 l ~ ~ l ] ~ ~ 6 l ~ ~ ] l ] ] l 6 ] l ~ 6 l l 6 6 ~ ~ 6 6 6 6 ( ( 6 G ( ( 6 6 ( ( 6 6 6 6 6 6 ( ( 6 6 W ( 6 6 ( ( 6 6 G z ( ( d d d d d d ( z ( ( / ( d d d d d d d d d d d d {.{.K d A A ( ( K K } } 2 2 R R g g g g g g (.g X X 2 ",
"X X X (.g (.(.(.(.g g ,.,.! ! ( I I I ( ( 5 5 , , M M K K d d d d d d ( ( d d ( ( ( ( G / d d ( ( ( ( ( z z ( z ^.^.z 6 6 ( ( 6 6 ( ( 6 6 ( ( 6 6 ( ( 6 6 ( ( 6 6 6 6 6 l 6 6 ~ ~ 6 6 6 6 6 l ] ] 6 6 c ~ ] ] ~ ~ 6 6 ] ] 6 6 l ] l 6 ] ] l 6 ] ] 6 6 c ] l o ~ ~ 6 6 ~ ~ ] l l ] o o 6 6 6 6 ] ] 6 6 ~ ~ l 6 6 G ( ( ( ( n n ( ( d K > > d d ~ ~ 5 5 , , r 5 d d d v ( ( B B A A ( ( ( ( ( ( ( ( > > {., d d I ( d A d d {., d d J J d d e f d d ( / ( ( ( ( 6 6 6 6 l 6 l 6 l l l ] J ~ 6 l 6 6 6 6 ~ ~ ] l ~ ~ ] l ] c J J ] ] ] l ~ ~ l l ~ ~ l l ~ ~ ] l ~ ~ l l ~ ~ l l ] ] 6 6 ] ] 6 6 6 l 6 G ~ ~ 6 6 6 l ( ( 6 6 ( ( 6 6 ( ( 6 6 6 6 6 6 ( ( 6 6 ( ( 6 6 ( ( 6 6 G z ( ( d d d d d d I ( ( ( ( ( d d d d d d d d d d d d {.{.K d A A ( ( K K } } 2 2 R R g g g g g g (.g X X 2 ",
"=.(.(.=.=.g g g g (.(.; '.} } d d ( I ( ( M M B B M M M M ( z K d ( ( d d G ( d d K d d d / ( d d ( ( G ( 6 6 ( ( ^.^.z ( 6 6 6 6 6 6 6 6 l 6 ( ( 6 6 / ( 6 6 6 6 6 6 6 6 ~ ~ 6 6 ~ ~ 6 6 ] l 6 6 ] l 6 6 ~ ~ ] l ] ] 6 6 ] ] 6 l ] ] 6 6 c ] 6 6 c ] 6 6 ~ ~ 6 6 ~ ~ 6 6 ~ ~ 6 6 6 6 6 6 6 6 6 6 6 l 6 6 6 6 / ( 6 6 ( ( ( ( n n ( ( > > I I 6 G 5 5 , , d d d d I ( d d e {.M M ( ( ( ( ( ( A A 5 5 B : K K K K A A M M > > 5 5 ~ ~ 5 5 > > d v ( ( ( ( 6 6 6 G G 6 6 6 6 l 6 6 6 6 6 6 ] ] 6 6 ] ] 6 l 6 ~ 6 6 ] ] l l ] ] 6 6 l ] 6 l ~ ~ l ] ~ ~ 6 l ~ ~ ] l ~ ~ l 6 ~ ~ l 6 l ] 6 6 ] ] 6 6 ~ ~ 6 6 c ~ 6 6 6 6 ( ( 6 6 ( ( 6 6 6 6 6 l 6 6 6 6 ( z ( ( d d ( ( ( ( ( G / I ( ( d d I ( d d ( ( !.d d d d d ( ( d d d d M M , , 5 5 ( I z z I I } ! '.'.g g g g (.g g g =.=.X X 2 ",
"=.(.(.=.=.g g g g (.(.; '.} } d d ( ( ( ( M M B B M M M M ( ( d d ( ( d d ( ( d d d d d d ( z d d ( ( G ( 6 6 ( ( ^.^.z ( 6 6 6 l 6 6 6 6 6 6 ( ( 6 6 ( ( 6 6 6 6 6 6 6 6 ~ ~ 6 6 ~ ~ l 6 ] ] 6 6 ] l 6 6 ~ ~ ] ] ] l 6 6 ] ] 6 6 ] ] 6 6 ] ] 6 6 ] l l 6 ~ ~ 6 6 ~ ~ 6 6 ~ ~ 6 6 6 6 6 l 6 6 6 6 6 l 6 6 6 6 / / 6 6 ( ( ( ( n n ( ( > > I I 6 G 5 5 , , d d d d ( I d d {.{.M M ( ( ( ( ( ( A A 5 5 B : K K K K A A M M > > 5 5 ~ ~ 5 5 > > v d ( ( ( z 6 6 6 I 6 6 6 l 6 l 6 6 6 l 6 6 l ] 6 6 l ] l 6 ~ ~ 6 6 ] ] 6 l ] ] 6 6 l ] l l ~ ~ l l ~ ~ l l ~ ~ l l ~ ~ l 6 ~ ~ l 6 ] l 6 6 ] ] 6 6 ~ ~ 6 6 ~ ~ 6 6 6 6 ( ( 6 6 ( ( 6 6 6 6 6 6 6 6 6 6 ( z ( ( d d I ( G ( ( ^.z ( ( ( d d I ( d d ( ( !.d d d d d ( ( d d d d M M , , 5 5 I I ( ( ( ( 4 ! '.'.g g g g (.g g g =.=.X X V ",
"g =.=.g g (.(.g (.g g ,.'.! ! I I I I ( ( 5 L , , M M K K K d d d d d d d d d ( ( d d d d d d d d d d I ( ( ( ( ( d d ( ( ( ( 6 6 6 6 6 6 6 6 6 6 ( ( 6 6 6 6 6 6 6 6 6 l 6 6 6 6 6 6 6 6 l 6 ~ ] 6 G ] ] l ] ~ ~ 6 6 ] l ] ] ~ ~ 6 6 ] ] l 6 ] ] l 6 l ] 6 6 ~ ~ 6 G ~ ~ l 6 l l 6 6 6 6 ( / 6 6 6 l ~ ~ 6 6 6 6 l 6 6 o d d d d d K f > d d ~ ~ > > , , 5 5 A A K d ( I B B A A A A 6 G d d I ( > > _ _ d d I ( M M M M , , I I 6 6 5 5 > > d d v d ( ( ( G G 6 ( ( 6 6 6 6 6 6 ( ( 6 6 6 l 6 6 6 6 ~ ~ 6 6 ] l o o ] ] 6 6 ] ] 6 l ~ ~ ] l ~ ~ l l ~ ~ l 6 c ~ ] ] ~ ~ 6 6 ] l 6 6 ] ] 6 6 c ] 6 6 6 6 6 6 6 6 6 l 6 6 ( ( 6 6 6 l 6 6 6 6 6 6 l 6 6 6 ( ( ( ( ( ( ( ( d d ( ( d d d d d d I ( d d ( ( d d K d d d d d 5 5 d K {.{.K d A A ( ( d d [ [ ,.,.R R (.g g g g g g g ; ; '.",
"g =.=.(.g (.(.g (.g g ,.'.! ! I I I I I ( L L , , M M K K d d d d d d d d d d ( ( d d d d d d d d d d ( ( ( ( G / d d ( ( ( ( 6 6 6 6 l 6 6 6 l 6 ( ( 6 6 6 6 l 6 6 6 6 6 6 6 6 6 6 l 6 6 l 6 ~ ] 6 6 l ] c ] 6 ~ 6 6 ] l ] ] ~ ~ 6 6 ] ] l 6 l ] 6 l ] ] 6 6 ~ ~ 6 6 ~ ~ l 6 l l 6 6 6 l / ( 6 6 6 6 ~ ~ 6 6 6 6 6 6 / o d d d d K K f > d d ~ ~ > > , , 5 5 A A K d I I B B A A A A ( G d d ( I > > _ _ d d ( z 5 M M M , , I I 6 6 5 5 > > d d d d ( ( 6 G G 6 G ( 6 6 6 6 6 6 ( ( 6 6 6 6 6 l 6 6 ~ ~ 6 6 ] ] o o ] ] 6 6 ] ] 6 l ~ ~ ] l ~ ~ l 6 ~ ~ 6 6 ~ ~ l ] ~ ~ 6 l l l 6 6 ] l 6 6 ] ] 6 6 6 6 6 6 6 l 6 6 6 6 / ( 6 6 6 6 6 6 6 6 6 l 6 G 6 6 ( ( ( ( ^.( ( ( d d ( ( !.d d d d d ( ( !.d ( ( d d d d d d d d 5 5 K K , {.K d I A ( ( K d [ [ ,.,.R R g g g g g g g g ; ; '.",
"; ; X X X g g 7 g g (.V 2 ! ! d K ( ( ( ( M M , , A A K d I I 5 5 d d 5 5 d d d d ( ( ( ( 6 6 ( ( ( ^.^.z ( ^.d d I ( G ( ( / ( ( ~ ~ 6 6 6 6 6 6 l 6 ( ( 6 6 6 6 6 l ( ( 6 6 6 l 6 6 6 6 ] ] 6 6 6 6 6 6 ~ ~ 6 6 l ] l l ~ ~ l 6 ~ ~ 6 6 ] l 6 6 c ] 6 6 ~ ~ 6 6 ~ ~ 6 6 ~ ~ 6 6 ~ ~ 6 6 6 6 6 6 6 6 6 6 ~.6 / ( 6 6 ( ( A A !.d d K > f ( ( ( 6 5 5 , , d d 5 5 I I d d {.{.K K ( ( I I ( ( d d 5 L B : ( ( A A A A K d f f K K ~ ~ 5 5 > > d K ( ( ( ( G z ( ( 6 6 6 l 6 6 6 6 6 6 6 6 6 6 6 6 ~ ~ 6 6 ~ ~ 6 6 l ] l l ] ] ] l l ] 6 6 l ] l 6 ~ ~ l 6 c ~ ] l ~ ~ ~ ~ ~ ~ 6 6 6 6 6 6 6 6 6 l 6 6 6 6 6 6 6 6 6 6 6 l 6 6 ( ( 6 6 6 6 l 6 6 6 6 6 ( z ( ( d d ( I d d ( ( ( ( ( G d A ( ( K d A A K d d d M M K K K d d d d d , , 5 5 ( ( A A A A ! 3 =.=.(.g R R g g R R X X X ; _.",
"; ; X X X g g g 7 g (.2 2 ! ! d K ( ( ( ( M M , , I A K d I I 5 5 d d 5 5 d d d d ( ( ( ( 6 6 ( ( ^.^.z ( ^.^.d d ( I ( ( ( / ( ( ~ ~ 6 6 6 6 6 6 6 6 ( ( 6 6 6 l 6 6 ( ( 6 6 6 6 6 l 6 6 l ] 6 6 6 6 6 6 ~ ~ 6 6 l ] l l ~ ~ l 6 ] ~ 6 6 ] l 6 6 ] ] 6 6 ~ ~ 6 6 ~ ~ 6 6 ~ ~ 6 6 ~ ~ 6 l 6 6 6 6 6 6 6 6 6 6 ( ( 6 6 / ( A A !.d d K f f ( ( ( 6 5 5 , , d d 5 5 ( I d d {.{.K K ( ( I I ( ( d d L L B : ( ( A A A A K d f f d K ~ ~ 5 5 > > d K ( ( ( ( G z ( ( 6 6 6 l 6 6 6 6 6 6 6 6 l 6 6 6 ~ ~ 6 6 ~ ~ 6 6 ] ] ] 6 l ] ] 6 l ] 6 6 l ] l 6 ~ ~ 6 6 ~ ~ ] ] ~ ~ ~ ~ ~ ~ 6 6 6 6 6 6 6 6 6 6 6 6 l 6 6 6 6 6 6 6 6 6 6 6 / ( 6 6 6 6 6 6 6 G 6 6 / ( ( / d d ( ( d d ( ( I ( ( ( A A ( ( d d A A K d d d M M K K K K d d d d , , 5 5 ( ( A A A A 3 3 =.=.g g R R g g R R X X X ; _.",
"X =.=.g g g g (.(.(.g V '.! ! d d I ( G ( 5 5 , , M M d d d d I A K d d d d d d d d d ( ( d d ( ( ( ^.^.z ( ^.^.( ( ^.^.z ( ( 6 6 6 6 6 6 6 6 ~ ~ 6 6 6 6 ( ( 6 6 ( ( l 6 6 6 6 l 6 6 6 6 6 6 6 6 / ( 6 6 l l ] 6 l l ] ] 6 6 c ] 6 6 6 l 6 6 l ] l 6 ] ] 6 6 ~ ~ 6 6 ~ ~ l 6 ~ ~ 6 6 ~ ~ 6 6 6 6 6 6 l 6 ( ( l 6 ( ( ( z d d v d M M q q ( ( 6 6 > > {., 5 5 ( I J J d K {.B K K ( ( I I d d I ( > > {.{.K K ~ ~ A A K d B B A A 6 6 5 5 , , d d d d ( z d d ( ( ( ( 6 6 l 6 6 6 6 6 l 6 l 6 ~ ~ 6 6 ~ ~ 6 6 ~ ~ 6 6 ] ] 6 6 ] ] 6 6 6 6 6 l ] l ] l ~ ~ ] ] ~ ~ 6 6 ~ ~ 6 6 6 6 ( ( 6 6 6 6 6 6 6 6 6 6 / ( 6 6 ( ( 6 6 ( ( 6 6 6 6 6 l ( ( 6 l ( ( ( ( ( ( ( ( d d ( ( d d G z I I z ( A A I I d d A A M M K d d d ( I K K K K , , 5 5 ( ( z z K K [ [ '.'.R R R R R R X X X ; ; '.V ",
"X =.=.g g (.g (.(.(.g '.'.} ! d d ( I ( ( 5 5 , , M M d d d d A A K d d d d d d d d d / ( d d ( ( ^.^.z ( ^.^.( ( ( ^.( ( ( ( G 6 6 6 6 6 6 l ~ ~ 6 6 6 6 / ( 6 l ( ( l 6 6 6 6 6 6 6 6 l 6 6 6 6 / / 6 6 l ] l 6 ] l l ] 6 6 c ] 6 6 6 l 6 6 l ] l 6 ] ] 6 6 ~ ~ 6 6 ~ ~ l 6 c ~ 6 6 ~ ~ 6 6 ~.6 l 6 6 6 ( ( 6 6 ( ( ( ( d d v d M M q q I I J J > > {., 5 5 I I J J d K B B K K ( ( I I d d I ( > > {.{.K d ~ ~ A A K K : B I A 6 6 5 5 , , d d d d I ( d d ( ( ( ( 6 6 6 6 6 6 6 6 6 l 6 6 ~ ~ 6 6 ~ ~ 6 6 ~ ~ 6 6 ] ] 6 6 ] ] 6 6 6 6 6 6 l ] l 6 ] ~ l ] ~ ~ 6 6 ~ ~ 6 6 6 6 / ( 6 6 6 6 6 6 6 6 6 l ( ( 6 6 ( ( 6 6 ( ( 6 6 6 l 6 6 ( ( l 6 ( 6 ( ( G ( ( ( d d ( ( d d ( ( I ( ( ( A A A I d d A A M M K d d d I ( K K K K , , 5 5 I I J z K K [ [ '.'.R R R R R R X X X X '.'.V ",
"; (.g X X (.(.g g R R '.'.! ! d K ( ( I ( 5 5 B : K K 5 5 ~ ).6 6 d d 5 5 K d L 5 d d d d d d d d ( ( d d ( ( I ( ( ( d d ( ( ( ( 6 6 ( ( o o o o 6 6 ( ( ( / ( ( ( ( / ( 6 6 6 6 6 6 ( ( 6 6 ( ( ( ( ( ( ~ ~ 6 6 ~ ~ 6 6 ~ ~ 6 6 c ~ 6 G 6 6 6 6 ~ ~ 6 6 ~ ~ 6 6 ~ ~ 6 6 6 6 6 6 6 6 6 6 6 6 ( ( 6 6 ( ( 6 6 ( ( ( ( d d A A d K K K f > z z 6 6 5 5 , , e e f f 5 5 e f {.{.M M ( z K d d d d d 5 L F F 5 5 L L e e q q f f K K J J 5 5 e f M M d d d d A A A A ( ( ( ( 6 6 ( / 6 6 6 6 l 6 6 6 ~ ~ 6 6 6 6 6 6 o l 6 6 ] l 6 6 6 6 6 6 6 6 6 6 ~ ~ 6 6 ~ ~ 6 6 ~ ~ 6 6 6 6 ( ( G G z z 6 6 6 G G 6 6 z 6 6 ( ( 6 6 ( / ( ( ( ( 6 6 ( ( ( ( ( ( G / d d ( ( d d I ( d d / ( d d I I d d d d K K K d M M M M d d ~ ~ 6 6 M M 5 5 , , 5 5 ( I z I I A ! ! ,.,.R R R R g g g g =.=.X X '.",
"; g g X X (.(.g g R R '.'.! ! d K ( ( ( ( 5 5 B : K K 5 5 ~ ).6 6 d d L 5 d d 5 5 K d d d d d d d ( ( d d ( ( ( ( ( ( d d ( ( ( ( 6 6 ( ( o o o o 6 6 ( ( / / ( ( ( ( ( ( 6 6 6 6 6 6 / ( 6 6 ( ( ( ( ( ( ).~ 6 6 ~ ~ 6 6 ~ ~ 6 6 ~ ~ 6 6 6 6 6 6 ~ ~ 6 6 ~ ~ 6 6 ~ ~ 6 6 6 6 6 6 6 6 6 6 6 6 ( ( 6 6 ( ( 6 6 ( ( ( ( d d A A d K K K e f ( ( 6 6 5 5 , , e e f f 5 5 e f {.{.M M ( z K d d d d d L L F F 5 5 L L e e q q f f K K J J 5 5 e f M M d d d d A A A A ( ( ( ( 6 6 / ( 6 6 l 6 6 6 l 6 ~ ~ 6 6 6 6 6 6 l l 6 6 6 l 6 6 6 6 6 6 6 6 6 6 ~ ~ 6 6 c ~ 6 6 ~ ~ 6 6 6 6 / ( G G z ( 6 6 6 G 6 6 z z 6 G ( ( 6 6 ( / ( ( ( ( 6 6 ( ( ( ( ( ( ( ( d d I ( d d / ( d d I ( d d ( ( d d d d d K K d M M M M d d ~ ~ 6 6 M M 5 5 , , 5 5 ( I z I A A ! ! ,.,.R R R R g g g g =.=.X X '.",
"X =.=.g g (.g (.(.R R ,.,.! ! A A A A ( ( q q , , 5 5 > > d d 5 5 d d d d d d ( ( d d ( ( d d ( ( d d ( I d d ( ( d d I ( G ( ( ^.z ( ( ( / n o o ( ( ( ( ( ( ( / ( ( 6 6 ( ( 6 6 ( ( 6 6 ( ( 6 6 ( ( ( ( G 6 6 6 l l ] ] 6 6 6 l 6 6 6 6 6 6 ~ ~ 6 6 ~ ~ 6 6 ~ ~ 6 6 6 6 l 6 z 6 6 l 6 6 6 6 6 6 6 6 6 6 ( ( ( ^.d d d d d d K d M M q q ( ( ~ ~ > > , , 5 L > > f f v v B B K K ( ( I ( d d I ( > q {.{.M M f > L L q q , {.A I 6 6 M M e e A A K d I ( d d ( ( ( ( 6 6 / o 6 6 / ( 6 6 6 6 6 6 6 6 6 6 l 6 6 6 6 6 6 ] 6 6 6 l 6 6 6 6 6 6 6 6 l 6 ~ ~ ~ ~ ~ ~ 6 6 l 6 G ( I G ( ( 6 6 ( ( 6 6 6 G 6 6 ( ( 6 6 / ( 6 6 ( ( l 6 ( ( ( / d d I ( G ( ( ^.d d ( I d d ( ( d d ( I ( A ( ( ( ( ( ( d d A A 5 5 K K M M 5 5 {.{.5 5 F : 5 5 A A I I d K [ } '.'.R R g g g g X X X X X X =.",
"X =.=.g g (.g (.(.R R ,.,.! ! A A A A ( ( q q , {.5 5 > > d d 5 5 K d d d d d ( ( d d ( ( d d ( ( d d ( ( d d ( ( d d ( ( ( ( G / I ( ( ( n n / o ( ( ( ( ^.( / ( ( ( 6 6 z ( 6 6 ( ( 6 6 / ( 6 6 ( ( ( ( 6 6 6 l 6 ] ] ] 6 6 6 6 6 6 l 6 6 6 ~ ~ 6 6 ~ ~ 6 6 ~ ~ G 6 6 6 l 6 6 6 6 6 6 6 6 6 6 6 6 6 6 6 ( ( ( ( d d d d d d d d M M q q ( ( ~ ~ > > , , 5 L > > > f d d {.B K K ( ( I I d d ( I > q {.{.M M f > L L L q {.{.A I 6 6 M M f e A A K d I ( d d I ( G ( 6 6 o o 6 6 ( / 6 6 6 l 6 6 6 6 6 6 6 6 6 6 6 6 6 l 6 6 l ] 6 6 6 6 l 6 6 6 6 6 ~ ~ ~ ~ ~ ~ 6 6 l 6 ( ( 6 G ( ( 6 6 z z 6 6 6 I 6 6 ( ( 6 6 / ( 6 6 ( ( l 6 ( ( ( ( d d ( ( ( ( ( ( d d ( ( d d ( ( d d ( ( A A ( ( ( ( ( ( d d A A 5 5 d K M M 5 5 {.{.5 5 F : 5 5 A A I I d K [ } '.'.R R g g g g X X X X X X =.",
"; X X =.=.g g (.g R R '.'.! ! d K ( ( I ( L L B : K K f > e e 5 5 I I K K ( ( d d ( ( ( ( ( ( d K ( ( ( ( G / d d ( ( ( ( 6 6 ( ( ( ( ( ( ( G / I ( ( ( z o o ( ( 6 6 ( ( 6 6 o o 6 6 ^.( 6 6 G ( 6 G G ( J 6 6 6 ~ ~ 6 6 ~ ~ l 6 6 6 6 6 ~ ~ 6 6 ~ ~ l 6 ~ ~ 6 6 6 6 G 6 ~ ~ 6 6 ~ ~ 6 G 6 6 6 6 6 6 / ( 6 6 ( ( / ( d d d d d K K K f e ( ( 6 I 5 5 , , d d M M K d M M , {.K K ( ( d d A A d d 5 L B B A A d d I A L L , {.M M J J q q f f M M d d d d ( ( ( ( 6 G G z 6 6 6 l 6 6 ( / 6 6 6 6 6 l 6 6 6 6 6 6 6 6 6 6 6 6 6 6 l 6 6 6 6 6 6 6 6 6 6 6 ~ ~ 6 6 ~ ~ 6 6 z G G ( 6 G z z 6 6 ( ( 6 G G G 6 6 / ( 6 6 ( ( ( ( ( ( ( ( G / I ( ( ( ( ( ( ( ( G / I ( ( d d ( I d d ( ( d d I I d d I I d d I A K d 5 5 e f 5 5 5 5 , {.q q ( ( I I A A 3 3 '.,.g g R R (.(.g g X X ; X '.",
"; X X =.=.g g g g R R '.'.! ! d K ( ( I ( L L B : K K f > e e 5 5 I I K K ( ( d d ( ( ( ( ( ( d K ( ( ( ( G / d d ( ( ( ( 6 6 ( ( ( ( ( ( ( G / I ( ( ( ( o o ( ( 6 6 ( ( 6 6 o o 6 6 ( ( 6 6 G ( 6 G ( ( 6 6 6 6 ~ ~ 6 6 ~ ~ 6 6 6 6 l 6 ~ ~ 6 6 ~ ~ l 6 ~ ~ 6 6 6 6 6 G ~ ~ 6 6 ~ ~ 6 6 6 6 6 6 6 6 / ( 6 6 ( / ( ( d d d d d K K K e e ( z G G 5 5 , , d d M M K d M M B {.K K ( ( d d A A K d L L B : A A K d d A 5 L , {.M M J J q q f f M M d d d d ( ( ( ( 6 G G z 6 6 6 6 l 6 ( / 6 6 6 6 6 6 l 6 6 6 6 6 6 6 6 6 6 6 6 6 6 6 l 6 6 6 6 6 6 6 6 6 ~ ~ 6 6 ~ ~ 6 6 z G ( ( ( G z z 6 6 ( ( 6 G G G 6 6 ( ( 6 6 ( ( ( ( ^.( ( ( ( G / I ( ( ( ( ( ( ( ( ( G z ( d d I ( d d I I d d I A d d I ( d d I A K d 5 5 e f 5 5 5 5 {.{.q q ( ( I I I A ! 3 '.,.g g R R (.(.g g X X ; X '.",
"; '.'.X X g (.g g R R ,.'.! 3 d d I A ( ( q q f e M M M M d K ( ( I A K d d d ( ( d d ( ( d d d d d d ( ( d d d d d d ( ( ( ( ( ( ^.( ( ( / n ( / d d ( I ( ( / o z ( 6 6 ( ( 6 6 ( ( 6 6 ( ( l 6 ( ( ( ( G 6 ~ ~ 6 6 ~ ~ 6 6 6 6 6 6 6 G 6 6 ~ ~ 6 6 6 6 6 6 6 6 6 6 6 6 6 6 ~ ~ 6 6 ~ ~ 6 6 6 6 6 6 6 6 ( ( 6 6 ( ( ( / d d K d 5 5 > > I A 6 J > > {., 5 5 K K d d A A B B A A d d d d K K K d > f B B K K A A K d L M B {.K K ( G 5 5 e f K K M M A A A I ( ( ( ( G 6 l 6 6 6 / ( 6 6 6 6 6 6 6 6 6 6 6 l 6 6 6 6 6 6 ( ( 6 6 6 6 6 G 6 G 6 6 6 6 ~ ~ 6 6 ~ ~ 6 6 6 6 ( ( ( ( ( z G G ( ( ( 6 z z 6 6 ( ( 6 6 / ( 6 6 ( ( ( ( ( G l 6 ( ( ( ( ^.( ( ( d d ( ( d d d d d d I A d d I ( d d I A A A K d d K ( ( I A d d d K K d B : M M ( I z z K K } } '.'.g g g g g (.=.=.; X '.'.'.",
"; '.'.X X g (.g g R R ,.'.! 3 d d I A ( ( q q f e M M M M d K ( ( A A d d d d ( ( d d ( ( d d d d d d ( ( d d d d d d ( ( ( ( ( ( ^.( ( ( n n n / d d ( ( ( ( o o z ( 6 6 ( z 6 6 ( ( 6 6 ( ( 6 6 / ( ( ( 6 6 ~ ~ 6 6 ~ ~ J 6 6 6 6 6 6 6 6 6 ~ ~ 6 6 6 6 6 6 6 6 6 6 6 6 6 6 ~ ~ 6 6 ~ ~ 6 6 6 6 6 6 6 6 / ( 6 6 ( ( z ( d d d K 5 5 - > A A 6 J > > {., 5 5 K K K d d A B B A A d d d d d K K d f f B B K K A A K d M M B B K K ( G 5 5 e e K K M M A A I I ( ( ( ( 6 6 l 6 6 6 ( / 6 6 6 6 l 6 6 6 6 6 6 6 6 6 6 6 6 6 ( ( 6 6 6 6 6 6 6 6 6 6 6 6 ~ ~ 6 6 ~ ~ 6 6 6 6 ( ( ( ( / ( G G ( ( ( 6 z z 6 6 ( ( G 6 ( ( l 6 ( ( ( ( ( G l 6 ( ( ( ( G ( ( ( d d ( ( d d d d d d A A K d I I d d I I A A K d d K ( ( A A d d d K d d {.B M M ( I z z K K } } ,.'.g g g (.(.(.=.=.X X '.'.'.",
"V V '.'.V =.=.=.=.g (.'.'.} } M M ( I z I 5 5 {.{.K d A K A A M M d d 5 5 K d d d d d d d ( ( d d ( ( d d ( ( d d ( ( d d ( ( d d I ( G ( ( ^.z ( ( ( ( / / ( ( ( ( ( ( ( o o ( ( 6 6 z z ( ( ( ( ( G G ( 6 6 6 G ] ] 6 6 6 6 6 6 6 6 l 6 6 6 6 6 6 6 6 G G 6 6 6 6 6 l 6 6 6 6 6 6 6 6 6 6 6 6 6 6 6 / ( 6 6 ( ( / ( d d d d M M K K e e ( I z z q q , {.M M 5 5 A A K d B {.K d I A K K d K d d L L F F d d d K K K L L e e M M 6 6 q q f f M M d d d d ( ( ( I ( ( z z 6 6 6 6 6 l 6 6 6 6 6 6 6 6 6 6 ~ ~ 6 6 6 6 ( ( 6 6 6 6 l 6 6 6 6 6 6 6 6 6 6 6 6 6 6 6 ~ ~ l 6 J 6 ( ( ( ( I I ( ( ( ( G G ( z 6 6 ( ( 6 6 ( / ( ( d d I ( G ( 6 6 ( ( ( ( ( ( ( ( d d ( I d d ( ( d d I I d d I A K d I I K K K K K K ( ( d d A A K d {.{.q L z z A A A A 3 3 ,.,.g g g (.'.'.; X '.'.'.'.'.",
"V V '.'.'.=.=.=.=.g (.'.'.! } M M ( I z I 5 5 , {.d d d K A A M M d d L 5 d d d d d d d d ( ( d d ( ( d d ( ( d d I ( d d / ( d d I ( ( ( ( ( G / I ( ( ( n / ( ( ( / ( ( o o ( ( 6 6 ( ( ( ( ( ( G 6 ( ( J J G G ] ] 6 6 6 6 6 6 6 6 6 l 6 6 6 6 6 6 6 G G 6 6 6 6 6 6 l 6 6 6 6 6 6 6 6 6 6 6 6 6 6 ( ( 6 6 ( ( ( ( d d d d M M K K e e ( I z z q q , {.M M 5 5 A A d d {.{.K K A A K K d d d d L L F F d d d K K K L L e e M M 6 6 q q f e M M d d K d ( ( ( I ^.( z z 6 6 6 6 6 6 l 6 6 6 6 6 6 6 6 6 ~ ~ 6 6 6 6 ( ( 6 6 6 6 6 l 6 6 6 6 6 6 6 6 6 6 6 6 6 6 ~ ~ 6 6 6 6 ( ( ( ( I I ( ( ( ( ( 6 G ( 6 6 ( ( 6 6 ( ( ( ( d d ( ( I ( 6 6 z ( ( ( ( ( ( ( d d ( ( d d ( ( d d ( ( d d A A d d ( I K K K K K K ( ( d d I A K K , {.L L z z A A A A 3 3 ,.,.g g g (.'.'.X X '.'.'.'.V ",
"'.V 2 '.'.,.,.(.(.g g ,.'.3 3 d d I A ( ( L L , {.5 5 d d M M M M 5 5 d d d d d d d d ( ( d d ( ( ( ( d d ( ( ( ( ( ( G / I ( ( ( ( ( 6 6 ( ( ( ( d d I ( G ( ( / z ( 6 6 ( / o o ( ( ( ( ( ( ( G z ( ( z 6 6 6 6 6 l 6 ] ] 6 6 6 l 6 6 6 6 6 6 6 6 6 6 6 6 6 6 6 6 6 6 G 6 6 6 6 6 6 6 6 6 6 6 6 6 6 6 6 ( ( 6 6 ( z ( ( K d d d 5 5 > > A A 6 G > > f f M M K d d K d d , {.K d K K A A K d I A q q B B K K d d M M M M , {.K K ( ( L L , {.K K M M A A K d ( ( ( ( 6 6 6 l 6 l l 6 ] ] 6 6 6 6 6 6 6 l 6 6 6 6 6 6 6 6 6 6 6 6 6 6 6 6 6 l 6 6 6 6 6 6 6 6 6 6 6 6 6 6 ( z 6 6 z ( ( ( A A ( ( ( ( G G ( ( 6 6 ( ( 6 6 / ( ( ( ( ( 6 6 6 6 6 G ( ( ( ( G z ( ( d d I ( d d / ( A A ( ( A A A A d d I ( d d d d M M K d 5 5 d K B B L L K K ( ( M M } } '.'.(.(.; X '.'.V V '.'.'.V V ",
"'.V 2 '.'.,.,.(.(.g g ; '.! 3 d d A A ( ( q L , {.5 5 d d M M M M 5 5 d d d d d d d d ( ( d d ( ( ( ( K d ( ( ( ( G / I ( ( ( ( ( z ( 6 6 / ( ( ( d d ( I ( ( ( / z ( 6 6 ( / o o ( ( ( ( I I 6 G ( ( ( ( l 6 6 6 l 6 ] ] 6 6 6 6 l 6 6 6 6 6 6 6 6 6 6 6 6 6 6 6 6 6 6 6 6 G 6 6 6 6 6 6 6 6 6 6 6 6 o 6 ( ( 6 6 ( z ( I d d K d 5 5 > > A A ( G > > f f M M K d d K K d {.{.K d K K A A K d I A q q {.B K K K d M M M M , {.K d I z q L , {.K K M M A A K d ( ( ( ( 6 G 6 l 6 l l 6 ] ] 6 6 6 l 6 6 6 6 6 6 6 6 6 6 6 6 6 6 6 6 6 6 l 6 6 6 6 6 6 6 6 6 6 6 6 6 6 6 6 6 ( ( G 6 ( ( ( ( A A z z ( z 6 G z ( 6 6 ( z 6 6 / ( ( ( / ( 6 6 6 6 6 6 ( ( ( ( ( ( G / d d ( ( d d ( I ( A ( ( A A A I d d I ( d d d d M M K d 5 5 d K B B L L K K ( ( L M } } '.'.(.(.; X '.'.V V '.'.V V '.",
"< : : F F {.{.: : R R '.'.! ! M M ( ( A A 5 5 , , d d 5 L M M M M d d d d I ( K K K d M M ( ( d d ( ( ( ( 6 6 ( ( 6 6 ( ( ( ( ( ( ( ( ( ( ( ( G / I ( ( ( ( ( z ( 6 6 ( ( 6 6 ( ( ( ( A A ( ( ( ( G G A I 6 6 z ( 6 6 6 6 6 6 6 6 6 6 6 G G 6 6 6 J J 6 6 6 J l 6 6 6 6 6 6 6 6 6 6 6 6 6 6 6 6 6 6 6 6 6 6 6 ( ( ( z d d d d 5 5 5 5 {., M M ( I 5 5 , , 5 5 5 5 d d K d {.{.q L I I A A K d K K q q F F d d d K K K L L e e q L z z > > f e 5 L d d d d I ( ( ( ( ( ( ( 6 6 l 6 6 6 6 l 6 6 6 6 ~ ~ 6 6 ~ ~ 6 6 6 6 6 6 6 6 6 6 6 6 l 6 6 6 6 6 l 6 6 6 6 6 6 6 6 6 z z ( 6 I z 6 G ( ( ( ( A A ( ( 6 6 6 6 ( ( ( ( ( ( ( ( ( ( 6 6 z z ( ( ^.( ( ( ( ( ( ( G / I ( ( ( ( ( d d I ( M M K K K K ( ( d d d d M M K d 5 5 5 L M M f e L L I I A A A A ! } '.'.g (.{.{.: : {.{.F F B B s ",
"< : : F F B {.: : R R '.'.! ! M M ( z K A 5 L , , d d 5 L M M M M d d d d ( I K K K d M M ( ( d d ( ( 6 ( ( 6 ( ( 6 6 ( ( / ( ( ( ( G / I ( ( ( ( ( ( ( ( ( ( ( I 6 6 ( ( 6 6 ( ( ( ( A A ( ( ( ( G G I I 6 6 ( ( 6 6 6 6 6 6 6 6 6 6 6 I 6 6 6 6 J J 6 6 6 6 l 6 6 6 6 6 6 6 6 6 6 6 6 6 6 6 6 6 6 6 6 6 6 6 ( ( ( ( d d d d 5 5 5 5 , , M M I I 5 5 , , 5 5 5 5 d d d K {.B L L I I I A K d d K q q F F d d d d K K L L e e L L z z > > e e q L d d d d I ( ( ( z z ( ( 6 6 6 6 6 l 6 6 6 6 6 6 ~ ~ 6 6 ~ ~ 6 6 6 ( 6 6 6 6 6 6 6 6 l 6 6 6 6 l 6 6 6 6 6 6 6 6 6 6 z z G G ( ( z G z G ( ( A A ( ( 6 6 6 6 ( ( ( ( ( ( ( ( ( ( 6 6 z z ( ( ( ( G / I ( ( ( ( ( ( ( ( ( ( ( d d I I M M K K K K I I d d d d M M K d 5 5 5 L M M e e L L I I A A A A } } '.'.g (.{.{.: : {.{.F F B B s ",
", , , , , : : , , (.(.'.'.} } A A ( ( ( ( q q f e 5 5 5 5 5 5 d d M M d d d d I A d K K d d d d d d d ( ( ( ( ( ( ^.( ( ( ( ( ( ( ( ( ( ( ( ( 6 6 ( ( 6 6 ( ( o / z ( 6 6 ( / o o d d ( ( ( ( G z ( ( z ( z z ( z 6 6 6 l 6 6 6 6 6 G 6 6 G ( 6 6 6 6 ~ ~ 6 6 6 J J 6 6 6 6 6 6 6 6 6 6 6 6 6 6 6 6 6 6 6 ( ( / ( d d ( ( d d d d L L e f M M z z > > f e 5 5 5 5 5 5 d d F F 5 L M M d d d K K d f f , {.M M K d d K M M , {.M M ( I 5 L , {.M M M M I I d d I ( ( ( ( G z z o o ( ( 6 6 6 6 6 G 6 6 6 l 6 6 6 6 6 6 6 6 6 6 6 6 6 6 6 6 ( ( 6 6 ( ( 6 6 6 6 6 6 z z G G ( ( G G ( ( z z I I ( ( ( ( 6 6 6 G 6 G G z ( ( / ( 6 6 ( ( ( ( ( ( ( G ( / 6 6 ( ( l 6 ( / ( G d d ( ( d d d d 5 5 d d d K A A M M d d M M M M 5 5 d d B B M M A A ( ( K K [ [ ,.,.R R : : : : F F {.{.:.:.B ",
", , , , , : : , , (.(.'.'.} } A A ( ( ( ( q q f e 5 5 5 5 5 5 d d M M K d d d A A d K K d d d d d d d ( ( / ( ( ( ( ( ( ( ( ( G / ( ( ( ( / ( 6 6 ( ( 6 6 ( ( / n G ( 6 6 o / o o d d ( ( ( ( ( z ( ( ( ( ( ( ( z 6 6 6 6 l 6 6 6 6 G 6 6 6 G ( 6 6 6 ~ ~ 6 6 6 6 6 6 6 6 6 6 6 6 6 6 6 6 6 6 6 6 6 6 6 6 ( ( ( / d d ( ( d d d d 5 L e f M M z z > > e e 5 5 5 5 5 5 d d F F 5 L M M K d d K d d e f {.{.M M d d K K M M B {.K M ( ( L L , {.M M M M I I d K ( ( ( ( ( G z ( l o ( ( 6 6 6 6 6 6 6 6 6 6 l 6 6 6 6 6 6 6 6 6 6 6 6 6 6 6 ( ( 6 6 ( ( 6 6 6 6 6 6 ( ( ( 6 ( / ( G ( ( ( z I I ( ( ( ( 6 6 6 G G G z ( ( / ( ( G 6 ( z ( ( ( ( ( ( ( / 6 6 ( ( 6 6 ( ( ( ( d d I ( d d d d L 5 d d d K A A M M K d 5 M M M 5 5 d d B B M M A A ( ( K K [ [ ,.,.  R : : : : F F {.{.:.{.{.",
"{., , : : _ _ ; ; R R '.'.< < d d I ( A A 5 L B : M M 5 5 K K 5 5 d K M M A A K d I ( d d d d d d d d d d ( ( d K ( ( ( ( ( G d d ( ( ( ( ( ( ( ( 6 6 ( ( ( ( z ( 6 ( ( ( 6 6 ( ( ^.( A A ( ( ( ( ( 6 z ( ( ( ( ( 6 6 6 6 6 6 6 6 6 6 z z 6 6 ( ^.6 6 6 6 6 J J 6 6 6 6 6 6 6 6 6 6 6 6 6 6 6 ( ( 6 6 ( ( ( ( ( ( G z ( ( d A K d M M f e K K ( ( q q , {.K K K K z z 5 5 B : q q d d M M d d M M q q B B K K d d I A L L e f L L z G > > f e M M K d d d ( ( ( ( ( z z z / / ( ( l 6 o o 6 6 6 6 6 l 6 6 6 6 6 6 6 6 6 6 6 6 6 6 6 6 6 ( 6 6 ( ( 6 G G z 6 6 z ( 6 G ( ( 6 G G z z G ( ( ( ( ( ( ( G G z ( G G z ( ( / ( 6 6 ( ( ( ( ( ( ( ( d d ( ( ( ( ( ( ( ( ( ( d d A A d d A A K K d d d d I I d d d d 5 5 d K 5 5 A A M M B B L L I I A A K d 3 3 '.'.g g , , V V F F < < {.{.B ",
"{., , : : _ _ ; ; R R '.'.< < d d ( I ( A L L B : M M 5 5 K K 5 5 d K M M A A K d I ( d d d d d d d d d d ( ( d d ( ( ( ( G / d d ( ( ( ( ( ( ( ( 6 6 ^.( z ( z z 6 6 ( ( l 6 ( ( ( ( A A ( ( ( ( ( 6 z ( ( ( ( ( 6 6 6 6 6 6 6 6 6 6 z z ( 6 z z 6 6 6 6 6 6 6 6 6 6 6 6 6 6 6 6 6 6 6 6 6 6 z ( 6 6 ( ( ( ( ( ( G z ( ( d A K K M M e e K K ( ( L q {., d K K K z z 5 5 B B L q d d M M d d M M q q B B K K d d A I 5 L e f L L z G > > e e M M d d d d ( ( ( ( ( z ( ( / / / ( l 6 6 o 6 6 6 6 l 6 6 6 6 6 6 6 6 6 6 6 6 6 6 6 6 6 G ( 6 6 G ( 6 G z z 6 6 ( ( G G ( z ( G G z z G z ( ( ( ^.( G G z ( G G G z ( ( / ( 6 6 z ( ( ( ( ( ( G d d I ( ( ( ( ( o ( ( ( d d A A d d A A K K K d d d I I d d d d 5 5 d K M 5 I A M M B B L q ( ( A A d d 3 3 '.'.g g , , V V F F < < {.{.B ",
"F < < F F V V m m g g '.'.} ! d d d d I ( > > {.{.5 5 5 5 5 5 K K M M d d M M A A A A ( ( d d d d d d d d d d d d d d ( ( ( ( ( ( d d I ( ( ( ( G / I ( ( ( ( ( ( ( ( 6 6 G ( ( ( I I ( ( z ( ( ( ( G 6 6 I I ( ( z ( 6 6 z ( 6 6 ( ( G 6 z z G 6 6 6 6 6 6 6 6 6 6 6 6 6 6 6 l 6 6 6 6 J 6 6 6 G ( I 6 6 ( ( ( ( I ( / ( K d d d L L > > M M z z > f , , > > d d d d > f F F M M K d d K d K K d f f , {.> > I I q q L L , {.L L z z 5 5 e f K K M M ( I d d ( ( ( ( 6 6 ( ( 6 6 / ( 6 6 6 6 6 6 6 6 6 6 6 6 l 6 6 6 6 6 ( ( 6 6 6 G z 6 z z ( G G ( ( G z z 6 6 z ( 6 G G z 6 6 z ( ( z ( ( ( z ( ( ( ( ( ( G z ( ( z ( ( ( ( ( G z ( ( d d ( I ( ( ( ( d d ( ( K d d d d d d d K K K d d d I I d d I A M M K d M M K K 5 5 K K : B M M ( I I I M M } } '.'.(.(., , , , < < < < s s F ",
"F < < F F V V m m g g '.'.} ! d d d d I ( > > {., 5 5 5 5 5 5 d K M M K d 5 M A A A A ( ( d d d d d d d d d d d d d d I ( ( ( z ( d d ( ( ( ( ( ( ( ( ( G / I ( ( ( ( 6 6 G ( ( ( ( ( ( ( ( ( ( ( ( G 6 6 I I z z z ( 6 6 z ( l 6 ( ( 6 6 z z 6 6 6 G G 6 6 6 6 6 6 6 6 6 6 6 l 6 6 6 6 6 6 6 6 6 G ( 6 6 ( ( ( ( ( ( / ( d d K d L L > > M M ( z f f , , > > d d d d > > F F M M K K K d d K d d f f , {.> > I I q q q L {.{.q L I ( 5 5 e f K K M M I I d d ( ( ( I 6 6 / ( 6 6 / ( 6 6 6 6 6 6 6 6 6 6 6 6 6 l 6 6 6 6 ( z 6 6 ( G G 6 z z ( G G ( ( G G z 6 6 ( ( G G z ( 6 6 ( ( ( ( ( ( ( z ( ( ( ( ( ( ( ( ( ( ( ( ( ( G / I ( ( ( d d I ( G ( ( ^.d d ( ( d d d d d d d d d K d d d d I ( d d I A M M K d M M K K 5 5 K K : B M M ( ( I I M M } } '.'.(.(., , , , < < < < s s F ",
"Y 2 V _ _ 7 g g g R R 2 2 ! } M M A A d d 5 L B B M M > > ).).J J d K d d I A K d A A d d d d d d d d d d ( ( d d d d d d ( I d d ( I d d ( ( d d ( ( d d ( I ( ( ( ( ( / ( ( ( ( ( ( ( G 6 G ( ( z z ( z ^.( ( ( 6 6 ( ( 6 6 G ( 6 6 z z G 6 G G 6 6 6 G 6 6 ( G G 6 G 6 6 6 6 6 l 6 6 6 6 6 6 6 6 6 ( ( ( G ( ( I I A d I I d d M M e e K K ( ( q q {.{.L L B : B B L 5 B : q L d d d K d d 5 5 e f F F > > : : : F q L e e q q ( ( > > f f M M d d d d ( ( ( ( z z ( I 6 6 / / 6 6 6 6 6 6 6 6 6 6 6 6 6 6 6 6 6 6 ( ( 6 6 z z 6 6 6 G 6 6 ( ( ( G ( ( 6 6 z z G ( 6 ( ( 6 ( ( 6 G ( ( ( ( ( ( ( z A A ( ( ( I ( ( d d ( ( d d d d d d d d d d ( ( ( ( I ( d d ( ( d d d d d d d d d d I ( d d I I d d A A d d ~ ~ ~ ~ L L L q {.{.L L I ( A A d d ! ! '.'.(.g ; ; X X ; ; 2 2 s s < ",
"Y V V _ _ (.g g g R R 2 2 } } M M A A d d L L B B M M > > ).).J J d d d d I A d d A A d d d d d d d d d d ( ( d d d d d d ( ( d d ( ( d d G ( d d ( ( d d ( I ( ( ( ( ( ( ( ( ( I ( ( ( G 6 G ( ( ( ( z z G ( ( ( 6 6 / ( 6 6 G ( 6 6 z z 6 6 6 G 6 6 G ( J 6 ( G 6 6 6 6 6 6 6 6 6 6 6 6 6 6 6 6 6 6 ( ( ( ( G ( ( ( d d I ( d d M M e e K K I ( q q {.{.L L B : : B 5 5 B B L L d d d K K d 5 5 f f F F > > : : F F q L e e q q ( ( > > f f M M d d d d ( ( ( z z z ( I 6 6 / / 6 6 6 6 6 6 6 6 6 6 6 6 6 6 6 6 6 6 ( ( 6 6 z z 6 6 G G 6 6 z ( ( 6 ( ( 6 6 z z G ( ( ( ( 6 ( ( G G ( I G z ( ( z z A A ( ( ( I ( ( d d ( ( d d d d d d d d d d ( ( ( ( ( z d d ( ( d d d d d d d d d d ( ( d K I I d d A A d d ~ ~ ~ ~ L L L q {.{.L L I ( A A d d ! ! '.'.g g ; ; X X ; ; 2 2 s s [ ",
"< V V X X X ; g (.R R V V 4 4 K K d d A A q q {.{.L L , , K K L L 5 5 d d M M d d d d d d d d d d d d ( ( d d ( ( d d ( ( d d ( ( d d ( ( d d ( ( K d / ( d d ( ( ( ( ( I ( ( ( ( ( I ( ( ( ( ( ( I ( G G ( ( 6 G z ( 6 6 z ( 6 G z ( 6 6 G G 6 6 6 G 6 6 6 G 6 6 ( ( 6 6 6 6 6 6 6 6 6 6 ( ( 6 6 ( z 6 6 z ( ( / d d I ( d d d d L L f f L L I A f f , , L L d K 5 5 M M F F q L 5 5 d K M M M M e e {.B M M K K M M M M B B L q d d L q {.{.K K M M A A K d ( ( ( ( 6 6 G ( 6 6 / / 6 6 6 6 6 6 6 6 6 6 6 6 6 6 / ( 6 G ( ( J 6 ( G G 6 6 ( 6 6 z z 6 6 z ( 6 6 z z z G ( ( z G ( ( ( z A A ( ( ( ( I ( ( ( ( ( d d ( ( d d d d d d d d d d ( ( d d ( ( d d ( ( d d ( ( d d d d K K A A d K K d d d d d M M M M L L 5 5 B {.L L B B M M d d A A d K [ [ 2 2 (.(.X X X ; ; ; '.'.[ [ <.",
"< V V X X X ; g g R R V V 4 4 K K d d A A q q {.{.L L , , K K L L L 5 d d M M d d d d d d d d d d d d ( ( d d ( ( d d ( ( d d ( ( d d z ( d d ( ( d d ( ( d d / ( ( ( ( I ( ( ( ( ( ( ( I ( ( ( ( ( ( 6 G ( ( G G z ( 6 6 z ( G 6 ( / 6 6 G G G 6 6 G G 6 6 ( 6 6 ( ( 6 6 6 6 6 6 6 6 6 6 ( / 6 6 ( ( 6 6 ( z ( ( d d ( ( d d d d 5 L f f L L I A f f , , L L K K L 5 M M F F q L 5 5 K K M M M M e e {.B M M K K M M M M B B L q d d L q {.{.K K M M A A d d ( ( z ( 6 6 ( z 6 6 / / 6 6 6 6 6 6 6 6 6 6 6 6 6 6 ( ( 6 G ( ( J 6 ( G 6 6 6 G ( 6 ( ( 6 6 z ( 6 6 z z z G ( ( z G ( ( G z A A ( ( I ( A ( ( ( ( ( d d ( ( d d d d d d d d d K ( ( d d ( ( K d I ( d d ( ( d d d d d K A A d K d d d d d d M M M M L L 5 5 {.{.L L B B M M d d A A d K [ [ 2 2 (.(.X X ; ; X ; '.'.[ [ <.",
"s X X X X R R g g R R _._.} } K K ( ( d d L L B : L L f f , , 5 5 d K 5 5 K K L 5 d d d K A d 5 L d d d d d d d d ( ( d d ( ( d d d d d d ( ( d d d d d d d d d d ( ( d d ( ( ( ( ( ( ( I ( z z G ( z z G ( z ( ( 6 6 ( ( ( G z ( ( 6 z z J 6 ( z 6 6 G ( 6 6 z ( G 6 6 G 6 6 6 6 6 6 / ( 6 6 ( ( 6 6 ( ( ( ( ( ( ( ( K d A A M M 5 5 f e L L M M e f B B M M 5 5 M M L 5 B {.q q M M 5 5 K K 5 5 f f F F d d M M M M 5 L , {.f f d d f f e e L L K d d K I A K d ( ( ( ( ( ( ( ( 6 6 ( ( G 6 6 6 6 6 6 6 6 6 ( ( 6 6 z z 6 6 z z 6 6 6 G G 6 6 ( 6 6 ( ( 6 6 ( z ( G ( ( ( G ( ( 6 G ( ( ( ( I A ( ( ( ( ( ( d d d d d d ( ( d d d d d d d d d d ( ( d d ( ( d d ( ( K d d d 5 5 d K d d d K A d d d L 5 K d 5 L f f , , 5 L L q {.{.L L I ( K K d d 3 ! '.'.R R R R g (.    ; '.F F <.",
"s X X X X R R g (.R R _._.} } K K ( ( d d L L B : L L f f , , 5 5 d K 5 5 d K 5 5 K d K K d d 5 5 d K d d d d d d ( ( d d ( ( d d d d d d ( ( d d d d d d d d d d I ( d d ( ( ( ( z ( ( ( z z z G ( z ( ( ( ( z z 6 6 z ( G ( ( ( 6 G ( z 6 6 ( z 6 6 6 G 6 6 z z 6 G ( G 6 6 6 6 6 6 ( ( 6 6 ( z 6 6 ( ( ( ( ( ( ( ( K d A A M M L 5 e e L L M M f f B B M M 5 5 M M L 5 B B L q M M 5 5 K K L 5 f f F F d d M M M M L 5 B {.f f d d f f f e L L d K K K A A K d ( ( I ( ( ( ( ( 6 6 ( ( G 6 6 6 6 6 6 6 6 6 ( ( 6 6 z ( 6 6 z ( 6 6 ( G G 6 6 ( 6 6 z z 6 6 ( z ( G ( ( G G / ( G ( ( ( ( ( I A ( ( ( z ( ( d K d d d d ( ( d d d d d d d d d d ( ( d d ( ( d d ( ( d d d d 5 5 d K d d d d d K A d 5 5 d K 5 5 f f , , L L q L , {.L L I A K K d d ! ! '.'.R R R R (.(.    ; ; F F [ ",
": =.=.g g g g R R (.g '.'.4 4 K K K d d A > > {.{.L L M M 5 5 5 5 M M d d 5 5 d K M M d d d d d d d d d d d d ( ( d d ( ( d d ( ( d d d d d d d d d d d d d d d d d d ( ( d d ( ( ( / ( ( ( ( z z z ( z G ( ( ( ( z z 6 6 z ( G G 6 ( 6 6 z ( 6 6 6 G J J 6 6 6 6 6 G 6 6 6 6 G 6 I ( 6 6 ( ( 6 6 ( I ( ( ( z / ( d K d d d d d d q q f f L q d K , , , , L q 5 5 L L 5 5 {.B q L 5 5 d d 5 5 M M e e {.B 5 5 5 5 L L q L , {.f f L 5 > > {.{.M M M M d d d d G z d d G ( d d ( ( ( z / / ( ( 6 6 6 6 6 6 ( z 6 6 ( ( 6 6 z ( G 6 z z 6 6 z ( 6 6 ( z 6 G G ( ( ( ( ( ( z z I G G G ( 6 G A I ( K A A ( ( A A A A d K d d d d d d d d d d d d ( I d d ( ( K d d d d d d d d d d d 5 5 d K d d d d 5 L d K 5 5 K K L 5 d d M M M M F F 5 5 d K A A M M } } '.'.R R g g g g X X ; X F F F ",
": =.=.g g g g R R g g '.'.4 4 K K d d A A > > {.{.L L M M 5 5 L 5 M M d d 5 5 K K M M d d d d d d d d d d d d ( ( d d ( ( d d ( ( d d d d d d d d d d d d d d d d d d ( ( d d ( ( ( / z ( ( ( ( z ( ( 6 ( z ( ( ( z ( 6 6 z z G ( 6 ( 6 G z ( 6 6 6 G J J J 6 6 6 6 G 6 6 6 6 6 6 ( ( 6 6 ( ( 6 6 ( ( ( ( ( z / ( d K d d d d d d q q f f q q K K , , , , q q 5 5 L 5 5 5 B B q L 5 5 d d 5 5 M M e e {.B 5 5 5 5 L L q L {.{.e f 5 5 f > {.{.M M M M d d d d ( ( d d ( ( d d ( ( ( z / / ( ( 6 6 6 6 6 6 ( ( 6 6 / ( G 6 z z 6 6 z z 6 6 z z G 6 G z 6 G G ( z ( ( ( z z z z G G ( ( 6 G ( ( I ( A A I ( A A A A K K d d d d d d d d d d d d ( ( d d ( ( d d d d K d d d d d d d 5 5 d K d d d d 5 5 d K 5 5 K K L 5 d d M M M M F F 5 5 d K A A M M } } '.'.R R g g g g X X ; X F F F ",
"s X X g (.R R (.(.(.(.,.,.! ! 5 5 d K d d L L F F q L 5 L K d M M d d M M d K 5 5 K d M M d d M M d d K K d d d d ( ( A A ( ( d d d d d d d d d d ( I d d ( ( d d ( ( d d ( ( d d ( ( ( z z z ( / ( z z I ( z ( I z ( ( ( 6 G G ( z 6 ( z 6 6 ( ( G ( ( ( G ( ( ( 6 6 ( ( 6 6 z ( ( z d d ( ( ( ( ( ( ( ( / ( d d d d K d d d 5 5 5 5 B {.L L M M , , : : q q 5 L M M 5 L B B e f 5 5 5 L 5 M L 5 > > : : K K L L 5 5 f e {.{.e e K K e e e e L q M M d K A A d K ( ( A I ( ( ( ( I ( ( ( 6 6 z ( G 6 ( ( 6 6 6 6 6 6 G ( ( 6 z ( ( G ( ( z G z z 6 6 z ( ( z ( I ( ( ( ( ( z / ( ( ( I ( z z A I I I d d A A d d A A d d d d d d d d d d d d d d ( ( d d ( ( d d d d d d d d M M d K M M M M M M d d M M d d M M d d d K M M q q {.{.L L I A d d d K 3 3 ,.,.g g (.(.(.g g g =.=.: : < ",
"s X X (.(.R R (.(.(.(.,.,.! ! 5 5 d K d d L L F F q L 5 L d d M M d d M M K K L 5 d d M M d d M M K d d K d d d d ( ( A A ( I d d d d d d d d d d ( I d d I ( d d ( ( d d ( ( d d ( ( ( ( z z ( ( ( z ( ( ( ( ( ( ( ( ( ( G G ( z 6 6 ( z ( 6 z ( ( G ( ( ( G z z ( 6 ( ( 6 6 ( ( ( ( d d ( ( ( ( ( z ( G ( ( d d d d K d d d 5 5 5 5 B {.L L M M , , : : q q 5 L M M 5 L B B e f 5 5 5 5 M M 5 5 f > : : K K L L 5 5 > f , {.f e K K e e e e q q M M d K I A d K ( ( ( ( ( ( ( ( I ( ( ( 6 6 z z 6 6 z ( 6 6 6 6 6 G ( ( ( 6 ( ( 6 G z ( 6 G z z 6 6 z ( ( z A ( z ( ( ( z ( ( ( ( z z ( ( ( I ( I I d d A A d d A A d d d d d d d d d d d d d d ( ( d d ( ( d d d d d d d d M M d K M M M M M M d d M M K d M M d d K K M M q L {.{.L L I I d d K K 3 3 ,.,.g g g (.g g (.g =.=.: : < ",
"F V '.R R g (.R R R R '.'.4 4 K K K d A A f f B B q q 5 L M M d d d K K d M M d d M M d d L 5 d d M M d d M M d d d d ( ( d d I ( d d d d d d d d d d d d d d ( ( d d d d d d I A d d ( ( A A ( ( ( / z ( ( ( ( ( I I ( z z I G G z z 6 6 ( z ( G ( ( ( z z G ( G ( ( 6 6 z z ( ( d d ( ( ( I ( ( ( ( ( ( d d ( ( d d d d 5 5 L 5 f f , {.f e M M B B B B > > L L q L 5 5 s s L L q L K K L 5 5 5 f e B B L q L L q L q q {.B e f M M e f F F q q M M K K M M A A I A G z A A ( ( I ( ( ( d d ( ( ( ( 6 6 ( ( 6 6 z ( 6 6 z ( G G ( z z z ( ( z G z ( G 6 ( ( ( I G ( / ( I ( A ( I ( A ( I I ( ( K K d d M M d d K d d d d d d d d d d d d d d d d d ( I d d d d d K K d M M d d d K K d 5 5 d K d d d d M M d K M 5 d K 5 5 5 5 B : 5 5 d K A A M M } } '.'.(.(.g g (.g g g =.=.< < < ",
"F V '.R R g (.R R R R '.'.4 4 K K K K A A f f B B q q 5 L M M d d d K K d M M d d M M d d 5 5 d K M M d d M M d d d d ( ( d d I I d d K d d d d d d d d d d d I ( d d d d d d I A K d ( ( A A ( ( ( / ( ( G ( ( ( ( ( ( ( ( ( G G ( ( 6 6 z z G ( ( ( G z ( ( ( G z z 6 6 G z ( ( d d ( ( ( ( ( z ( ( ( ( d d ( ( d d d K 5 5 5 5 f f , {.e e M M B B B B > > L L L q L 5 s s L L L q K K L 5 5 5 e e {.B 5 L L q L q q q {.B e e M M f f F F q q M M d K M M A A I A ( ( A A ( ( I ( ( ( d d ( ( ( ( 6 6 ( ( G 6 ( ( 6 6 z z G G ( z ( z z ( ( G ( ( ( G z ( ( ( I I ( ( I ( A ( I I ( ( ( I ( ( d K K d M M d d d d d d d d d d d d d d d d d d d d ( ( d d d d K K d d M M d d d K d d L 5 d d d K d d M M K K L 5 d K 5 5 5 5 : : 5 5 d K A A M M } } '.'.(.(.g g g (.g g =.=.< < < ",
"< X X g (.R R g (.R R '.'.! ! M M d d K d q q F F q L L q K K M M d d K d d d d K A d 5 M d d M M K d M M d d M M K d d d A A d d d d d d d d M M d d M M A A d d d d d K d d d d A A d d ( ( ( ( G z ( ( ( z I ( ( ( A I ( G z z G ( ( z ( G z ( ( ( I ( ( 6 ( I 6 G G ( 6 6 G z ( z I ( ( ( I ( ( ( d d ( ( d d d d d K d d > > f e } } f f L L , , : : q q f f M M L q [.[.q q M M M M M M L q f f F F L L q L q q f f B B {.{.K K e e {.B e e M M L L d K d d ( ( A A ( ( ( I ( ( ( ( ( ( d d 6 6 ( z 6 6 I ( ( z I ( G ( ( ( G z ( ( ( 6 ( ( G G ( ( z z I I ( z ( I ( ( I ( ( I K d A I d d d d M M d d K d A A d d d d 5 5 d K d d d d 5 5 K d d d d d M M d K M M d d d K d d M M K K K d d d K K d d 5 5 K K 5 5 5 5 L q {.{.q q A A d K K K 3 3 ,.,.g g g (.(.g g g =.=.F F < ",
"< X X g (.R R g (.R R '.'.3 ! M M d d d K q q F F 5 L L q K K M M d d d d d d d K A d 5 M d d M M d d M M d d M M d d d d A A d d d d d d d d M M d d M M A A d d d d d K K d d d A A d d ( I ( I ( z ( ( ( ( ( ( ( ( ( ( ( G ( ( G ( ( z ( 6 z z z ( I ( ( 6 ( ( 6 G ( G 6 6 ( ( ( ( ( ( ( ( ( I ( ( d K ( ( d d d d K d d d > > f e } } f f q L , {.: : q q f f M M q q [.[.q q M M M M M M L q f f F F L L L q q q f f B B B {.K K e e {.B e e M M L L K d d d ( ( A A ( ( ( ( I ( ( ( ( ( d d 6 6 ( ( 6 6 G ( ( ( ( G z G ( ( ( z ( ( ( G z G 6 6 ( G ( ( I I ( z I ( A ( I I ( ( d d ( ( d d d d M M d d K K A A d d d d 5 5 d K d d d d 5 5 d d d d d d M M d K M M d d K d d d M M d K K d d d K K K d 5 5 K K 5 5 5 5 L q {.{.L q A A d K K K 3 3 ,.,.g g g (.g g g g =.=.F F < ",
": =.=.R R g g (.(.R R V '.4 4 d d K d d d f f B B q L L 5 5 5 K K M M d d d K d d K K d d d K K d M M K K 5 5 d K 5 5 K d d K d d d K K d M M d d K K d d d d A A d d d d d K d d d d I A d d ( ( ( ( z ( ( z z z A A I ( ( ( G G z ( ( G ( ( 6 G G ( ( ( z z G ( z ( 6 6 ( z 6 6 ( ( z G ( ( ( I ( ( ( ( d d ( ( d d A A 5 5 5 5 } } : : f f M M , {.: : f e L L M M 5 L s s L L 5 5 K d 5 5 5 5 f f F F L q q 5 > > f > : F }.}.M M e f F F e e L q K K d K I A d d ( ( ( ( ( ( I ( ( ( G ( ( ( ( ( 6 G / ( 6 6 ( ( ( ( I ( z z G ( G G z z 6 G ( ( ( ( ( ( / ( I ( A ( I I ( ( K d ( ( d d d d M M K d M M K d d d ( ( d d d d d d d d d d d d d d d d M M d d M M d d M M d K M M d d M M d d K K K d M M d K 5 5 M M 5 L L L B : L L K K A A M M } } '.'.R R g g (.(.g g (.(.F F F ",
": =.=.R R g g (.(.R R V '.3 3 d d K d d d f f B B q L L 5 5 5 K K M M d d K d d d K K K d K K K d M M d K 5 5 d K 5 5 K d K K d d d K K d M M d d K d d d d d A A d K d d d K d d d K A A d d ( I ( ( G ( I ( z G A A ( z ( ( G G z z 6 ( G z G G ( z ( ( z z G ( z ( 6 6 z ( 6 6 ( ( G ( ( ( G z ( I ( ( K d ( ( d d A A 5 5 5 5 } } : : f f M M {.{.: : f e L L M M 5 L s s L L 5 5 K d 5 5 5 5 > f : : q q L L f > > f F F }.}.M M e f F F e e L q K K K d I ( d d ( ( ( I ( z z ( ( ( ( z ( ( ( ( 6 6 G ( 6 6 ( ( ( ( ( I ( z / ( G ( 6 ( 6 G ( ( ( ( ( z ( ( I I ( ( I I ( ( d d A I d d d d M M d d M M d d K d ( ( d d d d d d d d d d d d d d d d M M d d M M d d M M d K M M d d M M d d K K d d M M d K 5 5 M M 5 L L q {.{.L L d K K A M M } } '.'.R R g g (.(.(.g (.(.F F F ",
": (.(.  R g (.R R R R '.'.! ! M M A A d d L q {.B M M q q 5 L 5 5 L 5 K K d d M M d d M M d d M M d K M 5 M M 5 5 d K M M d d K d d d K K d d K d d d K K A A d d d d d K d d d d d d I d ( ( A I z z ( ( z z I I ( ( ( ( z ( ( I z z ( ( 6 G ( ( ( ( ( G z z G ( G G ( ( ( G z G G ( ( ( G z ( I ( ( ( I ( ( d K A A M M d d f > > f [ [ }.}.L L f e s s L q d K z z f f F [.L L K K M M d d 5 5 L q s s L q z z M M e f {.{.e f M M , {.[.[.:.:.L L M M A A d d I ( A A z ( ( ( ( I ( ( 6 6 z ( G 6 ( ( 6 6 ( ( 6 6 ( ( z z ( ( z z ( ( 6 G ( G 6 ( ( ( z z z ( ( ( z ( z ( A A ( ( d d A A d K K d K K d d d d I A A A I ( d d I ( d d d d d d d d d d d d 5 5 K d M M d d K d d d M M d K M M d d M M K d 5 5 d K M M M M 5 L B {.L q A A d K K K 3 3 =.=.g (.R R (.g R R X X : : F ",
": (.(.R   (.(.R R R R '.'.! ! M M A A d d L q B B M M q q 5 L 5 5 5 L K K d d M M d d M M K d 5 M d K M 5 M M 5 5 K K M M d d d K d d K K K d K K d d d K A A d d d d d K d d d d d d A d ( I A I z z z ( ( z A I ( ( ( ( / ( I ( ( z ( ( 6 G ( ( ( ( ( G z z z G ( G G ( G ( ( ( G G ( ( ( z ( I ( ( I I ( ( d d A A M M d d > > f f [ [ }.}.L L f e s s L q K K ( ( f f F [.L L K K M M d d 5 5 q q F s q q ( z M M e f {.{.f e M M {.{.[.[.:.:.L L M M A A d d ( ( A A ( ( z ( I ( ( ( G 6 z z 6 6 z ( 6 6 z ( G 6 ( ( z z ( ( z z ( ( 6 G z ( G 6 G ( z z ( ( ( ( ( ( ( ( I A ( ( d d A A d K d d K d d d K d ( ( d A ( z d d I ( d d d d d d d d d d d d 5 5 d K M M d d d K d d M M d K M M d d M M d d 5 5 d K M M M M L 5 B {.q q A A d K K K 3 3 =.=.(.(.R R g g R R X X : : F ",
": X X g (.g g (.(.  R '.'.4 4 d d d d I A f f , {.L L q L 5 5 K d 5 5 d K 5 5 K d 5 5 d K 5 M d d 5 5 5 5 L 5 M M L 5 d d d K A d d d d K d d d K K d d d d d I A d d ( ( d d d d d d ( z A A ( ( ( ( ( ( d A ( ( ( ( I ( d d A I ( ( z z I I z z ( ( ( z I I ( ( ( ( z z G ( G G ( G z z / ( ( ( I I ( ( A A I I d d d d d d 5 5 f e [ [ {.{.L q B B B B B B :.:.e e L q s s M M M M K K d K K d > > : : {.{.L q B {.f f [.[.:.:.}.}.e e F F }.}.L L M M d d ( ( A A G z ( I ( ( ( I ( ( ( ( ( ( ( ( ( I ( ( 6 6 z z ( ( ( I ( z z ( ( z I I ( z z I G z I ( ( I I I ( ( A I ( ( A A ( ( K d d K d d A A d d I I d d I I d d ( ( K d d d K K d d d d d d M M d K 5 5 M M 5 5 K d d d d d 5 5 d K M M d d 5 5 d K K K d d 5 L L 5 B B L q d K I A M M } } '.'.R R (.(.(.(.g g (.g F F : ",
": X X g (.g g (.(.  R '.'.4 4 d d d d A A f f , {.L L L 5 5 5 K d 5 L d d 5 L d K 5 5 d K 5 M d d 5 5 5 L 5 5 M M 5 5 K d d d A A d d d K A d d d K K d d d d A I d d I I d d d d d d ( ( A A ( ( ( ( ( ( A A ( ( ( I ( ( K d I A ( ( ( ( I I ( ( ( ( ( ( ( ( ( z ( I z z G ( G G ( G z z ( G ( ( ( ( ( ( A A I I d d d d d d 5 5 f e [ [ {.{.L q B B B B B B :.:.e e L q s s M M M M K K d K K d > > : F {.{.L q B {.f f F [.:.:.}.}.e e s F }.}.L L M M d K A I A A ( ( I ( ( I I ( ( ( ( I ( ( ( ( ( ( ( ( 6 6 ( ( ( ( I ( ( ( ( ( I ( z I ( ( ( ( ( ( ( I I ( I I ( ( A I ( ( A A G ( d d d d d K A A d d I ( d d ( I d d ( ( d d d d d K d d d K d d M M K d 5 M M M 5 5 K d d d d d 5 5 K d M M d d 5 5 d K K K K d 5 L L 5 B B q L K K A A M M } } '.'.R R (.(.(.(.g g (.g F F : ",
": X X g (.R R (.g (.(.,.,.3 ! d K K d K K q q {.B 5 5 f e ~ ~ ( ( d d L 5 K d 5 5 M M 5 5 M M 5 5 M M 5 L L 5 5 5 K K M M A A d K A A d K K d K K A A d d I I d d I I d d A A d d A A K d I ( d d ( ( d d I I A A ( ( d d A A d d I I I I ( z ( ( ( ( ( ( ( ( ( ( z G ( ( ( ( I ( ( ( A A ( ( ( ( ( ( A A I ( I A ( ( K K d K L L q q < < <.[ F F [ [ e e M M {.{.L q > > : : L L d K M M A A M M > > : F q q f e M M 5 L B B <.<.{.{.<.[ [.[.}.}.L |.|.|.A A A A ( ( I A ( ( A I ( ( ( I ( ( ( ( ( ( ( ( G ( ( ( z ( I A ( ( I ( ( ( ( ( ( ( ( I ( ( I A ( ( I A ( I I I z ( A A ( ( I A I ( d d A A K d I I d d I A d d ( ( d d d d M M d d K d d d M M d d 5 5 M M 5 5 K K M M d d 5 L L L q L K K M M d d K d 6 6 6 6 L L f > B B L q A A d K K K 3 3 ,.,.R R g (.g g (.g =.=.: : [ ",
": X X g (.R R (.g (.(.,.,.! ! d K K d K K q q {.B 5 5 f e ~ ~ ( ( d d L 5 K K L 5 5 M L 5 M M 5 5 M M L 5 M 5 5 5 K K M M K A A d A A d K K d K K A A d d I I d d ( ( d d A A d d A A d d I I d d ( ( d d I I A A ( ( d d A A d d ( ( I I ( z I ( ( ( I I ( ( ( ( z G ( ( z z G ( z ( A A ( ( ( ( ( ( A A ( ( A I I ( K K K d L L q q < < <.<.F F [ [ e e M M {.{.L q > > : : L L K d M M A A M M f > : F q q f e M M L 5 B B <.<.{.{.<.[ [.[.}.}.L |.|.|.A A A A ( ( A A ( ( I A ( ( I ( ( ( I ( ( ( ( ( ( G ( ( ( z A A ( ( I ( ( ( ( ( ( ( ( I z z A A ( ( I A I ( ( ( ( ( A A ( ( I A I ( d d A A d d I I d d A A d d z ( d d d d M M d d K d d d M M d d L 5 M M 5 5 K K M M d d 5 5 5 L q q d K M M d d K d 6 6 6 6 L L f > {.B q L A A d K K K 3 3 '.,.R R g (.g g (.g =.=.F : < ",
": ,.,.R R g g (.(.R R '.'.! 3 d d K d d d f f {.{.L q e e M M L L > > M M 5 5 M M 5 5 L 5 5 L M M 5 5 L 5 5 L M M 5 5 K d M M d d K d d d K K A A d d ( ( d d d d d d d d d d d d d d I ( d d A A d d I I d K ( ( K d d A d d I I A A z ( A I ( ( I A ( ( ( I ( ( ( ( ( ( ( ( ( ( d d ( ( ( I I ( I ( ( I I A ( ( d d d d 5 5 L 5 5 L {.{.1.1.[ [ e e L L L L d K M 5 5 L s s |.|.K K K K d d d d f f B B q L M M M M L q f f , {.} } [ [ {.:.M M |.|.A A K K ( ( A A ( ( A A ( ( I A ( ( A A ( ( ( ( 6 6 z z G ( G I ( ( A A ( I I ( A ( I I z ( d d A A d K I ( A A I I A A ( ( I A ( ( d d A A d d I ( d d A A d d I A d d I I d d A A d K K d K K d d M M M M L 5 M M 5 5 M M q L L 5 f f L 5 5 5 d K M M d K 5 5 5 5 B {.L L B B L q d K K K L L } } '.'.R R g g (.(.g g X X < < F ",
": ,.,.R R g g (.(.R R '.'.3 3 d d d K d d > f , {.q q f e M M 5 L > > M M L 5 M 5 5 5 L 5 5 L M M L 5 5 5 L 5 M M 5 5 d K M M d d K K d K K A A A d d I ( d d d d d d d d d d d d d d I ( d d A A d K ( I d d I I K d d A d d ( ( A A z ( A I ( ( A I I ( ( ( I ( ( ( ( ( ( ( ( ( d d ( ( ( I ( ( I I ( ( I A I I d d d d 5 5 5 L 5 5 {.{.1.1.[ [ e e L L q L K K 5 5 L 5 s s |.|.K K K K K d d d f f B B q L M M M M L L f > B {.} } [ [ {.:.M M L |.A A d K I ( A A ( ( A A I ( A A ( ( I A ( ( ( ( 6 6 z ( G 6 ( I ( I A A ( ( I I ( ( I I ( ( d d A A d d I ( A A ( ( A A z ( I A ( ( d d A A d d ( ( d d A A d d I A d d ( I d d A A K K d d d K K d M M M M L 5 M M 5 5 M M q L 5 5 f e 5 5 L 5 K K M M d K 5 5 5 5 B {.L L B : L L K K K d L L } } '.'.R R g g (.(.g g X X < < F ",
": (.(.(.g g (.(.(.R R ,.,.! ! M M A I d K e f B B q q f > e e > > L 5 q q M M 5 5 M M 5 L M M 5 5 K d M 5 M M 5 5 K K 5 5 K d M M d K d d d d d d A I d d A A d d d d d K d d d d ( ( d d d A d d I ( K d ( ( d K A A K K K d d d ( ( ( I ( ( I A ( ( I A ( ( d d ( z d d ( ( d d ( ( d K ( z z G ( z I ( ( ( d K I A d K A A M M M M q q |.|.L L |.|.}.}.M M q L M M f > {.B |.|.A A K K I A M K q q F F M M |.|.M M 5 L L L L q L 5 L L M M |.|.d d K d d d K d I ( d K ( ( A A ( ( A I ( ( A A ( ( ( ( ( ( ( I I I A A ( ( ( I z ( ( ( ( ( A A A A d d A A d d ( z d A ( ( d d ( I d d I I d d d d d d d d d d ( I A A ( ( d d A A M M d d K d d d 5 5 d K 5 5 d K 5 5 d K 5 5 M M 5 5 L q q q M M 5 5 5 L > > f f , , L L L L , {.L q A A d K K K 3 3 '.'.(.(.(.(.g g R R =.=.X ; V ",
": (.(.(.g g (.(.(.R R ,.,.! ! M M A I K K e f B B q q f > e e > > L 5 q q M M 5 5 M M 5 L M M L 5 d K 5 5 M M L 5 d K 5 5 d K M M d d d K d d d d A A d d A A d d d d d K d d d d I ( d d A A d d ( ( d d I I d d A A d K d d d d I ( ( ( I I A A z ( A A ( ( K d ( ( d d I ( d d ( ( d K ( z ( ( ( I ( ( ( ( d d A A d K I A M M M M q q |.|.L L L |.}.}.M M L L M M > > {.B |.|.A A K K A A d K q q F F M M L |.M M 5 L L L L L q L 5 L M M |.|.d d K d d d K d I I d d ( ( A A I ( A I ( ( A A ( ( ( ( ( ( ( I I I A A ( ( ( ( ( ( I ( ( I I A A A d d I A d d ( ( A A ( ( d d ( ( d d I ( d d d d d d d d d d ( I A A ( ( d d A A M M d d d K K d 5 5 d K 5 5 d K 5 5 d K 5 5 M M 5 L L L L q M M 5 5 5 5 f > f f , {.L L L L , {.q q A A K K d K 3 3 '.'.(.(.(.(.g g R R =.=.X ; V ",
", X X R R g g (.(.R R V '.3 3 d K K d d d f e {.B f f L q > > f > > f 5 5 q L M M 5 5 M M 5 5 K d 5 5 K K 5 5 d K M 5 M M L |.K K M M d d M M K d K K A A d d d d d d d d d d d d d d d d M M d d K d A I d d I A d K d d K K ( ( A A ( ( A A ( ( K d ( ( d d ( ( d d ( ( d d I ( d d ( ( ( ( ( ( ( I ( ( d K ( I d K d d M M d d M M M M |.|.d K q L L |.q q K K 5 5 5 L s F d K K d K K K K d K f f B B q L M M |.|.K K q L M M M M d K |.|.d K 5 5 M M K K d d d d A I A A ( ( I ( ( I A A ( ( ( ( I I I ( ( ( A A I ( A A ( ( I A I I A A ( ( d d d d d d I A A A ( ( d d A A d d A A d K d d d d d d d d A A d d I A d d A A d K K K L 5 d d L 5 M M 5 5 M M 5 5 d d 5 5 M M 5 5 M M 5 5 K K 5 5 L 5 5 q q q f e > > L q 5 5 B {.L L K d K K M M } } '.'.(.(.g g R R g g g g ; ; '.",
", X X R R g g (.(.R R V '.4 4 d K K d d d f e {.{.e f q q f > > > > f 5 5 q L M M L 5 M 5 5 5 K d 5 5 K K 5 5 K K 5 5 M M L L d K M M d d M M d d K K A A d d d d d d d d d d d d d d d d M M d d d K I ( d d A A d d d K d d I ( A A ( ( A A ( ( d d ( ( K d ( ( d K ( ( d d ( ( d K ( ( ( I ( ( ( ( ( ( d d ( ( K K d d M M d d M M M M |.|.K K L L |.|.L q d K M 5 5 L s F d K K K d K K K K K e f B B L q M M L |.K K q L M M M M d K |.|.K K 5 5 M M K K d d d d A I A A ( ( I ( ( ( A A I I I I ( ( ( I ( ( A A I ( A A ( ( A A ( ( K A ( ( d d d d d d ( I A A ( ( d d A A d d A A d d d d d K d d d K A A d d I ( K d A A d K K K 5 5 d d 5 5 M M 5 5 M M 5 5 d d 5 5 M M L 5 M 5 5 5 K K L 5 5 5 q q q q f e > > q q 5 L B B L q d K K K M M } } '.'.(.(.(.g R R g g g g ; ; '.",
"; g g g g g g g g R R 2 2 ! ! 5 5 K d K K e f F F q q > > L q , , L q 5 5 L 5 5 5 M M 5 5 K K 5 5 M M 5 5 M M L 5 M 5 L L 5 5 5 5 K d 5 5 d K 5 5 K d d d d d K d d d d v d d d d d d w w d d 5 5 A A d d ( ( d d I ( d d A A A A ( ( d d A I A A ( ( d d ( ( ( ( I ( d d ( ( d d z ( ( ( I ( d d ( I d d I I d d A A d K A A d K d d M M K K M M d K |.L K K M M d K L L B : M M A A 5 5 A A M M q q F F L L M M M M |.|.M M q L d K M M K K M M d d M M d d M M ( ( d d A A d d I I I A ( ( I A ( ( A A ( ( I A ( ( I A ( ( I A ( ( A A ( ( I A I I d K A A d d I I d d A A d K d d M M d d M M d d K d d d d d d d A d A A d K d d 5 5 M M 5 5 M M 5 L L 5 5 5 K d 5 5 d K 5 5 M M 5 5 M M 5 5 M M 5 L L L > > L q > > L 5 q q {.B f f A A M M M M 3 3 '.'.(.g R R (.(.g g (.(.X X V ",
"; g g g g g g g g R R 2 2 ! ! 5 5 K d K K f f F F L q > > L q , , q q 5 5 5 5 L 5 M M 5 5 K d 5 5 M M 5 5 M M 5 5 M M L 5 M 5 5 5 K K 5 5 d K 5 5 K d d d d d d d d d d d d d d d d d w w d d 5 5 A I K d I I d d I ( d d A A A A ( ( d d I A A ( ( ( d d ( ( ( ( ( z d d ( ( d d ( ( ( ( I ( d d ( I d d ( ( d d A A K K A A d K K d M M d K M M K K |.L K K M M d K q L B B M M A A 5 5 A A M M q q F F L L M M M M |.|.M M q L d K M M d K M M d d M M K d M M ( ( d d A A K d ( ( A A ( ( A A ( ( A A ( ( I A I I A A / ( I I ( ( I A ( ( ( I A ( K K A A d d ( ( d d A A K K d K M M d K M M d d K d d d K d d d K d A A d K d d 5 5 M M L 5 M 5 L L L 5 5 5 K d 5 5 K K L 5 M M 5 5 M M 5 L M M L L q L > > L q > > q L L q B B e f A A M M M M 3 3 '.'.(.g R R (.(.g g (.(.X X V ",
"_ (.(.(.(.(.(.(.(.(.g '.'.4 4 d M M M K K e e B B e f L L f > q L q q 5 L 5 5 M M 5 L L 5 5 5 M M L 5 M M L 5 M M 5 5 5 5 5 L 5 5 5 5 5 L 5 5 K K L 5 d d d d K d w w d d L 5 d K 5 5 d d 5 5 d K K K A A d d I I A A ( ( d d A I d d I I d K I I d d ( ( d d ( ( ( ( ( ( d d ( ( / ( I I A A A A d K I A d d A A d K I A M K K K M M d K |.|.d K M M d K M M A A d K M M F F K K d K K K M M d K f f , {.L q d K |.|.M M |.|.M M |.L M M M M d K M M d K K K d d d d ( I d d d d d d ( ( A A ( ( ( I ( ( I A ( ( A I ( ( A A ( ( A A ( ( ( ( ( ( A A I ( d d ( I A A A A M M K d M M d d d K A d 5 5 K d 5 5 K d d K d d M M K K 5 5 M M 5 5 d K 5 5 5 5 L 5 M M 5 5 M M 5 5 5 5 L L 5 5 > > L 5 q L M M 5 L L 5 > > L q q q q q F F q q K K d K L L } } ,.,.(.(.g g g (.(.(.g g X X ; ",
"_ (.(.(.(.(.(.(.(.g g '.'.4 4 d M M M d K f e {.B f f L L f > q L q q 5 5 5 L M M 5 L 5 5 5 5 M M 5 5 M M 5 5 M M L 5 5 L 5 5 5 5 5 5 L 5 5 5 K K L 5 d d d d d K w w d d 5 5 d d 5 5 d K 5 5 d K K K A A d d I ( A A ( ( d d A I d d ( I d K I I d d ( ( d d ( ( ( ( z ( d d ( ( ( z I ( A A A A d K A A d d I A d K I A M K K K M M d K |.|.d K M M d K M M A A d K M M F F d K K K K d M M K K e f {.{.L q K K L L M M |.|.M M L L M M M M d K M M d d d K d d K d A I d d d d d d ( I A A I ( I I ( ( I A ( ( ( I z ( A A I ( A A I ( I I ( ( A A ( ( d d ( ( A A A A M M d d M M d d K d d d 5 L d d 5 5 d K d K d d M M d K L 5 M M 5 L d K 5 5 5 5 L L M M 5 L M M 5 5 5 5 L L L 5 > > 5 5 L 5 M M L L 5 5 > > q L q q q q F F q q K K K K L L } } ,.,.(.(.g g g g g (.g g ; X '.",
"X (.g (.(.R R g (.R R 2 2 ! ! 5 5 d K 5 5 f f F F q q q q 5 5 L 5 5 L M L L 5 5 L L 5 5 L 5 5 L 5 5 L M L M M 5 5 M M 5 5 M M 5 5 M M 5 L 5 5 L 5 K K 5 L K d d d d d L 5 d d 5 5 d d 5 5 d d L 5 d d d d ( ( d A ( ( A A I I d d A A d d I I d d ( ( d d ( ( d d ( ( d d G ( K d ( I ( ( ( ( d K d d d d A A d K K K M M d d 5 5 M M 5 L M M 5 L M M 5 5 d K L L M M q q F [.q L K d M M d K L L L q B B K K L L M M d K L L L L M M L L d K 5 5 K K M M d K M M A I d K d d K K I I d K ( I A I ( ( A A I ( A I ( ( A A ( I A A I I A A ( ( I A ( ( I A ( ( A I z ( d d d K 5 M d d M M d d d K d d 5 5 d K 5 5 d d M M K K L 5 M M L 5 K K 5 5 M M 5 5 K K L 5 d K q 5 M M q L 5 5 L q L L q L 5 L M L M M 5 L 5 5 > f L L f > B {.f f d K M M M M 3 3 '.'.g g R R (.(.g g g 7 ; ; '.",
"X g (.(.(.R R (.g R R V 2 } ! 5 5 K K L 5 f f F F q q q q 5 5 L 5 5 L M L 5 5 L 5 5 L M L 5 5 5 L 5 5 L L M M 5 L 5 M L 5 M 5 5 5 M M 5 5 5 5 L 5 K K 5 L K d d d d d 5 L d d 5 5 d d 5 5 d d 5 L d d d d ( ( d A ( ( A A ( ( d d A A d d A I d d ( ( d d ( ( K d ( ( d K ( ( d d ( ( ( ( ( ( K K d d K d d A d K K K M M d d 5 5 M M L L M M 5 L M M 5 5 d K q L M M q q [.[.L L d K M 5 K K L 5 f q {.B K K L L M M K K L 5 L L M M L L d K M 5 K K M M d K M M A I d K d d K K I I d d ( ( I ( ( ( A A ( ( A I ( ( A A ( ( I A I I A A A ( A I I ( A A I I ( ( ( ( d d K d M M d d M M d d d K A d 5 5 d d L 5 d d M M K K L 5 M M L 5 K K 5 5 M M 5 5 K d 5 5 d K q 5 M M 5 L L 5 5 L 5 L L q L 5 L M L M L 5 M 5 > > L q > > B B e f K K M M M M 3 3 '.'.(.g R R (.(.g g g 7 ; ; '.",
"R g (.(.g (.(.(.(.R R V '.3 3 5 5 L 5 d d f e {.B f f M M 5 L L 5 L L 5 5 L q q 5 L q 5 5 L L L 5 L L 5 L 5 5 M M 5 5 M M 5 5 K K L 5 5 5 5 5 L 5 5 5 K d 5 5 K d 5 5 d d 5 5 d K 5 5 d d w w d d d K A d d d I ( d K I I d d A I K K A A d d I I d d I I d d ( ( I ( ( ( d d ( ( d d ( ( K d A A d d A A d d d d M M d K M M v d M M d K M M d K 5 5 M M d K K K I A L L F F q L 5 5 d K L L M M f f B B q L z z K K L L 5 L M M |.L M M L 5 M M 5 5 d d 5 5 K d d d A A d d K d d d A A d K ( ( d d ( ( d d ( ( d K ( I A A I A A ( ( I d K A A A A I I A A ( ( A A ( ( K K K d M M d d L 5 d d 5 5 d K M M d d 5 5 M M 5 5 M M 5 5 M M 5 5 M M 5 5 M M 5 5 d K 5 5 M M 5 5 5 5 L L 5 5 L q L L f > 5 5 L q q 5 5 L 5 5 L q q L F F q q M M M M L q } } '.'.(.(.g g (.g g g g g X X X ",
"R g (.g (.(.(.(.(.R R '.'.4 4 5 5 L 5 d d e e {.B e f M M L L 5 5 L 5 L 5 q q L L q q 5 5 L 5 5 5 5 L L 5 5 5 M M 5 5 M M 5 5 K K 5 5 5 5 5 5 L 5 5 5 d K 5 5 K d 5 5 d d 5 5 d d 5 5 d d w w d d d d A A d d ( ( d K I I d d I A K K A A d d I I d d ( ( d d ( ( z ( ( ( d d ( ( d d ( ( d d I A d d I A d K d d M M d K M M d d M M d K M M d K 5 5 M M K K K K A A L L F F 5 L 5 5 d K L L M M e f {.B q L z z K K |.|.5 L M M |.L M M L 5 M M 5 5 d d 5 L d d d d I A d d d d d d A A d K ( z d d ( ( d d ( ( d d ( ( A A A I A A ( ( K K A A A A ( ( d A ( ( A A ( ( K K K d M M d d 5 L d d 5 5 K d M M d d L 5 M M L 5 M 5 5 5 M M 5 5 M M 5 5 M M 5 5 K K 5 5 M M 5 5 L 5 5 L L 5 q q L L f > 5 5 q q L 5 5 L L 5 q q q L F F q q M M M M L 5 } } '.'.(.(.g g g g g g g g X X X ",
"(.g g (.g R R R R R R '.'.! ! 5 5 M M 5 L > f F s f f L q 5 5 L 5 5 L M L 5 5 > > L q q q 5 5 q L 5 5 q q L 5 5 5 M M 5 L M M 5 5 L 5 5 L 5 5 5 L 5 5 5 5 d d 5 5 K d 5 5 d d L 5 K d d K d d d d d d d d I ( K d ( ( d d I I d d d d K K I A d d ( I d d ( ( d d ( ( d d A I d d I I d K A A d K K A d d I A K K d d K K d d 5 5 K d 5 5 K K 5 5 M M 5 L L L I A I ( , , : B q L 5 5 L q L L L L q q F F q q I ( K K L L M M 5 L M M L |.M M L 5 K d K K K d d d d d d d d d d d K d d d I I d d ( I d d I I d d I ( d d A I d K K A d K A I K K A A A A ( ( d A ( ( K K d d M M K d M M d K 5 5 d K 5 5 d d M M d K 5 5 K K L 5 5 5 q L M M 5 L 5 M 5 5 M M 5 L d K q 5 M M 5 L L 5 5 L 5 L 5 q 5 5 q q 5 L 5 5 M 5 q q L L > > {.B f f d K L L M M 3 3 '.,.R R g (.(.(.g g g 7 g g =.",
"(.(.g g g R R R R R R '.'.! ! 5 5 M M 5 L > f s s f f L q 5 5 5 L 5 5 L L 5 5 > f L q L q 5 5 q q 5 L q q 5 5 5 L M M 5 5 M M 5 5 5 5 L 5 5 5 L L 5 5 L 5 K d 5 5 d K 5 5 d d L 5 K d K d d d d d d d d d I ( d K A I d d I I K d d d d K A A d d ( ( d K A I d d I I d d I I d d I I d d A A d K A A d d I A d K d d d K d d 5 5 d K 5 5 d K 5 5 M M L |.L L I A I I , , : B q q 5 L q q L L q L q q F F q q I I d K L L M M 5 L M M L L M M 5 L K d K K K d d d K d d K d d d d d d K d ( ( d d ( I d d I I d d I I d d I I d K K A K K A A d K A A A A I A A ( ( I K K d d M M K d M M d d 5 5 d d L 5 d d M M d d 5 5 d K q L 5 5 L 5 M M 5 5 M M L 5 M 5 5 5 d K q 5 M M 5 L 5 5 L 5 5 L L q 5 5 q q 5 5 5 L M 5 q q L L > > {.B f f d K L L M M 3 3 '.,.R R g (.(.(.(.g 7 7 g g =.",
"g (.(.g (.R R R R R R V '.3 ! M M L 5 d K e e F F e e L q L L M M 5 L M 5 5 L q L > > L 5 q q 5 5 L 5 5 L M L 5 5 L 5 M M 5 5 5 5 q q L 5 5 q 5 5 5 L M 5 5 5 d K 5 5 K d 5 5 K d 5 5 d d d d d d d d d d d d ( I d K I I d d d d d K d d d K A I K d d A d d d d d d d d d d A A d d A A d K d d d K A A d K d d d K K d M M d d M M d K M M K K 5 5 K K L q q q : : q q F F q L 5 L L 5 5 L 5 L e e {.B B B e f s s M M M M K K M M K d M M K K M M d d 5 5 K d d d A A d d d d d K ( ( d d A A d d ( ( d d d d d d ( ( A A I A d K A A M M K K d K I A A A A A d K A A d K K d M M d d K d d d 5 5 d d 5 5 K K M M d d L 5 5 5 q q 5 L 5 5 M 5 L L M M 5 L M M 5 5 M M 5 L 5 5 5 L 5 5 q q 5 5 5 L M 5 5 5 L 5 5 q q q q q q q s F q q M M M M L q } } ,.'.R R R R R R (.g g g (.(.(.",
"g (.(.(.g R R R R R R '.'.! ! M M L 5 d K e e s F e e L q L L M M 5 L M 5 L L q L > > 5 5 q q L 5 5 q 5 5 L 5 5 L L 5 M M 5 5 L 5 q q L 5 5 q 5 5 5 L 5 M 5 5 K d 5 5 K d 5 5 K d 5 5 K d d d d d d d d d d d ( I d d ( ( d d d d K K d d d d ( ( d d A A d d d d d d d d d d A A d d A I K K d d d K A A d K K d d K K d M M K d M M d K M M K K 5 5 d K L q q q : : q q s F L L q L 5 L M L L L f e B B B B f f F s M M M M K K M M K K M M K K M M d d L 5 d d K d A A d d d d d K ( ( d d A A d d I ( d d d d d d ( I A A I A d K A A M M K K K K ( ( A A A A K K I A d K d d M M d d K K d d 5 5 d K 5 5 K K M M K d 5 5 5 5 q q 5 L 5 5 M 5 L L M M 5 L 5 M 5 5 M M 5 5 5 5 L 5 5 q q q 5 5 L 5 M M 5 5 5 5 L q q q q q q q F F q q M M M M L |.} } '.'.R R R R R R g g (.g (.(.(.",
"(.(.(.(.g g (.R R R R '.'.} } L L M M M M f f s s L q e e ~ ~ ( G M M q q 5 5 L 5 5 5 > > L 5 L L 5 L 5 5 5 5 5 L L 5 5 5 M M 5 L L 5 5 q 5 5 5 L K K L 5 d K 5 5 K d 5 5 d d M M K d M M d d 5 5 d K M M A A d d ( ( d d d d d K d d d K A A d d I A K d A A d K A A d d A A d d I A d d A A d K A A d d d d d K d d d K I A M M d d 5 5 A A M M K K K K d K L q q q q q B B L q L L L q M M > > f f F F L q > f M M L L K d M M d d M M d K 5 5 K d 5 L d d 5 5 d d K d d d K K d d d d A A d K A A d K d d d d d d M M I A d K A A d d I A K d d d K d I ( A A K d K K d K d d d d d K d d 5 5 d K 5 5 K d 5 5 K K L 5 d d 5 5 5 5 L L 5 5 L 5 L 5 q q 5 5 5 L M 5 5 L 5 5 5 L L 5 q q q q 5 L 5 5 L L 5 5 L q J J 6 6 q q f > B B e f K K q L M M 3 3 '.'.R R (.(.g g (.(.g g R R X ",
"(.(.(.(.g g (.R R R R '.'.} } L L M M M M f f s s q q f e ~ ~ ( G M M q q 5 5 5 L 5 5 > > L 5 5 L L 5 5 5 5 5 5 L 5 5 5 5 M M L 5 M 5 > q 5 5 5 L K K 5 5 K d 5 5 K K L 5 K d M M d d M M d d 5 5 d K M M A A d d I A d K d d K d d d d K A A d K A A d d I A d K A A d d I A d K I A d d A A d K A A d K d d K K K d K K A A M M d d 5 5 A A M M K K K K K d L q q q q q B B q L 5 L L q M M f > f f F F L q > f M M |.|.d d M M K d 5 M K K L 5 d d 5 5 d K 5 5 K d K K K d K K d d d d A A d K A A d d d d d d d d M M A A d K A A d d I A K d d d d K I ( A A d d d K K d d K d d d K d d 5 5 K K 5 5 K d 5 5 K K 5 5 d d 5 5 5 5 L L 5 5 L 5 L 5 q q 5 5 L 5 5 L L 5 5 5 5 L L 5 q q q q 5 L 5 5 L L L 5 5 L J J 6 6 q q f > B B e f K K L L M M 3 3 '.'.R R (.(.g g (.(.g g R R X ",
"R g g (.(.g g (.(.R R '.'.3 3 M M M M K K e e F F e e {.B 5 5 > > f f L L q q M M > > f > f > L 5 5 5 M M L 5 M M 5 5 M M 5 L 5 5 L q q 5 q q 5 L 5 5 M M 5 5 M M 5 5 M M 5 5 K K 5 5 A A d d d d M M d d K d A A d d A A d K d d d K d d d d I A d K d d K K A A d d I A d K A A d d I A K d d d K K d d d K K d M M d d L 5 M M 5 5 d K K K K K M M A A q L M M 5 L 5 5 F F q q q q M M q q 5 L q f , {.q q q 5 L q A A 5 5 K d M M d d 5 L d d 5 5 d d 5 L d d 5 5 d d 5 5 d K M M d d d d d d K d d d K K d d 5 5 K d K K d d d d I ( K K d K L M d d d K I I d K d d d K d d d K K d d d d d 5 5 M M 5 5 M M 5 5 M M |.|.M M 5 5 5 5 L q L L L q 5 5 5 L M 5 q q 5 L 5 5 M M L L 5 5 f e L 5 5 L M M 5 L L q q q 5 5 B {.q q s F L q q 5 L M L L [ [ ,.'.(.(.g g R R g g g (.g g g ",
"R g g (.(.g g g (.R R '.'.3 3 M M M M K K e e s F e e {.B 5 5 f > f f q L q q M M > > f > > > 5 L 5 5 M M 5 5 M M 5 5 M M 5 L L 5 5 q 5 5 L q q 5 5 5 M M 5 5 M M 5 5 M M 5 5 K d M 5 I A K d d d M M d d d K A A d d A A d K d d d K d d d K A A d d d K A d d A d d I A K d A A d d I A d K d d d K d d d K d d M M d d 5 5 M M 5 5 K K K K d K L M A A q L M M 5 L 5 5 F F q q q q M M q q 5 5 f f , {.L q L L q q A A 5 5 K K M M d d 5 5 K K L 5 d d 5 5 K d 5 5 K d 5 5 K d 5 M d d d d d d d K d d d K d d 5 5 K d d K d d d d ( I A K K d M M d d K K I A d K K d K K d d d K K d d d d d 5 5 M M 5 5 M M 5 5 M M L L M M 5 5 5 5 q q 5 L q q L 5 5 L 5 5 q q 5 5 5 5 M M L L 5 5 e e L 5 5 L M M L |.L q q q 5 5 {.{.L q F F q L 5 L M M 5 L [ [ '.'.(.(.g g R R (.g g (.g g g ",
"X g g (.(.(.(.g g (.(.'.,.! } L L d K L L f e s F 5 L {.{.{., , e L L M M M M L q 5 5 q q 5 5 L 5 K K 5 5 M M 5 5 M M 5 L 5 5 q q 5 L q q 5 5 L q q 5 5 5 5 L 5 5 5 5 q q M M 5 5 K d d d d d M M d d M M d d K d d d K K d d d K K d K K A A d d d K A d K K L 5 d K M M d d K d A I M M d d K d d d M M d d M M K d 5 M 5 5 L 5 M M 5 5 A A M M M M L L M M e f q q f > F F }.}.5 5 L 5 M M > > f f s s L q e f q L q q 5 5 5 L M M L 5 d d 5 L M M 5 5 5 5 L 5 5 5 L 5 K K 5 5 d K M M d d M M d d M M d d 5 5 d K 5 5 d d d d A A d K K d M M d K d d d K M M d d M M d d M M d d K d d d M M K K L 5 5 5 q L M M 5 L L M L 5 M 5 L L 5 5 5 5 M M 5 L 5 5 5 L 5 5 L L M M 5 5 M M 5 L 5 5 L 5 M M 5 5 M M q q f > , , L q > > : : {.e K K M M M M 3 3 '.'.R R g (.(.g (.(.g g g g =.",
"X (.g (.(.(.(.g g g (.,.,.} } L L K K L 5 f e s F L L , {., , e e L q K M M M L q 5 5 L q q 5 5 L K d L 5 M M 5 5 M M 5 L 5 5 q q 5 5 q q 5 5 q q L 5 5 5 5 L 5 5 5 5 q q M M 5 5 d d d d d d M M d K M M d d K d d d K d d d K d d d K K A A d K d d K K A K 5 5 K d M M d d K d A I M M d d d K d d M M d d M M d K 5 5 5 5 5 L M M 5 L A A M M M M L L M M f > f q f > F F }.}.5 5 5 L M M > > f f s s q q f f L q q q 5 L 5 5 M M L 5 d d 5 5 M M 5 L 5 5 5 5 L 5 5 5 K K 5 5 K d M M d d M M K d M M d d L 5 d d 5 5 K d d d A A d K d d M M d K d d d K M M d d M M d K M M d d K d d d M M d K 5 5 5 5 5 L M M 5 L L M L L 5 5 L q 5 5 5 5 M M 5 L 5 5 L L 5 5 L 5 L M 5 5 M M 5 L 5 5 5 5 M M 5 L M M L q f > , , L q > > : F {.e K K M M M M 3 3 '.'.R R (.(.(.(.g (.g g g g =.",
"g (.(.(.g g (.(.(.R R '.'.! ! M M K K d K f e {.B 5 L M M q q q q q q 5 5 f f q L L L q L 5 L M L L L L 5 5 q 5 5 5 L M M > q 5 5 q q 5 5 q q 5 L q f 5 5 f > 5 5 L q L L L q 5 5 L 5 d d M M d K M 5 K K M M d d K K d d M M d d 5 5 d K M M d d M M d d 5 5 M M 5 L L M L 5 K d 5 5 M 5 5 L K K 5 5 5 L > > L q > f f > > f > > e e f f e f f f , {.e e {.B e f {.{.{., s s f f f > M M q q q q f e F F B {.{., , {.f e , , e f , , , , , , > > f e > > f f L q f > 5 5 L 5 M M 5 5 d d L 5 d d 5 5 d d L 5 K d 5 5 d d M M d d 5 5 M M L 5 5 5 5 L d d M M A A d K d d M M d d d K I A M M K K L 5 5 5 q > L 5 L L 5 L q q L 5 L 5 L 5 5 q 5 5 q q 5 L q q 5 5 q q L 5 5 q 5 5 L 5 5 5 5 5 K K 5 5 K d M M K K L q L L q L q q F F q q M M M M L q [ [ ,.,.(.(.g g g g g g g (.(.(.g ",
"g (.(.(.g (.(.(.(.R R '.'.! ! M M K K d K f e B B L q M M q q q q q q 5 5 f e L L q L 5 L L L M M 5 L M 5 L q 5 5 5 L M M q q 5 L q q 5 5 q q 5 L q f 5 5 > f 5 5 L q L L L q 5 5 5 L d d M M K d 5 M K K M M d K K K K d M M d K 5 5 K d M M d d M M d d 5 5 M M L L M M 5 L K K L 5 5 5 5 5 K d 5 5 L L f > q q f > > > > f > > e e e f f e f f {.{.e e {.{.e e {.{.{.{.s s f f > > M M q q q q e e F F {.{.{., {.{.e e {., f f , , , , , , > > e e f > > f f L q > 5 5 5 5 M M 5 L d d L 5 d d 5 5 d d 5 L d d 5 5 d K M 5 d d L 5 M M 5 5 5 L 5 5 d d M M A A K K d d M M d d K K A A M M K K L 5 5 5 q > 5 L q 5 5 5 q q 5 5 5 5 L 5 5 q 5 5 q q 5 L q q 5 5 q q 5 5 5 L M 5 L L 5 L 5 5 K K L 5 d K M M d K L q q 5 L q q L F F q q M M M M q q [ [ ,.'.(.(.g g (.g g g (.(.(.g (.",
"X g (.g (.(.g g g R R ,.,.} } L L M M M M f f F F L L q q 5 L f f L q q q 5 5 5 L M 5 > > L 5 > > q L > > L 5 q q L L f > 5 5 q q 5 5 q q L L > > q q f f q q f > q L > > > > > f q q q L 5 5 q q q L f f > > f f q L > > q q f > > > {.{.> > f f > > f e f f , , e f K K K d K K d d K d K d d K d d K K d d ( ( ( I M M ( ( J J ).).I I z z z z z G I I z z I I z ( A A {.{.f f 5 5 q q q q L q f f > f G G I ( ( I 6 6 6 G I ( G G 6 6 ~ ~ 6 6 A A M M d K 5 5 d K 5 5 d K 5 5 d K 5 5 d d 5 5 ( ( f f > f , , > > {., > > f e f f e f > > {., > > f f q q f > L L q q f > > > 5 5 5 5 q q q L L 5 > > > > > f f q f f 5 L > > q L L q L L q L L L > > 5 L q q L q q q L q > > 5 5 q q q q > > L L q L L 5 q q q L q q 5 5 q q {.{.f f K K L L q L 3 3 '.'.(.g g (.(.(.g (.g g g g X ",
"X g (.(.(.(.g g g R R ,.,.} } L L M M M M f f F F L L q L L 5 f f 5 L q q L 5 L L 5 5 > > 5 5 > f q L > > 5 L L q L L > > 5 L q q L 5 L q q L f > q L f f q q f > L L > > > > f f q q q L 5 L q q q L f > > > f f q L > > q L f f > f , {.> > > f f > e f > f , , e f K K K d d K K d d d K d K K d K K K d d ( ( ( I M M ( ( J J ).).I I z z z z G G I I z ( I I z ( I A {.{.> f 5 5 q q q L q q f > f f G G I ( ( I 6 6 6 G ( ( G G 6 6 ~ ~ 6 6 A A M M d d 5 5 d d 5 5 d K 5 5 d d 5 5 d d 5 5 ( ( f f f > , , > > , , > > e f > f e f > f , , > > e f q q > > 5 L q q f > > > 5 5 5 5 q q L L 5 5 > > > > f f q q f > L L > > 5 L q q L L q L L 5 > > 5 L L q q L q q 5 L > > 5 5 q q q q > > L L q L L 5 q q L q q 5 L 5 q q {.{.f f K K L L L q 3 3 '.'.(.g g (.(.(.g g g (.(.g =.",
"g g (.(.g g (.g (.g (.'.'.3 3 L L q L M M f e F F e f q q f > L q f > > > f e e f e f > f , , > f , , e f , , , , , {.{., , , , , , , f f , , > > , , , , , , , , d K d K 5 5 d d 5 5 d K K d d K d K A A d K d d K d ~ ~ ~ ~ ~ ~ z z G 6 z z J J J J J 6 z z ~ ~ 6 6 ~ ~ 6 6 6 ~ 6 6 A A 5 5 d K K K d d K d d K 5 M d K d d d K 5 5 d d K K A A M M d K 5 L M M 5 5 d K {.{.L L q L L 5 q q K K f f > f K K M M 5 5 d d K K d d M M d d M M d d K K d d 5 5 d d 5 5 d d K d K d d d 6 6 G 6 6 G 6 6 6 G 6 6 ~ ~ 6 6 ~ ~ 6 6 ~ ~ 6 G G 6 6 6 ~ ).{ { { { 6 6 G ( d K d d d d K d M M d d L L K K d K K d 5 5 > > {., e f , , , , B B e f , {.e f , {., , , , f f , , e f B B e e , , , , , , e e , , e f f > L L > f q q > f q q B B e f M M 5 L L q [ [ 2 2 R R g g (.g (.(.g g (.g (.",
"(.g g (.g (.(.g (.g g '.'.3 3 L L q L M M e f F F e e q q f > L q > > > > f e f e e f > f , , f f , , e f , , , , , {.{., , , , , , , f f , , > > {., , , , , , , d K d K 5 5 d d 5 5 K K d d K d d d A A d d K d K K ~ ~ ~ ~ ~ ~ z z G 6 z z J J J J 6 6 z z ~ ~ 6 6 ~ ~ 6 6 J J J 6 A A 5 5 d K K K K d d K d d M M d d K d K d 5 5 d K K K A A M M K K L L M M 5 5 K K {.{.L L L 5 5 5 q q K K f f f e K K M M 5 5 d K K K d K 5 M d K 5 M d d K d d d 5 5 d d 5 5 K d K d d d d d 6 6 G 6 6 6 6 G 6 6 6 6 ~ ~ 6 6 ~ ~ 6 6 ~ ~ 6 G G 6 6 6 ).).{ { { { 6 6 z z d K d d d d d d M M d d L L K K d K d K 5 5 > > {., e e , , , , {.B e f , {.e f , {., , , , f f , , e f B B e e , , , , , , f e , , f f > f L L > f q q f > L q B B e f M M 5 L q q [ [ 2 2 R R g g (.g (.(.(.g g (.g ",
"(.(.g g g (.(.g g g (.'.'.[ [ L L M M 5 L e f F F B B {.{.B {.{.{.L L > > q q f > 5 5 5 5 5 5 5 5 d K 5 5 d d A A 6 6 G 6 6 6 J J z z d K ( ( I I 6 6 G ( 6 6 G 6 6 6 6 6 6 G ( 6 I I M M d d M M d K K K K d d K d d K K d d K d A A d d d K d d d d K K d d K d d d K K d d K d K K A A d K 5 M d d 5 L K K M M K K L L A A M M K K M M M M 5 L K K M M 5 L L L K K M M , , > > 5 5 q q M M 5 L f f , {.K K M M M M 5 L K K M M d K d d d d M M d K 5 L d K 5 M d d M M d d K d d K 5 5 d d K d K d d d I I d K ( I d K I I d d I I d d A I d d A A I A A A d d A I d K ( I d K d d d d I I z G ~ ~ 6 6 J J z G G 6 6 z 6 6 G 6 6 6 z z z G I I J J J 6 6 J z z I A M M M M M M M M > > 5 L q q 5 5 > > 5 5 > > > > : : e f B B F F B {.K K L L L L } } '.'.R R (.(.g (.(.(.g g (.g =.",
"(.g g g g (.(.g g (.(.'.'.[ [ L L M M 5 L e f F F B B B {.{.{.B {.L L > f q q f > 5 5 5 5 5 5 5 5 d K 5 5 d d A A 6 6 G 6 6 6 J J z z d K ( I I I J 6 z z 6 6 G 6 6 6 6 6 6 6 G ( d I M M d K M M d d K d d d K d d d K K K d d K A A d d d d K d d d K K d d K d d d K K K d d K d K A A d d M M d d 5 5 d K M M K K 5 L A A M M K K M M M M 5 L K K M M L L q L K K M M , , > > 5 5 q q M M 5 L f f , {.K K M M M M 5 L K K M M d K d d d d M M d K M 5 d d M M d d M M d K d d d d 5 5 d d d K d d d d I I d d A I d d ( ( d d I A d K ( I d d A A I A A A d d I I d d ( ( d K d d d d I I G G ~ ~ 6 6 J J z G G 6 6 z 6 6 G 6 6 6 z z z z I I J 6 6 6 J J z z A A M M M M M M M M f > 5 5 q q L 5 > > 5 L > > > > : : e f B B F F B {.K K L L L L } } '.'.R R (.(.(.g (.(.g g g (.=.",
"R g g g (.g g R R R R '.'.4 4 L L q L L 5 {.{.M M d K A A d K I I d d ( ( ( I I A M M K K L 5 5 5 5 5 d K d K K K 5 L d d K d d d M M d d M M K d M 5 K K M M K d L 5 A A 5 5 d K M M d K M M d K M M d d K d K d M M d d 5 5 K K L 5 M 5 5 5 d d 5 5 M M M M d K d d d d 5 L I I z ( d K 5 5 d K 5 L M M 5 L M M 5 L z z I A M M M M M M L q M M L L M M q q z z I A q q {.{.q q > > q L L L 5 5 e f , {.e f G 6 d K 5 q M M d K 5 5 d K M M d K 5 5 z z M M d d M M d d K d d d d d d d 5 5 d d ( ( d d M M d d M M K d A I ( ( I A d d K K A I d d d K d K A A d d I I d d A A 5 5 5 5 M M d d M M M M 5 5 K d M M K K d d A A d K d K d d d d M M K K d K d d K d K A d K K d 5 5 d d 5 5 d d ( ( I 6 ( ( J J ( ( I I A d A I > > f f q L M M q q [ [ ,.,.R R g (.(.(.g g (.(.g g g ",
"R g g g (.(.g R R R R '.'.4 4 L L L q L L {.{.M M d K K A d K I I d d ( ( I I A A M M K K 5 5 5 5 5 5 d K d K K K 5 5 d K K K d d M M K d M M K K 5 5 K K M M d d L 5 A A 5 5 d K M M d K M M d K M M d K d K K d M M K d 5 5 K K 5 5 M M 5 5 d K 5 5 M M M M d d K d d d 5 L I I I z d K 5 5 d K 5 5 M M 5 L L M 5 L z z I A M M M M M M L L M M L q K M q q z z I A q q {.{.q q > > 5 L q L L 5 e f , {.e f 6 6 d K 5 q M M d K 5 5 K K M M d K 5 L z z M M d K M M d d K d d d d d d d 5 5 d d ( ( d K 5 M d K M M d K A A ( ( I A d K d K A I d d d d d K A A d d I A d d A I 5 5 5 5 M M d d M M M M 5 L d K 5 M d K K d d A K K d d K d d d M M d K K K d d K d K A K K d d 5 5 d d 5 5 d d ( ( I 6 ( ( 6 6 G ( ( ( d d A A > > f f q L M M q q [ [ ,.'.(.R (.g (.(.(.g (.(.g g g ",
"(.g g g g R R g (.R R '.'.} } q q K K M M e f > f K K L L M M 5 L M M 5 L K K 5 5 M M 5 5 d d 5 5 K d d K K d d d K K d K K d M M d K d K d d 5 5 K K 5 5 d K M M d K 5 M d d M M d K M M K K I ( M M 5 L K d M M K K M M d K M M d d ~ ~ A A M M M M M M K K M M d K M M 5 5 6 6 A I q q L 5 q q q L L q M M q q q L q q A A e f M M 5 L M M 5 L L M L L q L e f e e q q f e f > L L > f M M 5 L f f {.{.f f > > f f q q M M 5 L d K M M d K L L q L I I L L q L M M 5 5 d K M M d d M M 5 5 ( ( ( I M q I I d d d K 5 M d d M M d K ( I ~ ~ M M d K 5 5 d K d d A A d d I A 5 5 z z d d K d M M K K M M d K M M d K K K K d 5 5 M M 5 5 K d K K d d K d K A M M A A 5 5 M M d K K K M M M M M M M M M M d K 5 5 d d M M M M M M L L e f M M 5 L L L 3 3 '.'.R R R R g g (.(.g g (.(.(.",
"g g g g g R R (.g R R '.'.} } q q K K M M e f > f K K 5 L M M 5 L M M 5 L d K 5 L M M 5 5 d d L 5 d d K K d K d d d K d K K d M M K K K d d d 5 5 K K 5 5 d d M M d K M M d d M M d K M M K K I ( M M 5 L K d M M K K M M K K M M d d ~ ~ A A M M M M M M d K M M d K M M 5 5 6 6 A I q q L 5 q q L L L 5 M M q q q q L q A A e e M M 5 L M M L L M M L L q L e e f e q q f e > > 5 L > > M M 5 L f f {.{.> f > > f f q q M M 5 5 K K M M d K L L L q I I L L L q M M 5 5 K d M M d d M M 5 5 ( ( ( ( q q I I d d d d M M K d M M d d ( ( ~ ~ M M d K 5 5 d d d d A I d d A A 5 5 z z d d K d M M K K M M K K M M d K K K K K L 5 M M 5 5 K d K K K d d K A A M M A A 5 5 M M d K K K M M M M M M M M M M d d 5 5 d K M M M M M M L L e e M M 5 L L L 3 3 '.'.R R R R g g (.(.g g (.g (.",
"R g g R R g g R R (.g '.'.4 4 q q L 5 L M {.{.L q q L 5 L M 5 d K 5 5 M M 5 5 d K 5 5 d K M M d K 5 5 z z z I K K L 5 K K M M d K M M d K 5 5 5 5 { { ( ( 5 5 d d K K d K 5 M K d 5 5 L L I I J 6 f f d K 5 M d K 5 5 d K M M 5 5 e f K K , , K K M M d K M 5 d K 5 5 K K f e f e B B L L q L L 5 q q L L > f M M q q {.{.B {.L L M M K K L L M M L L M M L q q L B B L q {.{.> f > > 5 5 q q q L e f B B q q {.{.f f K K 5 L M M 5 5 d K M M M M {.{.f e f e q L K K K d d K d d M M d K , , , , , , d K K d d d M M d d M M d K q q L q d K > > 5 L d K 5 M d d M M d d M M K d 6 6 A A 5 L K d M M K K M M K K M M d K A A ).).> > M M d K d d K K K d K K d K 5 M A A z z L L 5 M K d L 5 M M 5 L d K M M d K 5 5 5 5 > > M M f > f f q q M M f e } } 2 2 (.(.g (.(.(.(.g (.(.g g g ",
"R g g R R g g R R g g '.'.4 4 L q q L M M {.{.L q L L q L L 5 K K L 5 M M 5 L d K 5 5 d K M M d d 5 5 ( ( ( ( d K 5 L d d M M d d M M d d 5 5 5 5 { { ( ( 5 5 d d K K K d M M K d 5 5 5 q I I J 6 f f K d M M K d M 5 d d M M 5 5 e e K K {., K K M M d K M 5 K K L 5 K K e f > f B B L q q q L q q 5 L L e f M M q q {.{.B {.L L M M d K L L M M 5 L M M L q q L B B q q {.{.> f > > 5 5 q q q L e f B B q q {.{.f f d K 5 L M M 5 5 K K M M M M {.{.e e f e q L K K d d K d d d M M d K , , , , , , K K d K d d M M d d M M d K q q L q d d > > 5 L d d M M K d M 5 d K 5 M d d 6 6 A A 5 L d K M M d K M M K K M M d K A A ).).> > M M d K d d d K K d K K d d M M A A z z L L 5 M K d 5 5 M M 5 5 K K M M d K M 5 5 5 > > M M > > f f q L M M f f } } 2 2 (.(.(.g (.(.(.g (.(.g g (.",
"(.g g g g R R (.(.R R '.'.! ! > > |.|.|.L :.:.f f 5 L e f ~ ~ z z d K 5 L M M 5 5 K K 5 L d d L L , , J J K K L 5 M M q L K d 5 5 K d 5 5 5 5 , , K d , , K d M M d d M M M M 5 L M M e f , {.B B M M M M M M L 5 K K M M M M L q q L B B q q L q M M 5 L K K M M K d 5 5 M M q q L L q L L 5 q L M M q q L 5 L q L L q L K K M M M M L L M M L q M M 5 L M M L q L L q L , , e f q q L q q 5 > > f f F F L L L 5 5 5 L L 5 5 5 L K K M M M M 5 5 M M q q M M 5 L K K M M d K M M d K M M M M L 5 5 5 M M d d M M d d 5 5 M M M M L 5 e f , {.> > M M M M K d 5 5 K K M M K d e f , {.B {.L L M M K K M M d K M M K K L L f f 5 L , , M M d d K d d K M M d K 5 5 d K K K z z e f K K L L M M L q 5 5 q q 5 5 5 5 6 6 G 6 > > > > f > , , L L q L L 5 } } '.'.R R (.g g g g (.g 7 (.(.(.",
"(.g g g g R R (.(.R R '.'.! ! > > |.|.|.L :.:.f f 5 L e e ~ ~ z z K K L 5 M M 5 5 d K M 5 d K L L , , J J K K 5 L M M q L K d 5 5 K d 5 5 5 5 , , K d , , K d M M d d M M M M 5 L M M e f , {.B {.M M L M M M L L K K M M M M L q q L B B q q q L M M 5 L K K M M d d 5 5 M M L q q L 5 L M 5 L L M M L q 5 L L q L L 5 L K K M M M M L L M M 5 L M M L q M M 5 L q L L L , , f f q q q q L q > > > f F F L L 5 5 5 5 5 L L 5 5 L K K M M M M 5 5 M M q q M M 5 L K K M M d K M M d K M M M M 5 5 5 5 M M d K 5 M d d M 5 M M M M 5 5 e e , , f > M M M M d d 5 5 K K M M d K e f , {.B {.L L M M K K M M d K M M K K L L f f q L , , M M d K K K K d M M d K 5 5 d K K K z z e e K K 5 L M M 5 L L 5 5 e 5 5 5 5 6 6 6 G > > > > f > , , L L q L L 5 } } '.'.R R (.(.g g (.(.g 7 (.(.(.",
"R g g R R g g R R g g '.'.! ! L L |.|.M M {.{.}.}.}.f f e > > > > f > M M 5 L M M M M d K 5 5 5 5 , , e f < < K K M M A A 5 L K K M M M M 5 5 , , {.B L L 5 5 K K M M M M 5 L M M L q 5 5 e e L L M M A A 5 L M M q L M M q L M M M M M M L L M M M M d K 5 5 K K 5 L d d M M M M 5 L M M 5 5 M M q L L q L L q q L q q q q L q q 5 L L M q q q L > f L q q L q q q e f e s s > > > > 5 5 q L L q {.{.F F B {.q q f e > > > > 5 5 5 q L M d K L L q L K K M M M M L L K K M M d K M M K K M M A A M M K d M M K d 5 5 5 5 5 5 M M 5 L K K 5 q K d 5 L M M 5 5 d K 5 5 K K M M d K L L K K L L d K M M K d M M A A M M M M {.{.f > 5 5 d K 5 5 d d M M d d 5 5 d K 5 5 > e F F B {.L L K K L 5 M M M M d K 5 5 5 L e f L L , {.L L e f f f q q M M e f } } 2 2 (.(.g (.(.g g g g g (.g g ",
"R g g R R g g R R (.g '.'.! ! L L |.|.M M {.{.}.}.f f f e > > > > > f M M 5 L M M M M d K 5 5 5 5 , , e f < < K K M M A A L 5 K K M M M M 5 L , , {.B L L L 5 K K M M M M 5 L M M 5 L L 5 e f q L M M A A 5 L M M 5 L M M L q M M M M M M L L M M M M d K 5 5 K K L 5 d K 5 M M M 5 L M M L 5 M M L L q L L q q q L q q q q q L 5 L q M M q L L q f f q q L q q 5 e f e e s s > > > > 5 5 L L q L , {.F F {.{.L q e f > f > > 5 L q L M M d K L L L L K K M M M M L L K K M M d K M M K K M M A A M M K d M M K d 5 5 5 5 5 5 M M 5 L K K 5 q d K 5 q M M 5 L d K 5 5 d K M M K K L 5 K K L L K d M M K K M M A A M M M M {.{.> > 5 5 d d 5 5 K d M M d d 5 5 d d 5 5 e f F F B {.L L K K L 5 M M M M d K 5 5 5 L f f 5 L {.{.L L > f f > f L M M f e } } 2 2 (.(.g g (.g g g g g (.g g ",
"g (.g g (.g g g (.g g 2 2 ! ! > > |.|.L q {.{.:.:.q q f e :.:.f f M M 5 5 M M q L K K L 5 d A 5 5 M M q q M M 5 5 K K M M M M 5 5 K K 5 5 K K M M d K M 5 K K 5 L M M M M M M L L K K M M d K M M K K M M d K M M K K L L M M L q M M e f q q L q M M 5 L L 5 q q L 5 > > > > B B e e : : , , {.B , , {.B f f > f f f B B B {.F F B {.B B B {.{.B e f , {.e f {.{.f f e f F F e e q q > > 5 L f f e e F F q q f > L q B {.e e {.{., , B B {., B B {., f f q q f f q q f f f > f f > > f f , , e f 5 5 5 5 d K 5 L 5 5 q L M M 5 L L M L L M M 5 5 M M 5 L K K M M M M 5 L K K 5 q M M M M M M L 5 M M M M M M M M K K M M d K M M K K L 5 M M M M d K 5 L M M M M A A 5 L q q L q M M M M M M 5 L d K M M L L > f e f B B e f q L L L > f M M L L L q 3 3 '.'.R R (.g (.(.(.(.(.g g (.(.",
"g (.g g g g (.g g g g 2 2 ! ! > > |.|.q q {.{.:.:.q q f e :.:.f f M M 5 L M M L 5 K K L 5 d A 5 5 M M q q M M L 5 K K M M M M 5 5 K K 5 5 K d M M d K 5 5 K K L L M M M M M M 5 L K K M M K K M M d K M M K K L M d K L L M M q L M M e f q q q L M M L L 5 5 L q 5 5 > > > > B B e e : : , , {.B , , , {.f f > f f f B B B {.F F B B {.B B {., B e e {.{.f e {.{.f f e e F F e e L q > > q L f f f e F F L q f > L q {.{.f e :.{.{., , B , , {.B , {.> f q q f > L q f f > f f f > > f f , , e e 5 5 5 5 d K 5 5 5 5 5 L M M 5 L M M L q M M 5 5 M M 5 5 K K M M M M L q K K L 5 M M M M M M 5 5 M M M M M M M M d K M M d K M M d K L 5 M M M M K d L L M M M M A A 5 L q q q L M M M M M M 5 L d K M M 5 L f f {.e B B e e L L q L f f M M 5 L L q 3 3 '.'.R R (.g (.(.g (.g (.g (.g ",
"g g g (.g g g g g g (.'.'.4 4 > > q q L q B B }.}.L L |.|.q q L |.|.L 5 5 5 5 M M 5 L M M d K M M L L M M L L 5 5 M M M M L L 5 5 5 5 5 L M L L 5 5 L q L L q L L 5 q q L f f q q f f e f , {.e f B B e e {.{.B {.{.{.> f e f > f B B B {., {.{.B {.B e f , {.e f f f 5 L q q q L q q 5 L L q q L q q 5 L L q L L q L L 5 f f q q q q L q > f L L L q L q f f > f L q q L s s > > > > > > f e > > f e B B L q q L L q > > > > 5 L L q L 5 q q > > f e L L q L L 5 q q L 5 q q L 5 q q L q q 5 L L > > q q f > > > e f > f e e f e B {.{.B {.B e e f e q q f e > > f e e e f e e e B B B {.e f q L L q q L q q 5 M 5 L L M L 5 d K 5 5 M M q q M M M M M M L 5 d K M M K K 5 L M M 5 L K K L L M M L L L q L L M M L 5 L 5 L q M M f f > f L q M M f e } } 2 2 (.(.g g g g g (.g g (.(.g ",
"g g g (.g g g g g (.(.'.'.4 4 > > q q L L B B }.}.L L L |.|.q |.|.L q 5 5 M L M M 5 L M M K K M M L L M M L q 5 5 M M M M 5 L q 5 5 5 5 5 L L L 5 5 L q L L L q L L q q L e f L q f e > e :.{.e f B B e e :.{.{.{.B {.f f e e f f B B B {., {.{.{.B {.e f , {.e f f f q L q q L q q q q L L q L L q q L 5 q q L 5 q q q L f > q q L q q 5 f f L q L q L q f f > f L q q q s s > > > > > > > f e > e f B B q q L L q L e > > > 5 L L q L 5 q q f > > e q L L q L 5 q q 5 5 q q L q q 5 L L q L L L > f q q > > > > f e > e e f e e {.{.B {.B B e e e f q q f e > e e f e e e e f e B B B {.e e q L q q L q q 5 M M 5 L L M L 5 K K L 5 M M 5 q M M M M M M L 5 K K M M d K L L M M L q K K L L M M L L L L q L M M |.L q L L q M M e f f f q q M M f f } } 2 2 (.(.g g (.g (.(.g g g (.g ",
"g (.g g g g g (.g g (.2 2 ! } f f |.|.L q :.:.f e q L }.}.L L }.}.L L L L q L e > q q f > L M q q e f B B e e B B e e e f > f e f f > > > f e B {.{.B {.{.{.{.F F {.{.> f q L e f L q f f q q q q M M q q L 5 L q L L L q L L q q L 5 L L q L L q M M M M L 5 L 5 M 5 L L M M L 5 5 5 q q q L q q M M 5 L L q q q M M 5 L M M q q q L |.L M M 5 L q L L q q L q q q q f f F : e e q q > > L L > > f f } < L L > f q q > f q L q q L 5 5 L 5 q q L q L L q M M 5 L L M q L M M L L M M L L L L q L M M 5 L M M q L 5 5 q q M M L q M M L q q L L q L L 5 q L L L q L L q q L q f > L q e f q q f f q q f f e e B B {.{.B {.{.{.B B {., {., e f f f > f {.{.f e {.{.e e {.{.e e {.{.q q f > L q f f q L q q M M M M M M q q L 5 L q L L e f q L L q q q 3 3 ,.'.R R g (.(.g (.(.(.(.g g (.",
"g (.g g g g g (.g g g 2 2 ! } f f |.|.q q {.{.f e L L }.}.L L }.}.L L L L L q > f q q > f M M q q e f B B e e B B e e e e f > f e f > > f e e e {.{.B {.{.{.{.F F B {.f f 5 L e f q q > f q q L q M M q q L 5 L q L L q q L q q 5 L L q L L L L q M M M M 5 5 L q 5 5 L L M M 5 5 5 5 q q L 5 q q M M L L L q q q M M q L M M q q q L |.L M M 5 L L L q q L q q q q L f f F : e f q q > > L L > > f f } < L L > > q L f f q L q q L 5 L L 5 5 q q q L q q M M 5 L L M q L M M 5 L M M L L q L q q M M L L M M L q 5 L q q M M 5 L M M q q L q q 5 L L q L L L q q L q q q q L f f q q e f q q f f q q > f e f B B {.{.B {.{.{.B B , , , , f f f f > f {.{.e e {.{.e f , {.e f {.{.L q f > L q e f q L q q M M M M M M L q q L 5 L q q e f q L L q q q 3 3 ,.'.R R g (.g (.(.g (.(.g g g ",
"g g g (.g g g g g (.g '.'.3 3 L q q q |.|.[.[.B B F [.[.[.B B B {., B {.{.B {.e e :.{.e e f e e e {.{.f e {.{.e f e e e f f e > > f f q q f > L L > > L q f f q q q q M M 5 L L M q L M M 5 L M M L q M M L 5 M M L L M M L L L L q L 5 L L 5 K K M M d K L L M M q L 5 L M M A A 5 L L 5 5 e 5 L L q L L 5 q L M 5 L L q L L L L L q M M M M M M L q L L e e q L q q q L s s > > > > L L q q L L e f F F f f 5 L q 5 > > q q 5 5 L L M M q q q L q q L q q 5 L L q L 5 5 L q M M L L M M 5 5 K K L 5 K K M M M M L L 5 5 M M M M q q L 5 L q L L L L q L L q M M 5 L K K q q L q q 5 M M q q M M L L M M q L M M q q L q > f q q f e > > f f q q f f q q {., e e {.{.> f {.{., {.e e f f , {.e f F F B {.{.{.B {.F F B {.F F e f B B e e q q M M L q [ [ 2 2 (.(.(.g g g g (.g g g (.(.",
"g g g (.g g g g g (.g '.'.4 3 L q q q |.|.[.[.B B F [.[.[.B B B {., B {.{.{.B e e :.{.e e e f e e {.{.e e {.{.e e f e e f f e > > f f q q > f L L > > L q f f q q q q M M L L M M 5 L M M q L M M L 5 M M L 5 M M L L M M L L L 5 q L L L q L K K M M d K L L M M q q q L M M A A L L 5 5 L q L L q q L 5 L q M M q L L q q L L q q q M M M M M M L L 5 L e e q q L q q q s s > > > > L q q q 5 L e e F F f f 5 L q 5 > > q L 5 L L M 5 M q q q L q q q L q q 5 L L q 5 5 L 5 M M q L M M L 5 K K L 5 K K M M M M 5 L 5 5 M M M M q q L L L q L L 5 L L L q L M M 5 L K K L q q L q q 5 M q q M M L L M M 5 L M M L q L L e f L q f f f > f f q q f > L q B , e e {.{.f f {.{., {.e f e e {.{.e f F F B {.{.{.{.B F F B {.F F e e B B e f q q M M q q [ [ 2 2 (.(.(.g g g (.(.g (.(.(.(.",
"X g g g g g g g g R R 2 2 ! } f f |.|.L q e f <.<.e f B :.f e :.{.e e , , L q e f L L f f q q f f q q e f q q e e f f > f L q q q L |.q q q q q q 5 L f f q q q q M M 5 L q L L q L q q q L 5 L q M M L q K M q L 5 5 L q M M 5 L M M L q M M L 5 M M M M d K L L L 5 L L M M L 5 K K L 5 M M 5 q M M 5 L q 5 q q L 5 L q M M L L M M L q M M q q L |.q q q q z z z G f f F : e f q L q q L L L q f f s s > f G 6 K K L L L q q q M M 5 L L L q q L L q L M M 5 L M M L L M M 5 L M M L L L 5 L q K K L 5 M M 5 L d K 5 5 M M L 5 M M L L M M L 5 M M L L M M L L M M L 5 5 L L q q 5 q q M M 5 L L L L L M M q q L L q q q q f e 5 L L q 5 L L q q L q q f f e e f f f > f f f e q L f f q q f f q q > f f f e e f e f e e e {.{.F s e f M M L L q L 3 3 '.'.g g (.g g g R R X X g g X ",
"X g g g g g g g g R R 2 2 ! } f f |.|.L q e e <.<.e f B :.e f B B e e , {.q q e f L 5 f f q q > f q q e f q q e f > f e f L L q L 5 L L q q q q q 5 L f f q L q q M M 5 L L L q q 5 L q q 5 5 L L M M L 5 M M 5 L 5 5 q q M M L L M M L L M M 5 L M M M M d K L L 5 5 L L M M 5 5 d K M 5 M M 5 L M M L q L 5 q q L 5 q L M M q L M M q L M M q q q L q q q q z z z G f f F F e f q L q L L L L q f f s s > f G G K K L L L L q L M M 5 L L q q L L L L q M M 5 L M M L 5 M M q L M M L 5 5 5 q L K K L 5 L M M 5 K K L 5 M M L 5 M M L L M M 5 L M M 5 L M M L L M M L 5 5 L L q L L q q M M L q 5 L L L M M L q L L q L q q f e q 5 L q 5 L q q L L q q f f f e e f f f f e e f q q f > L q f f 5 q e f }.f f e e e f e e e {.{.s s e f M M L L L q 3 3 '.'.g g (.g g g R R X X g g X ",
"g g (.(.g X X g g ; ; '.'.4 4 L q q L |.|.:.:.[.[.e f e }.e f > f e e f > e f q L q q q q f > L q e f q q f > f f f e q q L q 5 L L q q L L q q L q L L L q q L q q 5 L L q L L L q q q L L q 5 5 L L M M 5 L L M q q L 5 L q L L L q M M 5 L 5 L L L K K M M d K M 5 M M 5 L L M L L M M 5 L q 5 q q 5 5 q q q L 5 L q L q q 5 L L q M M L L M M q L L L B {.K K L L , {.s s > > q q L 5 q L L L e f F F e f K K q q L 5 q q L L 5 L M M q q L L q L L L 5 L M M q q q L L 5 L M L q M M L L L 5 L 5 M M L 5 d K 5 5 K K L L M M L q 5 L q q q L L L M M L q 5 L L 5 L M q q M M 5 L M M q q 5 L q q M M L L 5 L q q q L L q L L L q q 5 q q L L q q L q > f f f e e q q f e 5 q f f L q f f q q L q q q e f q q e e f > f e f f F s e f q L |.|.f f 1.1.2 2 R R g g R R g g g g X X X ",
"g (.(.g (.X X g g ; ; '.'.4 4 L q L L |.|.:.:.[.[.e f e }.e f > f e e f > > e q L q q q L f f q q f f q q f e f f e e q q q L 5 L L q L L q q q L q q 5 L L q q L |.q q L q q 5 L q q q L L q 5 5 L L M M q L M M q q 5 5 q L L L L q M M 5 L q L L L K K M M K K L 5 M M 5 q M M 5 L L M L L M 5 q q L 5 q q L L q L L 5 q q |.|.q L M M L L M M L q L L B {.K K L L :.{.F s > > q q q L q q L L e e F F e e K K L q L L L q L q L L M M q q L L q L L L L 5 M M q q q L L 5 L M M L M M 5 L 5 5 5 5 M M 5 5 K K 5 5 d K L L M M L q 5 L q q L L L L M M q L q L L L M M L q M M L L M M L q q L L q M M L L 5 L q q q L q q L L q L L L q q 5 L q q L q > f f f f e q q f e q q > f L q f f q q q L q q f f q q f e f > f e f f s s > f L L |.|.f f 1.1.2 2 R R g g R R g g g g X X X ",
"X g g g (.(.g X X R R 2 2 ! } f > M M L L :.:.s s }.}.:.:.f f f f q q f f q L > > q L f f L q f f L q f > q q e f q L > f q L q q q L L q q L L q L q L q q L L q q L 5 L q L L q L L q q 5 L q q q L L L M M 5 L M M 5 L |.M 5 L M M L L M M 5 L M M L L M M M M M M L L M M L q L L q q M M q q 5 L q q M M q q L L q L L L L q M M L q L L 5 L q L q q q L {.{.f e e f F F e e q L L q L L L q e e F s e f {.{.f e L L q L L q M M L L q |.L q L L q q L 5 q q M M 5 L M M L q M M 5 L M M L L L 5 5 L M M L 5 M M L 5 L M q L 5 L 5 L M M 5 L M M L L M M q q L L 5 L M M 5 L 5 L q q L L q L L 5 q L M M L L M M q q L q q q 5 L q q q L L q q 5 f f }.}.f e f > f e q q f e > f f e q q f f 5 L e f q q f > L q > f q q }.f F F e e |.|.L q q q 3 3 2 2 X X g g g (.(.g =.=.X X =.",
"X g g g (.(.g X X R R 2 2 ! ! > > M M 5 L :.:.s s }.}.:.:.f e f f q q f f q L > > q q f f q L f > q q f f q q e f q L > f q L q q q L q q L L L q q L L q L q q L |.q L L q L L q q L q q q L q q q L q L M M 5 L M M L q M M L L M M L 5 M M L L M M |.L M M M M M M L L M M L q L L q q M M q q 5 L q q M M 5 q q L q q L q f q M M L q L L q L q L q q q L {.{.e e f e F F f e q L L q L L L q e f s s e e :.{.e e L L q L L q M M L L L L L q L L L q L 5 q q M M L L M M L q M M L L M M 5 L L 5 5 L M M 5 L M M 5 5 M M L q 5 L L L M M q L M M 5 L M M q L L L L 5 M M L L q L L q q L q q L 5 q L M M 5 L L M q q L L q q L L q q L L L q L L }.}.}.}.f e f f > f L q e f > f e f L q f > L q f f q q f f q q f f q q }.f F F f e |.|.L q q q 3 3 2 2 X X g g g (.(.g =.=.X X =.",
"g =.=.g g =.=.g g X X 2 2 4 4 > > 5 L M M {.{.[.[.e e f e q q M M q q q L 5 q L L }.f q q f e > f e f q L f e q q e f L q f f 5 L q q L q q q L L L q 5 L q L q q q q L M L L M M q q q L q L q L L q M M L L M M |.L M M L L M M L q M M q L M M 5 L M M |.L M M |.L M M q L L L L q q L 5 L L q q L L L L 5 M M L L M M 5 L q L L L M M q L M M L q q L f f q q f f > f s s > f L q L 5 q q L L B {.B B e e L L L q L L q q L 5 L L M M q L 5 L q L L L q q 5 5 L q q L 5 L M M 5 L 5 L L 5 L L q L 5 5 5 L L 5 5 5 M M 5 q M M L L M M L L M M L L M M 5 L L L q L L 5 5 L L L L q L q L q M M q L M M 5 L M M L L 5 q q q L q q q q L q L q L L q q |.f f }.}.}.f f q f e f f f e q q f f q L q q L L f f q q q q M M e f f f F s f f q q |.|.f }.1.1._._.g g X X g g X X g (.=.=.X ",
"(.=.=.g g =.=.g g X X 2 2 4 4 > > q L M M {.{.[.[.e e f e q q M M q q L q q q q L f f q q f e f f e e q L e f L q f f L q f f 5 L q q q L q q L q q q L L L q q L q q L M L L M M q q L L q L q L 5 L M M |.L M M q L M M 5 L M M L L M M q L M M L L M M L L M M L L M M q L L L q q L L q L L q q q L L 5 L L M 5 L L M L L M L L q M M L L M M q q q L f f q q f f f e F s e f q q q L q L L L {.{.B {.e e L L q L L q q L 5 L L L M M q L L L L q L L q q 5 5 q q q L 5 L M M 5 L q L L L 5 5 5 L L 5 q 5 L 5 5 5 M M 5 q M M L 5 M M L L M M L q M M 5 L L L q L L 5 L L 5 L L q 5 L q q M M q L M M 5 L M M 5 L 5 L q q L q q q |.L L q L L L q L L > f }.}.f f q q f e f f e f q q f f q q q q q L f f q q L q M M f f > f s s e f q q |.|.f }.1.1._._.g g X X g g X X g (.=.=.X ",
"X g g (.(.g (.X X R R 2 2 ! } f f |.|.|.L e f s s e f {.{.~ ~ A A q q f > L q > > q L f f f f e e f f e f q q f f q q e f q q q q 5 q q q 5 L q q q L L q q L L q L L L L L M L L q L q q L L q q q L 5 q L q q q M M 5 L M M L q M M q q 5 q L q M M L 5 M M L q M M q L 5 L q L L q f f L L q q q L q q L L q L L L q L L L q L 5 L q q q L L q q L 5 q q q q L q q q e F F f e L L q q 5 q }.f f e F s q q f > L q f f L L q L L q q L 5 L L q q L q q q L q L L L q q 5 L q q M M 5 L L 5 L L 5 5 L q L 5 5 q L 5 L L M M L L M M q L L L q q M M L L M M 5 L L 5 L q M M q q L L q q L 5 L q L L q q q L q q L L q q L L L q q L L q L L q L L q q L }.}.f e f }.}.f L q f f L q }.}.q q f e L L q q q q q q z z I I e f e e s F f e |.|.L q q q 3 3 2 2 ; X g g X X g g =.=.X X =.",
"X g g (.(.(.g X X R R 2 2 ! ! > f |.|.|.L e e F s e f B :.~ ~ A A q q f > L q > > q q f > f f e f > f f f L q f f q q e f q L q q L L q q q q q q L q q L L L L q L L L L L M L L L q q q q L L q q L 5 q L q q q M M 5 L M M L q M M q L L L L q M M L L M M 5 L M M L q 5 L q L L L > f L L L q q L q q L L q L L L L q q L q q L L L q q L L q L L L q q q L q L L e e F F e e |.L q q L L f f > f s s q q f > L q f f L L L q L L q q L 5 L q 5 L q q q L q q L L q q q L 5 q M M 5 L L 5 L L L 5 L 5 5 q L 5 L 5 q L M M L L M M L q L L L q M M L q M M L 5 L 5 L q M M q q L 5 L q L L q L q L L q L q L q q 5 q q q L q q L L q q L L L q L L q q }.}.f e f }.f f L q f f q q f f q q > f 5 L q q q q q q z z I I e e f e s F f e |.|.q q q q 3 3 2 2 X X g g X X (.g =.=.X X =.",
"g (.(.g g X X g g X X 2 V 3 3 L q q L |.|.{.{.F F B {.{.{.f f e f f > L L > > L 5 f f q L e f L q > f q L f e q q e f L q f f L L q q q 5 L q L L L q L 5 q q L L q L M M L L M M q q L q L q L L L q q 5 q q L L q L L L q q M M L L L L q q M M L L M M 5 L M M L L M M L L L L L q L L q L L q L q q L q L q L q q q L q q q L q q q 5 q q q L q q q 5 f e f > f e f f s s e f q q L L q L e q f e F F e f q q f f q q > f q L q q L q q 5 L L q L L L L q L L q L L L q q q L L q L q L L 5 5 q L 5 L q L L 5 5 q 5 5 q L L q q q q L q q 5 L L q q 5 q q M M L L M M q L M M L q 5 L q q 5 L q q L 5 q q L L q q q L q q L L L q q L q q q L q q q L f > }.}.f e f }.f f q q f f q q f > L q L q q L f f q q > f e f B B e f F s f f q L |.|.}.}.} } 2 2 g g (.(.g g (.g g g X X X ",
"(.g (.g g X X g g X X V V 3 3 L q q L |.|.{.{.F F {.{.B {.f f f > f f q L > > L q f f q q f f L q f f q L f f q q f f q q f f q L q q 5 q q q L L q q L 5 q L L L L q M M L q M M L q q L L q L L q q 5 q q L L L L L L q q q M M L q L L q q M M L |.M M L L M M L q M M q L L q L q L L q q L L q L L L L q L L q q L q L q L L q q L |.q q L L q q q L e f > f e f f f F s f f q q L q q q q L e f F F e f q q f f q q f f L q q q L q q 5 L L q L L L q q L L q q L L L q q L q q q L q L L 5 5 q 5 5 L |.5 5 5 L 5 5 q L L L q q q L q q L |.q q 5 q q q M M 5 L L M L L M M q q L L q q L L q q L 5 q q L L L q q L q q L L q q q L q q q L q q L q > f f f f f }.}.f f q q f f L q f f q q q L L L f f q q f e f f B B e f s s > f L q |.|.f }.} } 2 2 g g g (.g g (.g g g X X X ",
"X g g (.(.g (.X X R R 2 2 } } f f |.|.}.}.:.:.<.<.e e :.{.e e e e q q L q q L > f q q f f q q f f q q }.f L q f f L q f f L q L q |.L q q q 5 L q L L q q q L L q q 5 L q q L q q L L L q q L L q q L L q q 5 q q q L q L L L q L q 5 q q q L q L M M 5 L M M L q M M 5 L L q L L M M q L q L q q q L L q L L q L q q f f 5 L q q L L q q L |.q q q L q q L q f f q L e f F F e e L L q L L 5 f f f f F s e f f f q q f f q q e f q L L q q q q q L q q 5 L L q L L L q q L q L q L L q q q L q q 5 5 q L 5 5 q L L 5 L L M M q q L 5 q q L L L q L L q q q 5 q q q L q L M M q q L q q q q L q q q 5 q q L L q q L L q L L L q L 5 L L q q L q q |.|.}.}.f f q f f }.f f q q f f q L > f q q > f q L L q q L f f e e F F e e e f s s e f q L L q L L 1.1.'.'.X X g g g (.g g X X g g =.",
"X g g (.(.g (.X X R R 2 2 } } f f |.|.}.}.:.:.<.<.e e :.{.e e e e q q L q q L > > q q f f L q f f q q }.f q q f f q q f f q L L q L L q q q 5 L q L L q q q L q q 5 q q q L 5 q q L L q q 5 q q q 5 L q q 5 q q q L q L L L L q L L L q q 5 L L L M M L q M M L L M M L q 5 L q q M M q L q L q q q L L q |.L q L L L f f 5 L q q |.L q q L L q q q L L q q q f f L L e f F F e e L L L q L L > f f e F s f f > f L q e f q q e f q q q q L q q q q L q q L 5 L q L L q L q L L q q L L q 5 L q q 5 5 L q L 5 5 q 5 5 L L M M q q 5 L q q q L L q L q q q L L q q 5 L L L M M q q q L q q L q q q L L q q L L L q L L L q L L L q L q L q L |.q q |.|.}.}.f f q f }.}.f f q q f f q q f f q L > f L L q q L q f f e f F F e e e f s s e e |.|.|.L q 5 1.1.'.'.X X g g (.g g (.=.X g g =.",
"(.(.(.g g X X g g X X 2 V 3 3 L q q q L |.{.{.s s {.{., {.{., q q L q 5 L > f q L e f q L }.f L q f f L q f f q q f f q q f f L L q q L L q q q q L e q L q L L L q q 5 L q q q L q q L q q q q 5 q q q L q L L L L q L L q q L 5 L q L q L L L L q L |.L q q M M L q M M q L M M L L M M q L q q q L L L q L q q q q L q q q q L q q L q q L q L q q L L f f L L q L e q s s > f L q |.L L q q q {.{.F F e f q q L q q 5 f f q q f f q q e f L q q L L L q L L q q L 5 L L q L |.q q q L q q 5 L q L 5 5 5 q L 5 5 q 5 5 q q L L q L 5 L q q L q L q M M q q q L q q q 5 q q q L q L L L q q 5 q q q L L q q q 5 q q L q q q q L q q L L q L q q f > L q e f }.}.f e f }.f f q q f > L q q L L L q q L q f f q q > f f e f e f e [ [ f f q q |.|.}.}.} } _._.g g X X g g X X (.(.=.=.X ",
"g (.(.g g X X g g X X V V 3 3 L q q q |.|.{.{.s s {.{., {.{.{.L q q q 5 L q f q L e f q L f f q q }.f q q f f q q f f q q f f L L q q q L q q q q L e q L q q q 5 q q q L q L q L L q L L q q L L q q 5 L q q L q q q L q q q q L q q 5 L q q L q L q L L q q M M L q M M q L M M L L M M q L q q q L q L q q 5 L L q q q q L 5 L q L L L q q L q L q L |.f f q L q q q q s s e f q q L L L q q q {.{.F F f f q q q q L L f f q q f f q q e f q q q q L q q 5 L L q L L L q L L q q q q L L q L q q q 5 5 q L 5 5 5 q L 5 L q q L L q q L q L L L L q M M q q L 5 q q 5 L q q L q q q L q L q 5 q q q L L q q L L L q q L q q L L q q q L L q q L f > q q f }.}.f e f }.f f q q q f > L q 5 q 5 L q q L q f f q q f f f e e e f e [ [ f f q q |.|.}.}.} } _._.g g X X g g X X (.(.=.=.X ",
"X g g (.(.g g (.(.R R 2 2 } } f f L L q L e e <.<.e f f }.q q > f q q }.}.q q f > L q e f q q f > L q e f q q f f q q f f q q L q q 5 L q q L f f q q > f L L q L L 5 q q L L q q L L q q 5 L q q L q q q L q q q L L q q M M q q L q L L L L q L L q L q L q L q L L q L L L L L M M L q L L q L L L L q q L f f L q f > q q f f q L q q q L L q L L q q L 5 L q L L > f F F e e |.L q q L q > f f e F s q q f > L q q q L q > f q L L q L L q q L 5 L q q q L q q 5 L q q L q q 5 L L q L L L q L L q q L L q L 5 5 q L q L q L L L L q q L |.q L L q q 5 L q q M M q L L L L q q L L q q L q q q q f f q 5 q q 5 q q q q L e f L q q q L L }.f q q }.}.|.L f }.L q f f q q }.}.q q f f 5 L q q L |.> }.q q f > L q B e f e e e F F B {.|.|.L q e }.3 3 '.'.X X (.g (.(.R R X X g g =.",
"X g g (.(.g g (.(.R R 2 2 [ } f f q L q q e f <.<.e f f }.q L > f q q e f q q f > L q f f L q f > L q e f q q f f q q > f q q L q L q q q 5 q f f q q f f q 5 q q L L q q L L q q 5 L q q L q q q L q q q L L q q q 5 q q M M q L L L L q L L q q L L q L q q q q L |.q q L L L L M M q L L L q L L L L q L q f f q q > f q q }.f q L q q q L q q L q q 5 L L q L L L f f F : e f L L q L L 5 f f f e F s q q f > L q e q q L f > }.L L q L L q q L 5 L q q q q L q q q q L q q q q L q q L q L q L L q L L L q L 5 5 5 q L q q L q L q q q L L q |.L q q L L q q M M q q q L L q L q 5 q L |.q L q q f f L L q q 5 q q q 5 L f f q q q q q L }.f q q }.}.q L }.f L q f f L q }.}.q q f f q L q q q L > f L q f f q q e f e e e e F F B {.|.|.q q }.}.3 3 '.'.X X (.g (.(.R R X X g g =.",
"g =.=.g g g (.g g X X ; '.3 3 q q f }.|.|.:.:.F F e e e f f e e f f f q q f > L q f f L q f f q q f f q q f f q q f f L q }.}.L L q q 5 q q q q q f f q L L q q 5 L q L L L q L L q q L 5 q L q L f f L L q q L 5 q L L L L L M M L q q L 5 q L L L q q L L q q L L L L L L q q L q L L L L q q L q q 5 L f f q q f e q q f > L q f f q L q q q L q q 5 L L q M M d K e f s s e f q L q q f f 5 L {.B F F e f K K M M f > f q q L q q 5 L L q L L L q q L e f L q > f L q q L |.q L q q L q q 5 L q q L L q L q L q q L 5 q q L q L q q L q q 5 L L q L L q q q L q q L L q q q L q q L L q L q q }.f q q q q L q L q L L > f q L f f q L q q L L }.}.q q }.f q q f f }.}.f f q q f f q q > f q q f f q q f f q L > f f f , {.e e F s e e q L q q f f 1.1.2 2 g g (.g g g g g g g X X X ",
"g =.=.g g g g (.g X X '.'.3 3 q q f }.|.|.:.:.F F e e e f e f > f e f L q > > q q f f q q > f q q f f L q f f q q f f L q f f L L q q L L L q q q f f q q q q L L q q L 5 q L L L q q L L q q q q f f L L q L q L L q q L q L M M L q q L L q L L q q L 5 q q L 5 L L L L q q q L 5 L L L L q q L L q q L f f q q f f q q e f q q f f q L q q L L q L L 5 q q L M d K e f s s e f q q L q > f L L B B F F e e K K M M e f q L q q q q q L q q 5 L L q L L f f L q f f L L q L L q q L 5 L q q q L q q L L q q L L L q L 5 q q 5 L q q L L q L L q q L 5 L q q q L q q q L q L L L q q L L L q L q f f L q q q L q L q L L f > L q f f L L q L L L }.}.q q f f q q }.f }.}.f f q q f f q q f > L q f f L q f f q q > f e f {.{.f e s s e e q q L q > f 1.1.2 2 g g g (.g (.g g g g X X X ",
"X g g (.(.g g X X g g 2 2 ! } f f L L q L e e <.<.e f e f > f e f f f f f q q f f q L > f q q f > L q }.f q L f f q q f f L q f f L q f > L q e f L q f f L q q L |.q L q L L q L L q q L q q f > L q q q L L L q q L q q L L q L L L q q q L q q L L L L M M L q L q q L q L q L L L q q L q L q L L f f q L e f q L e f q L f f q q f f L q f f q q f f f f A A z z F F F s e e q L q q q L q q f e s s e e z z d K e e L L > f q q > f q q f > L q q q q L f > q q > f q q L q q L |.q L q L q q L q q q L q q 5 5 L q L L f e q L f f q q f f q q f f q q q q q L q q q L q q q L L q q q f f q q f f q q f f q q > f q q > f L q f f q q f }.q q f }.q q f }.L q f f L q }.}.q q f f q q f > L q f f L q f f q q f > f f e e F F {.{.L L }.}.L q 3 3 '.'.X X g (.X X g (.=.X g g X ",
"X g g (.(.g g X X g g 2 2 } } f f L L L e e e <.<.e f e e f > f e f f f f q q f > L q f f L q f f q q f f q q f f q q f f q q f f L q f > L q e f L q e f L q L q L L q q L q q 5 L L q L q q f > L q q q L L q L L L q q q L q q L L L q q L q q L L L L M M q L L q q L q L q L L L q q L L q q q L f f q q f f q q f f q q f f q q f f L q f f q q f f f f A A ( z F F F s e e q L L q q L |.q e f s s e e z z d K e f q q f f q q f > L q e f q L L q q q f f q q f f q q L q L q L q L L q L L q q L L q q q 5 5 L q L L f e q L f f q q f f q L f f q q L q L q L q L L q L L 5 L q q q f f q q f f q q f f q q f f q q > f L q f f q q f f q q f }.q q f }.q q f f L q }.}.q q f f q q f > L q e f q q f f q q f > f f e e F F B {.|.|.}.}.L q 3 3 '.'.X X g (.X X g g X X g g =.",
"g =.=.g g X X g g X X V V 3 3 L q }.}.L L {.{.<.<.{.{.f f e e f f e e q q f f q q f f q L > f q q f e f f e e f e e e q q f f q q f f q q f f q q f f L q f f q q f f L q e f q q e f q L f > q q f f L q f > 5 L L q q L q q 5 L L q L L L q q L q q L 5 L q M M L L L q L L q q L q q L L q L L q q q q f f q q f f q L e f q q f f q q f f L q f f q L {.{.{.B {.{.{.{.[ [ f f f > L L }.f q q , {.F F F F {.{.F F q q f > L q f e }.}.e e q q f > L q f f L q f f q q f f q L f f q L f f q L L q q L q q 5 L L q L 5 L q q q f f q q f f q L f f q q e f q q L q q L f e q q f f q q f e q q f f q q f f q q f f q q f f q L f f q q f f q q }.}.q q f f }.f }.f f }.f f q q > f q L f f q q f > L q f f L q f f f f , {.e f <.<.e e q q |.L }.f } } _._.g g (.g g g g g g g X X X ",
"g =.=.g g X X g g X X V V 3 3 q q }.}.L L {.{.<.<.{.{.f f e e e f f e q q f f q q f f q q f f q q f e e f e e f e e e L q f e q q f f q q f f q q f f q L f f q q f f L q f f q q e f L L f > q q f f q q f f L L q q L L q q q L q q L q q q L q q q q L L L M M L L q L L q L L L q L L q q L q q q q L e f q q f > q L e f q q f f q q f f L q f f q L {.{.{.{.{.{.{.{.[ [ f f e f q L f f q q {.{.F F F F {.{.F F q q f f q q f e }.}.e e q q f f q L f f q q }.f q q f f q q f f q L > f L L q L L q q q L q q q 5 5 q q q q e f q q f f q q f f q q f f q L q q q q f f q L f f q q f e q q f f q q f f q q f f q q f f q L f f q q f f q q }.}.q q f f }.}.}.f f }.}.f q q f f q q f f q q f f q q f f q q f f e f {.{.f f <.<.e e L q |.L f f } } _._.g g g (.g g (.g g g X X X ",
"X g g (.(.(.g X X g g 2 2 } } f f q q f }.:.:.[ [ e e f e e f f e e e {.{.q q f f L q f f q q f f f f e e f f e e f f f f q L f f q q f f q q f f q q f f q q f f L q f e q q e f q q q q q q f f q L f f q q f f q q f f L L q L L q q q q L q q q 5 q q L L q q L L q L L q q q L L q L L q q q L L f > q q f > q q f f q q f e q L f f L q f f q L f f q q f f e f {.{.s s e e q q L q q q f f e e s s {.{.{.{.f f e f q q f f f e e f e f f e q q f f f f e f L q }.f q q f f q q e f q q f > L q q q q L q q q 5 q q L L > f q L f f q q f > q q f f q q f f q L f f q q e f L q f f q L e f q q f f q q f f q q f f q q f f q q f f q q f f q q }.}.L q f f q q f e f f e f q q f f q q f f q q f f q q {.{.f e e f e e e e F F {.{.L L }.}.q q 3 3 '.'.X X g g g (.R R X X g g =.",
"X g g (.(.g g X X g g 2 2 } } f f q L }.}.:.:.[ [ e e e f e e e e e f {.{.q q }.f L q f f q q f f f f e e f f e e f e f e q L f f q q f f q q f f q q f f q q f f L q f f q L f > L q q q q L e f q q f f q q f f q q f f L L q L L q q q L L q q L q q q L |.q q q L L q L L q q q L L q L L q L L q e f q q f f q q f f q q f f q q > f L q f f q L f f L q f f e f {.{.s s e e q q q L q q f f e e s s {.{.{.{.f f f e q q }.f e f e e f f e f q q f f > f f e q L f f q q f }.q q f f q q f f q L q L L L q L L q q q L L > f q L f f q q e f q q f f q q f f q q f f q q f f q L f f q q f > q q f f q q f f q q f f q q f f q q f f q q f f q q }.}.q q f > L q e e f e f f q q f f q L }.}.L q f f q L {.{.f e e e f e e e F F {.{.L L }.}.L q 3 3 '.'.X X g g (.g R R X X g g =.",
"g (.(.g g g g g g ; ; ; '.3 3 q q f f q q [.[.<.<.e e e f f f q q {.{.f f f f q q f f e q f e e f e e f f f e e f f e f f f f q q > f q q f f q q f f q q f f q q f f q q f f q q f f q q e f q q f e q q f f q L f f q q f f q q f f q q f f q q f f q L q q L L f f q q > f L q e f L q f f q q f f q q f f q q f f q q e f q L e f L q f f q q f f q q L q q L e e f e s s e f f e q q f f q q {.{.s F {.{.e f f e f f f f q q f e f f e e f f f f q L e e f e e f f f f f q q f f L q f e q L e f q L f f L L q L L q q q q L > f q q f > q q e f q q f f q q f f q q f f q q f f q q f f q q }.f q q f f q q f f q q f f q q f f q q f f q q f }.q q e f q q f f f f e e q q f f L q > f f q f f q q f e f f e f q L f e e f <.<.e e q q L q e e } } 2 2 g g g (.g g g g g g X X X ",
"g (.(.g g g g g g ; ; ; '.3 3 q q }.f q q [.[.<.<.e e f f e f q L {.{.f f f f q q f f e q f e e f e e f f f e e f e e f f f f L q > f q q f f q q f f q q f e q q f > q L f f q q f f q q e f q q f e q q f f q L f f q q f f q q f f q q f f q q f f L L q L L q e f q q > f L q e f q q > f q L e f q q f f q q f f q q f f q L > f q q f f q q f f q q L q q L e e e f s s e f f f q q f }.q q {.{.F F {.{.e f f e f f f f q q e e f f e e e f f f q q f e e f e e f f f f q q f f q q f > q L e f q q > f L L q L L q q q q q f e q q > f L q > f q q f f q q f f q L f f q q e f q q > f q q f f q q f f q q f f q q f f q q f f q q f f q q }.}.q q e f q L f f f f f e q q f e q L > f f q f f q q e e f f f e q L f e e e <.<.e e q q q L e e } } 2 2 g g g g g (.g g g g X X X ",
"X g g (.g R R g g R R V V } } f f q q f f :.:.[ <.f f {.{.J J A A f f {.{.L q f f > q }.f f e e e f e e f f f e e e f e e q q f f q q }.f q q > f q q f f q q f f L q f f q L f > q L e e }.q f f q q e f q q f f q q e f q q f f q L f f q q f f q q f > L L q q L q f > q q e f q q f f q L e f q q f f q q f f q q f f q q f f q q }.f q q f f q q f f q q f e f f {.{.F s e e f f e f f f f f {.{.F s e e e e f f f e q q f f q q f f q L e f q L e f f f e e f f e f q L f f q L f f q q f f q q f > q L e f q q L q L q e f L q > f q q f f q q f f q q e f q q f f q q f f q q f f q q f f q q f f q q f f q q f f q q f f L q f f q q }.f q q f f f f e e f f e f f f e f q q }.f f f e e f f > f L q e e z z I I e e {.{.s F {.{.L q }.f f f 3 3 '.'.X X R R g g R R (.(.g g =.",
"X g g (.g R R g g R R V V } } f f q q f }.:.:.[ <.f f {.{.J J A A f f {.{.L q f f q q }.f f f e e e f e e f f f e e f f e q L f > q L e e }.q > f L q f f q q f f L q f f q q > f L q e f q q f f q q e f q q f f q q f e q q f f q L f f q q e f q q f f L L q q q q > f L q e f q q f f L q f > q q f e q q f f q q > f q L f f q q }.f q q f f q q f f q q e e f f {.{.F s e e f f f > f f f f {.{.s F e e e e f f e e q q f f q q f }.q q f f q q f }.f f e e f f e f q q f f q L > f f q f f q L e f q q > f q q q q q q f e q q > f q q f f q q f f q q f f L q f f q q f f q q f f q q f f L q f f q q f f q q f f q q f f q q f f L q f f q L f f f f e e f f e f f f f e q q f f f e e f f e > f q L e e z z I I e e {.{.F F {.{.q q f e f f 3 3 '.'.X X R R g g R R (.(.g g =.",
"g (.(.g g g g (.g X X '.'.3 3 f f e f q q B B F F {.{.:.:.f f e f {.{.f f e f q q f e f f f e > f e e f f e e f > f e e f e e f f f f q q f f q q f f f f f f L q f f q q > f L q e f q q f f q q f f q q f f q q > f q q f f q L e e q q f f q L f f q q f > q q f f q q f f q q }.f q q > f q q > f q q f f q q f f q q f f q q f f q q f f L q f f q L f f e f f e e f [ [ f f e e q q e e f f {.B F F f e e f e e e f f f q L e f q q f f q q f f q q f e f f e e f e e f f f e f q L f f q q f f q q f > L q f f q L f e q q f f q q e f q q f f q q f e L L f f q q f f q q f f q L f f q q f f q q f f q q f f q q f f q q f f q q f f q q f f }.}.f e e f e e f f e e f f f f e f e e f e e e q q f e e e B {.}.}.F F e e <.<.{.:.f f }.}.e e } } 2 2 g g g (.g g g g g (.=.X X ",
"g (.(.g g g g g g X X '.'.3 3 f f e f q q B B F F {.:.:.:.f f f e {.{.f f e f q q f e f f f e > f e e f f e e f e f e e f f e e f f > q q e f q q f f f f f f L q f f q L f > q L e e }.q f f q q f f q q f f q q > f q q f f q L e e q q f f q q f f q q > f q q f f q q f f q q }.f q q f f q L f f q q f f q q f f q q f f q q f f q q f f q q f f q q f f f f f e f f [ [ f f f e q L e e f f {.B F F f e f f e f f e f f q q }.f q q f f q q f }.q q f e e f e e f f f e e f f f q q f f q q f f L q f f L q f f q L e f q q f f q q f f L q f f q q f f L q f f q q e f q q f f q q > f L q f f q q }.f q q f f q q f f L q f f q L f f q q f f }.}.f e f f e f f f f e f f f f f e e f f e f e q q e e e e {.{.e f : F e e <.<.:.:.f f f }.}.e } } 2 2 g g g (.g g g g g g X X X ",
"X X ; X X g g g g R R 2 2 } } f f q q }.}.:.:.[ <.:.:.:.{.{.B {.B e e f e f f e e f e e e e f e e f f e e > f f e f f e e f e e f f f e e q q f f q q f f q q f f L q f f q q f > q q f > q L e f q q f f q q f > L q e f q q f }.q q f f q q f f q q f f q q f f q q f f q L e f q q f > q q f f q q f f q q f f L q f f q q f f q q f f q q }.f q q f f q L e e e f e e s s e f f f f e e f e e {.B [ [ e f f e q q f f q q f f q q f f q q f f q q f }.}.}.f f q q }.f q q f f q q f f q q }.f q q f f q q f f q q e f q q f > q q e f q q f f q q }.f q L > f q q > f q q e f q q > f L q > f q q f f q L f f L q f > q L > f q q > f L q f e q q e e > f e e e f e f e f f e > f e e f f e e f e e f f f e e f e {.{.e e {.{.s F {.{.}.}.f e f f 3 3 '.'.X X R R X X g g X X X X =.",
"; ; ; X X g g g g R R 2 2 } } f f q q }.}.:.:.[ <.:.:.:.:.{.{.B B e e f e }.}.e e f e e e f > e e f f e e f f f e f f e e f e e f f f e e q q f f q q f f q q f f q q f f q q f f q q f f q q f > q q f > q L e f L q > f q q f f q q f e q q f f q q f f q q f f q q f f L q e > q L e f q q f f q q f f q q f f q L f f q q f f q q f f q q f f q L e f q q e e e f e e s s e e e f f f f e e e :.{.<.[ f f f e q q f f q q }.f q q f f q q f f q q f f }.}.f f L q f f q L f f q q f f q q f f q q f }.q q f > q L e f q q f f q q > f q q f f q q }.f q L > f q q f > L q f f q q f f q q > f L L f f q q f f L q > f q L e f L q f f q q f f 5 q e e e f e e e f e e f f e f f f e e }.f e e f e e f f f e e f e {.{.e e {.{.s s {.{.}.}.e e e f 3 3 '.'.X X R R X X (.g X X X X =.",
"X X X X ; ; X R R X X '.'.4 4 q q f f q q B B F s {.{.f e > e e f e e f f e e e f f e f f e e f e {.{.f e {.{.f e e e e f e e f f f e e f f f q q e f q L f f q L e f L q e f q q > f q L e f q q f f q L e f q q f f q q f f q q e f q q f f q q f f L q f e q q f > q q f f q q f f q q f f q q f f q q f e q q f f q q f f q q f f q q f f q q f f q q f f q q f f f f } [ f f e e q q f e f f B {.F s {.{.f f e e f f e f q q f f q q f f q q f f q q }.f f f f f q q f f q q f f q q e f q q > f q L e f q q f f q q f > q q f f q q f > q q f > q q f > q L f f q q f > q q e f q q f f q q f f q q f > q q f f q q f f q L f f q q e f q q f e > f e e > f f e f f e e f e f e f > e e e f f e e f f e f f f e e f {.{.e e <.<.:.:.f f }.}.f e } } 2 2 g g X X g g X X g g =.=.X ",
"X X X X ; X X R R X X V V 4 4 q q f f q q B B F s {.{.f e > e f f e e f f e e e f e e f f e e f e {.{.f e {.{.}.}.e e f e e f f f e e f f f f q q f f q q > f q q e f q q e f q q f f q L f f q q f f q q f f q q f f q q f f q q e f q q f f q q f f q L f f q q f f q L e f L q f e q q f f q q f f q q f f q q f f q q f f q q f f q q f f q q f f q q f }.q q f e f f } [ f f e f q q e e f f {.{.s s {.{.f f e e f f e f q q }.f q q f f q q }.f q q f f }.}.f e q q f f q q f f q q e f q q f e L q e > q q f f q q f f q q > f q L e f q L e f L q e f q L f > q L e e }.q f f q q f f q q f f q q f > q q f f q L f f q q f f q L f f q q f e f f e e f f e f f f e f f f e e f f e e f f e e f f e f f f e e e f {.{.e e <.<.:.:.}.}.f }.}.f } } 2 2 g g X X g g X X g g =.=.X ",
"=.X X X ; ; ; ; X R R 2 2 3 3 f e }.}.f }.:.:.[ <.:.:.:.:.f f :.:.f f f e }.f e f e e > e }.f {.{.f e {.{.e e f e }.f e f f f e e f f e f q q f f q q f > q L f f L q f f q q f f q q f f q q f f q q f f q L e f q q f f q q f f q q e f q q f f q q > > L L q q q L f f q q f f q q e f q q f f q q f f L q f > q q }.f q q e e f e e f f f f e e > e e q q e e q q f e F F {.{.f f }.}.e f f e {.:.[ [ f f e e e f f f q q f f q q f f q q f f q q f f }.}.f e q q }.f q q }.f q q f f q q e f q q f f q q f f q q f f q q f f q q f e q q f f q q f e q q f f q q f e L q f f q L > e q q f f }.}.e f f f e f q q > f q q f f q q e f q q > f q q e e > f e e }.f e e f f e e f f f e f > e e f f e e f f e f > f e e f e {.{.<.<.B B q q f f q q 3 3 '.'.X X g g X X g g =.=.X X =.",
"=.X X X ; ; ; X X R R 2 2 3 3 f e }.}.f }.:.:.[ [ :.:.:.{.f f {.{.f e f f f f e f e e e e f f {.{.f e {.{.e e > e f f f e e f e e f f f e q q f f q q e f q q f f L q f f q q }.f q q f f q q f f q q f }.q q f e q q f f q q f f q L e f L q f f q q f > L L L q L q e f L q f f q q e f q L f f q q f f q q f f q q f f q q e e f e e f f f e e f e e f L q e e q q f e F F {.{.f f f }.}.e f f :.:.[ <.f f f e e f f e q q f f q q f f q q f f q q f f }.}.}.f q q }.f q q }.f q q f f q q e f q q f e q q f f q q f > q q f f q q f f q q f f q q f f q q f f q q f f L q f f q L f f q q f f }.}.e f f f f f q q > f q q f f q q e f q q f > L q e e > f f e }.f f f > f f e f f e e f > f e e f f e e f e e e f e e e e {.{.<.[ B B q q }.f q q 3 3 '.'.X X g g X X g g =.=.X X =.",
"X X ; X ; ; X R R X X V V 4 4 f f f f L q [.[.s s {.{.f f :.:.f e e e f f e f f e e e f f e e f e {.{.e e {.{.e f f e > f e e f e e e f e f f q q }.f f f e e f }.e f f f e e > f e e q q f f q q f f q q f f q q f f q L f f q q f f q L f f q q f f q q q q L L f f q q f }.q q > f q q f f q L e f L q > f L q f f q L f e e f e e f f f e f > e e f f q q I I I I e e s s e f e e f e e f f f B B F s {.{.z z M M q q f f q q f f q q f f q q f f q q e e }.}.e e f e f f L q f f q q f f q q e f q q f f q L f f q q f f q q e f q q f f q L f f q L f f q q f e q q > f q L > f q q f f q q f e f f e f q q > f L q f e q q f f q q f e q q e e f f f e f f e e f e e e f f f e f f f e f f e e e f f e f > e e e f B {.f e } [ :.:.f f }.}.f e } } 2 2 g g X X ; ; =.=.; X =.=.X ",
"X X ; X ; X X R R X X V V 3 4 f f f f q q [.[.s s {.{.f f :.:.f e e e f f f e f f e e e f e e f e {.{.e e {.{.f e f e > f e f f f e e e f f f L q f f f f e e f }.e f f f f e > f e e q L f f q L e f q q f f q q f f q q f f q L e f q q f e q q f f q q q q q L f f q q f }.q q > f q q f f q L > f q q f f L q f f q q e e e f e e f f f e > f e e f f q q I I I I e e F s e e e e f e e f f f B B F F {.{.z z M M q q }.f q q f f q q f f q L e f q q }.e }.f f e f e f e q q f f q q f f q L e f q q f f q L e f q q f f q L e f L q f f q L f f q L f f q q f f q q f > q L > f q q f f q L e e f f e f q q e f q q f f q q f f q q f f q q e f e f e e f e e f e f e e e f e e f > f e f f e f f > e e e f e e e f {.B e e <.<.:.:.}.}.}.f e f } } 2 2 g g X X ; ; =.=.X X =.=.X ",
"=.X X X X ; X X X R R 2 2 3 3 f e }.}.f f {.B [ <.:.:.{.{.{.{.{.:.f e f e f e e e e f e e }.f f e f f f e f > e f e e e e e f e e > f e e q q f e f f f e f f e f q q f e f f e e e f e e q q f f q q f f q q f f q q }.f q L e f L q > f q L f f q q f f q L f f L q f f q q f f q q > f L q f f q L f f q q f f L q f f q q e f > f e e f f e f f e e e f f L q q q F [.s s {.{.f f :.:.f f }.e {.{.s s {.{.L L q q :.{.f f e f f e e e f f f e L q e f f }.f e e f e e > f f f q L }.f L q e f L q f f q q e f q L q L q q f f q q f f q q f f q q > e q q f f q L f f q q > f q q f f q q f f e f f e f f f f q L > f q q f f q q f f q q f f f f e e e f e e f e f f f e f f f e e e f f e e f f {.{.f e {.{.e e {.{.{.{.{.B <.<.{.B }.}.f e f f 3 3 V V X X ; ; X X ; X ; ; X X ; ",
"=.X X X ; X X X X R R V 2 3 3 f e }.}.f f {.{.<.<.:.:.:.{.{.{.:.:.f e f e f e e e f f > e f f e e f f f e f > e e f e e e e f e e f f e f q q f e f f f e f f f e q q f e f f e e f > f e q q f f q q f }.q q f e q q e f q q f > L q f > q q }.}.q q f f q q f f L q f f L q f f q q f f q q f f q q f f q q f f L q f f q q f e }.}.e e e f f e f f f e f f q q q q F [.s s {.{.f f :.:.f f }.e {.{.s s {.{.L L q q :.:.}.f e e e f e e e f e e L q f f }.}.e e f f e e e f f f q L }.f L q }.f q q > f q q e f q q q q L q e f q L e f q q f f q q f e L q f f q L f f q q f e q q f f q q }.f e f e e f f f f q L > f q q f f q q f f q q f f f f e e e f e e f e e e f e f f f e e e f f e e f f {.{.f e {.{.e e {.{.{.B {.B <.<.{.B }.}.f e f f 3 3 V V X X ; ; ; X ; X ; ; X X ; ",
"X X ; X ; =.=.X ; X X 2 2 4 4 f f e e f f [.[.s s :.:.f e {.{.f e {.{.f f e e e f e e > f e e f f e e e f e f e e e e > f f e f f e e f f e e f e e e f f f e e f f f f f f e f f f e e f f f q q f }.q q e f q q f f q q > f L q f f q L f f L q f f q L f f q q f f q L > f q q }.f q L f f q q }.f q q f f q q f f q q f f f f e f f e e e f f f e f e {.{.f e [.[.{.{.<.[ f e e f }.f :.{.}.}.B B F s {.B B {.B B e e f e e f e e e f e e f e f f L q e e f f f e e f e e q L f f q q f f q q f f q q f f q L f f q q f e q q f f q q f f q q e f q q > f q q f f q L e f L q }.f q q f f f f e e f f f e f f e f q q e e e f f e f f e f f e e e f f e f f f f e f e e e e f f e f f e f f f e e f e {.{.f e {.{.e e {.B e e } [ :.:.f e }.}.f e 3 3 2 2 X X ; X X X ; ; X X X V X ",
"X ; ; X X =.=.X ; X X V 2 3 4 f f e e f f [.[.s s :.:.f e {.{.f e {.{.f e e f > f f e > f e e f f e e f f e f f e e e f f e e e f e e f f f e f e e e f f e e f f f f f f f e f f e f e e f f q L e f q q f q q q f e q q f f q q f f q q > f q q f f q q f f q q f f q q > f q q f f q q e f q q f f q q }.f q q f e q q f f f f e e e f f e f f e e f f {.{.f e [.[.{.{.<.[ e e f e f f :.:.f f B B F s {.B B B {.B e e f e e f e e f f e f f e f f q q e e }.}.e f f e e e L q e f q q f f q q f f q q f f q q f f q q f f q q f f q q f f q q f e q q > f q q f f q q f e L q f f q q f f e f f e f f e e f f f f q q e e > f e e f f e e f f e e f f e f f f e e f f e f e e f f f f e e e f e e e e {.{.e e {.{.e e {.B e e <.<.:.:.e e f f f e 3 3 2 2 X X X ; ; X X ; X X X V X ",
"'.X X ; ; ; X ; X X X _._.3 3 f e }.}.f e {.B <.<.:.:.:.:.f e :.:.f e {.{.f e {.{.e e {.{.f f f f f f e f e e f e f e e e f f e f f e e e f f f e e f f e f f e e q L f e f f e e e f e e f > > f > > > }.> q f f q q f e q q e f L q }.}.L q f f q L }.f q L f f q q > f q q f f q L f f q q }.f q L {.f q L e f q q f f f e e e f f e e f e e f f f e e f f :.{.:.:.:.{.s s {.{.f f :.:.f f {.{.:.:.[ <.:.:.[.[.{.:.:.:.f f e e f f e e e f e e f f e f f f f e e > f e > f :.e q L f f q q }.f q q f f q q f e L q f f L q > f L q f f q q }.f q q f f q q f f q q f f L q f f f e e e f > e e f f e e f f e e q q f e e f e e e f e e f e e e f f e f f e f e f f e e f e f f f e e f e f f e e f {.{.f e e e f e e e B {.{.{.[ <.{.B }.}.:.:.f f 4 4 2 2 X ;     ; ; X X X '.X X V ",
"'.; X ; ; ; X X X X ; _._.3 3 f e }.}.f f B B <.<.:.:.:.:.f e :.:.f e {.{.f e {.{.e e {.{.f f e f f f e f e e e e f f e e f f f e f f f e f f f e e f f e e f f e q L f e e f e e e f e e f > f f > > f f q q f f q q f f q q f f L q }.f f q q f f q f f q q f f q q f f q q f f q q f f q q f f q L f f q q f f q q f }.f f e e e f f e e f e e f f f e f f {.{.{.{.{.{.F s {.{.f e {.{.f f {.{.:.:.[ [ :.{.[.[.{.:.:.:.f e }.e e f f e f f e e f f f e f f e e e f f e e f f e L q f f q q f }.q q f e q q :.f q L e f q L > f L q f f q q f f q q f f > q f f q q f f q q f f e f f e f > f e f f e e f f e e q q e f f f e f f e e f f f f e f f e f f f e e f f e f f f e e f f f e e f f e f f {.{.f e e f f e e e {.{.{.{.<.[ B B }.}.:.:.f f 4 4 2 2 ; ;     ; ; X X '.X X X V ",
"X X ; X ; =.=.; X X X 2 2 3 4 f f e e f f [.[.<.<.{.B e e f f f }.e e e e {.{.e e {.{.f e {.{.e e {.{.e e {.{.e e {.{.e e e e f e f e f f e e f e f f f e e e f e }.f f f e e }.}.e e e f f f > > e f f > > f q q }.}.f q f > L q f f q q > f q q f f q q f f q q > f q q e f q q f f q q f }.q q f e q q f f q q f }.f f f e e f f e f f f e e f f e e f f e e e {.{.:.:.[ <.f e {.{.e f :.:.f f [.[.s F {.B e e {.{.e f f e e f f e f f f e f f e e f f :.:.f f e e e f e e f > f e > f f f q q }.f q q > f q q f f q q }.}.L L }.}.}.}.f e f f e e q q > f q q f f q q f f L q e e > f e e f f e e f f e f f f f e f f f e f f f e f > e e f f e f f f e e f f e e e f e e e f f e e f e e f e e e f e {.{.e f f f q L {.B B {.[ [ :.:.:.{.f f f e 3 3 1 1 X X ; X X X X V X X ; '.; ",
"X ; X X X =.=.; X X X V 2 4 4 f f f e e f [.[.<.<.{.B e e }.}.}.f e f e e {.{.e e {.{.e e {.{.e e {.{.e e {.{.e f {.{.f e f e e f f e f f e e f e f e e f e e f e f f f f e e f f e e e f f f > > e f > > e f q q f f q q f > L q f f q L > f q q f f q q }.f q q > f q L }.}.L q }.f q L e f q q f f q q f f q q f f f f e e f f e f f f e e f f f e e f f e e e {.{.:.:.[ <.f e :.:.f f :.:.f f [.[.s F B B e e {.{.e f e e f e e f f f e e e f f e f f {.:.f f e e e f e e f f f e > f }.f q L e f q q }.f q q f e L q f f q L f e }.}.f e f f e e q q f f q q f f q q > f q q f e > f e e f f e e }.f e e f f e e e f f e f f e e f f e f f e e e f e f e }.f f e f e e e f f e e f f e e f e e e e f {.{.f f f f q L B B {.{.[ [ :.:.:.:.f f f e 3 3 1 1 X X X ; X X X V X X ; '.X ",
"'.; X ; ; X X X X X X 2 2 3 3 e e f f f f :.:.[ <.:.:.B B G G K K f f e f f f e e e f e e f e {.{.f e {.{.e e {.{.e e {.{.e f e e f f e e f f e e f e e e e f e f > f e e f }.e e f e e f f > > f q q f f q L e f q q f f q q f f q q f f f }.}.f q q e f q q }.}.e }.}.f e f f e }.}.f e f f f f f }.e e f f f e f f {.:.f f e e f f :.:.f f :.:.f f :.:.}.}.e e e f {.{.<.<.:.:.}.}.:.:.f f :.:.{.{.<.[ :.:.:.{.f e {.{.e f B B e e f e f f f e e f f e e f :.:.}.f e e > f e e f f e e f }.}.f q q f f L q f f q L f f q q }.}.f }.e e q q f e f f e f q q f f q q f f q q f f f f e e f f f e f f e e f f e f e f e f f f f e e }.e f e f e e f f e f f f f e f f f e f e f f f e e f f f e e f f f e f f f f A A I I {.{.B B <.<.:.:.}.}.}.f e f 4 4 V V ; ; X X X X X X '.'.; ; V ",
"'.X X ; ; X ; X X X X 2 2 3 3 f e f f f f :.:.[ <.:.:.B B G G K K f f f e f e f e e f e e f e {.{.e e {.{.f e {.{.e e {.{.e e e f f e e e f f e e f e e e e f e f e f e f f }.e e e f e e f > > f L q e f q L e f q q f f q q f f q q f }.f f f f q q > f q L f f }.}.e f f f e e f f f f f }.}.f f }.f e }.}.e e f f {.{.f f e e e f {.{.f f {.{.f f :.:.f f e e f f {.{.<.<.:.:.}.}.:.:.f f :.:.{.{.<.[ :.:.:.:.f e {.{.f e {.{.e e e e f f e e f f e f f f :.{.f f e e f f f e e f e e }.f f f q q f f q q f f q L f f L q f }.}.f e f q q f e f f f f q q f f q q f f q q f f f f f e f f e e f f e e f e e e e f e e f f f e f e f e f f e f f e e e f f e e f f f e f f e f f f e e f f e e f f e e f e f f A A A I {.{.B B <.<.{.:.}.}.f e f e 4 4 V V ; ; ; X X X X X '.'.X ; V ",
"; '.; ; X '.; ; X X ; 2 2 4 4 f f e e f f [.[.<.<.[.[.{.B }.f :.:.{.{.e e f e f f e e > f e e f e f e f f f e e f e e f f {.{.e f e e f f e e f e e e f }.f e e f e e f f e e f f e e f e e e f > > f q q f f q L f > q q > f q L e e q q f e f }.}.f L q f }.f f f f q q f e f f e e q q f f }.}.e e }.f e e e f {.{.f f :.:.f f :.:.f e :.:.}.f :.{.f e e f f f :.:.f e <.<.:.:.:.:.f f :.:.f f [.[.[.F {.:.e e {.{.e e {.{.e e {.{.f e {.{.e f e e f f :.:.}.f e e e f e e f f e e f f :.:.f e }.e f f e f q q f f q q f f q q f f }.}.f e L q f f q q f f L q f > q q f e L q > f > f f e e f f e f f f e > f e e e f e e e f e e f f e e f f e e e f e f > f e e f f f e f e f e f f e f f f e e f f {.{.f e e f e f B B e e <.<.:.:.}.}.}.}.f e } } 2 2 X X X X X ; ; ; X X '.'._ ",
"; ; ; X X '.; X ; X ; V 2 4 4 f f e e }.}.[.[.<.<.[.[.{.B f f {.{.:.:.e e e f f f e e > f e e f e f e f f e f f f e f e f {.{.f f e f f > e e f e e e f }.f e f f f e f f f e f f f e e f e e f > f f q q f e q L f f q q e f L q e e q q f f f }.}.e L q f }.}.}.e }.q q f e f f e e q q f f }.}.f e f f e e e f {.{.f e {.{.f f {.{.f f :.:.f f :.:.e e e e f e {.:.f e <.<.:.:.:.:.f e {.:.f f [.[.[.F :.:.f e {.:.f e {.:.e e {.{.e e {.{.e f f e f f {.:.f f e f > f e e f f e e e f :.:.f e }.e f f f e q q f f q q f f q q f f }.}.e e L q f e q q f e q L > f q q f f q L > f f f f e e f f e f f f e f f e e e f e e f f f e f f e e f f e e e f e e f e f f f e f e f f e e e f e f f f e e f f B {.f e e f e f B B e e <.<.:.:.}.}.}.}.e e } } 2 2 X X X X X ; '.; ; X '.'._ ",
"_ _ X ; ; X X ; X X X 2 2 3 3 e e f f f f {.{.1.1.B B F [.{.B :.:.:.{.{.{.f f e e e e {.{.e e B {.e f {.{.e f {.B f f e e f e e e > f e e f e e f f f e e f > f e f f e e f e e f q q e e > > f f q q f f q q f f q q f f f f e e q q f f q q f f q q f f q q }.f f }.}.f e f f e }.}.e e }.}.f e f f :.:.f f :.:.f f :.:.f f :.:.f f :.:.f f :.:.f f :.:.f f :.{.e e {.B F s {.{.f f :.:.f e {.:.{.{.<.[ e e {.{.e f {.:.f f B {.e e :.:.f e e e f f e e f f :.:.f f e e f f e e f f e e }.}.:.:.f f f f q q f }.q q f e q L f f }.}.f f q L f e q q L q q q f f q L f f q q f f q L f f > f f e f f e e e f e e f f :.:.f e {.:.e e {.{.e e {.{.e f e e f e {.{.e e {.{.f e {.{.f e {.:.e e {.{.e e f e f f :.{.{.B F F {.{.:.{.<.[ B {.}.}.e f f e 3 3 V V ; ; X X X X X X ; '.X ; V ",
"_ _ X ; ; X ; X X X X 2 2 3 3 f e f f f f {.B 1.1.B B F [.B B {.{.{.{.{.{.f f e f f e {.{.f e {.{.f e :.{.e e {.{.f f f e > f e e }.}.f e e f e e f f e e f e f e f f e f f f e f q q e e f > f f L q f }.q q f f q q f f f f e f q q e f q L e f q q f f L q f f f f e f f }.}.e f f f e }.}.f e f f :.:.f e {.:.f f {.{.f f {.{.f f :.:.f f :.:.f e {.:.f f :.:.f e {.B s s {.{.f f :.:.f e {.{.:.{.<.[ e e {.{.e e {.{.e f {.{.e e :.{.e e e e f f e e f f :.:.f e }.e f f e e f f e e f f {.:.f f }.e q q f f q q f f L q f f }.}.f }.q L e e q q q q q L }.f L q > f L q f f q q f f f > e f f f e e e f e e f f :.:.f e {.:.e e {.{.e f {.:.f f e f }.}.{.{.e e {.{.f e {.{.e e B {.e e {.{.f e e e f f {.B B B F s {.{.{.{.[ <.{.{.f f f f f e 4 3 V V ; ; X X X X X X ; '.; ; '.",
"; ; X X X =.=.; X ; ; V 2 4 4 f f e e f f [.[.[ [ F [.{.{.B {.{.{.{.B e e e e f f :.{.e e , {.f e {.{.e e {.{.e e e e f e e e e f e e e f f e f f e e }.f e f f f f e f f f e f f f e > f f f f > f e q q f f q L e f q q e e f f e e f e e f f f e f q q f f }.}.f e f f :.:.f f {.{.f }.e e }.}.e e }.}.:.:.f e {.:.e f :.:.f f e e }.}.:.:.f f :.:.{.:.:.:.f e {.{.{.{.<.<.:.:.:.:.:.:.:.{.{.{.[.[.s s :.:.:.:.B B {.{.e e f f :.{.}.}.e f f f e e f e {.{.e f f e e f f e f f f e f f f e e e f e q q f e q q f e f f e e q q e e }.}.}.f e f f e q q f f q q f f f f f e q q f f f f e f e f f e e f e e f f e e f }.{.{.e e {.{.e e {.{.e e e e e f {.{.e e {.{.f e {.{.e e :.:.f e B {.f e {.{.f e {.{.e e {.{.e e [.[.{.:.[ [ :.:.f f }.}.e f } } 2 2 X X X X =.X X V ; ; V V V ",
"; X ; X X =.=.X ; X ; V 2 4 4 f f e e f f [.[.[ [ [.[.{.{.{.B {.{.{.B e e f e f f :.{.e e :.:.e f B B e e {.{.f e e e f e e e > f e e e f f e f f e e f f e e f e e e f }.e e f f f e f f f e f > f e q q f f q q f f q q e e f }.e e f e e f f f e f q q }.f f f f f f }.:.:.f f :.:.f f e e f f f e f f {.{.f e {.{.e f {.:.}.}.f e f f :.:.f f :.:.{.{.{.{.f e {.{.{.{.<.[ :.:.:.:.:.{.{.{.:.:.[.[.s s :.:.:.:.B B {.{.e e e f {.{.f f f e e f f e e e :.:.f e }.e f f f e f f f e f f f e e e f e q q e e q q }.f f f f e q q f e }.}.f f }.}.e f q q f f q q f f f f f f q q f }.f f e f f e f e f f e e }.}.e e f }.:.:.f e {.:.e f {.{.f e e e f f B {.e e B {.e f B {.f e {.:.e e B {.f e {.{.e f {.:.e e {.{.e e [.[.{.:.[ [ :.:.f f }.}.e e } } 2 2 X X X X X ; X X ; ; V V V ",
": ; X X X X X X X ; X 2 2 3 3 f e }.f f e B B 1.1.B B F [.{.{.:.{.e e :.{.f f {.B e e :.{.e e B {.e e {.{.e e {.{.e e B {.f e {.{.e e {.B e e {.{.f f e e e f f e f f e e f e e e f f e e f f e f q q e e f e e e e f e e e e f e q q f e f f e f q q f f }.}.f e f f e }.}.f f e e f f e }.}.f e f f e e f e {.{.e f f }.}.f e f f f {.{.f e {.{.e e {.{.e e q q L L B B <.<.[.[.{.:.[.[.e e B {.{.B [ [ :.:.f }.}.f :.:.f e }.e e e B {.f f f e f f e f {.{.{.{.f f :.:.f e f f f f e e f e {.:.f e {.:.f f e e f e e f f f e f }.}.f e q q e e q q e f e f e e f f e e f e f f e f f e e f f e f e :.:.f f e e f f e e e f :.:.f e {.:.e f {.{.e e f e e e B {.e f B {.e e B {.e f B {.f e {.{.f e {.{.e f e e f e {.{.B B [.[.<.<.[.[.}.}.f e e e 3 3 V V ; ; X X =.=.X X X ; {.{.B ",
": X X X X X X X ; X X 2 2 3 3 f e }.f e e {.B 1.1.B B [.[.{.{.:.:.e e {.{.e f {.{.e e , {.e e B {.e e :.:.e e {.{.f e {.:.f e {.{.e f {.:.e e {.{.f f e e f f e e f e e e e f e e }.f f e e f f f q q e e }.}.f e f f e f f e e e q q f e f }.e e q q }.}.e }.e e f f f e f f f e e f f e f }.e f f }.e e f e :.:.f f }.}.}.f e f f f {.{.}.}.:.:.f e {.:.e f q q L L B B <.<.[.[.{.:.[.[.e e B {.{.B [ <.:.:.f f }.}.:.:.f e }.e e e B {.f f e e f e e e {.{.:.{.}.}.:.:.f e f f f f e e f e {.{.f e {.{.e f f e f f e e f f }.}.f }.e f q L e e q q f f , f e e f e e e e f f f }.}.e f f f e e f f {.{.f f e e f f f e f f {.{.e e {.{.e e {.{.e e e e f e {.{.e e B {.e f B {.e e B {.e e , {.e e {.B e e e e e e {.{.B B [.[.<.<.[.[.}.}.e e e e 3 3 V V ; ; X X =.=.; X '.; {.{.B ",
": ; X X X =.=.X X ; ; V 2 4 4 f f e e f f [.[.<.<.[.[.{.{.:.:.f e {.{.e e :.:.f e {.{.e f {.{.f e {.{.e e {.{.e f {.{.f e {.{.f e {.{.e e {.{.e e e e e f e e e f e e e f e e e e B {.f f f e q q f e f f e e f f e e e f e f f f e e f f e e f f e f q q e e }.}.f e }.}.f e }.}.f e f f :.:.}.f :.{.}.}.:.:.f e {.:.K K I I }.}.:.:.f f f e e f {.{.e e B B K K M M B B <.<.:.:.:.{.{.{.:.{.{.{.[.[.<.<.[.[.K K |.|.e e f e e f B {.f e {.{.e e B {.I I L L e e {.{.}.}.:.:.f f e e e f f e f }.:.:.f e {.:.f f e e e f e e f f f e f }.f f e e f e q q f f f f e e f f f e f f e e f f e f f f :.:.f f {.{.f f {.{.}.}.:.:.f e {.:.e e {.{.e e {.{.e f :.{.f e {.:.e f {.{.e e :.{.e e {.{.e e {.{.e e e f f f :.:.f e [.[.{.:.1.1.:.:.f e }.e {.{.} } 2 2 X X X X X X X ; '.'.F F , ",
": ; X X X =.=.X X ; ; 2 2 4 4 f f e e f f [.[.<.<.[.[.{.:.:.:.e e {.{.e e {.{.f e {.{.f e {.{.e e B {.e f {.{.e f {.{.e e {.{.e e {.B e e {.{.e f f e e f e e f f e f e f e e e e B {.f f f e q q f e f f e e f f e e f f e e e f e e f f e e f f e f q q e e }.}.f e f f e }.}.f e e f f :.{.f f :.:.f f :.:.f e {.:.K K I I }.}.:.:.}.}.f e e e {.{.e e {.B K K M M B B <.<.:.:.:.:.{.{.{.:.{.:.[.[.<.<.[.[.K K |.|.e e f e e f {.{.f e {.{.e e {.{.I I L L f e :.:.f f :.:.f f e e e f f e f f :.:.f e {.:.e f e e f e e f f f e f }.f f f e e f e q q }.f e f f e f e e e f f f e f f f e e f :.:.f }.{.{.f f {.{.}.}.:.:.f e {.:.e e {.{.e e {.{.f e {.:.e f {.:.e e B {.e e {.{.e e {.{.e e {.{.e f e e f f :.:.e e [.[.{.:.1.1.:.:.f e }.e {.{.} } 2 2 X X X X X X X ; '.'.F F , ",
"[ ; ; '.'.X X =.=.X X 1 1 3 3 f e e e f e B B <.<.:.:.:.:.e e :.:.e e {.{.e e :.:.f e {.{.f e {.:.e f {.:.f e :.{.e e {.{.e e {.{.e e {.{.e e {.{.e f f e f f e e e f e e f f {.{.e e f e e f q q f f f e e f e e }.}.f e f f :.:.:.:.M M q q f f }.}.e f f f :.:.f f }.}.}.}.I I K K :.:.f e {.:.e f {.{.e f :.{.{.{.e f |.|.F F e e {.{.{.{.:.:.f e {.:.e f s s F F {.:.<.<.B B :.:.:.:.f e B B {.B } } [.[.s F [.[.{.B e e {.{.e e {.{.{.{.{.{.f e K K q q {.{.{.{.{.:.f e e e f f f e f f K K K K :.{.e e {.:.f e {.:.f f :.:.f f }.}.K K :.{.e e f e e f f e e f e e f f f e e f f e e f {.{.e e :.:.e e :.:.}.f {.:.f e {.:.e e {.{.e e {.{.e e {.{.e e {.{.f e :.:.f e {.:.e e :.:.:.{.{.{.:.{.:.:.e e {.{.f e B {.{.:.{.B <.<.[.[.}.}.e e f e 4 4 V V X ; ; X =.=.X X '.'.F F F ",
"[ ; ; V '.X X =.=.X X 1 1 3 3 f e e e e f B B <.<.:.:.:.:.e e :.:.f e :.{.f e B {.f e {.:.e f {.:.e e B {.e e :.{.f e {.{.e e {.{.e e {.{.e e {.{.e f e e f f e e e f f e e f {.{.e e e e f e q q f f f e f f e f f f e e f f :.{.:.:.M M L q }.f f f f e f f {.{.f f f f }.}.I I K K :.:.f e {.:.e f {.{.e e B {.{.{.e f |.|.F F e e B {.{.{.:.:.f e {.:.e e s s F F {.{.<.[ B B :.:.:.:.f e B B {.B } } [.[.s F [.[.{.B e e {.{.e e {.{.{.{.{.{.e e K K q q {.{.{.{.{.:.e e f e e f f e }.}.K K K K :.{.e e {.:.f f {.{.f f :.:.f f }.}.K K :.{.e e f e e f f e }.f f e e f f e f f f e e f :.:.f e :.{.e e :.:.e f {.{.}.f :.:.f e {.{.e e {.{.e f {.{.e e B {.e e {.{.}.e {.{.e f {.:.:.:.:.{.{.{.:.:.e f {.{.e e {.{.:.:.{.B [ <.[.[.f f e e f e 4 4 V V X ; X X =.=.X X '.'.F F [.",
"F '.'.X X =.=.X X ; ; 2 2 3 4 f e {.{.e f [.[.<.<.F [.{.{.{.{.f e :.{.f e B {.e e B {.e f B {.e e {.{.e e {.{.f e {.{.e e {.{.e e {.{.f e {.{.e e {.{.e e e e f e e f f f e e f e {.{.e f L q A A f e e f e e f f :.:.}.}.f e :.:.f f J J q q f e f f e e :.:.f e {.:.}.}.:.:.q q {.{.e e {.{.e e {.{.e e {.{.:.:.B B B {.[ [ :.:.{.{.{.{.{.{.e e {.{.e f e e {.{.:.{.{.{.} } :.:.:.{.{.{.:.B :.:.F F [ <.[.[.:.:.B B :.:.f e }.e f e e f B B e e B B {.B } <.{.:.:.:.f e {.:.e f e e e f B B }.}.f e B B {.{.e e :.:.f e {.:.e f e e }.}.I I e f f e e f f e e }.f e f f {.{.f f M M q q {.{.f e {.{.{.:.:.:.f e B :.f e e e }.}.f e e e :.{.f e {.{.f e {.:.e e {.:.f e B {.e e :.:.f e :.:.{.:.:.:.{.{.{.:.:.:.:.:.{.:.B B :.:.[ <.:.:.:.:.f e {.:.3 3 1 1 _ _ _ X ; X X ; ; ; [ [ s ",
"F '.'.X X =.=.X X ; ; 2 2 3 4 e e {.{.e f [.[.<.<.[.[.{.:.{.{.f e :.{.f e B {.e e :.:.f e {.{.e e B {.e f {.{.f e {.{.e e {.{.e e {.{.e e {.B e e {.{.f e e e f f e e f f e f f e B {.e f L q A A f e f f e e f f :.:.f f }.e :.:.f f J J q q f e f f e e :.:.f e {.:.f f :.{.L q {.{.e e {.{.e e {.{.e e {.{.:.:.B B B {.[ [ :.:.:.{.{.{.:.{.e e {.{.e f e e {.{.{.{.{.{.} } :.:.:.{.{.{.:.B :.:.[.F [ <.[.[.:.:.B B :.:.f e }.e f e f f {.B e e B B B {.[ [ :.{.{.{.e e {.{.e f f e f f : B }.f e e {.B {.{.f e {.{.f f :.:.f e e e f f I I }.}.e e f e e f f e f f f f {.{.f f M M L q {.{.f e {.{.{.:.{.{.f e {.{.f f e e f f f e e e :.{.e e B {.f e {.{.f e {.:.f e B {.e e {.:.e e {.{.{.:.{.{.{.{.:.:.:.:.{.{.{.:.{.B {.:.[ [ :.{.:.:.f f :.:.3 3 1 1 _ _ X X X X ; ; ; ; [ [ s "};
