/* XPM */
static char * 2_xpm[] = {
"380 384 122 2",
"  	c #3E3526",
". 	c #5E4325",
"+ 	c #68522B",
"@ 	c #6B4925",
"# 	c #755835",
"$ 	c #78572B",
"% 	c #846335",
"& 	c #967240",
"* 	c #B48D55",
"= 	c #52391F",
"- 	c #393127",
"; 	c #312914",
"> 	c #31291F",
", 	c #564622",
"' 	c #363725",
") 	c #4B3716",
"! 	c #171008",
"~ 	c #3A3932",
"{ 	c #42392F",
"] 	c #36241D",
"^ 	c #210F04",
"/ 	c #211806",
"( 	c #1E170C",
"_ 	c #110E03",
": 	c #29180F",
"< 	c #453620",
"[ 	c #5D5242",
"} 	c #54493A",
"| 	c #443015",
"1 	c #7D766F",
"2 	c #8A8471",
"3 	c #84736A",
"4 	c #7C6C62",
"5 	c #6A5A51",
"6 	c #514B45",
"7 	c #433029",
"8 	c #615A54",
"9 	c #797361",
"0 	c #8C7B72",
"a 	c #97867C",
"b 	c #4B4238",
"c 	c #130F00",
"d 	c #8B847E",
"e 	c #968374",
"f 	c #8D7A6B",
"g 	c #877B6A",
"h 	c #6C6357",
"i 	c #726359",
"j 	c #2A210D",
"k 	c #726B65",
"l 	c #232116",
"m 	c #1A0F10",
"n 	c #988D7B",
"o 	c #282118",
"p 	c #0F0907",
"q 	c #594B41",
"r 	c #59524C",
"s 	c #181710",
"t 	c #655A4A",
"u 	c #62534A",
"v 	c #716C59",
"w 	c #4C3831",
"x 	c #211819",
"y 	c #414230",
"z 	c #52524A",
"A 	c #332929",
"B 	c #2A2121",
"C 	c #31312A",
"D 	c #000100",
"E 	c #2A2922",
"F 	c #5C5152",
"G 	c #55462F",
"H 	c #7C6A5C",
"I 	c #605238",
"J 	c #948C74",
"K 	c #8C846C",
"L 	c #4B4132",
"M 	c #54494A",
"N 	c #43423B",
"O 	c #0F110D",
"P 	c #070904",
"Q 	c #4B4A43",
"R 	c #847263",
"S 	c #9E9684",
"T 	c #9C947C",
"U 	c #392918",
"V 	c #655A5A",
"W 	c #282927",
"X 	c #171816",
"Y 	c #20211F",
"Z 	c #928266",
"` 	c #9D8D70",
" .	c #6B5A4C",
"..	c #837B63",
"+.	c #423839",
"@.	c #3A3131",
"#.	c #30322F",
"$.	c #595A47",
"%.	c #696452",
"&.	c #A59578",
"*.	c #A89C84",
"=.	c #675E47",
"-.	c #494A38",
";.	c #A99586",
">.	c #4C4142",
",.	c #A99774",
"'.	c #9C8B69",
").	c #515340",
"!.	c #746354",
"~.	c #A38874",
"{.	c #383937",
"].	c #746B53",
"^.	c #8D7260",
"/.	c #B4A68D",
"(.	c #837458",
"_.	c #30210F",
":.	c #3A290D",
"<.	c #482C1C",
"[.	c #513926",
"}.	c #381F0C",
"|.	c #635254",
"1.	c #554547",
"  . . . . . . . . . . . . . . . . . . . . . . . . . . . . + + @ @ + + @ @ + + @ @ + + @ @ + + @ @ # # + + + + + + # # + + # # $ $ # # # # $ $ # # $ $ # # $ $ $ $ $ $ $ $ # # $ $ $ $ $ $ % % $ $ % % % % % % % % % % % % & & & & & & & & & & & & & & & & & & & & & & & & & & & & & & & & & & & & * * & & * * * * * * * * * * * * * * * * * * * * * * * * * * * * * * * * * * * * * * * * * * * * * * * * * * * * * * * * * * * * * * * * * * * * * * * * * * & & & & & & & & & & & & & & & & & & & & & & & & & & & & & & & & & & & & % % & & % % % % % % % % % % % % % % % % $ $ % % $ $ % % $ $ % % $ $ % % $ $ % % $ $ $ $ # # $ $ # # $ $ # # $ $ # # $ $ $ $ $ $ $ $ # # $ $ # # @ @ $ $ + + + + @ @ + + @ @ + + @ @ + + . . @ @ . . @ @ + + . . + + . . @ @ + + . . . . = = - - ; ",
"  . . . . . . . . . . . . . . . . . . . . . . . . . . . . + + @ @ + + @ @ + + @ @ + + @ @ + + @ @ # # + + + + + + # # + + # # $ $ # # # # $ $ # # $ $ # # $ $ $ $ $ $ $ $ # # $ $ $ $ $ $ % % $ $ % % % % % % % % % % % % & & & & & & & & & & & & & & & & & & & & & & & & & & & & & & & & & & & & * * & & * * * * * * * * * * * * * * * * * * * * * * * * * * * * * * * * * * * * * * * * * * * * * * * * * * * * * * * * * * * * * * * * * * * * * * * * * * & & & & & & & & & & & & & & & & & & & & & & & & & & & & & & & & & & & & % % & & % % % % % % % % % % % % % % % % $ $ % % $ $ % % $ $ % % $ $ % % $ $ % % $ $ $ $ # # $ $ # # $ $ # # $ $ # # $ $ $ $ $ $ $ $ # # $ $ # # @ @ $ $ + + + + @ @ + + @ @ + + @ @ + + . . @ @ . . @ @ + + . . + + . . @ @ + + . . . . = = - - ; ",
"- . . . . . . . . . . . . . . . . . . . . . . . . . . . . + + @ @ + + @ @ . . @ @ . . + + . . + + @ @ + + + + # # # # # # $ $ # # $ $ % % # # % % $ $ % % # # % % # # % % % % % % % % % % % % % % % % & & % % & & % % & & & & % % & & & & & & & & & & & & & & & & & & & & & & & & & & & & & & & & & & * * & & * * * * * * * * * * * * * * * * * * * * * * * * * * * * * * * * * * * * * * * * * * * * * * * * * * * * * * * * * * * * * * * * * * * * * * * * * * * * * * & & * * & & & & & & & & & & & & & & & & & & & & & & & & % % & & & & & & & & % % % % & & % % & & % % % % % % % % % % % % $ $ % % $ $ % % $ $ % % $ $ $ $ # # $ $ # # $ $ # # $ $ # # # # $ $ $ $ $ $ # # + + + + + + $ $ @ @ + + @ @ + + @ @ + + . . + + . . + + . . @ @ . . @ @ + + . . @ @ . . . . . .     > ",
"- . . . . . . . . . . . . . . . . . . . . . . . . . . . . + + @ @ + + @ @ . . @ @ . . + + . . + + @ @ + + + + # # # # # # $ $ # # $ $ % % # # % % $ $ % % # # % % # # % % % % % % % % % % % % % % % % & & % % & & % % & & & & % % & & & & & & & & & & & & & & & & & & & & & & & & & & & & & & & & & & * * & & * * * * * * * * * * * * * * * * * * * * * * * * * * * * * * * * * * * * * * * * * * * * * * * * * * * * * * * * * * * * * * * * * * * * * * * * * * * * * * & & * * & & & & & & & & & & & & & & & & & & & & & & & & % % & & & & & & & & % % % % & & % % & & % % % % % % % % % % % % $ $ % % $ $ % % $ $ % % $ $ $ $ # # $ $ # # $ $ # # $ $ # # # # $ $ $ $ $ $ # # + + + + + + $ $ @ @ + + @ @ + + @ @ + + . . + + . . + + . . @ @ . . @ @ + + . . @ @ . . . . . .     > ",
"  . . . . . . . . . . . . . . . . . . . . . . . . . . . . . . . . . . @ @ . . + + . . + + . . + + @ @ + + + + @ @ # # + + $ $ # # $ $ $ $ $ $ $ $ $ $ $ $ % % $ $ % % % % % % % % % % % % % % % % & & % % & & % % & & % % & & % % & & % % & & & & & & & & & & & & & & & & & & & & & & & & & & & & * * & & * * * * * * * * * * * * * * * * * * * * * * * * * * * * * * * * * * * * * * * * * * * * * * * * * * * * * * * * * * * * * * * * * * * * * * * * * * & & * * & & * * & & & & & & & & & & & & & & & & & & & & & & & & & & & & % % & & & & % % & & % % % % & & % % % % % % % % % % % % $ $ % % $ $ $ $ $ $ $ $ $ $ $ $ # # $ $ # # $ $ # # $ $ # # # # $ $ # # $ $ # # + + # # + + $ $ + + # # + + # # + + + + @ @ + + @ @ + + . . + + . . @ @ . . . . + + . . @ @ . , , , ' ' ; ",
"  . . . . . . . . . . . . . . . . . . . . . . . . . . . . . . . . . . @ @ . . + + . . + + . . + + @ @ + + + + @ @ # # + + $ $ # # $ $ $ $ $ $ $ $ $ $ $ $ % % $ $ % % % % % % % % % % % % % % % % & & % % & & % % & & % % & & % % & & % % & & & & & & & & & & & & & & & & & & & & & & & & & & & & * * & & * * * * * * * * * * * * * * * * * * * * * * * * * * * * * * * * * * * * * * * * * * * * * * * * * * * * * * * * * * * * * * * * * * * * * * * * * * & & * * & & * * & & & & & & & & & & & & & & & & & & & & & & & & & & & & % % & & & & % % & & % % % % & & % % % % % % % % % % % % $ $ % % $ $ $ $ $ $ $ $ $ $ $ $ # # $ $ # # $ $ # # $ $ # # # # $ $ # # $ $ # # + + # # + + $ $ + + # # + + # # + + + + @ @ + + @ @ + + . . + + . . @ @ . . . . + + . . @ @ . , , , ' ' ; ",
"- . . . . . . . . . . . . . . . . . . . . . . . . . . . . . . . . . . @ @ . . @ @ . . + + . . + + @ @ + + @ @ # # + + # # $ $ $ $ $ $ $ $ $ $ $ $ $ $ $ $ $ $ $ $ $ $ % % $ $ % % % % % % % % & & % % & & % % & & % % & & % % & & % % & & & & & & & & & & & & & & & & & & & & & & & & & & & & & & & & * * & & * * * * * * * * * * * * * * * * * * * * * * * * * * * * * * * * * * * * * * * * * * * * * * * * * * * * * * * * * * * * * * * * * * * * * * & & * * & & & & & & & & & & & & & & & & & & & & & & & & % % & & % % & & & & % % & & & & % % & & % % & & % % & & % % % % % % % % $ $ % % $ $ $ $ $ $ $ $ $ $ $ $ # # $ $ # # $ $ # # # # $ $ # # $ $ # # $ $ # # + + $ $ @ @ + + @ @ $ $ @ @ + + @ @ + + @ @ + + . . + + . . + + . . . . + + . . @ @ . . . . + + . . . . - -   ",
"  . . . . . . . . . . . . . . . . . . . . . . . . . . . . . . . . . . @ @ . . @ @ . . + + . . + + @ @ + + @ @ # # + + # # $ $ $ $ $ $ $ $ $ $ $ $ $ $ $ $ $ $ $ $ $ $ % % $ $ % % % % % % % % & & % % & & % % & & % % & & % % & & % % & & & & & & & & & & & & & & & & & & & & & & & & & & & & & & & & * * & & * * * * * * * * * * * * * * * * * * * * * * * * * * * * * * * * * * * * * * * * * * * * * * * * * * * * * * * * * * * * * * * * * * * * * * & & * * & & & & & & & & & & & & & & & & & & & & & & & & % % & & % % & & & & % % & & & & % % & & % % & & % % & & % % % % % % % % $ $ % % $ $ $ $ $ $ $ $ $ $ $ $ # # $ $ # # $ $ # # # # $ $ # # $ $ # # $ $ # # + + $ $ @ @ + + @ @ $ $ @ @ + + @ @ + + @ @ + + . . + + . . + + . . . . + + . . @ @ . . . . + + . . . . - -   ",
"  . . . . . . . . + + . . + + . . + + . . + + . . + + @ @ + + @ @ $ $ + + # # + + # # + + # # + + # # + + + + + + # # + + # # $ $ # # $ $ # # $ $ # # $ $ $ $ # # $ $ $ $ $ $ $ $ % % $ $ % % % % & & % % & & % % & & & & & & & & & & & & & & & & & & & & & & & & & & & & & & & & & & & & & & & & * * & & * * * * * * * * * * * * * * * * * * * * * * * * * * * * * * * * * * * * * * * * * * * * * * * * * * * * * * * * * * * * * * * * * * * * * * * * * * * * * * & & * * & & & & & & & & & & & & & & & & & & & & & & & & & & & & & & & & & & & & % % & & % % % % % % % % % % % % % % % % % % % % $ $ % % $ $ % % $ $ % % $ $ $ $ $ $ $ $ $ $ $ $ $ $ $ $ $ $ $ $ # # # # $ $ # # + + # # $ $ # # + + # # + + # # + + + + + + + + @ @ + + . . + + . . . . + + . . + + . . . . -   > ",
"  . . . . . . . . + + . . + + . . + + . . + + . . + + @ @ + + @ @ $ $ + + # # + + # # + + # # + + # # + + + + + + # # + + # # $ $ # # $ $ # # $ $ # # $ $ $ $ # # $ $ $ $ $ $ $ $ % % $ $ % % % % & & % % & & % % & & & & & & & & & & & & & & & & & & & & & & & & & & & & & & & & & & & & & & & & * * & & * * * * * * * * * * * * * * * * * * * * * * * * * * * * * * * * * * * * * * * * * * * * * * * * * * * * * * * * * * * * * * * * * * * * * * * * * * * * * * & & * * & & & & & & & & & & & & & & & & & & & & & & & & & & & & & & & & & & & & % % & & % % % % % % % % % % % % % % % % % % % % $ $ % % $ $ % % $ $ % % $ $ $ $ $ $ $ $ $ $ $ $ $ $ $ $ $ $ $ $ # # # # $ $ # # + + # # $ $ # # + + # # + + # # + + + + + + + + @ @ + + . . + + . . . . + + . . + + . . . . -   > ",
"- . . . . . . . . . . + + . . + + @ @ + + @ @ + + @ @ + + + + $ $ + + # # + + # # + + # # + + # # + + # # + + + + + + + + $ $ # # $ $ # # $ $ $ $ # # $ $ $ $ # # $ $ % % $ $ % % % % % % % % & & % % & & & & & & & & & & & & & & & & & & & & & & & & & & & & & & & & & & & & & & & & & & & & * * & & * * * * * * * * * * * * * * * * * * * * * * * * * * * * * * * * * * * * * * * * * * * * * * * * * * * * * * * * * * * * * * * * * * * * * * * * * * * * * * * * * * & & & & & & & & & & & & & & & & & & & & & & & & & & & & & & & & & & & & % % & & % % & & % % % % % % % % % % % % % % % % % % % % $ $ % % $ $ % % $ $ % % $ $ % % $ $ $ $ $ $ $ $ # # $ $ # # $ $ # # # # $ $ # # $ $ # # $ $ # # + + # # + + # # + + + + @ @ + + . . + + . . + + + + . . + + . . . , , . - ' ' ",
"  . . . . . . . . . . + + . . + + @ @ + + @ @ + + @ @ + + + + $ $ + + # # + + # # + + # # + + # # + + # # + + + + + + + + $ $ # # $ $ # # $ $ $ $ # # $ $ $ $ # # $ $ % % $ $ % % % % % % % % & & % % & & & & & & & & & & & & & & & & & & & & & & & & & & & & & & & & & & & & & & & & & & & & * * & & * * * * * * * * * * * * * * * * * * * * * * * * * * * * * * * * * * * * * * * * * * * * * * * * * * * * * * * * * * * * * * * * * * * * * * * * * * * * * * * * * * & & & & & & & & & & & & & & & & & & & & & & & & & & & & & & & & & & & & % % & & % % & & % % % % % % % % % % % % % % % % % % % % $ $ % % $ $ % % $ $ % % $ $ % % $ $ $ $ $ $ $ $ # # $ $ # # $ $ # # # # $ $ # # $ $ # # $ $ # # + + # # + + # # + + + + @ @ + + . . + + . . + + + + . . + + . . , , . . - '   ",
"- . . . . . . + + . . . . + + @ @ + + @ @ + + @ @ + + @ @ # # + + # # + + # # + + # # + + # # + + # # $ $ # # + + # # $ $ # # $ $ # # # # $ $ # # $ $ $ $ # # $ $ % % $ $ % % $ $ % % % % % % % % & & % % % % % % % % & & % % & & & & % % & & & & & & & & & & & & & & & & & & & & & & & & & & & & * * * * * * * * * * * * * * * * * * * * * * * * * * * * * * * * * * * * * * * * * * * * * * * * * * * * * * * * * * * * * * * * * * * * * * * * * * * * * * * * * * & & * * & & & & & & & & & & & & & & & & & & & & % % & & & & & & & & & & & & & & % % % % & & % % % % & & % % & & % % % % % % % % $ $ % % $ $ % % $ $ % % $ $ % % $ $ # # $ $ $ $ # # # # # # # # # # # # # # # # + + # # $ $ # # + + # # + + + + + + + + @ @ + + . . + + . . + + . . . . + + . . + + . . . . -   > ",
"- . . . . . . + + . . . . + + @ @ + + @ @ + + @ @ + + @ @ # # + + # # + + # # + + # # + + # # + + # # $ $ # # + + # # $ $ # # $ $ # # # # $ $ # # $ $ $ $ # # $ $ % % $ $ % % $ $ % % % % % % % % & & % % % % % % % % & & % % & & & & % % & & & & & & & & & & & & & & & & & & & & & & & & & & & & * * * * * * * * * * * * * * * * * * * * * * * * * * * * * * * * * * * * * * * * * * * * * * * * * * * * * * * * * * * * * * * * * * * * * * * * * * * * * * * * * * & & * * & & & & & & & & & & & & & & & & & & & & % % & & & & & & & & & & & & & & % % % % & & % % % % & & % % & & % % % % % % % % $ $ % % $ $ % % $ $ % % $ $ % % $ $ # # $ $ $ $ # # # # # # # # # # # # # # # # + + # # $ $ # # + + # # + + + + + + + + @ @ + + . . + + . . + + . . . . + + . . + + . . , . -   > ",
"- . . . . @ @ . . . . . . @ @ . . @ @ . , @ @ . . + + @ @ + + @ @ + + @ @ + + + + @ @ + + @ @ + + @ @ + + + + # # $ $ # # $ $ # # $ $ # # $ $ # # $ $ $ $ # # $ $ $ $ $ $ $ $ # # $ $ % % % % % % % % % % % % % % % % & & % % % % % % & & & & & & & & & & & & & & & & & & & & & & & & & & & & & & & & & & & & * * & & * * * * * * * * * * * * * * * * * * * * * * * * * * * * * * * * * * * * * * * * * * * * * * * * * * * * * * * * * * * * * * * * * * & & * * & & & & & & & & & & & & & & & & & & & & & & & & % % & & % % % % % % % % % % & & % % % % % % % % % % % % % % % % % % % % $ $ % % $ $ $ $ $ $ $ $ $ $ $ $ # # $ $ # # $ $ $ $ # # $ $ # # + + # # + + $ $ + + # # @ @ + + @ @ + + @ @ + + @ @ + + . . + + . . @ @ + + . . @ @ . . @ @ + + + + . . + + . . . , , . ' '   ",
"- . . . . @ @ . . . . . . @ @ . . @ @ . . @ @ . . + + @ @ + + @ @ + + @ @ + + + + @ @ + + @ @ + + @ @ + + + + # # $ $ # # $ $ # # $ $ # # $ $ # # $ $ $ $ # # $ $ $ $ $ $ $ $ # # $ $ % % % % % % % % % % % % % % % % & & % % % % % % & & & & & & & & & & & & & & & & & & & & & & & & & & & & & & & & & & & & * * & & * * * * * * * * * * * * * * * * * * * * * * * * * * * * * * * * * * * * * * * * * * * * * * * * * * * * * * * * * * * * * * * * * * & & * * & & & & & & & & & & & & & & & & & & & & & & & & % % & & % % % % % % % % % % & & % % % % % % % % % % % % % % % % % % % % $ $ % % $ $ $ $ $ $ $ $ $ $ $ $ # # $ $ # # $ $ $ $ # # $ $ # # + + # # + + $ $ + + # # @ @ + + @ @ + + @ @ + + @ @ + + . . + + . . @ @ + + . . @ @ . . @ @ + + + + . . + + . . . , . . - ' ' ",
"- . . , , . . . . . . ) ) ! ! ! ! ! ! ~ {     ' - ] ] ^ ^ ^ ^ ! ! ^ ^ ! ! ! ! ! ! ^ ^ / / / ( ! ! / / ! ! ( ( _ ! ( ( ! ! / / ^ ^ / ( ! ! / / ! ! ( / ! ! ( ( ! ! ( ( ! ! ( ( ! ! ( ( ! ! ( / ! ! / / ! ! / / ! ! ( / ! ! / ( ! ! ( ( ! ! / ( ! ! / ( ! ^ ( ( ^ ^ / ( ^ ^ / ( / / : : / / ( ( ^ ^ ( / ^ ^ / ( ^ ^ ( / ^ ^ / ( ^ ^ ( ( ^ ^ / ( ^ ^ ( ( / / : : / / : : / / : : / / : : / / ( ( ^ / / ( ^ ^ / ( ^ ^ ( / / / ( ( ^ ^ / ( ^ / / ( / / ( ( / / ( ( / / ( ( / ^ ( ( / ^ ( ( / / / / ^ ^ ( ( / / ( ( ( / / / / / ( ( ^ ^ / ( ^ ^ ( ( ^ ^ ( ( ^ ^ ( ( / ^ ( ( ! ! ( ( ^ ^ / ( ! ! / ( ! ^ / / ! ! / / ! ! / ( ! ! ( / ^ ^ ( ( ! ! / ( ! ^ ( ( ! ! ( / ! _ ( ( ! ! ! _ ! ! ! ! ! ! _ ! ! ! ( ( ! ! ! ! ! ! ! ! ! ! ^ ^ ] ] < < [ [ } } ! ! ! ! ! ! | | . . . . , , . . . . ' ' ; ",
"  . . , , . . . . . . ) ) ! ! ! _ ! ! ~ {     ' - ] ] ^ ^ ^ ^ ! ! ^ ^ ! ! ! ! ! ! ^ ^ / ( ^ / ! ! / ( ! ! ( ( ! ! / ( ! ! / ^ ^ ^ ( ( ! ! / / ! ! / / ! ! ( / ! ! / ( ! ! ( ( ! ! ( ( ! ! / / ! ! ( / ! ! / / ! ! / ( ! ! / ( ! ! ( ( ! ! ( ( ! ! ( ( ^ ^ ( ( ^ ^ / ( ^ ^ ( ( / / : : / / ( ( ^ ^ / / / ^ ( ( ^ ^ ( / ^ ^ ( ( ^ ^ ( ( ^ ^ ( ( ^ ^ ( ( / / : : / / : : / / : : / / : : / / ( ( ( ^ / ( ^ ^ / ( ^ ^ ( / / ( ( ( / ^ ( ( ^ / ( / / / ( ( ^ / ( / / / ( / ^ ^ ( ( ^ ^ ( ( / / ( ( ^ ^ ( ( ( / / ( ( / / / / / ( ( ^ ^ / ( ^ ^ ( ( ^ ^ ( ( ^ ^ ( / / ^ ! ( ! ! ( ( ^ ^ / ( ! ! / ( ! ^ / / ! ! ^ / ! ! / ( ! ! ( / ^ ^ ( ( ! ! / ( ! ^ ( ( ! ! ( ( ! _ ( ( ! ! ! ! _ ! ! ! ! ! ! ! ! ! ( ( ! ! ! ! ! ! ! ! ! ! ^ ^ ] ] < < [ [ } } ! ! ! ! ! ! | | . . . . , , , . . . ' ' ; ",
"- . . , . . . , . . , ) ) ! ! ! ! ! ! 1 1 2 2 2 2 3 3 4 4 5 5 6 6 7 7 7   > > ( ( ! ! ! ! ! ! / ^ ! ! / / ! ! ! ! ! ! ( ( ! ! ^ ^ ! ! / ( ! ! / / ! ! / ( ! ! ( ( ! ! ( ( ! ! ( ( ! ! ( ( ! ! ( ( ! ! ^ / ! ! / ( ! ! ( / ! ! / ( ! ! ( / ! ! ( / ^ ^ / ( ^ ^ ( ( ^ ^ / ( ^ ^ ( ( ^ / / ( ^ ^ / ( ^ ^ ( / / ^ / / ^ / / / ^ / / ( ^ ^ ( ( ^ ^ ( ( ^ ^ ( ( / ( : : / / : : / / : : / / : : ^ ^ ( ( ^ ^ ( ( ^ ^ / ( ^ ^ ( ( ^ / ( ( ^ ^ ( ( ^ ^ ( ( ^ ^ ( ( ^ ^ ( ( / ^ ( ( / ^ ( ( / ^ ( ( ^ ^ ( ( / ^ ( ( ^ ^ ( ( ^ ^ / ( / ^ ( ( ^ ^ ( ( ^ ^ ^ / ( ! ( / ^ ! ( / ^ ^ ( / ! ! ( ( ^ ^ ( ( ^ ! ( / ^ ! ^ ^ ! ! / ^ ! ! ^ ^ ! ! / / ! ! / ( ^ ^ / ( ! ! ! ! ! ! ! ! ! ! ! ! ! ! ! ! ! ! ! ! ! ! ^ ^ ! ! - - - - 6 6 8 8 9 9 9 9 0 0 0 2 a a b b ! ! ! c c c ) ) . . . . . . . . . ,     ; ",
"  . . , . . . , . , , ) ) ! ! ! ! ! ! 1 1 2 2 2 2 3 3 4 4 5 5 6 6 7 7 7   > > ( ( ! ! ! ! ! ! ^ ^ ! ! / ( ! ! ! ! ! ! ( ( ! ! / ^ ! ! / ( ! ! ( / ! ! / / ! ! ( ( ! ! ( ( ! ! ( ( ! ! ( ( ! ! ( ( ! ! / / ! ! / / ! ! / ( ! ! ( ( ! ! / ( ! ! ( / ! ^ ( ( ^ ^ ( / / ^ / / ^ ^ / ( ^ / ( ( ^ ^ ( ( ^ ^ / / ^ / / ^ ^ ^ / ( ^ ^ ( ( ^ / ( ( ^ ^ ( ( ^ ^ ( ( / / : : / / : : / / : : / / : : ^ ^ / ( ^ ^ ( ( ^ / ( ( ^ ^ / ( ^ ^ ( ( ^ / ( ( ^ ^ ( ( ^ ^ ( ( ^ ^ ( ( ^ ^ ( ( / ^ ( ( / ^ ( ( / ^ ( ( / ^ ! ( ^ ^ ( ( ^ ^ ( ( ^ ^ ( ( ^ ^ ( ( ^ ^ / ( ! ! / / ! ! / ( ^ ^ / / ! ! ( ( ^ ^ ( ( ^ ! / / ! ! / ^ ! ! / ^ ! ! / ^ ! ! ( / ! ! / / ^ ^ / ( ! ! ! ! ! ! ! ! ! ! ! ! ! ! ! ! ! ! ! ! ! ! ^ ^ ! ! - - - - 6 6 8 8 9 9 9 9 0 0 0 2 a a b b ! ! ! c c c ) ) . . . . , . . . . ,     ; ",
"  . . . . . . . . . . ) ) ( ( ! ! ! ! 1 1 d d d d e e f f f 0 g g 2 2 3 3 1 1 h h h i b b     ; ; > > j j / / ! ! ! ! ! ! ^ ^ ! ! ! ! ! ! ! ! ! ! ( ( ! ! ( ( ! ! ( ( ! ! ( ( ! ! ( ( ! ! ( ( ! ! ( ( ! ! ( ( ! ! ( ( ! ! ( ( ! ! / ( ! ! / / ! ! / / ! ! / ( ^ ^ / / ^ ^ / / ^ / / ( ^ ^ / ( ^ ^ ( / ^ ^ / ( ^ ^ ( / ^ ^ ( ( ^ ^ ( / ^ ^ / ( ^ ^ ( ( ^ / : : / / : : / ( : : / / : : / / ( ( ^ ^ / ( ^ ^ ( / ^ ^ / / ^ / / ( ^ ^ ( ( ^ ^ ( ( ^ ^ ( ( ^ ^ ( ( ^ ^ ( ( ^ ^ ( / / ^ / / ^ / / ( ^ ^ ( ( / ^ ! ( ^ ^ ( ( ^ ^ ( ( ^ ^ / ( ^ ^ ( ( ! ! / ( ! ! ( / ! ! ( ( ! ! ( ( ^ ! ( ( ! ! ( ( ! ! ! ! ! ! ^ ^ ! ! / / ! ! ( / ! ! ( ( ! ! / ^ ! ! / ( ! ! ! ! ! ! ! ! ! ! ( ( > > - - 6 6 8 5 h h k k 1 1 1 1 1 1 d d 1 1 2 2 2 0 a a 2 2 6 6 ! ! ! ! ! ! ) ) . . . . . . , , . .     l ",
"  . . . . . . . . . . ) ) ( ( ! ! ! ! 1 1 d d d d e e f f 0 0 g g 2 2 3 3 3 1 h h i i b b     ; ; > > j j / / ! ! ! ! ! ! ^ ^ ! ! ! ! ! ! ! ! ! ! ( ( ! ! ( / ! ! ( ( ! ! ( ( ! ! ( ( ! ! ( ( ! ! ( ( ! ! ( / ! ! ( ( ! ! ( ( ! ! ( / ! ! / ( ! ! ( / ! ! ( / ^ ^ / / / ^ ^ / ^ ^ / ( ^ ^ ( / ^ ^ / / / ^ / / ^ ^ / / ^ / / ( ^ ^ ( ( ^ ^ ( ( ^ ^ / ( ^ ^ : : / / : : / / : : / / : : / / ( ( ^ ^ / ( ^ ^ ( / ^ ^ / / ^ ^ / ( ^ ^ ( ( ^ ^ ( ( ^ ^ ( ( ^ ^ ( / ^ ^ ( ( ^ ^ ( / ^ ^ ( ( ^ ^ ( / ^ ^ ( ( ^ ^ ( ( ^ ^ ( / ^ ^ ( ( ^ ^ / ( ^ ^ ( ( ! ! ( / ^ ! ^ / ! ! ( ( ! ! / / ! ! ( ( ! ! ( ( ! ! ! ! ! ! ^ ^ ! ! ^ / ! ! ( / ! ! ( ( ! ! ^ ^ ! ! / ( ! ! ! ! ! ! ! ! ! ! ( ( > > - - 6 6 8 5 h h k k 1 1 1 1 1 1 d d 1 1 2 2 2 0 a a 2 2 6 6 ! ! ! ! ! ! ) ) . . . . . . , , . .     l ",
"  . . . . , . . . . , ) ) ! m ! ! ! ! 1 1 2 2 n n 0 g e e a a a a 0 0 2 0 1 1 1 1 1 1 2 2 9 9 9 9 k k k k 5 5 6 6 - - - - ; ; o o ! ! ! ! ! ! ! ! ! ! ! ! ! ! ! ! ! ! ! ! ! ! ! ! ! ! ! ! ! ! ( ( ! ! ( ( ! ! ( / ! ! ( / ! ! / ( ! ! ( / ! ! ( / ! ! ( / / ^ / / ( ^ ^ ( / / : : / / : : / ^ ^ / ( ^ ^ ( / ^ ^ / ^ ^ ( ( ^ ^ ( ( / ^ ( ( ^ ^ ( / / / ( ( / / : : / / : : / / : : / / : : / / ( ( ^ ^ ( ( ^ ^ ( / ^ ^ ( ( ^ ^ ( / ! ! / ( ! ^ ( ( ^ ^ ( / ^ ^ ( ( ^ ^ / / ^ / / / ^ / ( ( / ^ ^ / ^ ^ ( ( ^ ^ ( / ^ ^ ( ( ! ! ( ( ! ! / / ! ! / / ! ! / / ! ! ^ ^ ! ! ^ ^ ! ! / / ! ! ! ! ! ! ! ! ! ! ! ! ! ! ^ ^ ! ! ^ / ! ! ( / ! ! ! ! ! ! ! ! o o - - - - 6 6 8 8 k k k k 1 1 k k 1 1 1 1 1 1 1 1 d d d d d d 0 g d d g g d d g 0 a a 6 6 ! _ ! ! ( ( | | . , , . . . , . . . '   ; ",
"  . . . . , . . . . , ) ) ! m ! ! ! ! 1 1 2 2 n n 0 g e e e a a a 0 0 0 2 1 1 1 1 1 1 2 2 9 9 9 9 k k k k 5 5 6 6 - - - - ; ; o o ! ! ! ! ! ! ! ! ! ! ! ! ! ! ! ! ! ! ! ! ! ! ! ! ! ! ! ! ! ! ( ( ! ! ( ( ! ! ( / ! ! ( ( ! ! ( ( ! ! ( ( ! ! ( ( ! ! ( / / ^ / / ( ^ ^ ( / / : : / / : : ^ ^ / ( ^ ^ ( / ^ ^ / / ^ ^ ( ( ^ ^ ( ( / ^ ( ( ^ ^ ( ( ^ / / ( / / : : / ( : : / / : : / / : : ^ / / ( ^ ^ / ( ^ ^ ( / ^ ^ / / ^ ^ ( ( ! ! / ( ! ^ ( ( ^ ^ ( ( ^ ^ ( ( ^ ^ ( / ^ ^ ( / / ^ ( ( / ^ / ^ ^ ^ ( ( ^ ^ ( / ^ ^ ( / ! ! / / ! ! / ( ! ! / / ! ! / / ! ! ^ ^ ! ! / ^ ! ! / / ! ! ! ! ! ! ! ! ! ! ! ! ! ! ^ ^ ! ! ^ / ! ! / ( ! ! ! ! ! ! ! ! o o - - - - 6 6 8 5 k k k k 1 1 k k 1 1 1 1 1 1 1 1 d d d d d d g 0 d d g 0 d d 0 0 a a 6 6 ! _ ! ! ( ( | | . , , . . . , . . .     ; ",
"  . . . . , , . . . , ) ) ( ( p p ! ! 1 1 d d d d 2 2 6 q r r r r 5 5 g g d d d d d d d d 1 1 1 3 3 g 1 1 3 g 9 9 g g 9 9 1 1 h i h h } } - - > > - - ( ( ! ! ! ! ! ! ! ! ! ! ! ! ! ! ! ! ^ ^ ! ! ! ! ! ! / / ! ! ! ! ( s ! ! ! ! ( ( ! ! ( ( ! ! / / ! ! ( / ! ! ( / ! ! ( ( ^ ^ ( ( ^ ^ / ( ! ! ( ( ! ! ( / ! ! ( ( ^ ! ( ( ! ! / ( ! ! ( / ! ! ( / ! ! ( / / ^ / / ^ / / / ^ ^ : : / / ( ( ^ ^ ( ( ^ ^ / ( ^ ^ / ( ^ ^ ( ( ^ ^ ( ( ^ ^ ( ( ^ ^ ( / ^ ^ ( ( / ^ ( ( ^ ^ / / ^ / ( / ^ ^ ( ( ( ^ ( ( ^ ^ ( ( ^ ^ ( ( / ^ / / ! ! / / ! ! ( ( ! ! ( ( ! ! ( / ! ! / ^ ! ! ( ( ! ! ( ( ! ! ^ ^ ! ! ^ / ! ! ! ! ! ! ^ / ! ! ] ] - - - - t t 8 8 h h k k k k 1 1 1 1 g g 1 1 1 1 3 3 3 1 g g 2 2 2 0 2 2 3 1 2 2 r r r u     - - 3 3 n n a a 6 6 ! ! ! ! ! ! ) ) . . . . . , . . . .     l ",
"  . . . . . , . . . . ) ) ( ( p p ! ! 1 1 d d d d 2 2 6 q r r r u 5 5 g g d d d d d d d d 1 1 3 3 g g 1 1 g g 9 9 g g 9 9 1 1 h i h h } } - - > > - - ( ( ! ! ! ! ! ! ! ! ! ! ! ! ! ! ! ! ^ ^ ! ! ! ! ! ! / / ! ! ! ! ( s ! ! ! ! ( ( ! ! ( ( ! ! / / ! ! ( ( ! ! ( ( ! ! ( / ! ^ ( ( ^ ^ ( / ! ! ( ( ! ! ( / ! ! ( ( ! ! ( ( ! ! ( / ^ ! ^ / ! ! / ( ! ^ / / ^ / / / / ^ / / / ^ : : / / ( ( ^ ^ ( ( ^ ^ / ( ^ ^ ( ( ^ ^ ( / ^ ^ ( ( ^ ^ ( ( ^ ^ / / ^ ^ ( ( / ^ ( ( ^ ^ / / / ^ / / ^ ^ ( ( ^ ^ / ( / ^ ( ( ^ ^ ( ( ^ ^ ( ( ! ! / / ! ! ( ( ! ! ( ( ! ! ( ( ! ! ^ ^ ! ! ( ( ! ! ( ( ! ! / ^ ! ! ^ ^ ! ! ! ! ! ! ( ( ! ! ] ] - - - - t t 8 8 h h k k k k 1 1 1 3 g g 1 1 1 1 3 3 1 1 g g 2 2 2 2 0 2 1 1 2 2 r r r u     - - 3 3 n n n a 6 6 ! ! ! ! ! ! ) ) . . . . . , . . . .     l ",
"  . . . . . , . . , , ) ) ! m ! ! ! ! 1 1 d d d d g 0 ; ; - - / / ( ( o o ( ( > > 6 6 r r r u 1 1 9 9 g 0 g g 1 1 1 1 2 2 3 1 1 1 3 g 1 1 k k 1 1 k k 1 1 h h i i b b   - - - > > ! ! ! ! ! ! ! ! ! ! ! ! ! ! ( ( ! ! ! m ! ! ! ! ! ! ( ( ! ! / / ! ! / ( ! ! ^ ^ ! ! ^ / ! ! / / ! ! / ( ^ ^ ( ( ^ ^ ( ( ^ ^ ( ( ^ ^ ( / / ^ ( ( ^ ^ ( ( ^ ^ ( / ^ ^ ( ( / / : : / / : : / / : : / / : : ^ ^ / ( ^ ^ ( / ^ ^ / / ^ ^ / / ^ / ( ( ^ ^ ( ( ^ ^ ( ( / ^ ( ( ^ ^ ( ( ^ ^ / / ^ ^ ( ( ^ ^ / / ^ ^ ( ( ^ ^ / / ^ ^ ( / ( ^ ( ( ! ! / ( ! ! ( / ! ! ( / ^ ^ / / ! ! ! ! ! ! ! ! ! ! ! ! ! ! ( ( ! ! ! ! > > 7 7   7 t t 5 5 k k v v 4 4 9 9 g 3 k k 1 1 1 1 1 1 1 1 1 1 1 1 1 1 1 1 1 1 r r r u [ [ - - o o ( ( ^ ^ ! ! ! !     w w 1 1 3 g n n 6 6 ! ! ! _ ( ( | | . , . . . . , . . . '   ; ",
"  . . . . . . , . . , ) ) ! m ! ! ! ! 1 1 d d d d g 0 ; ; - - ( / ( ( o o / ( > > 6 6 r r r u 1 1 9 9 g 0 g g 1 1 1 1 2 2 3 1 1 1 1 3 g 1 k k 1 1 k k 1 1 h h i i b b   - - - > > ! ! ! ! ! ! ! ! ! ! ! ! ! ! ( ( ! ! ! m ! ! ! ! ! ! ( ( ! ! / / ! ! ( / ! ! ^ ^ ! ! ^ / ! ! / / ! ! ( / ^ ^ ( ( ^ ^ ( ( ^ ^ ( ( ^ ^ / ( / ^ ( ( ^ ^ ( ( ^ ^ ( ( ^ ^ / ( / ( : : / / : : ^ / : : / / : : ^ ^ ( ( ^ ^ ( ( ^ ^ / ( ^ ^ / / ^ / ( ( ^ ^ ( ( ^ ^ ( ( ^ ^ ( ( ^ ^ ( ( ^ ^ / / ^ ^ / / ^ / / / ^ ^ ( ( ^ ^ / / ^ ^ ( / ( ^ ( ( ! ! ( / ^ ! ^ / ! ! ( / ^ ^ / / ! ! ! ! ! ! ! ! ! ! ! ! ! ! ( ( ! ! ! ! > > 7 7 7   t t 5 5 k k v v 4 4 4 9 3 3 k k 1 1 1 1 1 1 1 1 1 1 1 1 1 1 1 1 1 1 r r r u [ [ - - o o ( ( ^ ^ ! ! ! !     w w 1 1 g g n n 6 6 ! ! ! _ ( ( | | . , . . . . . , . . -   ; ",
"  . . . . , , , . . . ) ) ( ( p p ! ! k k d d 2 2 2 0 b b 9 9 k k k k     { { ' - - - - - o o ( ( ( ( ( ( r r 6 6 r r 8 8 1 1 1 1 d d 1 1 3 1 1 3 g 1 1 1 1 1 k k 1 1 h i 4 4 5 8 8 8 r r b b > > > > o o o o ! ! ( s ! _ ( s ! m s s ! m s s m s s s m m s s m s s m m s s m s s x x s s x x s s x x s s x x s s x x s s x x ( s x x s s x x s s x x s s x x s ( x x s ( / ( ( s s ( s s x x ! m s s m m ( ( ( s ( ( ( s x x ! m s s s m s s m m s s m m s s m m ( ( s s m ( s s ( ( ( s s m m m s s m m s s m s s s m m ( s ! m m s m m s m m m s s _ _ ( m s m ! ! ! ! l l > > - - r r 5 8 r r v v h h 4 4 v v g g 1 1 9 9 1 1 g g g g 1 1 1 1 1 1 1 1 8 8 6 6 r r > > j j j j / / ! ! ! ! -   w w i h v v v v 9 9 k k q q g g a a 2 2 6 6 ! ! ! _ c c ) ) , , . . . . . . . , ' ' ; ",
"' . . . , , , . . . . ) ) ( ( p p ! ! k k d d 2 2 2 0 b b 9 9 k k k k     { { ' -     - - o o ( ( ( ( ( ( r r 6 6 r r 8 8 1 1 1 1 d d 1 1 1 3 g 1 1 1 1 1 1 1 k k 1 1 h i 4 4 5 8 8 8 r r b b > > > > o o o o ! ! ( s ! _ s s m m s s m m s s s m m s s m s s m m ( s s m m s s s x x s s x x s s x x s s x x s s x x s s x x ( s x x ( s x x s s x x s s x x ( ( x x ( ( / ( s s ( s ( s x x s m s s m m ( s s s ( ( ( s x x s m s m m m s ( m s s m m s s s s m ( ( ( s s ( ( s ( ( ( s s s m m ( s s m s s s m s s s m s s ! m m s m m s s m m s s _ _ ( m m ! ! ! ! ! l l > > - - r r 8 8 r r v v h h 4 4 v v g g 1 1 9 9 1 1 3 g g g 1 1 1 1 1 1 1 1 8 8 6 6 r r > > j j j j / / ! ! ! !     w w i h v v v v 9 9 k k q q g g a a 2 2 6 6 ! ! ! ! ! c ) ) , , . . . . . . . . ' ' ; ",
"  . . . . . , . . , , ) ) ! ! ! ! ! ! 1 1 2 0 2 2 2 0 t t 1 1 1 1 } } h h i i d d 1 1 d d 1 1 3 1 h h { { y { { { ( ( ( ( ( ( l l o o z z z r r u 1 1 d d 1 1 1 1 1 1 1 1 k k 4 4 v i k k h h 5 5 r r 5 8 8 8 r r 6 6 A A B B C C s s D D D D D D D D D D D D D D D D D D D D D D D D D D D D D D D D D D D D D D D D D D D D D D D D D D D D D D D D D D D D p p D D p p D D D D D D D D D D D D D D D D D D D D D D D D D D D D D D D D D D D D D D D D D D D D D D D D D D D D D D D D D D D D D D D D D D D D D D D D D D D D D D D D D D s s B B E E ~ ~ F F F r 8 8 r F 8 8 h h k k h h k k 4 4 1 1 9 9 g 0 g 3 3 g g g 8 8 [ [ r r > > o o ( ( ( ( ! ! ! !     { { y { v v 9 9 2 2 d d n n 0 2 2 2 v v 5 5 9 9 g 3 q q g g 2 2 2 2 6 6 ! ! ! c ( ( | | . , . . . . . . . .     ; ",
"  . . . . . . , . . , ) ) ! ! ! ! ! ! 1 1 0 g d 2 2 0 t t 1 1 1 1 } } h h h i d d 1 1 d d 1 1 1 1 h i { { y { { { ( ( ( ( ( ( l l o o z z r r r u 1 1 d d 1 1 1 1 1 1 1 1 k k 4 4 i h k k h h 5 5 r r 8 8 8 8 r r 6 6 A A B B C C s s D D D D D D D D D D D D D D D D D D D D D D D D D D D D D D D D D D D D D D D D D D D D D D D D D D D D D D D D D D D D p p D D p p D D D D D D D D D D D D D D D D D D D D D D D D D D D D D D D D D D D D D D D D D D D D D D D D D D D D D D D D D D D D D D D D D D D D D D D D D D D D D D D D D D s s B B B E ~ ~ F F F r 8 8 r r 8 8 h h k k h h k k 4 4 1 1 9 9 0 g 3 3 3 g g g 8 8 [ [ r r > > o o ( ( ( ( ! ! ! !     { { { { v v 9 9 2 2 d d n n 0 2 2 2 v v 5 5 9 9 g 3 q q g g 2 2 2 2 6 6 ! ! ! c ( ( | | . , . . . . . . . .     ; ",
"  . . . . , . . . . , ) ) ( ( ! ! ! c k k a a 2 2 1 1 [ [ 3 3 g 3 G G H H I I n n a n n a n n n J 2 2 2 K n n 0 g 1 1 1 1 k k L L L L     - - / / ( ( ( ( l o b b r r 6 6 r r 1 1 1 1 k k h h h i i h 5 8 h h 5 8 8 8 8 8 r r M M r r r z N N E E s s m m O O D D p p D D D D D D D D D D D D D D D D D D D D D D D D D D D D D D D D D D D D D D D D D D D D D D D D D D D D D D D D D D D D D D D D D D D D D D D D D D D D D D D D D D D D D D D D D D D D D D D D D D D D D D D D D D D D D D D D D D D D D D D D P P s s O O Q Q M M r r r z 8 8 r r 8 8 r z 8 8 8 8 h h i i k k k k 9 9 k k 1 1 [ [ r r [ [ > > ( ( j j / ( ( ^     w L G G R R R R 1 1 t t 2 2 2 0 2 2 2 2 n n S S S S S T n n } } 5 5     3 3 4 9 [ [ 3 g e e a e 6 6 ! ! ! _ ! ! | | . , . . . . . , . . ' ' ; ",
"  . . . . , . . . . , ) ) ( ( ! ! ! c k k a a 2 2 1 1 [ [ 3 3 g 3 G G H H I I n n a n n n n a n J 2 2 2 2 n n 0 g 1 1 1 1 k k L L L L     - - / / / ( ( ( o o b b r r 6 6 r r 1 1 1 1 k k h h i i h h 5 8 h h 5 8 8 8 8 8 r r M M r r r 6 N N E E s s m m O O D D p p D D D D D D D D D D D D D D D D D D D D D D D D D D D D D D D D D D D D D D D D D D D D D D D D D D D D D D D D D D D D D D D D D D D D D D D D D D D D D D D D D D D D D D D D D D D D D D D D D D D D D D D D D D D D D D D D D D D D D D D D P P s s O O Q Q M M r r r 6 8 8 r r 8 8 z z 8 8 8 8 h h h i k k k k 9 9 k k 1 1 [ [ r r [ [ > > ( ( j j / / / /     w L G G R R R R 1 1 t t 2 2 2 0 2 2 2 2 n n S S S S T n n n } } 5 5     3 3 4 9 [ [ 3 g e e a e 6 6 ! ! ! _ ! ! | | . , . . . . . , . . ' ' ; ",
"- = = . . . . , . . . | | ! ! ! ! ! ! 1 1 2 2 n n 0 g t t 1 3 0 2 [ [ U U U ; n n a n n n J J J n 0 2 n n a n } } 4 4 1 1 n n a n n n J n 0 2 g g 9 9 b b { { { { ' - ( ( ( ( ( ( ( ( 6 6 b b 6 6 b b h h i i 8 8 8 V 8 8 6 6 8 8 r z z r r z z r A A W W B B A A B B x x O O X X P P D D D D D D D D D D D D D D D D D D D D D D D D D D D D D D D D D D D D D D D D D D D D D D D D D D D D D D D D D D D D D D D D D D D D D D D D D D D D D D D D D D D D D D D D D D D D D D D D D D D D m s O O Y Y W W A A W W A A C C z z M M r r z z r r 8 8 8 8 8 8 8 8 8 8 8 8 h h 6 6 b b > > ; ; ( ( ( ( ! ! ! ! { { ' - h h 4 9 1 1 d d d d n n n a Z Z ` ` t t 1 1 8 8 n n a n n n J n S S T n n J n n  . .[ [ 9 9 g 3 9 9 q q g 0 a e e a b b ! ! ! _ s s ) ) , . . . . , . . . .     ; ",
"- = = . . . . , . . . | | ! ! ! ! ! ! 1 1 2 2 n n 0 g t t 3 3 g 0 [ [ U U U ; n n a n n n J n n n 0 2 n n a n } } 4 4 1 1 n n a n n n J n 2 2 3 g 9 9 b b { { { {   ' ( ( ( ( ( ( ( ( 6 6 b b 6 6 b b h h i i 8 8 8 V 8 8 M M 8 8 r z r r r z z z A A W W B B A A B B x x O O X X P P D D D D D D D D D D D D D D D D D D D D D D D D D D D D D D D D D D D D D D D D D D D D D D D D D D D D D D D D D D D D D D D D D D D D D D D D D D D D D D D D D D D D D D D D D D D D D D D D D D D D m s O O Y Y W W A A W W A A C C z z z M F F r z z r 8 8 8 8 8 8 8 8 8 8 8 8 h h 6 6 b b > > ; ; ( ( ( ( ! ! ! ! { {   ' h h 4 9 1 1 d d d d n n n n Z Z ` ` t t 1 1 8 8 n n a n n n J n S S n n J n n n  . .[ [ 9 9 g 3 9 9 [ q g 0 a e e e b b ! ! _ _ s s ) ) . . . , . . . . . .     ; ",
"' . . . . , . . . . , ) ) ( ( ! ! ! c k k 2 2 e e 1 1 [ [ f f 0 f J J f f n n 0 2 T n J e n n a n ` ` J J n n I I [ [ < < n n S T n n n n a n ....2 2 9 9 u u v v 5 t k k 4 9 t t { { ' -   - ! ! / ( ! ! o o ( ( +.+.b b b b r r r r r z 8 8 M M @.@.#.#.#.C W W A C W W W W W W A A Y Y W W Y Y X X O O O O D D D D D D D D D D D D D D D D D D D D D D D D D D D D D D D D D D D D D D D D D D D D D D D D D D D D D D D D D D D D D D D D D D D D D D D D D D D D P P s s x l A A W W B W W W A A B B W W W W #.#.C #.@.@.C C z z z z r z z r { { y { b b l l ( ( ! ! ( ( ! ! - - - - -   $.$.v v v v 4 9 9 9 [ [ %.%.e e f g n T n J J ` T n ` ` J ` L L L L ; ; n n a n J J J n n n &.&.&.T n n n n e e f g f f R R [ [ f f e e a e 6 6 ! ! ! ! ! ! | | . , . . . . . . , . 7 7 ; ",
"' . . . . . . . , . . ) ) ( ( ! ! ! c k k 2 2 e e 1 1 [ [ f f f 0 J J f f J n 0 2 T n J J n n a n ` ` ` J n n I I [ [ < < n n S T n n a n n n ....2 2 9 9 t u v v t t k k 4 9 t t { {   ' - - ! ! / ( ! ! o o ( ( +.+.b b b b r r r z z z 8 8 M M @.@.C #.#.C W W A C W W W W W W A A Y Y W W Y Y X X O O O O D D D D D D D D D D D D D D D D D D D D D D D D D D D D D D D D D D D D D D D D D D D D D D D D D D D D D D D D D D D D D D D D D D D D D D D D D D D D P P s s l l A A W W B W E E A A B B W W W W #.#.C #.@.@.C #.z z r z z z r r { { y { b b l l ( ( ! ! ( ( ! ! - - - - -   $.$.v v v v 9 9 9 9 [ [ %.%.e e f g T n J J J ` T n ` ` ` J L L L L ; ; n n n a n J J n n a &.&.T T n n n n e e f g f f R R [ [ f f e e e a b 6 ! ! ! ! ! ! | | . , . . . . . . , . 7 7 ; ",
"- = = . . . . . , . . | | ^ ^ ! ! ! ! 9 9 g 0 n n 1 1 r r 1 3 a a 2 2 e e 2 2 2 K T n n n ` ` &.&.e e ` ` J e n n [ [ 2 2 n J *.*.` ` J n J J n J 2 2 9 9 q } 4 9 8 8 g g 9 9 9 9 1 1 k k k k i h r r r z C C C ' > > - C W W x x s s s s A A @.@.E E #.#.C A #.#.C #.#.#.W W #.#.C A W W W W A A W W A A W W A A Y Y W W O O O O p p p p D D D D D D D D D D D D D D D D D D D D D D D D D D D D D D D D D D D D D D D D D D D D D D D D D D O O X X Y Y Y Y W W W W W W W E C C W W A C W E C #.A A C #.#.C @.@.C #.@.@.E W @.@.C #.B B s s m ( ( s s m E E > > C C z z z 6 8 5 h h k k h h 4 9 1 1 1 1 9 9 L L 9 9 L L 2 2 n n J J n n n J &.&.` ` &.&.=.=.e e a e n n a Z J J n n n T n J J n e e n n e e e e a e 9 9 q } 2 2 e e e e b b ! ! p p ( ( | ) . . @ @ . . . , . .     ; ",
"- = = . . . . . , . . | | ^ ^ ! ! ! ! 9 9 g 0 n n 1 1 r r 3 3 n a 2 2 e e 2 2 2 2 n T n n ` ` &.&.e e ` ` e e a n [ [ 2 2 n J *.*.` ` T n n J J J 2 2 9 9 } } 4 9 8 8 g g 9 9 9 9 1 1 k k k k i i r r r z C C C C > > - C E E x x s s s s A A @.@.E E #.#.A A #.#.#.C #.#.W W #.#.A A W W W W A A W W A A W W A A Y Y W E O O O O p p p p D D D D D D D D D D D D D D D D D D D D D D D D D D D D D D D D D D D D D D D D D D D D D D D D D D O O X X Y Y Y Y W E W W W W W E C C W W A A E E #.#.A A C #.#.#.@.@.C #.@.@.E W @.@.#.C B B s s s ( ( s s s B E E > C C z z z 6 8 8 h h k k h h 9 9 1 1 1 1 9 9 L L 9 9 b L 2 2 n J J J n n n J &.&.` ` T &.=.=.e e e a e n e e ` J J n n T n J J n e e a n e e a e e e 9 9 q } 2 2 e e a e b b ! ! _ p ( ( | ) . . @ @ . . . . , . 7 7 ; ",
"  . . . . . . . . . , ) ) ( ( ! ! ! c k k 2 2 e e 2 2 r r g g a e n T ` ` J n n J n S a n ` ` J ` n n a Z ` ` J ` n n K K n T n n &.&.T T &.&.e J &.T f f [ [ < < [ [ 3 g R R H H g g H H 9 9 %.%.6 6 t t 5 t r r 5 8 r r b b - - ~ @.x x l l ( s x l m s s m m ( x x l Y C C W W C C C ' A A W W #.#.W W A A E W #.C W W E E B B E W B B W W Y l s s _ _ s m D D D D D D D D D D D D D D D D D D D D D D D D D D P P O O X X Y Y W E W W #.C W W W W W E C #.W W A C W E C C W W C A A C #.#.W W W W Y Y Y Y X X X X O O O O l l o o X X ~ ~ @.@.{ { 6 6 r r r r 5 8 -.-.%.%.6 6 v v 9 9 H H 9 9 g 0 g g 2 2 [ [ U ; f f ` ` J ` n T n T &.&.` ` &.&.e J T n J J n n n J n ` e e ` ` J e &.&.` ` &.&.` ` J ` K K e e 9 9 [ q g g a e e e 6 6 ! ! ! _ ! ! | | . . . . . . . . . . 7 7 ; ",
"  . . . . . . . , . . ) ) ( ( ! ! ! c k k 2 2 e e 2 2 r r 3 g e e n T ` ` J n J J n S a n ` ` J ` n n e e ` ` ` ` J n J K n T n n &.&.T T &.&.` J &.T f f [ [ < < [ [ f g R R H H g g H H 9 9 %.%.6 6 t t t 5 r r 5 8 r r b b   - ~ @.x x x l s s x l s m s s m m x x l Y C C W W C A C C C A W W #.#.W W A A W W #.C W W E E E B W W B B E W l l ( s _ _ s m D D D D D D D D D D D D D D D D D D D D D D D D D D P P O O X X Y Y W W W W #.C W W E E W W #.#.W W A C W E C C W W A A C A #.#.W W W W Y Y Y Y X X X X O O O O l l l o X X ~ ~ ~ @.{ { 6 6 r r r r 5 8 -.-.%.%.6 6 v v 9 9 H H 9 9 g 0 g g 2 2 [ [ U ; f f ` ` ` J T n T T &.&.` J &.&.e J T T n J J n n n ` ` e e ` ` e e &.&.` ` &.&.` ` J ` K K e e 9 9 [ [ 3 g e e e a b 6 ! ! ! ! ! ! | | . . . . . . . . . . 7 7 ; ",
"- = = . . . . , . . . | | ^ ^ ! ! ! ! 1 1 2 2 n n 0 g t t R R e e a e n T e e a n n n ;.;.` ` ` ` J ` &.&.J J n n n J &.` e e n n J ` ;.;.;.;.T n J e ` ` 2 2 e e f f 0 f g g g g g g R R H H v v 6 6 [ [ - ' 8 8 8 8 r r b b 6 6 b N >.>.+.+.~ ~ C C @.@.C #.C C l l x x s s s m s m X X O O X X Y Y W W Y Y #.#.W W W W W W A A Y Y W W W W W W W W A A W W B W E W W W O O X X _ _ D D D D D D O O W W W W W E W W W W Y Y W W Y Y W W W W A A W W W W W W #.C W W W W B B Y Y X X X X m s O O X X X X X X A A W W @.@.C #.C #.N N { ~ ~ @.Q Q M 6 8 5 8 8 h h 8 8 { { y { 6 6 %.%.9 9 9 9 R R f f 0 2 f f n J 2 2 n n J ` &.&.` ` &.&.n n J J J J n n n J &.T n T T T n J J T ` ` ` J ` ` T n ` ` J ` ` J J ` e e f g q q g 0 0 g e e b b ! ! _ p ( ( | | G G @ @ . . . . . . '   ; ",
"- = = . . . . , . . . | | ^ ^ ! ! ! ! 1 1 2 2 n n g g t t R R e e e a n T e e n n n n ;.;.` ` ` ` J ` &.&.J J J n n n J ` e e n n ` ` ;.;.;.;.T n J e ` ` 2 2 e e f f f 0 f g g g g g R R H H v v 6 6 [ [ - ' 8 8 8 8 r r b b 6 6 b N >.>.+.+.~ ~ - C @.@.C #.C #.l l x x s s m s m m s s O O X X Y Y W W Y Y #.#.W W W W W W A A Y Y W E W W W W W W A A W W W W W E W E O O X s ! _ D D D D D D O O W W W W W E W E W W Y Y W E Y Y W W W W A A W W W W W W #.C W W W W B B Y Y s s X X m m ! O X s X X X X A A W W @.@.#.C #.#.N N { ~ ~ ~ Q Q M 6 8 8 8 8 h h 8 8 { { { { 6 6 %.%.9 9 9 9 R R f f 0 2 f f n J 2 2 n n J ` T &.` ` &.&.n n J J J J J n n n T T n T T T J J n T ` ` ` ` J ` n T ` ` J ` ` J ` ` J e f f [ q g 0 0 g e e b b ! ! _ _ ( ( | | G G @ @ . . . , . .     ; ",
"  . . . . . . . , . . ) ) ( / ! ! c c k k 2 2 2 2 3 1 r r e e f g ` ` J ` n n T n n n n e ,.,.` ` J ` ` ` ` J Z Z n n J ` n n J n ` ` T n *.*.&.&.T n n J ` ` e e ` ` Z Z Z Z Z Z f f H H 9 9 9 9 v v } } v v v v 8 8 8 8 8 8 r r r z b b { { 6 6 { { +.+.+.+.~ { { { - - - - - C C C B B E B s s x x s s m m s m x x s s Y Y Y Y E E Y Y A A W W #.C E E #.#.B B E W E E W W B B s m D D D D O O W W B B C C W W W W B B W W W W A A W W A A E B B E X X X X O O O O p O X s X s Y Y W W A A C A @.@.C #.@.~ ~ @.N N +.+.b b   - z z ~ ~ Q 6 6 6 t t 5 t 5 5 t t %.%.b b 9 9 4 4 9 9 g 0 g g R R e e f f e e J J &.&.` ` &.&.` ` T &.` ` T &.T n T T ` ` n n J n n T n n &.&.n n J n ` ` &.&.` ` ` ` Z Z ` ` e e n n f f [ [ g g a e 2 2 6 6 ! ! ! ! ! ! | | . . . . @ @ . . . . 7 7 ; ",
"  . . . . . . . , . . ) ) ( / ! ! ! c k k 2 2 2 2 3 1 r r e e f f J ` ` J n J T n n n n e ,.,.` ` ` J ` ` ` ` Z Z n n ` ` n n J n ` ` n n ;.*.&.&.T n J J ` ` e e ` ` Z Z Z Z Z Z f f H H 9 9 9 9 v v } } v v v v 8 8 8 8 8 8 r r r z b b { { 6 6 { { +.+.+.+.{ { y { - - - - - C C C B B E B s s x x s s s m m m x x s s Y Y Y Y E E Y Y A A W W #.C W W A C B B W W E E W W B B m s D D D D O O W W B B A C W W E E W B W W E W A A E W A A B B B B s s X X O O O O O O X X X X Y Y W W A A A C @.@.C #.@.~ ~ ~ N N +.+.b b   - z z ~ ~ Q 6 6 6 t t t t 5 t 5 t %.%.b b 9 9 9 4 4 9 g g g g R R e e f g e e ` J &.&.` ` &.&.` ` &.&.` ` &.&.n T T T ` ` a n ` J &.T n n &.&.n n n J ` ` &.&.` ` ` ` Z Z ` ` J e n n 0 g [ [ 3 g e e 2 2 6 6 ! ! ! ! ! ! | | . . . . @ @ . . . . 7 7 ; ",
"- = = . . . . . , . . | | ^ ^ ! ! ! ! 9 9 g 0 g 2 f g t t f f 0 f K K e e n J J n J J J ` ` '.` ` J ` &.&.T &.` J ` ` J n n n ;.;.&.&.T &.T &.&.&.&.T n ` ` J ;.;.` ` Z Z Z Z f f 0 f g ....R f g 9 9 v v 9 9 v v h h h h 5 8 %.%.r r r z { { ' - o o b b b N N N { { { y { ~ ~ @.C C +.+.A A C #.#.C @.@.A A C A B B Y l s m x x O O s s O O X X X X B B E B E E W W A A W W B W m s D D D D O O Y Y W E W W W W B B B B s s X X O O s s m m s s m m x l l Y W E W W #.#.W W #.#.C #.#.#.@.@.@.@.@.@.~ ~ @.{ >.>.>.>.M M N N N N E E 6 6 6 ).8 8 [ [ h h %.%.5 5 9 4 3 3 4 9 2 2 3 g 0 g 3 3 2 2 0 f a a a e n J ` ` ;.;.T &.&.T &.&.*.*.` ` J ` n T n n J n n T n n &.&.n n S T ` ` J n &.&.` ` ` ` Z Z Z Z e e a e f f [ q 0 g g f a e b b ! ! _ ! ( / | | G G @ @ . . . . . . '   ; ",
"- = = . . . . . , . . | | ^ ^ ! ! ! ! 9 9 g 0 g 2 f g t t f f f 0 2 K e e n J ` n n J J J '.` ` ` J ` &.&.&.T ` ` J ` n n T n ;.;.T &.&.&.T T &.&.T n ` ` ` ` ;.;.` ` Z Z Z Z f f 0 f g ..R R f g 9 9 v v 4 9 v v h h h h 5 8 h %.r r r z { {   ' o o b b N N N N { { y { ~ ~ ~ @.C C +.+.A A A C #.#.C @.A A A C B B Y l s s x x O O X X _ O X s X s B B E B E E E W A A W W B W m m D D D D p O Y Y W W W W W E W B B E X X X X O O X X m s s m m ( x l l Y W W W W #.C W W #.#.C #.#.#.@.@.@.~ @.@.@.~ ~ ~ Q >.>.>.M M N N N N E E 6 6 6 ).8 8 [ [ %.h h %.5 5 9 4 3 3 4 9 2 2 f g 0 g 3 3 2 2 f g a a a e J J ` ` ;.;.T &.&.&.&.T *.*.` ` ` J T T n J J n n n n n &.&.n n n S ` ` J n &.&.` J ` ` Z Z Z Z e e a e f f q q g 0 0 f a e b b ! ! _ ! ( ( | | G G @ @ . . . . . . 7   ; ",
"  . . . . . . . , . . ) ) ( / ! ! ! c k k 2 2 2 2 2 K r r R R f g g g g ..J J 2 2 ` ` &.T &.&.` ` J ` ` ` &.&.T T n n J ` ` ` ,.,.&.&.T &.&.&.` J &.&.` J &.&.` ` J ` e e a n e e e a f f 0 2 f f f 0 9 9 H H v v 4 9 v H !.!.%.%.%.%.5 t t 5 [ [ } q q } 6 6 b b } } b b b b ' ' C ' > > @.@.C #.@.@.C C @.@.C #.C #.l B C C E E A A W W A A Y l s X X m x x s m s s X X E E Y Y O O D D D D _ _ W W W W l l _ _ s m O O X X X X E W W W A C W W A C E E #.#.A C @.~ ~ @.+.+.~ @.@.@.C C C A B B N N { ~ b b >.>.M 6 6 6 ).6 } } r r r z 8 8 %.%.v v h h h v v v 9 4 i v R R f g e e a e Z Z Z Z ` ` J ` ` ` ` J ~.~.~.~.~.~.` ` &.&.&.&.*.*.&.&.` J J ` T T a n T n J J n n n J J n n n T n e e n n a n f f R R f g R R [ [ g g a e e e 6 6 ! ! ! ! ! ! | | . . . . , . . . = = 7 7 ; ",
"  . . . . . . . , . . ) ) ( / ! ! c c k k 2 2 2 2 0 2 r r R R f g g g g ..J J 2 2 ` ` &.T &.&.` ` ` ` ` J &.&.T T n n ` ` ` ` &.&.&.&.&.T &.&.` ` &.&.` ` &.&.` ` ` J ` e n n a Z e e f g e 2 f g 0 f 9 9 H H v v 9 9 H H !.!.%.%.%.%.t t 5 t [ [ } q } } 6 6 b b } } b b b b ' ' ' C > > @.@.#.C @.@.C #.@.@.C C C C B B C C E E C A W W A A l l X X X X x x s m X X X X B E Y Y O O D D D D p _ W W W W l l _ _ s m O O X s X s W W W W #.C W W A A W W #.C C C @.~ ~ @.+.+.@.@.@.~ C C C A B B N N { ~ b b >.>.M 6 6 6 6 ).} } r r r r 8 8 h h v v h h h v v v 9 4 i v R R f g e e e e Z Z Z Z ` ` ` ` ` ` J J ~.~.~.~.~.~.` ` &.&.&.&.*.*.&.&.` ` ` ` T T n n n T J J n n J J n n n J n n J e n n J n f f R R f f R R [ [ g g e e e e 6 6 ! ! ! ! ! ! | | . . . . . , . . = = 7 7 ; ",
"- = = . . . . . . . . | | ! ! ! ! ! ! 1 1 2 2 2 2 g g r r g g f f I I 9 9 9 9 n n J n T T J ` ` ` Z Z ` ` ` J &.&.n n ;.;.` ` ` J &.&.&.&.&.&.&.&.` ` &.&.` ` &.&.` ` n n J n T n Z Z Z Z 2 2 2 2 2 2 e e g g f g 9 9 9 9 v v v v h h h h 8 8 8 8 r r 8 8 6 6 6 6 } } 6 6 b b b b { { { { {.{.N N ~ ~ +.+.@.@.@.~ C C @.@.#.#.B B W W A A A A A A E E A A E E B B X X x x E E W W _ _ D D D D O O Y Y W W X X B B l l E E W W A A W W #.#.C C C C C A A C > > @.@.~ @.+.+.+.+.N N +.+.+.+.@.@.N N Q Q Q 6 >.>.6 6 6 6 r r r r 8 8 8 8 h h h %.4 4 4 4 4 9 1 1 g g f g 2 2 f f 2 2 e e n n J e J J ` ` e e n J J ` ~.~.&.&.n n &.&.&.&.;.;.&.&.*.*.` ` &.T ` ` n T T n n J e J J J n J J n J e n T J e [ [ f f G G 3 3 3 R q q 0 0 e e e e Q Q s s ! ! ( / ) ) G G , . @ @ = = . . '   > ",
"- = = . . . . . . . . | | ! ! ! ! ! ! 1 1 2 2 2 2 g g r r g g g f I I 9 9 9 9 n n J n T n ` ` ` J Z Z ` ` ` ` &.&.n n ;.;.` ` ` J &.&.&.&.&.&.&.&.` ` &.&.` ` &.&.` ` n n J n T n Z Z Z Z 2 2 2 2 2 2 e e g g f g 9 9 9 9 v v v v h h h h 8 8 8 8 r r 8 8 6 6 6 6 } } 6 6 b b b b { { { { {.{.N N ~ ~ +.+.@.@.~ ~ C C @.@.#.#.B B W W A A A A A A W E A A W E B B X X x x E E E W _ _ D D D D O O Y Y W W X X B B l l E E W W A A E W #.#.C C C C A A A C > > @.@.~ @.+.+.+.+.N N +.+.+.+.@.@.N N Q Q Q 6 >.>.6 6 6 6 r r r r 8 8 8 8 h h h h 4 4 4 4 4 9 1 1 g g g f 2 2 f f 2 2 e e n n J e J J ` ` e e e n ` ` ` ~.&.&.n n &.&.&.&.;.;.&.&.*.*.` ` ,.&.` ` n T n n J n T J J n J e n n J e T T e e [ [ f f G G 3 3 R R q q 0 0 e e e e Q Q s s ! ! / / ) ) G G . , @ @ = = . . '   > ",
"  . . . . . . . . . , ) ) / / ! ! ! c k k 2 2 2 2 1 1 [ [ 9 9 9 9     t t G G 2 2 e J J n n ` ` ` ~.` Z Z ` ` ` ` &.&.&.&.` ` ` ` *.*.T &.*.*.T &.&.&.&.&.*.*.*.*.&.&.` ` &.&.&.n &.&.` ` n n e e n J 2 2 e e f f f f 9 9 R R 9 9 9 9 v v 4 4 i i i i 5 5 5 8 r u t t [ [ r r 6 6 6 6 b b >.>.b b >.>.+.+.+.+.~ ~ ~ ~ C C C A A C C C C A @.@.#.#.A A E W C C B B l l X X W W B B m m D D D D _ _ W W W W l l x x C C B E A C C A C C C A @.@.A A C - A A @.@.~ @.{ { +.+.N b b b Q Q b b >.>.6 6 r r r r r r t t 5 5 8 8 %.%.%.%.v v v v 9 9 9 4 g g f g e e g f e e n J n n J ` n n J ` &.&.K K ` ` ` J &.T J ` &.&.` ~.&.&.n n ~.~.~.` &.&.&.&.` ` ` ` &.&.&.n &.&.&.n ` ` ` J &.n ` ` Z Z Z Z e e G G [ [ < < R R 9 4 [ [ f f e e e e 6 6 ! ! ! ! ! ! | | . . . . . . , . = = 7 7 ; ",
"  . . . . . . . . . , ) ) / / ! ! ! c k k 2 2 2 2 1 1 [ [ 9 9 9 9     t t G G 2 2 J J n n ` ` ` ` ~.` Z Z ` ` ` ` &.&.&.&.` ` J ` ;.*.T &.*.*.T &.&.&.&.&.*.*.*.*.&.&.` ` &.&.T T &.&.` ` n n e e n J 2 2 J e g f f f 9 9 R R 9 9 9 9 v v 4 4 i i i i 5 5 8 8 u t t t [ [ r r 6 6 6 6 b b >.>.b b >.>.+.+.+.+.~ ~ ~ ~ C C C A A C C A C C @.@.A C C A E E C C B E l l X X W W B B m m D D D D _ _ W W W W l l x x C C B E C C C A A C C C @.@.A C - - A A @.@.@.~ @.{ +.+.N b b b >.Q b b >.>.6 6 r r r r r r t t 5 5 5 8 %.%.%.%.v v v v 9 9 9 4 g g f g e e g f e e n J n n ` ` n n ` ` &.&.K K ` ` ` ` &.T J ` &.&.` ~.&.&.n n ~.~.~.~.&.&.&.&.` ` ` ` &.&.&.T T &.T T ` ` ` J &.n ` ` Z Z Z Z e e G G [ [ < < R R 9 4 [ [ g g e e e e Q 6 ! ! ! ! ! ! | | . . . . . . . , = = 7 7 ; ",
"- = = . . . . . . , . | | ! ! ! ! ! ! 9 9 0 0 2 2 f f [ [ v v g g [ [ [ [ f f J J ` ~.K K ` ` ` J Z Z ` ` ` ` &.&.` ` ` ~.` ` &.&.&.&.*.*.&.&.&.&.&.&.&.&.` J *.*.&.&.&.&.&.&.*.;.` ` &.&.T T &.T n n T T J e J J K K K K ....f f R R 9 4 9 9 9 9 v v v v 8 8 %.%.8 8 8 8 r r [ [ 6 6 6 6 >.>.6 Q Q >.>.>.+.+.N N +.+.+.+.@.@.~ @.@.@.~ @.#.#.~ ~ C C @.@.A A E B X X x x E E C C m m D D D D m m E E C A x x l l x l A A C C #.#.C C ~ ~ ~ @.@.~ @.{ +.{ {.{.N N N N Q Q b b 6 6 >.>.6 Q Q Q 6 z [ [ 8 8 8 8 h h h %.v v v v 9 9 9 9 3 3 g g f g g g n n J e J n e e n T ` ` n T n n &.&.e e n J T T ;.;.&.&.&.&.&.&.&.&.` ` n n ~.~.&.&.&.&.;.;.J ` &.&.T T &.T n ` ` ` J J J n J e n n Z Z n n J n [ [ [ [ e e f f R R [ q 0 0 e e e e b b m ! ! ! ( ( | | G G @ @ @ @ , . . . '   > ",
"- = = . . . . . , . . | | ! ! ! ! ! ! 9 9 0 0 2 2 g g [ [ v v g g [ [ [ [ g g n J J ` K K ` ` ` ` Z Z ` ` ` ` &.&.` ` ` ` ` ` &.&.&.T *.*.&.&.&.&.&.&.&.&.` ` *.*.T &.&.&.&.&.;.;.` ` &.&.T T T n n n T T J J n J K K K K ....f f R R 9 9 9 9 9 9 v v v v 8 8 %.%.8 8 8 8 r r [ [ 6 6 6 6 >.>.6 Q Q >.>.>.+.+.N b +.+.+.+.~ @.@.~ @.@.@.@.#.#.~ ~ C C @.@.A C B B X X x x E E A C m m D D D D m m E E A A x x l l l x A A C C #.#.#.C ~ ~ ~ @.~ ~ ~ @.~ { {.{.N N N N Q Q b b 6 6 >.>.6 6 6 6 6 z [ [ 8 8 8 8 h h h h %.v v v 9 9 9 4 g 3 3 g g g f g n n J e J n e e n J T ` n n n n T &.e e n T T T ;.;.&.&.&.&.&.&.&.&.` ~.n n ~.~.&.&.&.&.*.;.` J &.&.T &.T T ` ` ` ` J J J J n J n n Z Z n n J n [ [ [ [ e e f f R R q q 0 0 e e e e b b ! ! ! ! ( ( | | G G @ @ @ @ , . . . '   > ",
"  . . . . . . . . . , ) ) / / ! ! ! c k k 2 2 2 2 1 1 r r 9 9 0 g e e f f e e n J &.&.K Z ` ` Z Z Z Z Z Z ` ` ` ` ` ` ` ~.&.&.J ` &.&.&.&.&.&.` ` &.&.` ` &.&.T &.&.&.&.&.;.*.*.;.&.T J e ;.;.n n T T J n n J e J n e 2 2 e J f f f f Z Z R R ........].].H H !.!.v v !.!.!.!.t t 5 t [ [ r r 6 6 r r 6 6 6 6 6 z 6 6 b b b b { { +.+.@.~ ~ { - - @.@.#.#.A #.W W B B X X A A E W X X D D D D m m C C A C l l E E A C C C @.@.@.@.+.+.@.~ +.+.{ { N N +.+.b b b b 6 6 6 6 r r 6 6 r r r r 8 8 8 8 h h 5 5 i i i i 4 4 9 9 0 f f f f g g f 2 e 2 2 e e e e n J n e n T ;.;.*.*.&.&.&.&.` ` n n n T T &.T n ;.;.n n ;.;.*.;.&.T &.&.&.&.&.&.&.&.&.&.&.&.T &.&.&.T n ` ` n n ` ` ` J &.&.&.T ;.;.T &.n n e e e e f f e e R R [ u 3 3 e e 2 2 6 6 ! ! ! ! ! ! | | . . . . . . . . = = 7 7 ; ",
"  . . . . . . . . . , ) ) / / ! ! ! c k k 2 2 2 2 1 1 r r 9 9 0 f e e g f e e n J &.&.Z Z ` ` Z Z Z Z Z Z ` ` ` ` ` ` ~.` &.&.J ` &.&.&.&.&.&.` ` &.&.` ` &.&.&.&.&.&.&.&.*.*.;.;.&.T J J ;.;.n n T T n n n n J e J J 2 2 e J f f f f Z Z R R R ......].].H H !.!.v v h !.!.!.t t 5 t [ [ r r 6 6 r r 6 6 6 6 z 6 6 6 b b b b { { +.+.@.~ { { - - @.@.A C #.#.W W B B X X A A E W X X D D D D m m C C A C l l E E A C C C @.@.@.@.+.+.@.~ +.+.{ { N N +.+.N b b b 6 6 6 6 r r 6 6 r r r r 8 8 8 8 %.%.5 5 i i i i 4 4 9 9 f f f f g g g f 2 e 2 2 e e e e n T e e n J ;.;.*.;.&.&.&.&.` ` n n T T T T &.T ;.;.n n ;.;.*.;.&.&.&.&.&.&.&.&.&.&.&.&.&.&.T &.&.&.n n ` ` n T ` ` ` J &.&.&.T ;.;.&.&.n n e a e e f f e e R R [ u 3 3 e e 2 2 6 6 ! ! ! ! ! ! | | . . . . . . . . = = 7 7 ; ",
"- = = . . . . . . , . | | ^ ^ ! ! ! c k k g g 2 2 f f t t 9 9 0 g K K ` J J e e e e J J ` Z Z ` '.Z Z ` ` ` '.,.,.` ` &.&.` ` &.&.J ` &.&.` ` ` ` ` ` &.&.` ` &.&.&.T *.*.;.;.&.&.n n S S *.*.*.*.*.;.;.;.n n T S n n J n ` ` e e f f ` ` e e f f R R K K 9 9 R R H H H H !.!.v v %.%. . .8 8 8 8 r r r r 6 6 r r 6 6 6 6 b b b b +.+.N b +.{ { { @.@.~ @.#.#.~ ~ W W l Y W W #.#.X X D D D D X X A A #.#.l l A A C - { { @.@.+.+.~ ~ N N +.+.b b b b Q 6 6 6 6 z 6 6 r r r r 8 8 t t 5 5 %.%.i i i i k k v v 1 1 R R 0 0 g g e e g f e e n T e n e e n n J n ;.;.*.;.*.*.;.;.&.&.&.&.*.*.J J ;.;.&.T ;.;.*.;.*.;.&.T ;.*.&.T T &.&.&.&.&.` ` ` ` &.&.T &.&.&.&.&.` ` n n ` ` ` ` ` ~.` ` e e n T T n e e g f e e e e R R [ u 3 g g 0 e a b b ! ! ! ! ( ( | | G G @ @ @ @ . . , . '   > ",
"- = = . . . . . . . , ) | ^ ^ ! ! ! c k k g g 2 2 g g t t 9 9 0 f K K ` J e e e e J J J ` Z Z ` '.Z Z ` ` ` '.,.,.` ` &.&.` ` &.&.` ` &.&.` ` ` ` ` ` &.&.~.` &.&.&.&.*.*.;.;.&.&.n n T S *.*.*.*.;.;.*.;.n n T S n n J n ` ` e e g f ` ` e e f f R R K K 9 9 R R H H H H !.!.v v %.%. . .8 8 8 8 r r r r 6 6 r r 6 6 6 6 b b b b +.+.N N ~ { { { @.@.@.~ #.#.~ ~ W W l Y W W #.#.X X D D D D X X A A #.#.l l A A - - { { @.@.+.+.@.~ N N +.+.b b b b 6 6 6 6 6 z 6 6 r r r r 8 8 t t 5 5 %.%.v i i i k k v v 1 1 R R f 0 0 g e e g f e e n n J n e e n J n n ;.;.*.;.*.;.;.;.&.&.&.&.*.*.J J ;.;.T T ;.;.;.;.*.;.&.&.*.*.&.T T &.&.&.&.&.` ` ` ` &.&.&.T &.&.&.&.` ` n n ` ` ` ~.` ` ` ` e e T T n n e e g f e e e e R R q [ g g 0 0 e a b b ! ! ! ! ( ( | | G G @ @ @ @ . . , . '   > ",
"  . . . . . . . . . , | | ( ( ! _ c c k k 2 2 f 0 1 1 [ [ H H R R 0 f f f Z Z e e ` ` Z Z ` ` ` '.` ` ` '.,.,.` ` ,.,.T &.T n ` ` &.&.` ~.n T ` ` &.&.&.&.&.T *.*.;.;.;.;.;.*.T T ;.;.;.*.S S *.*.;.;.;.;.;.;.*.;.&.&.J J n J n n &.&.n n J n e e e n f f e e f f f f 9 9 9 9 9 4 4 9 %.%.i v 5 5 8 8 u t 8 8 r r r r 6 6 6 6 b b b b b b b b { { b b { { { @.@.@.A C l l #.#.C C X X D D D D m m @.@.#.#.B B A A { { { { b b b N Q Q b b 6 6 6 6 z 6 6 6 r r r r t t 5 t 5 5 8 5 %.%.%.%.9 9 H H 9 9 9 4 g f f f Z K f f 2 K e e n J T ` ;.;.&.&.&.&.n n ;.;.n T ;.;.&.&.*.*.*.*.;.*.&.T T T ` ` T T &.T ;.;.&.T ;.*.T T T &.~.` ` ` ` ` &.&.~.` &.&.~.~.;.;.&.T &.&.n n J n ` ` T T n n ` ` ` ~.n n J e e e g f e e ^.^.r r 1 1 2 2 2 2 } } ! ! ! ! ! ! | | . . . . . . . . = = 7 7 ; ",
"  . . . . . . . . . , | | ( ( ! _ c c k k 2 2 0 0 1 1 [ [ H H R R f 0 f f Z Z e e ` ` Z Z ` ` ` '.` ` ` ` &.&.` ` &.&.T &.T n ` ` &.&.` ` T T ` ` &.&.&.&.&.&.*.*.;.;.;.;.;.*.&.T ;.;.*.;.S S *.*.*.;.;.;.;.;.*.;.&.T J J J n n n &.&.n n n J e J n e f f e e f f f f 9 9 9 9 4 4 4 9 %.%.v v 5 5 8 8 u t 8 8 r r r r 6 6 6 6 b b b b b b b b { { b b { { ~ ~ ~ @.A A l l #.#.#.C X X D D D D m m @.@.A C B B A A { { { { b b b N Q Q b b 6 6 6 6 6 z 6 6 r r r r t t t 5 t 5 5 5 %.%.%.%.9 9 H H 9 9 9 9 f f f f K K f f 2 K e e n J T ` ;.;.&.T &.&.n n ;.;.&.T ;.*.T &.*.;.*.*.*.*.&.&.n &.` ` n T T T ;.;.T T ;.*.&.T &.&.` ` ` ` ` ` &.&.` ` &.,.~.~.;.;.&.T &.&.n n n J ` &.T T n n ` ` ` ~.n n J e e e g f e e R ^.r r 1 1 2 2 2 2 } } ! ! ! ! ! ! | | . . . . . . . . = = 7 7 ; ",
"- = = . . . . . . , , ) ) ! ! ! ! ! ! 1 1 2 0 e e g g r u 3 R e e R ^.n n Z Z e e Z Z ` ` ,.,.&.&.` '.` ` ` ` ` ~.` ` ` ` ` ` &.&.T &.&.&.` ` &.&.n T ,.&.J ` *.*.*.;.*.;.;.*.;.*.;.;././.T S ;.;.*.*././.*.*.*.*.;.*.&.&.*.;.&.T J J n n J ` n n J e e e f f 2 K f f 2 K f g R R H H 9 9 k k v v 5 5 i i 5 5 i i r r r r r r r r 6 6 6 6 6 z b b b b b b ~ ~ +.+.E E B B #.#.+.+.X X D D D D X X A C @.~ B B - - @.@.+.+.N b Q Q >.>.6 6 6 6 6 6 z 6 6 r r r t t 5 t %.%.%.%.v v v v 9 9 9 9 R 3 3 R f f f f e e g f e e n J J n J e n n n n ;.;.n n &.&.n T ;.;.&.T ;.*.*.*.*.*.;.*.*.*.&.T T T ` ` ;.;.&.&.*.;.&.T &.T T n T &.` ` &.&.` ` &.&.` ` &.&.&.&.T &.T n T T e e ` ` n T n n ~.~.~.` Z Z ` ` Z Z Z Z f f Z Z 6 6 g g 0 0 d d b b ! ! ! ! ( ( | | . . . . @ @ . . . . '   > ",
"- = = . . . . . . , , ) ) ! ! ! ! ! ! 1 1 2 0 e e g g [ u 3 R e e R ^.n n Z Z e e Z Z ` ` ,.,.&.&.` '.` ` ` ` ` ` ~.` ` ` ` ` &.&.T &.&.&.` ` &.&.T &.,.,.` ` *.*.*.;.*.;.;.;.*.;.*.;././.T S ;.;.*.*././.*.*.*.;.;.;.&.&.*.;.T T n J J n n ` ` n e e e e g f e 2 g g 2 2 f f R R H H 9 9 k k v v 8 5 %.h 8 5 %.h r r r r r r r r 6 6 6 6 6 6 b b b b b b ~ ~ +.+.E E B B #.#.+.+.X X D D D D X X A C @.~ B B - - @.@.+.+.N N Q Q >.>.6 Q Q 6 6 6 6 z 6 r r r t t 5 t %.%.%.%.v v v v 9 9 9 9 R 3 3 R f f f f e e g f e e n J n n J e J n n n ;.;.n n T &.T T ;.;.T &.*.;.*.*.*.*.*.;.*.*.T T &.T n ` ;.;.&.&.*.;.&.&.n &.T T &.&.` ` ,.&.` ` &.&.` ` ,.&.&.&.&.&.n n T T e e ` ` n T n n ~.~.~.` Z Z ` ` Z Z Z Z f f Z Z 6 6 g g g 0 d d b b ! ! ! ! ( ( | | . . . . @ @ . . . .     > ",
"- , , = = . . , , , . | | ( ( ! ! / / k k 2 2 d d g g [ [ f f f f e e e e e J Z Z ` ` f f ` ` ` ` n T J J J ` J J ` ~.` '.&.&.` ` &.&.` ` &.&.T T T &.T n &.&.n &.&.&.&.&.;.*.&.T ;.*.&.T ;.*.;.;.*.;.*.;.;.;.&.T ;.*.*.;.&.T T T n n n n n T T J n n n J n T f f 2 K f g 2 2 f f g g 9 9 0 g H H 9 9 v v v v %.%.%.%.8 8 t t t [ r r [ [ [ [ 6 6 6 6 b b b b b N #.#.l Y b b { y l l D D D D x x b b b N > > - - b b b b } } } } } q q q u t r r t t u t r 8 %.%.%.%.%.v 9 9 v v 4 9 9 9 f g R 3 f f f f K K f f e e e e T T n n n T T n ;.;.*.;.*.;.T T &.T ;.;.n n T T ;.;.&.T ;.;.n n T &.` ` &.&.&.T *.*.&.&.` ` ` J *.*.&.&.&.&.` ` ` ` ` J *.*.` ` *.;.T n n J n ` ` ` ` ` J n n J e J J J n J Z Z e e e e e J (.(.[ [ 3 3 2 2 f 0 Q Q ! ! ! ! ! ! | | . . . . . . . . = = - - ; ",
"- , , = = . . , , . . | | ( ( ! ! / / k k 2 2 d d g g [ [ f f f f e e e e e J Z Z ` ` f f ` ` ` ` T T J J ` ` n J J ` ` ` &.&.` ` &.&.` '.&.&.n &.&.&.n n T &.T T T &.&.&.*.*.&.&.*.*.&.&.*.*.*.;.;.;.;.;.*.;.T T ;.*.;.;.n T T T n n n n n n T T J n n J T T f f 2 K f g 2 2 g g g g 9 9 0 f H H 9 9 v v v v %.%.%.%.8 8 t t t [ r r [ [ [ [ 6 6 6 6 b b b b b N #.#.l Y b b { y l l D D D D x x b b b N > > - - b b b b } } } } q q q q u t r r t t t [ 8 8 %.%.h h h %.9 9 v v 9 9 9 4 g f 3 3 g g g g 2 2 f f e e e e n T n n T T J n ;.;.*.;.*.;.T T T n ;.;.n n T T ;.;.&.T ;.;.n n T &.` ` &.&.T &.*.*.&.&.` ` ` n T *.&.T &.&.` ` ` ` ` ` *.*.` ` *.*.n n J n ` ` ` ` ` ` J n J J n J n J J n Z Z e e e e e e (.(.[ [ 3 3 2 2 f 0 Q Q ! ! ! ! ! ! | | . . . . . . . . = = - - ; ",
"- = = . . . . . . G G | | ! ! ! ! ! c k k g g d d g 3 u t R R e e g f e e f f ` ` ` J J e Z Z ` ` ` J J ` J J ` ~.` ` &.&.` ` &.T T &.&.&.n n T &.T n &.&.n n T T n n *.*.&.&.&.&.&.&.;.*.;.;.*.*.;.;.*.*.*.;.;.;.n n ;.*.n n ;.;.n n n T T J n ;.J J n T J e J J J n J e 2 2 e J f f g g R R ..R 9 4 3 3 4 4 4 4 h h h %.5 5 %.%. .t t 5 r r t t ).).).6 b b >.Q #.#.W W b b b -.X X D D D D l l >.>.6 Q E E b b 6 6 M M } } } q q [ t t [ 8 5 5 t t %.%.%.%.v v v v 9 9 9 9 3 3 3 R f f f f e e 2 2 n n Z K e J J n T T T n n T T n ;.;.;.;.*.;.n T T &.T n T T &.T ;.;.;.;.;.*.n n n T T n n n ` ` *.*.&.&.&.&.` ` ` ~.` ` &.&.` ` &.&.` ` *.*.` ` ` ` ` ` n T ` ` ` ` J e n T e e e e K K ` J e e e e e J e e e e Z Z [ [ f f f f 2 K b b ! ! _ ! ( ( | | . . , . . . . . . .     > ",
"- = = . . . . . . G G | | ! ! ! ! ! c k k g g d d g 3 u u 3 R e e g f e e f f ` ` ` J e e Z Z ` ` ` J J ` ` n ` ` ` ` &.&.` ` n T T T T &.T n &.&.n n T &.n n T &.n n ;.*.&.&.&.&.&.&.*.*.;.;.*.*.*.;.*.*.*.*.;.;.n n ;.*.n n ;.;.n n T T n n n T J J n T T J J n J e e e 2 2 J e g g f g 9 R R ..9 9 R 3 4 4 4 4 h h h h 8 5 %.h t t 5 t [ r t t ).).6 6 b b 6 6 #.#.W W b b b -.X X D D D D l l >.>.6 Q E E b b 6 6 M M } } } q q [ t t t [ 5 5 t t %.%.%.%.v v v v 9 9 9 9 3 3 R R 0 f f f e e 2 2 J n Z K e J J J n T T J T T n n *.;.;.*.;.*.T T &.T n T T T &.T ;.;.;.;.*.;.n T n T T n n n ` ` *.*.&.&.&.&.` ` ` ` ~.` &.&.` ` &.&.n ` *.*.` ` ` ` ` J &.n ` ` ` ` J e n n J e e e f K e J J e e e e J e e e e K Z [ [ f f f f 2 2 b b ! ! _ ! ( ( | | . . . . . . . . . .     > ",
"  . . . . , . . . , , ) ) ! ! ! ! ^ ^ i i 1 1 g g g g r u 0 0 2 0 0 g !.!.n n J e e ` ` ` J J Z Z Z Z 2 K e J Z Z ` ` n T &.&.T &.;.;.n n T T J ` &.&.n J &.&.n T T &.&.&.*.;.&.T ;.*.T n ;.*.*.;.;.;.;.;.*.;.;.;.*.;.n T ;.;.*.;.*.;.T T ;.;.n n T T n n J n T n ;.;.e e n J 2 e e e f f 2 K R R ..R R R 0 f 9 9 9 9 v v v v h h %.%.8 8 8 8 t t 5 t 6 6 b b 6 6 {.{.l l 6 6 6 6 Y Y D D D D x x 6 6 6 6 > > N N Q Q 6 6 r u [ [ t t 5 t %.%.%.%.i !.!.!.H H 9 9 9 9 9 9 R R ..R f f f f e J J n J n n J J n J e n n n n ;.*.n n T T J n n T T n ;.;.n n ;.;.n T T n n n ;.;.*.;.*.;.;.;.T T &.T ;.;.&.&.*.;.&.&.` ` ` ` &.&.` ` &.&.T &.&.&.&.&.&.&.` ` n T n J J ` e e n n e e J e Z Z n n e e ` ` Z Z R R ..R e e R ^.[ [ 3 3 0 0 g g b b ! ! ! ! ! ! | | . . . . . . . . = = '   ; ",
"  . . . . , . . . . , ) ) ! ! ! ! ^ ^ i i 1 1 g g f g u t 0 0 2 0 g g !.!.n n e e ` ` ` ` J J Z Z Z Z Z 2 J J K Z ` ` &.T T &.T &.;.;.n n T T J ` &.&.n n &.&.T T &.&.&.&.*.;.&.&.*.;.T n ;.*.;.;.*.;.*.;.;.*.*.;.;.;.n T ;.;.;.;.*.;.S T ;.;.n n T T J n n T n n ;.;.e e n J 2 e e e g f e 2 R R ..R R R f g 9 9 9 9 v v v v %.%.%.%.8 8 8 8 t t 5 t 6 6 b b 6 6 {.{.l l 6 6 6 6 Y Y D D D D x x 6 6 6 6 > > N N Q 6 6 6 r u [ [ t t t t %.%.%.%.!.!.!.!.H H 9 9 9 9 9 9 3 R R ..f f f f e J J J n J n n J J J n J n n J ;.;.n n T T n n n T T T ;.;.n n ;.;.&.T J n n J ;.;.*.;.*.;.;.;.T T T n ;.;.&.&.*.;.&.&.` '.&.` &.&.` ` &.&.&.T &.&.&.&.&.&.` ` n T n J J J e e J n e e e e Z Z n n J e e ` Z Z R R R R e e R R [ [ 3 3 0 0 0 g b b ! ! ! ! ! ! | | . . . . . . . . = = '   _.",
"' , , , , . . . . . . | | ! ! ! ! ! ! k k 1 1 1 1 g g u t R g R 3 G G f f (.(.e e Z Z e e Z Z Z Z Z Z 2 K K K K Z n J T T J ` ;.;.*.;.n T ` ` &.&.&.T &.&.&.&.&.&.` ` *.*.*.*.;.*.&.&.&.&.;.*.;.*.*.;.;.;.;.;.*.;.*.*.;.;.n n ;.*.;.*.*.;.n n ;.;.n n T T T n n n n n n n J n T n e e e e J e K K f g g f g g g g R R R ..4 4 4 4 v v v v %.%.%.%. .t r r b b b b A A E W 6 6 r r Y Y D D D D B B 6 6 6 r > > - - b b b b t t %.%.5 5 %.%.%.%.i v v v 9 9 9 9 0 g 3 3 g g R R 0 f f f e e J J n J n n J J J J n J n n J T T n n T n n ;.;.n n T T n n T &.T T ;.;.n T ;.;.n T ;.*.&.T ;.*.` ` *.*.&.T &.&.&.&.&.&.J ` T T T n T T ` ` T &.` '.&.&.` '.&.&.` ` ` J e e e e e J e n e e e e 2 2 Z Z ` ` I I R R G G 3 R f g q q g g R 3 f f b b ! ! ! ! ( ( | | . , . . . . . . . . - - > ",
"' , , , , . . . . . . | | ! ! ! ! ! ! k k 1 1 1 1 g g [ u g g R R G G f f (.(.e e Z Z e e Z Z Z Z Z Z Z 2 K K Z Z n J T T ` ` *.;.;.*.T T J ` &.&.T T &.&.&.&.&.&.` ` *.*.*.*.;.*.&.&.&.&.*.;.*.*.;.;.;.*.*.;.;.;.*.*.*.;.n n ;.*.;.*.;.;.n n ;.;.n n T T J n n T n n n J n T n e e e e e J e K K f f f f f f g g R R ..R 4 4 4 4 v v v v %.%.%.%.t t r r b b b b A A E W 6 6 r r Y Y D D D D B B 6 6 6 r > > - - b b b b t t %.%.5 5 %.h %.%.i v v v 4 9 9 9 0 g 3 3 3 g g R f f f f e J J J J n J e n J J n J n n J T T T n n T n n ;.*.n n n T T J n ;.T T ;.;.T &.;.;.n T ;.*.T T ;.*.` ` *.*.&.&.&.&.&.&.&.&.` ` &.T T n T T J ` &.&.` ` &.&.` ` T &.` '.&.` e e e e J e n n e e e e K K K Z ` ` I I R R G G 3 R f f q q g g R 3 f f b b ! ! ! ! ( ( | | . , . . . . . . . . - - > ",
"  . . . . . . . . . , ) ) ( ( ! ! ^ ^ i i 1 1 1 1 0 0 [ [ f f R R < < G G G G ^.^.e e ` ` ` ` Z Z Z Z Z Z Z Z Z K e J J J J n T &.&.&.` ` ` ` ` n T *.;.;.*.;.&.&.&.&.&.&.*.;.&.&.*.;.` ` *.*.;.;.*.;.n T ;.*.*.;.;.;.n T T T ;.*.;.*.&.T T T T &.T n T T n n J e J n n J J n J n n J J e e n K K K K f f f f g ....f R R ..R 4 9 9 9 v v 4 9 i i i i 5 5 L L { { N N > > t t [ [ E E D D D D Y Y t t r r - - >.>.{ { r r !.!.!.!.v v v v 9 4 4 4 R R ..R f g R 3 f f f f 2 2 f f e e e e J e e e e n J J J n J e n T J e T T &.T ;.;.n T ;.;.n n n T &.T T T T n ;.;.T T ;.;.;.*.T T &.T n T T &.&.&.&.&.&.&.` ` &.&.T &.&.&.` '.&.` e ` ` ` &.&.&.&.` ` n n K K K K e e n T f f e e e e n T f f e e < < } } ; ; g g R R [ [ f f f 0 0 g 6 6 ! ! ! ! ! ! | | . . . . . . . . . .     ; ",
"  . . . . . . . . , , ) ) ( ( ! ! ^ ^ i i 1 1 1 1 0 0 [ [ g g R R < < G G G G ^.^.e e ` ` ` ` Z Z Z Z Z Z Z Z K K e J J J J J &.&.&.&.` ` ` ` J J ;.;.;.;.*.;.&.&.&.&.&.&.;.*.&.&.*.;.` ` *.*.*.;.;.;.n T *.*.;.;.;.;.T T &.T ;.*.*.*.&.T T &.T n T T n T T n n e n n J e J n n J n n J e J J 2 K K K f f f f g ..g g R R R R 9 4 9 9 v v 9 4 i i i i 5 5 L L { { N N > > t t [ [ E E D D D D Y Y t t r r - - >.>.{ { r r !.!.!.!.v v v v 9 4 4 4 R R R ..R f g R f 0 f g 2 2 f f e e e e e J e e J J n J n n J e n T ` J T T T T ;.;.T &.;.;.n n T T T T &.T n T T *.&.T ;.*.;.;.&.T T T T &.&.&.&.&.&.&.&.&.` ` &.&.n &.&.&.n ` ` ` ~.` ` ` &.&.&.&.` ` n n K K K K e e n T f f e e J e n T f f e e < < } } ; ; g g R R [ [ g g 0 0 0 g 6 6 ! ! ! ! ! ! | | . . . . . . . . . .     ; ",
"' , . . , , . . . G G | | ! ! ! ! ! c k k 1 1 d d g 3 [ [ 3 R K 2 G G [ q 0 f n n J e e ` Z Z Z Z e Z ` J Z Z Z Z K K n J n J T &.J J ` ~.K Z n n &.&.*.;.&.&.&.&.n n *.*.&.&.&.&.&.&.&.&.n n n T T n T n T T ;.;.n T T T T n ;.;.n n ;.*.n n T T n J ;.;.n J J n J n n J J J n n J e J n e e e n K e 2 2 Z f f f f g ..g R R ....9 9 R R v v v v i i i v 5 8 r r b b C C t t 5 t B B D D D D A A 8 8 t 5 - - 6 6 r r 8 8 !.!.v v v v 9 9 4 4 R R ..R f g R R f g g g 2 2 f f e e J e J J e e e n J J n n J e J J ` J J n T T T T n n T n n n n T T J n ;.J n n T ;.;.n T T T ;.;.n T ;.*.T T T &.&.&.&.&.n n T &.&.&.` ` ` ` n n Z Z Z Z ` ` ,.&.` '.&.` e e e n K K e J e e e e f f e J K K e e e e  . .[ [ f f f f g g [ q 0 f f f f 0 b b ! ! ! ! ( ( | | . , . . . , . . . . - - > ",
"' , . , , . . . . G G | | ! ! ! ! ! ! k k 1 1 d d g 3 [ [ 3 R 2 2 G G [ q f f n n J e e ` Z Z Z Z Z Z ` ` Z Z Z Z K K n J n J &.&.J J ` ~.K Z n n T &.;.;.&.&.&.&.n J *.*.&.&.&.&.&.&.&.&.n n T T n n n T T T ;.;.T &.T T n n *.;.n n ;.*.n n n T T J ;.;.n J n n J e J n n J n n n J n T f e e n K e K K f g f f f f g ..g R ....9 9 R R v v v v v i v v 8 5 r r b b C C t t t 5 B B D D D D A A 8 8 t 5 - - 6 6 r r 8 8 !.!.v v v v 9 9 9 4 R R ..R f g R R g g f g 2 2 g g e e e e J e e e J J n J n n J J J n J J n T T J T T T n n T n n n T T n n T n n n T ;.;.n T T T ;.;.n n *.*.&.T T T T &.&.&.n n &.&.&.&.` ` ` ` n n Z Z Z Z ` ` ,.&.` ` ` J e e J J K Z e e e e J e f f e J K K e e e e  . .[ [ g g 0 f f f q q g g f f f 0 b b ! ! ! ! ( ( | | , , . . . . . . . . ' - > ",
"  . . . . . . . . , , ) ) / / ! ! / / v v 2 2 1 1 g g q q 9 9 0 g e e e e J n e e ` ` ` ` Z Z f f Z Z Z Z n J Z Z n J Z Z n n e e &.&.` ` ` ` n J T T T T T n ` ` &.&.&.T &.&.&.T ;.*.` ` ` J n J T T n n n T n n &.n n n n T n n J n T n ;.;.n n T n n T T J n n J n n J n T J J J n J n n J J e J J K Z e e g f f f R ..f f R R g g R R 9 9 v v v v !.i i v 5 8 z z C C i i 8 8 > > D D p p W W %.%.%.%.7 7 [ [ 8 8 !.i 4 H v v R R 9 4 3 3 R R f f f f K K f f 2 K 2 2 e J f 2 J e g K e J J e J J n J e J J n J e J J T T T n n T T J n ;.J J J n J e n n n n n n J n ;.;.n J T T e e n J J n &.&.n &.&.&.n J T &.J J ` ~.` ` ` J Z Z ` ` ` ~.` ` ` ` n n Z K e e e e J e f f e e J e J n Z K n n J e J n n J n n H H q q g 3 f f g g 6 6 ! ! ! ! ! ! | | . . . . . , . . . . -   ; ",
"  . . . . . . . . , , ) ) ( ( ! ! / / v v 2 2 1 1 g g q q 9 9 0 g e e e e T n e e ` ` ` ` Z Z f f Z Z Z Z n J Z Z n J Z Z n n J e ,.,.` ` ` ` n J T T &.T n T ` ` &.&.&.T &.&.&.T *.*.J ` ` n n J T T n n n T n n n T n n T T T n n T n n ;.;.n J n n n T T J n n J n J J n J n n J J J n J n e e n J K K e J f f f f g ..g f R R g g R 3 9 9 v v v v v !.i v 5 8 z z C C i i 8 8 > > D D O p W W %.%.%.%.7 7 [ [ 8 8 i i H H v v R R 9 4 3 3 3 R f f f g 2 2 g g 2 2 2 2 e e 2 2 e e 2 2 J J e e J J n J e J J J J n J e T T n n T n n n T T J e T n n J n T n e n n J n ;.;.J J n T e e n J J n &.&.&.n &.&.J n T &.J J J ` ~.` J J K Z ` ` ` ~.` ` ` ` n n Z K e e e e J e f f e e e e J n K K n n J e J n n J n n H H q q g 3 f f f f 6 6 ! ! ! ! ! ! | | . . . . . . . . . . -   ; ",
"' . . , , , . . . , . | | ! ! ! ! ! ! v v g g g 0 0 3 u u 4 4 0 0 e a e e e e J n e e e e Z K K Z f f Z Z Z Z ` ` ` J J J J J K Z ` ` ` ` ` ` n n ` ` ` ` ` ` n J ` ` &.&.n n T &.T T ` ` e e n T n n ;.*.n n T n n J n T n e n n n J n T n T T n n n ;.;.n J n n J e J J ` J n n J e J n n J n n e e n J 2 2 e e g f f f f f g g g g f g 9 9 R 3 v v v v %.%.%.h z z - - i i %.%.E E p p D D C C %.%.i v - - 8 8 %.%.v v !.i H H H H R R ..R f g R ..f f f f 2 K 2 2 J n 2 2 2 2 2 K e J e e n T e n J J n J n T J e J n n T T J n n T n n J J n J e T T J e J J e e n J n n n J e e Z K e J T T n J &.&.n &.T n ` ` n n J ` &.T Z Z Z Z ` ` ` J Z Z ` ` e e e e e e J n e e e e e J e e K K T T n n n n n n e e g f R R } } g g f g g g b b ! ! ! ! / / | | . . . . . , . . . . -   ; ",
"' , . , , , . . . , . | | ! ! ! ! ! ! v v g g 0 0 g 3 u u 4 4 g 0 e e e e e e J n e e e e 2 2 Z Z f f Z Z Z Z ` ` ` J J J J J K Z ` ` ` ` ` '.n n ` ` ` ` ` ` n T ` ` &.&.n n &.&.T &.J ` e e T n n J ;.;.n n T n n n J n T J J n n J n T n T T T n n *.;.n J J n J e J J J J J n J n n J J J n J n e e n K K e e g f f f f f f g ..g f g 9 9 R R v v v v %.%.%.h z z - - i i %.%.E E p p D D C C %.%.i v - - 8 8 %.%.v v h !.H H H H R R R ..R f g ..f f f f 2 2 2 2 n n 2 2 2 2 2 K e e e e J n e J J n J e T T e e n J n n T T n n n T J J J n J e T T J J n J e J J J J n n n e e Z K e e n T n J T &.&.n n n ` ` n n ` ` n T Z Z Z Z ` ` ` ` Z Z ` ` e e e e e e T n e e e e J e e e K K T T n n n n n n e e g f R R q } g g f g g g b b ! ! ! ! / / | | . . . . . . , . . . - - ; ",
"  , , , . . . . . , . | | / / ! ! ^ ^ i v 1 1 1 g g g [ [ 3 R f f e e f f e e e e J e e e J n e e f f f f e e e e ` ` ` ` e e e e &.&.n J J n n ` T T n J T T n n T n ` ` &.&.n n ;.;.n T n n J n T J J n J J n J n n J e n n J n T n e n n n n T T J n ;.T T J e T n n n J n e e n n J e J n e e e e e e J e ....K K f g f f R ....f 9 9 0 g H 9 H H !.!.v v h !.8 8 C C i v h h - - D D D D A C k k v v     t t 4 4 9 9 4 4 4 4 1 1 9 9 0 g 3 g g f g g 2 2 f f 2 2 f f 2 2 g g e e e n J n n T n n J e J J ` J n J J n J n n J J n n J n T e e n T n J n n J n T n e e e e e e J n e e ;.;.*.;.n T n n T &.T n &.&.n J n n J ` ` ` Z Z J ` e e ~.` Z Z n J Z Z ` ` e e e e e e J n e e n n J e J n e 2 0 0 g g 0 0 R R [ q R R 0 f 3 3 6 6 ! ! ! ! ! ! | | , , . . . . . . . .     ; ",
"' , , . . . . . . . . | | / / ! ! ^ ^ i v 1 1 3 3 g g [ [ 3 R f f e e f f e e e e J J e e J n e e f f f f e e e e ` ` ` ` e e e e &.&.n J n n ` ` n T J J n T T J T T ` ` &.&.n n ;.*.n T T n n n n J J n J e J J J n e e n J n n J n T J J n T T n n T n T T n J T n n J e J n e e n e e n J e e e e J e e e ....K K f f f f R ..g g 9 9 f f 9 9 H H !.!.v v v i 5 8 C C i v %.%.- - D D D D A C k k v v     t t 4 4 9 9 4 4 4 9 1 1 9 9 0 g 3 g f f f f K K f f 2 2 f f 2 K f g e e n J n n T n n n J e J J ` J n J J J n J e n n n n n n n J e T T J e T n n n n J e e e e e e e J e e ;.;.*.;.n T n n &.&.n n T &.n J J n n ` ` ` Z Z J ` e e ` ` Z Z n J Z Z ` ` e e e e J e n n e e n J n e n n 2 2 f 0 f f f 0 R R [ q R R f g g 3 6 6 ! ! ! ! ! ! | | , , . . . . . . . . - - ; ",
"' . . , , , . . . , , ) | ! ! ! ! ! c k v 1 1 3 1 1 R u t R R f 0 f g e e e e J e K K e e 2 2 Z K f f e e Z Z n J ` e ` ` e e e n K e n n J e J n ` ` n T ` ` &.&.n &.&.&.n n ;.*.;.*.;.;.n J n n e e n J e J J n T T J T e e n J n n T n n J T T T n T T n n n T J J n n J e J n n J n J K K J J f f 2 K f g 2 2 f f 2 K f g f f R R R R 9 4 9 9 v v 4 9 v v 9 9 6 6 - - i i i v C C p p D D #.#.v v 9 9 - - 8 5 v v 9 4 4 9 1 3 9 9 0 g H R R 3 3 g g 2 2 2 e e 2 2 e J f f e e e e J n e J n n J e J J ` J n T T &.T n T J J n J e T T J n n J n T J J n J T T n J T n e e e e J n n n T S *.*.` ` J n J ` &.&.` ~.n T ` ` &.&.n J J ` Z Z ` ` ` J J ` e e ` ` e e e e 2 2 e J f 2 2 2 f f e e f f f f g 0 0 2 0 g R R } } g g g f g g b b ! ! ! ! / / | ) . . . . . . . . . .     > ",
"' . . , , . . . . , , ) | ! ! ! ! ! ! v v 1 1 3 1 3 3 u t R R f f f f e e e e e e K Z e e 2 2 Z K f f e e Z Z J J e e ` ` J e J J e e J n J J n n ` ` n T J ` &.&.T T T &.T n ;.*.*.;.;.;.n J J n J e J J J J n n n T T J e e n J n n T n n J T T n n T n n n T n n J n T J J n J T J J ` K K e J f f 2 2 f f 2 2 f f K K f g f f R R ..R 4 9 9 9 v v 9 4 v v 9 9 6 6 - - i i v v C C p p D D #.#.v v 9 9 - - 8 5 v v 4 9 9 9 R 3 9 9 0 g H R 3 3 R 3 2 2 2 2 e e 2 2 J e g f e e J e J n J J n J e J J J J n n T T &.T n T J n n J e T T n n J n T J J n J J T T e J J n J e e e n T e n T T ;.*.` ` n n ` ` &.&.` ` n n ~.` &.&.` J J ` Z Z ` ` ` n ` ` e e ` ` e e e e 2 2 e e 2 2 2 2 f f e e f f f f 0 0 0 2 0 g R R q } g g f g g g b b ! ! ! ! ( ( ) ) . . . . . . . . . .     > ",
"' . . . . . . . . G G | | ( ( ! _ / ^ i i g g R 3 g g [ [ f f g g e e e e n n f f 2 K f g 2 2 g g e e Z K J J e e J ` e e e J J ` ~.n ` J T n ` ` n n ` ` &.&.n T &.&.n n &.&.&.&.&.&.n n J n T J J T J e ;.;.&.T ;.*.n n J n e e n T T n J T n e T T n n n n J e n T ` J n n J e J n e e n J K K K K K K e e K K e e K K f g f ....f 9 9 0 f H R f g R R 9 4 [ [ 8 8 C C i v %.%.C C D D D D A C 4 4 4 4     t u v v v v 3 3 R 3 1 1 9 9 R 3 3 3 2 0 0 g e e 2 2 2 2 2 2 e e 2 2 e e e e J e K K J J K Z n n J n ;.*.n J ;.;.e e n T e n J n n J n T f e e e n J n n J J e e J n J n n J n T n T T T J ` &.&.T T ;.;.n T ` &.n J ` ` e e e J ` J ` ` K Z J J Z Z e e K K n a e n n n 2 2 e J f f g 2 g g n n 2 2 f 0 9 9 q q R R 0 f 3 3 b b ! _ ! ! m ! | | . . . . , . . . . . - - ; ",
"  . . . . . . . . G G | | ( ( ! _ / ^ i i g g R 3 g g [ u g g g g e e e e n n f f 2 2 f f K K f f e e Z K J J J e e ` e e e J ` ` n T ` J T n ` ` n n ` ` &.&.n J &.&.n n &.&.&.&.&.&.n n J n T J J T J J ;.;.T T ;.;.n n J J e e T T n n n T J J n T T n n e n e n T ` J n n n J e J J e e n K K K K K K e e K K e J f K f f ....f g 9 9 g g R 3 g g R R 9 4 [ [ 8 8 C C i v h h C C D D D D A C 4 4 4 4     t u v v v v 3 3 R 3 1 1 9 9 R 3 3 3 f 0 0 g e e 2 2 2 2 2 K e e 2 2 e e e e n K K K J J K Z n n n T S *.J J ;.;.e e n J n e n n n J n T f e e e e n J n n J e e n J n n J e T T &.T n T J n &.&.n &.;.;.T n T &.n n J ` e e n J ` J ` ` K Z n J Z Z e e K K n a e n n n 2 2 J e g f 2 2 f f T n 2 2 f 0 9 9 q q R R 0 f 3 3 b b _ ! ! ! ! ! ) | . . . . . . . , . .     ; ",
"- . . , , . . , . , , ) | ! ! ! ! ! ! k k 1 3 3 1 1 R u [ R R K 2 g g e e e e e e f f f f 2 2 e e Z K e e K Z ` ` ` ` ` ` Z Z ` ` e e ` ` ` ` n T J ` ` n J n ` ` n T ;.;.` ` &.&.T n n n J e n T T T &.T n T *.*.J n n J e T T n J J n J n n J T n n J n T J J n J J n n J e J J 2 K e e e e J e e e J n e e e e Z K e e g f f f R R ..R f g ..g 9 9 R R h h 5 5 ~ ~ C ' i i i v C C p p D D @.@.v v k k - - t t 5 t 5 5 4 4 0 g R 3 1 1 R 3 3 g g g 2 2 2 2 2 K f f e e 2 2 e e e e J n e e K K K K e J J n J e J J J n T T n n e n n n J e J n n J n n K K ` J J J n J e J J J J n n T n n T T J n n T n T ;.;.n T T n n T n T J J ` ~.K e ` ` e e n K K Z ` ` e e J J e e n J e e J n 2 2 e J f 2 e e e e J e f f g g G G 3 R 3 3 g g b b ! ! ! ! / / ) ) . . . . . , . . . . -   > ",
"- . . , , . . . . . , ) | ! ! ! ! ! ! k k 1 3 1 1 R 3 [ [ 3 R 2 2 g g e e e e e e f f f f K K e e K K e e K Z ` ` ` ` ` ` Z Z ` ` e e ` ` ` J T n ` ` n J e J ` ` n n ;.*.` ` &.&.T n n n e J T n T T &.T n T *.*.n J n n J n T J J n J T J n n J n T n e n n n n n J n T f e J J K Z e e e e n J 2 e e J J e e e 2 2 e e f f f 0 R R R ..R f g ..9 9 R R h h 5 5 ~ ~ C ' i i i v C C p p D D @.@.v v k k - - t t 5 t 5 5 4 4 g 0 3 3 1 1 1 g g g g g 2 2 2 2 2 2 g f e e 2 2 e e e e n n J e K K K K e J J J n J e J J n T T T n J J J n J J J n J J n J K K J J n J n J e e e J J n n J n J T T n J T T n T ;.;.T T n T n J T T J J ` ` e e J ` e e e J Z Z ` ` e e J J e e n J e e n n 2 2 e e 2 2 e e J e e J f f f g G G 3 3 3 3 f f b b ! ! ! ! / / | ) . . . . . . , . . . - - > ",
"  . . . . . . . . . . | | ( ( ! _ ^ ^ i i 1 1 g g g g q q f f g 0 f f !.!.g g g f e e J e e e 2 K e e J e J J J e a n e e J e J J n J n ` T T ` ` ` ` e J J n n n T T J ` T &.T T n T ` ` n J n J ;.;.n n &.n T T n T J J n J K J J n J e n J n n T T n J T T n J n n e e J e J e e J f K J e e J e n f f K K e e J e ....e e f f K 2 g g 2 2 g g 9 9 9 4 t t > > r r C C k k k k C C D D D D C C v v h h { { y { ] ]     9 9 3 3 0 f g g 2 0 f g 2 2 g f f g 0 g g g 2 2 n J e e e J J J n T J e e J J J T T J e n J n n T T n T T T n T J J J e n T J e n n J n n T J J n n n n T T n n ;.;.n J n n T J &.T &.T &.T J e T T n T T T J ` e e Z Z Z Z e e J ` J J ` ` e e J J Z Z e J 2 2 2 2 2 2 e e f f !.i 5 5 3 3 3 3 q q R R 0 f g f 6 6 ! ! ! ! ! ! ) | . . . . . . . . . .     ; ",
"  . . . . . , . . . . | | ( ( ! _ ^ ^ i i 1 1 g g g g q q f f g 0 g f !.!.g g g f e e J e e e Z K e e e J J J e e T n e e J J J J J n n ` T &.` ` ` ` ` n n J n n T T J ` &.T &.T T T ` ` T n J J ;.;.n n n &.T T n T J J J J n J n n J e e n J n n T T n T T n n n J e e n J J e e e 2 K J e e e J n f f K K e e e J ....e e f f K 2 g g 2 2 g f 9 9 4 4 t t > > r r C C k k k k C C D D D D C C v v h h { { { y ] ]     9 9 3 3 f 0 f g f 0 f g 2 2 g g f f g 0 g f 2 2 n n J e e n J J T T e e J J J J T T n J n J n n T T n T T n T J J J e e T T n J n n J n n T J J J n n n n T T n ;.;.n n J n n T T &.T &.T T J J n T T T n T ` ` e e Z Z Z Z e e J ` J J J ` e e J J Z Z e J 2 2 2 2 2 2 e e f f !.i 5 5 3 3 3 3 q q R R 0 0 f g 6 6 ! ! ! ! ! ! | | . . . . . . . . . .     ; ",
"' . . . . . . . . , , | | ! ! ! ! ! ! k k 1 1 1 1 9 9 q q 9 9 f f G G g g H H f f g 0 g f f f e e 2 K J J e e J J e e J e e J e e Z Z n J T ` T n n J ` ` ` J T n J J n n J ` &.T ` ` n T J e n n n J T T n J ;.;.J J n J e e n T e e J e J e n J n n T J J J T T e e n T e J J e e J e J J e e J e J e e f f e e 2 K K K f f e e f f 0 f g f g g 9 9 9 4 v v v v r r - - v v 9 9 C C D D D D @.@.v v v v { { 5 5 h h k k 4 4 4 9 g g 2 0 f f g 0 g f 2 2 g g f f f g e e J n n J e e n J J J ;.;.n T T n n n T T n J n T T n ;.;.J n ;.;.K K e J J e e J e J n J n n e J J e T T n J n n T T ;.;.&.T &.T T J n J ` ` n T T T ;.;.J n n J e Z ` ` f f n J e Z J J Z Z Z Z f f K Z Z K J e f f n n f f  . .9 9 G G 4 4 H H } } 3 3 3 g 2 0 b b ! ! ! ! / / ) ) . . . . . , . . . . -   > ",
"' . . . . . . . . , , | | ! ! ! ! ! ! k k 1 1 1 1 9 9 q q 9 9 f f G G g g H H f f g 0 g f f f e e K K e J e e J e J e e e J e J e Z Z n n J ` T n n J ` ` ` ~.n T J J n n ` ` n T ` ` n T J J n n n n T T J e ;.;.n J J n J e n J e e n J J e n T e J T T n J n T e e J n n J J e e J e J e e e J e J e e f f e e K K K K f f e e g g 2 0 f g g g 9 9 4 9 v v v v r r - - v v 9 9 C C D D D D @.@.v v v v { { 5 5 h h k k 4 4 9 9 g g 2 0 f f g 0 g f 2 2 g g g f f f e e n J n n e J n J n n T ;.J n n T T n T T J J n T T T ;.;.n J ;.;.K K e J J J e e J e J n n J n n e J n T J e n n n T ;.;.&.T &.T T J n n ` ` &.T T T ;.;.n n n J e Z ` ` f f n n Z Z e J Z Z Z Z f f K Z K K e e f f n n g g  . .9 9 G G 4 4 H H } } 3 3 3 g 0 f b b ! ! ! ! / / ) ) . . . . . , . . . . -   > ",
"  . . . . . . . . G G | | ( ( ! ! ^ ^ v v 1 1 g g g 3 q } 3 3 4 4     w w     0 f e e f f f f g 0 e e 2 K J e K 2 e e e e J J 2 2 e e K K e J e e n T e ` T n J J ` ` e e J ` ` ` &.T &.n J n n e J n e e J n n J n J e e n J J e J J e e J n J e e n J J J n J n J J J e e n J e e n J e n T K K e e K K e e K K K K K K e e f f K 2 3 3 3 g 9 9 4 9 v v 9 9 h h 8 8 C C k k k k C C D D D D C C 4 4 i i - - u u 4 4 H H 9 9 4 9 0 f 1 1 g g g 3 f 0 0 f 2 2 g f 2 2 2 2 e e 2 K J e e e J e J e T T n J n T e J J n J n n n J n J J K K e J e e e e J e J e e e n T K K J e J J n J n n ;.;.;.;.;.*.n J n n e J ` ` &.&.T &.n ` ` ` Z Z Z Z Z Z Z Z Z Z e e Z Z e e K K K K f f e e 2 K K K J n f f     7 7 j j 3 3 3 3 q q R R 0 f g f b b ! ! ! ! ! ! ) | . . . . . . . . . . -   ; ",
"  . . . . . . . . G G | | ( ( ! ! ^ ^ i v 1 1 g g 3 3 } } 3 3 4 4     w w     0 f e e f f 0 f f g e e K 2 e e 2 K J e e e e J 2 2 e e K K J e J e n T e ` T T n J ` ` e J ` ` ` ` &.T &.n n J n J J n J e e n n J n n e J n e e e J e J e n n J e e n J J J n J J n J e e n J e e n J J e J n K K e e K K e e 2 K K K K K e e f f 2 2 g 3 3 0 9 9 4 9 v v 9 9 h h 8 8 C C k k k k C C D D D D C C 4 4 i i - - u u 4 4 4 9 9 9 9 4 0 f 1 1 g g 3 3 0 0 f 0 2 2 g f 2 2 2 2 e e 2 K J e e e e e J n n T J e n n n J J n J n n n J J n J K J e e J e e e e e J e J e n n K K e J J J J n J n ;.;.;.*.*.*.n n J n J J ` ` &.&.T T ` ` ` ` Z Z Z Z Z Z Z Z Z Z e e Z Z e e 2 2 2 K f f e e K K K K n J g g     7 7 j j 3 3 3 3 q q R R 0 f g f b b ! ! ! ! ! ! ) | . . . . . . . . . . -   ; ",
"- , , . . . , . . . . ) ) ! ! ! ! ! ! k k 3 3 3 1 9 9 q [ i i R R 9 9 q [ R R a a f f e e K Z e e K K K Z Z K J J e e J e J e e J J e e n Z Z e J e e J ` ` ` T &.` n n n ` ` T &.T &.T T J n n n J n J J n J J n J e n J J n e e 2 K T n J n n T J J J J J e e J e J e e e e J J f f n J J e K K K K e e f f K K ....K K K K e e f f 0 f 3 3 3 3 v v 9 4 v v v v 8 8 ~ ~ v v 9 9 C C D D D D C #.v v v v - - u r k k k k 9 9 3 3 1 1 g g 3 3 3 0 g g 2 0 f g f f g 0 e e K 2 e e e J e e e e e e J J J J J J n T T T n J n J J n J J J n J K J J 2 K J n J J n J e n J J J e T T J e n n n T T T n T T T J J n T T J T &.J J e e K K e J ` ` ` ` ` ` ` ` Z Z ` ` e e J e Z K J J K K 2 K 2 2 n n 2 2 G G b b 9 9 3 3 4 4 } } 3 3 g g 2 0 b b ! ! ! ! / / ) ) . , . . . . , . . . - -   ",
"- , , . . . , . . . . ) ) ! ! ! ! ! ! k k 1 3 3 1 9 9 [ [ i i R R 9 9 [ [ R R a a f f e e Z Z e J 2 K K Z Z K J J J e e J e J e J J e e n Z Z e e e e J ` ` ` &.T &.n n n ` ` T &.T &.T T J n n n J J n J K J n J n J J n J J e e 2 2 T n J J n J e n J J e e J e J e e e e e J J f f e J J e K K K K e e f f K K ....K K K K e e f f 0 f 3 3 3 3 v v 9 4 v v v v 8 8 ~ ~ v v 9 9 C C D D D D #.#.v v v v - - u r k k k k 9 9 g 3 3 1 g g g 3 g g g f f 0 f g f 0 f f e e K K e e J e e e e e e e J J J J J J J n T T T n J J n J K J J J J n J K J K J n J J J n J e n J J e T T n J n n T n T T n n n T J J n T T J &.T J J e e K K J n J ` ` ` ` ` ` ` Z Z ` J e e J e K Z J J K K K K K K n J e 2 G G b b 9 9 3 3 4 4 } } 3 3 g g 2 0 b b ! ! ! ! / / | ) . , . . . . . , . .   -   ",
"  . . . . , , . . . . | | ( ( ! ! / ^ i v 1 1 g g 3 3 q q 9 9 H H f f e e J J f f e e Z Z K K 2 K 2 2 f f e e J e J e 2 2 n J J e e n 2 2 e e f f e e K K e e K 2 e J J n J n n J J n J n n n e e T n 2 2 n n n J n n T J n J e 2 n J e e e e f f n J e e f f K 2 e e f f e e e J f K e e J e Z Z e J Z Z Z Z Z K K K K K f f R R 0 g 9 9 3 R H H 9 9 4 4 9 9 %.%.8 8 > > v v v v - C D D D D W W 9 9 %.h     8 8 9 9 4 9 9 9 4 4 1 1 1 1 g g 3 3 3 0 g 3 f 0 f f e e e e J n e e J e e e e J J n J n n J J J Z K J e e e n T K K n J g f e J e e J e n n J n n T J n J J n n e e a n n J J T J n T S n J n n e J n e e e e e f f a e e e e J e J e n K K e J e e J n J e e e e J e J 2 2 2 2 f f e e e e f f 4 4 3 3 9 9 G G 9 9 f 0 f g b b ! ! ! ! ! ! | | . . , . . , . . , ,     > ",
"  . . . . , , . . . . | | ( ( ! ! / ^ v v 1 1 g g 3 3 q q 9 9 H H f f e e J J f f e e Z Z K K 2 2 2 2 f f e e J e J e 2 2 e J J e e n 2 2 e e f f e e K K e e 2 2 n J J J n J n n n J J J n n e e n J e 2 n n J n n T J n J n K 2 n J e e e e f f n J e e f f K 2 e e f f e e e e 2 K J e e e Z Z e J Z Z Z Z K K K K K K f f R R 0 g 9 9 3 R H H 9 9 H H 9 9 %.h 8 8 > > v v v v - C D D D D W W 9 9 %.h     8 8 9 9 4 9 9 9 9 4 1 1 1 1 g g g 3 g g g 3 f f g 0 e e e e J n e e e J e e e J J n J n n J J J 2 K e e J e n n K K n J g f J J e e J e J n n n J n n T J n J n e e a n J J T n J n T S n J n n e J n e e e e e f f a e J e J J e e J n K K e J e e n n e e e e e e J J 2 2 2 2 f f e e e e f f 4 4 3 3 4 9 G G 4 9 g 0 f g b b ! ! ! ! ! ! | | . . . . . . . . , ,     > ",
"' . . . . . . . . . , ) ) ^ ^ ! ! ! ! k k g g 3 1 1 g [ [ H H R R 0 g f f K Z K Z R R 0 g f f e e 2 2 e e e e J e 2 2 e e e e e J f K e e e J e e f f K 2 K K K K e e n J n n T J n J n n J n n T e e J e n n n J n n T J n J e e 2 K J e f f e e e a a n J e e e K K K K e e n n f f 2 2 e e e e f f K Z K Z e e f f K K g g g f R R 0 g 9 9 9 4 4 H 9 9 v v v v r r - - h h k k A A D D D D C C v v v v     h h v v k k 4 9 9 4 9 9 g g g 3 g g 3 3 3 g 0 g 2 0 2 2 e e K K e e J e e e K K e J e e e J 2 K K K K K n J J e e e e J e e e e e e f f n n e e J n n T T T n T J J e e T T T n T S n n J n J e n T e e e J f f e e e e J n e e J e 2 2 e e f f f f e e n n J e e e K K K K g g 2 0 f g e e f f f f R 3 3 3 q } 3 R 0 f f g b b ! ! ! ! ( ( | | G G . . . . . . . . - - > ",
"' . . . . . . , . , , ) ) ^ ^ ! ! ! ! k k 3 g 1 1 g 3 q [ H H R R 0 f f f K Z K Z R R 0 g f f e e 2 K J e e e e e K 2 e e e e J e 2 2 e e e e e J f f 2 2 2 2 2 2 e e n J n n T J n J n n n J n n e J e e J n n J n n J n n T e e K 2 e J f f e J e a n J e e e e K K K K e e n n f f K 2 e e e J f f Z Z K K e e f f K K g g g g 3 R 0 f 9 9 4 9 9 H 9 9 v v v v r r C - h h k k A A D D D D C C v v v v -   h h v v k k 4 9 9 9 4 9 g g g 3 g g 3 3 3 0 g g 2 0 2 2 e e 2 2 e e e e e e 2 K J e e e e J 2 K K K K K n J J e e e e e J e e e e e f f n n e e n T e n T T n n n J J e T T n T S S n n n J e e n J e e e J f f e e e e n n e e e e 2 K e e g g f f e e J n J e e e K K 2 2 g f 2 2 f f e e f f g 0 g 3 3 3 q } R R 0 g f f b b ! ! ! ! ( ( | | G G . . . . . . . . - - > ",
"  . . . . , , . . . , | | ( ( ! ! / / v v 1 1 3 3 3 g q q 9 9 H H f f R 3 Z Z f f K Z R R 0 2 g g 2 2 2 2 n J e e n J e e e e f f e e e e n n e e J J f 2 e e f f J e K 2 e e e e n J a n J n J n n J e 2 2 2 e e e e e e n T K K n J J e e e e a a n e e J e e e J n J e e e K K e e J e e e K Z e e K K K Z f f g 0 Z Z f f R 3 g g 9 9 R R 9 9 9 9 v v v i i v 8 8 C C v v v v - C D D D D W W 9 9 h h { { 5 8 k k v v 9 9 4 4 3 1 1 1 g g g 3 g g 3 3 2 2 2 f e e 2 K K K f f K 2 K 2 e e f f e e 2 K J e J e J J Z K e e J e e e K Z e e 2 K K Z f f g 0 Z 2 n n e e J e J e e J J J n n T n 2 2 g g 2 2 g g 2 2 2 2 e e e J n J e e e e f f K K 2 2 n a a n n e e e T n 2 2 2 2 2 2 2 2 f f e e f 0 e e f f g g v v G G 4 9 f f R 3 b b ! ! ! ! ! ! ) ) . . . , . . . . . . C ' > ",
"  . . . . , , . . . , | | ( ( ! ! / / v v 1 1 3 3 3 0 q q 9 9 H H f f R 3 Z Z f f Z Z R R 0 2 f f K 2 K 2 n J e e n J e e e e f f e e J e n n e e e J 2 2 e e f f e e 2 2 e e e e n J a n J n J n n n K 2 2 2 e e e e e e n J e 2 2 J J e e e e a a a e e J e e e J n e e J e 2 2 e e J e e e K Z e e K 2 Z Z f f f f K Z f f R 3 g g 9 9 R R 9 9 4 9 v v i i v v 8 8 C C v v v v - C D D D D W W 9 9 h h { { 5 8 k k v v 9 9 4 4 3 1 1 1 g g 3 3 g g g 3 g 2 2 0 e e K 2 2 2 g f 2 2 2 2 e e f f e e 2 K J J e e J n K K J e e e e e 2 K J e K K K Z f f g 0 Z 2 n n e e J e J e J J n J J n T n K 2 f f K 2 f f 2 2 2 2 J e e e n n e e e e f f 0 2 2 2 e a a n a n e e T n 2 2 2 2 2 2 2 2 g f e e f 0 e e g g g f v v G G 4 9 g 0 3 3 b b ! ! ! ! ! ! ) ) . . . , . . . . . . C ' > ",
"' . . . . . , . . . , ) ) ! ! ! ! ! ! k k 3 g g g 9 9 [ [ H H f f f f e e Z Z f f R R a e f f 0 f f f 2 K 2 K e e 2 K J n K 2 e e 2 2 e J J e e n e e J J 2 2 e e e e e e f f e e n n ;.;.n n J T 2 2 e e J e e J f K K K K K K 2 2 2 e J 2 K n J n a a e e e J n n J n e K 2 2 2 g ..2 2 e e e e f f K Z f f f g ....f f g 0 g f R R 0 g 9 R R R H H H H 5 5 9 9 r r - - h h k k A A D D D D C C v v v v     8 8 6 6 k k 4 9 9 9 9 4 g g g 3 g g 3 3 g g g f 2 2 g f 2 2 f f K 2 f f e e K K 2 2 g f e e e J n n J n e J J e e n 2 2 J J Z K e e f f e e f f e e e e J n e e n J e e n n n J n n f f K 2 K 2 n n K 2 e e 2 K J e K 2 e e f f 2 2 2 2 2 2 2 2 n n K 2 f 0 f g 2 2 g g 2 0 f g f f f g e e f f f f 9 9 4 4 } } 3 R R 3 f 0 b b ! ! ! ! ( ( | | . . . . . . , . . . - - ' ",
"' . . . . . , . . , , ) ) ! ! ! ! ! ! k k 3 3 3 g 9 9 [ [ H H f f f f a e Z Z f f R R a e g g g f f f K 2 2 K e e K 2 n J e 2 e e 2 2 e J a e n n e e e J 2 K e e e J e e f f e e J n ;.;.n n n n 2 2 e e e J e e 2 K K K K 2 2 2 2 2 J J 2 2 n n a a e e e e J n n J n e K K K K ....K K e e J e f f K Z f f f g ....f f g 0 g f R R 0 f 9 R R R H H H H 5 5 9 9 r r C - h h k k A A D D D D C C v v v v -   8 8 6 6 k k 4 9 9 9 9 9 f f 3 3 0 g 3 3 3 0 g g 2 2 g f 2 2 f f 2 2 g f e e K K K K f f e e e e n T e J J J e e J n K K J J Z K e e f f e e f 0 e e J e n n e e J n e e n n J n n T f f K 2 K 2 n n 2 2 e e K K e e K 2 e e f f K 2 K 2 2 2 2 2 n n K 2 f 0 f f K 2 f g 2 0 f g g g f f e e f f f f 9 9 9 4 } } 3 R 3 3 0 g b b ! ! ! ! ( ( | | . . . . . . . , . . - - ' ",
"  . . . . . , . . . , | | ( ( ! ! / / v v 1 3 3 1 g 3 q [ 4 4 H H f f g 0 g f f f Z Z R R 0 g f g g g f f 0 f f g 0 2 2 2 J e e e e J e e e e 2 2 e e K K e e f f e e e e e e f 0 e J J n n n e e e e 2 2 n n n n J e 2 2 2 2 g f n J n J e a a e e n J e e e e e e J f f e e K 2 f f g 0 e e K K e e f f f f R 3 g f f g 0 g 3 R 0 f 9 R ....9 9 4 9 9 H t t } } { { E E v v v v E E D D D D W E v v h h - - L L r r } } 9 9 4 4 1 1 1 1 1 g g g g f 9 9 f f 3 g 2 0 f g 2 2 g f 2 2 2 2 e e f f f f g 0 e e e e e J 2 K J e e e n J e e n J e e Z Z f f e e J e n n n n J e e n n n n J n n e J 2 2 e e e e e e e e 2 K J e 2 2 2 2 f f J e K 2 e e 2 2 g f g g 2 0 f g e 2 g g f f f f K 2 f g f f g 0 g f f f 3 3 v v G G 9 9 f f 3 g b b ! ! ! ! ! ! ) | . . . . . , . . . . -   > ",
"  . . . . , , . . . . | | ( ( ! ! / / v v 1 3 3 1 g 3 q q 9 4 4 H f f g 0 g f f f Z Z R R 0 g f g f f g 0 g f f f 2 2 2 2 e e e e J e e e J e 2 2 e e K 2 e e f f e J e e e e f f J J e n n n e e e e 2 2 n n a n J e 2 2 2 2 g g n J n J e a e e J n e e e e J e e e f f e e K K f f g 0 e e K K J e f f f g ..R 0 f f f f g ..R g g g 3 R ..9 9 4 9 9 H t t } } { { E E v v v v E E D D D D W E v v h h - - L L r r } } 9 9 9 4 1 1 1 1 1 g g g g g 9 9 g 0 3 g 2 0 f g 2 2 g g 2 2 2 2 e e f f f f g 0 e e e e J J Z K e e e e J n e e n n e e Z Z f f e e J e n n n n J J e e J n n J n n e J 2 2 e e e e e e J e 2 2 e J 2 2 2 2 f f J e K 2 e e 2 2 g g f f f 0 f g 2 2 g g g g f f 0 2 g g f f f 0 f f g 0 g 3 v v G G 9 9 g 0 3 g b b ! ! ! ! ! ! ) | . . . . . , . . . . -   > ",
"' . . . . . . , . . , ) ) ^ ^ ^ ^ ^ ^ v v 1 3 3 3 9 4 } q !.!.g g R R f g R ..f f (.(.Z Z g g f f f f f f g g f f g g K 2 2 2 n J J e e J f K e e 2 2 e e f f e e 2 K e e f g f f g 0 e J J n n n 2 2 J e T n J n J e f f R 3 g f e e J e e e J n e e e J 2 K n J e e 2 2 g f 2 2 R R 0 g f g f f R ..f f f f K 2 ..........R 0 f 3 3 3 g R R R R 9 9 9 4 } } b b r r - - h h k k E E D D D D W W v v v v - ' 8 8 } } v v 9 9 4 9 9 4 g g 9 9 g g R R 3 3 3 3 g 0 g g 2 0 f g 0 f g f 0 2 g g 2 2 f f K 2 f g e e 2 K J e e e e e e e J e e e e e ....f f R 3 Z e e J e e e e J n J e T T K K K K f g e e f f e e g f 2 K 2 2 e e J e e e f f 2 2 2 2 n n 0 f 2 2 e e n a 2 2 2 2 2 2 e e f f f f 3 3 0 g 4 4 f f 9 9 4 4 } } 3 R 3 3 0 g b b ! ! ! ! ( ( | | G G . . . . . . . . - -   ",
"' . . . . . . . , . , ) ) / ^ ^ ^ ^ ^ v v 1 1 g 3 4 4 } q !.!.g g R R g g R ..f f (.(.Z Z f f f f g g g f g g f g g g K 2 2 2 e J e e J e 2 2 e e 2 2 e e f f e e K 2 e e f f f f f f e J n J n n 2 2 e e T n J n e e f f R R 0 g e e J e e e J n e e e e 2 K J n e e 2 K f f K 2 ..R 0 f f f f f g ....f f g e K ........R R 0 f 3 3 3 0 R R R R 9 9 4 9 } } b b r r C - h h k k E E D D D D W W v v v v - ' 8 8 } } v v 9 9 4 9 9 9 f f 9 9 f f 9 R R 3 3 3 f 0 f g 2 0 f g 0 0 f g 2 2 g f K 2 f f K 2 f f e e 2 K J e e e e e e e e J e e e e ....f f R R a e e e J e e e J n e e T T K K K K f f e e f f e J f f 2 2 2 2 e a e e e e f f 2 2 2 2 n n 0 0 2 2 e e n a 2 2 2 2 2 2 e e f f 0 f 3 3 f f 9 4 f f 9 4 4 4 } q R R 3 3 f f b b ! ! ! ! ( ( | | G G . . . . . . . . - -   ",
"- . . . . , , . . . , | | ( ( ! ! ( / h h 3 3 3 1 9 9 q } 4 4 3 R  . .!.!.R R R ..f f Z Z f f f f f g 0 g 2 K f f f f f f e e J e e e K 2 e J e e n T e e n J e e J e f f 2 2 f f J e e e J n e e J e 2 2 T n f f K 2 ..R f f g 0 2 2 2 2 e a e e n T e e e e f f K K g g 2 2 e e K K f f g 0 g f f f ....f f f f g 0 ....f f R R 0 f 3 3 g g 3 R R R H H v v v i 8 8 C C v v v v E E D D D D W E v v h h -   h %.k k v v 9 9 4 4 1 1 1 1 g 3 4 9 R R 9 9 R R R R 0 f g f 0 2 g g 2 0 f g e 2 f f e e f 0 e e f f e e e e e J f K e e f f e e f 0 f f R 3 g f ..R g f f f e e J e e e e J f 2 f f f f f f K 2 f f K 2 f f e e 2 K e e 2 K 2 2 f f e e 2 2 e e f f e e 2 2 2 2 f g 2 0 2 2 2 2 g f 9 3 4 4 H H %.%.R R v v } } 9 4 3 3 3 3 b b ! ! ! ! ! ! | | . . . . . . . . , ,   ' > ",
"  . . . . , , . . . . | | ( ( ! ! ( / h h 3 3 3 1 9 9 } } 9 4 R R  . .!.!.R R R ..f f K Z f f f f g 0 g f 2 2 g g f f f g e e e e J e 2 2 e J J e e n J e e n n e J e f f 2 2 f f e e J e e n J e e J 2 2 T n f f K 2 3 R 0 f f f 2 2 2 2 e e e J n e e e e e f f K K g g 2 2 e e 2 2 g g f f f 0 f f R ..f f g 0 g f R ..f f R R 0 g 9 R g g 3 R R R H H v v v i 8 8 C C v v v v E E D D D D W W v v h h     h %.k k v v 9 9 9 4 1 1 1 1 g 3 4 9 R R 9 9 R R R R 0 f g f 0 2 g g 2 0 f g 2 2 f f e e f 0 e e f f e e e e e e 2 K J e f f e e f 0 f f R ..f f R ..f f f f e e e J e e e e K K f f g 0 g f 2 2 f f 2 2 f f e e 2 2 e e 2 2 2 2 g f e e 2 2 e e f f e e 2 2 2 2 f g 2 2 2 2 2 2 f g g 3 H H H H %.%.R R v v } } 4 4 3 3 3 3 b b ! ! ! ! ! ! | | . . . . . . . . , ,   ' > ",
"- = = . . . . . , , . ) | ! ! ! ! ! ! h h 3 1 1 g 4 4 } q R H v v } } 3 3  . .f f R 3 Z K g g f f R R 0 g f g f f g g g f 2 2 e e 2 2 e e e e J n J e e e J e J e Z f K 2 f f 2 2 f f g 0 g f e e f f K K g g f f R 3 Z e f f 0 f R R 0 2 f f e J e e J J e e f f g 0 2 2 f f e e e e f f g ....f ....f f R ..f f R ..f f R ..f f R 3 g f R R R ..9 9 3 R H 4 v v r r - ' h h k k E E D D D D W W v v v v - C %.%.k k 1 1 9 9 4 9 9 9 g g 9 9 9 9 4 4 3 3 3 R 0 f 3 g 2 0 f g g g 3 R R g R R 0 g f g f f g ..f f f f e e 2 K J e K 2 e e f f f f K Z f f f f f g 0 Z 2 K K K n J f f n J f f g 0 g f f g g g f f 2 2 f f 2 2 e e f f K 2 K 2 e e f f K K g g 2 2 2 2 e e f f f f f g 0 2 2 f f f H H t t H H G G !.!.v v b b 9 9 9 4 g 3 b b ! ! ! m ( ( | | G G . . . , . . . , - - > ",
"- = = . . . . , . . . ) | ! ! ! ! ! ! h h 3 1 3 3 9 4 q q H H v v } } 3 3  . .f f R 3 Z Z f f f f R R 0 f f f f f f g 0 g f 2 e e 2 K e e e e n n e e e J e e e J f f K 2 f f 2 K f f g 0 g f e e f f 0 2 g g g f R R e e f f f f 3 R 0 2 g g e e J e J e e e f f g 0 2 2 f f e e J e f f R ..f f ....f f R ..f f g ....f ..R 0 f 3 3 g g R R R ..9 9 R R H H v v r r C - h h k k E E D D D D W W v v v v - C %.%.k k 3 1 9 9 9 9 4 9 g g 9 9 9 9 4 4 3 3 3 R 0 f 3 g 2 2 g f g g R R g g 3 R f f g 0 g f R ..f f g 0 e e K K e e 2 K J e f f f g Z Z f f f f f f g 0 Z 2 K K J n f f n J f f f g 0 g f f g g g g K K f f 2 2 J e f f K 2 K 2 e e f f 0 2 g f K 2 2 2 e e f f f f f f K 2 f g f f H H t t H H G G !.!.v v b b 9 9 9 9 3 3 b b ! ! ! m ( ( ) | G G . . . . , . . . - - > ",
"  . . . . . , . . , , ) ) ( ( ! ! ( / h h 3 1 1 1 9 4 b b i i v i q q 7 7 < < g g 2 0 R R 0 g f g f f f f K K f f J e 2 2 e e f f e J K K e e 2 K e e K K e J 2 K f f g 0 2 2 f f e e g f Z Z f f K Z Z Z K K f f e e f 0 e n f f f f g 0 e e f f e e K K 2 2 g g f f f ..f f f f 2 2 g f g f R ..f f R R 0 g 9 R g g R R g g R R g g R R R ..R R R R 9 9 9 4 v v 8 8 - - v v v v E E D D D D W E v v h h -   8 8 9 9 v v 9 9 4 9 9 9 9 9 4 9 9 H 3 3 3 R g g 3 R f f f g 0 g f f g g 3 3 3 g 0 g 2 2 g f g g g g g f f 0 e e g f e 2 2 2 2 2 9 9 g g 2 K 2 2 f f g 0 Z 2 K K K K K K K 2 e e 2 K J e f f f f g 0 n J e 2 2 e e J e e K 2 e e f f f f f f e J e e e e g g f f R 3 f 0 f g g g g f R R G G     > ] v v v i } } 9 4 R 3 3 R b b ! ! ! ! ! ! | | . . . . . . , , . ,   ' ; ",
"  . . . . , . . . , , ) ) ( ( ! ! ( / h h 3 1 1 1 9 4 b b i i v i q q 7 7 < < g g 2 0 R R 0 f f f f f f f K K f f J e K K e e f f e e 2 2 e e 2 2 e e K K e J 2 2 g f g g 2 2 g f e e f f Z Z f f Z Z Z Z K K f f e e f f n n f f f f f g e e f f e e K K 2 2 f f g 0 ....f f f f 2 2 g g f f R R 0 g 9 R g g R R 0 g 9 R g g R R 0 f 9 R ......R R R 9 9 4 9 v v 8 8 C - v v v v E E D D D D E E v v h h -   8 8 9 9 v v 9 9 9 4 9 9 9 9 9 9 4 4 3 3 R R 0 g 9 R g f f g 0 g f f g g 3 3 3 0 g g 2 2 g g f f f ..f f g 0 e e f f 2 2 2 K 2 2 9 9 g g 2 K 2 2 f f f g e K K K K K K 2 K K e e K K e e f f 0 f f f n n 2 2 e e e e e e K 2 e e f f f f f f e e J e e e g g f f R 3 g f f g ..g g g 3 R G G     ] ] v v v i } } 4 4 3 3 3 R b b ! ! ! ! ! ! | | . . . . . . , , , ,   ' ; ",
"' , , , . . . . . , , | | ! ! ! ! ! ! v v 1 1 3 1 v v } } %.%.0 f 1 9 H H 9 9 2 2 R R 0 g f g 2 2 g f 2 2 f g 2 0 2 2 2 2 2 2 e e f f e e f f J e f f K 2 f g e e K 2 2 2 f f g 0 g f 2 2 g f K Z Z Z e J g g 2 0 f g f f e e 2 K f f e e g f e e g f f f g 0 g f f g g f f g 0 g f f g g 3 R 0 f 3 g 2 f f g 0 g f f g g 3 R g g 3 R R g R R R R 9 9 R R H 4 v v r r - ' h h k k E E D D D D W E v v v v -   8 %.k k k k v v 9 9 9 9 4 9 9 9 9 9 9 9 f f 9 R g g 3 R f f g g g 3 g g 3 3 g R 0 f f f f f R R 0 g ....f f 2 2 2 2 f g f f K 2 f g f g g g f f 0 f f f e e K K 2 2 ....f f g f K 2 K 2 e e f f f f f f K 2 f g e 2 g g e e 2 2 e e f f e e g f e e f f f f R 3 f f 3 3 3 g R R R 3 3 3 R R H 4 R R 9 9 9 4 b b 9 9 4 9 g 3 b b ! ! ! ! / / ) ) , , . . . . . . . .   - > ",
"' , , , . . . . , , , | | ! ! ! ! ! ! v v 1 1 3 1 v v } } %.%.0 f 1 9 H H 9 9 2 2 R R 0 f 3 g 2 2 g g 2 2 f g 2 0 2 2 2 2 K K e e f f J e f f J e f f K 2 f g e e K K K K f f f g 0 Z 2 K f f K Z Z Z e e g g 2 0 f g f f e e K 2 f f e e g f e e f f f f f f f g 0 g f f g g f f f g 0 g 3 R g g g f f 0 f f f f g 0 g f R ..f g R R g g R R R R 9 9 R R 4 4 i v r r C - h h k k E E D D D D W W v v v v -   8 %.k k k k v v 9 9 4 9 9 9 9 4 9 9 9 9 g g 3 R R g R R 0 f 3 g 2 f 3 3 3 g R R f f g 0 g f R ..f g ....f f 2 2 2 2 f f f g 0 2 2 f g g g f f 0 f f f f e e 2 K K K g ..f f f f 2 2 K 2 e e f f f f f f 2 2 g f 2 2 f f e e K K e e f f e e f 0 e e f f g f g 3 f f 3 3 3 0 R R R 3 3 3 R R H H R R 9 9 9 4 b b 9 9 9 9 g 3 b b ! ! ! ! / / ) ) , , . . . . . . . . - - > ",
"  . . . . . . . , . . ) ) ( ( ! ! ^ ^ h h 3 1 1 1 9 9 q } v v 9 4 R R 9 9 g g 3 R R R 0 f 3 g 2 f f f g 0 g f f f 2 2 g g J e 0 f 2 2 g f e e f f K 2 f f K K g g K 2 f f K 2 f g f f ....K Z Z Z f f f g 0 g f f 2 2 g f f f f f e e f f 2 K f f e e f f 0 f f g g g f f 0 f f f f f f g 0 g f f g g f f f f g 0 g f f g g 3 R g g g 9 9 R R 9 9 3 R H 9 9 4 v v 8 8 C - v v v v E E D D D D W W v v h h -   8 8 9 9 v v 9 4 v v 9 9 4 9 R R 4 9 9 4 9 9 g g R R g g R R g g 3 R R g R R g g g 3 g g g g g 3 g g g f f g 0 2 R R 0 2 f f e e f f f f f f 2 K R R g g R ..e e f f f f 3 R f f g 0 Z 2 f f g g g g g f R R g g f g e e K K e e f f J e 0 f f f g 0 J e f f f f 3 3 0 g 3 R R R 9 9 g g g f 9 9 9 4 4 H v v 6 6 9 9 3 3 4 9 b b ! ! ! ! ! ! | | . . . . . . . . . .     ; ",
"  . . . . . . . , . . ) ) ( ( ! ! ^ ^ h h 3 3 3 1 9 9 q } v v 9 4 3 R 9 9 g g 3 R R R g g g f f 0 f f f f g g g f 2 2 f f J e f f 2 2 g f e e f f K 2 f f K K g g K 2 g g 2 2 f g f f g ..Z Z Z Z f f f g 0 g f f 2 2 g g f f f f e e f f K 2 f g e e f f f f f f f f g 0 g f f g g f f f f f g 0 g f f g g f f f f f f g ..g R R 0 g 9 9 R R 9 9 R R 9 9 4 9 v v 8 8 C - v v v v E E D D D D E E v v h h     8 8 9 9 v v 9 4 v v 9 9 4 9 g R 9 9 9 9 4 9 g g R R 0 g 9 R g g R R g g 3 R f f g g g g 3 g g g f g g g f f 0 2 R R 0 2 f f e e f f 0 f f g K K R R g f ....e e f f 0 f R R 0 f f f 2 2 f f f f f g f f R R f f g f J e Z K e e f f J e 0 f f f f g e e f f f f R 3 f 0 R R R R 9 9 g g g f 9 9 4 4 H H 9 v 6 6 9 9 g 3 9 9 b b ! ! ! ! ! ! | | . . . . . . . . . .     ; ",
"' . . , , . . , . , , ) | ! ! ! ! ! ! h i 1 1 1 1 v v } q v v 9 9 4 H 3 3 9 4 g g g f f 0 R R 0 g f g f f g g K 2 g f K 2 f f K K f f e e K 2 K K f f 2 2 f f K 2 f f f f g 0 2 2 ......R H H Z Z R R Z Z f f f f f f f g 9 9 g g 3 R 2 K 2 2 e e R R a e g g 2 K f f K K f f f f g 0 g f f g g 3 R g g g R R g g 9 9 3 R H 9 R R 9 9 R R 9 9 R R 4 9 9 9 4 9 v v r r - ' h h k k E E D D D D E E v v v v -   8 %.k k k k v v 9 4 k k 4 9 9 9 R R H 4 9 9 4 9 g g R R 0 f 9 R ..g R R g g g g g f R 3 f 0 f g g 2 g g 2 2 f g 2 2 2 2 2 2 f g 2 2 R 3 f f g f f f K 2 f g f f ..R R R ..R g g g g f g K 2 f g g f f f g g f f f f f f e e f f K 2 f f g 0 g f f f f f g 0 g f f g R R 3 3 9 4 3 3 3 R R R H 4 R R 9 9 9 4 b b 9 9 9 4 g 3 b b ! ! ! ! / / ) ) G G . . . . . . . . - - > ",
"' . . , , , . . . , , ) | ! ! ! ! ! ! h i 1 1 1 1 v v } q v v 9 9 4 H 3 3 9 4 g g g g f f R R 0 g f g f f f g K 2 f f 2 2 g f 2 2 f f e e 2 K 2 2 f f K K f f 2 2 g f g f f f K 2 ..R ....H H Z Z R R Z Z f f f f g 0 g f 9 9 ..g R 3 2 K K K e e R R a e g g K K f f 2 K f f f f g 0 g f f g g 3 R g g g R R 0 g 9 9 R R 9 9 R R 9 9 R R 9 9 R R 9 9 9 4 4 4 i v r r - ' h h k k E E D D D D W E v v v v     %.%.k k k k v v 9 4 k k 4 9 9 9 R R H H 9 9 4 9 g g R R g g 3 R R g R R g g g g f f R 3 f 0 f g g 2 g g 2 0 f g e 2 2 2 2 2 f g 2 2 4 R f g f f g 0 Z 2 f f g 0 ..R R R ..R g g f f f f 2 2 g f g f f f g g f g f f f f J e f f 2 K f f g 0 g f f f f f f g 0 g f f R R R 3 4 4 3 3 3 R R R H H R R 9 9 9 4 b b 9 9 9 9 3 3 b b ! ! ! ! / ^ ) ) G G . . . . . . . . - - > ",
"  . . . . , , . . . . ) ) ( ( ! ! ^ ^ h h 1 1 1 1 9 9 q } v v 4 4 9 9 9 4 3 R H H 9 9 H H R R R R 0 g f g f f R R 0 g f g f f g f e e 2 2 e e f g K K f f f f g f e e f f f f ....f f R R R R (.(.K Z R ..2 2 g g e e f f 0 f f g J J 2 2 e e f f e e 2 K f f f f e e g f f f f g 0 g 3 R g f R 3 R R 9 9 R R 9 4 3 3 9 9 3 R H 9 R R 9 9 R R 9 9 9 4 H H t 5 5 t { { E > v v v v E E D D D D E E v v h h -   r r h h %.%.4 4 i v 9 9 4 9 9 9 9 9 9 9 H H R R 9 9 R R 9 9 R 3 4 9 g g 3 R R g R R g g g g g 3 g g g f g g g g f f 0 2 e e 2 K f f f f g 0 g f f f e e g f f f ..R ......R e e f f g g g g 2 2 g g f f R R 0 f f f f f f f K 2 f ..f f R R f f R R R R 0 g f g f ......9 9 3 R H 4 R R 9 9 f f 3 R 9 9 %.h } } k k 1 3 9 9 b b ! ! ! ! ! ! | | . . . . . . . . . . - - ; ",
"  . . . . , , . . . . ) ) ( ( ! ! ^ ^ h h 1 1 1 1 9 9 } } v v 9 4 9 9 4 4 3 R H H 9 9 H H R R R R 0 f f g ..g R R 0 f f f f f f f e e 2 2 e e g g K K f f f f g f e e f f f f ....f f R R R R (.(.K Z R ..2 2 g f e e f f g g g f e J 2 K e e g g e e 2 K f f f f e e g f f f f f g 0 ..R f f R 3 R R 9 9 R R 9 4 3 3 9 4 3 R 9 9 R R 9 9 3 R H 9 9 9 4 4 5 5 t t { { ] > v v v v E E D D D D E E v v %.%.    r r h h h %.4 4 i v 9 9 9 4 9 9 9 9 9 9 H H R R 9 9 3 R H 9 R 3 4 9 g g R R g g R R g g g g 3 g g g f g g g g g f f 0 2 e e K 2 f f f f g 0 g f f f e e g g f f R R ......R e e f f g g g g 2 0 f g f f R R 0 g f g f f g f K K ....g f ..R g f R R R R 0 f f g ..g R ..9 9 R R H 4 R R 9 9 g g R R 9 9 h h } } k k 3 g 9 9 b b ! ! ! ! ! ! | | . . . . . . . . . . - - ; ",
"- , , . , . . . , . . | | ! ! ! ! ! ! v i k k 1 1 k k q q i i 9 9 4 9 g 3 9 9 4 9 9 H 9 9 4 9 g g g g g f R R g g 3 R f f g g 2 2 f f e e f f f f ....f f R ..f f K 2 e e R R f g R ..f f (.(.Z Z ....f f R ..f f f f K 2 ..R f 2 2 2 e a 2 2 2 2 f g 2 2 R R K K f f f f f g 0 g f f R R 9 9 R R R R 0 g 9 R g 3 3 R 3 3 9 4 3 R 9 9 3 R H 9 R R H H 9 9 L L     6 6 - - h h k k E E D D D D W E h h %.h > > L L       - v v 4 4 k k 4 9 9 H 9 9 9 9 4 9 9 9 R R 9 9 R R 9 9 R 3 9 9 f f 9 9 g g R R 0 f 9 R f f g 0 g f f f 2 2 f f e e f 0 f f g g g f f 0 e e f f 0 f R R ......R f f g ....f ..R g g g f f 0 R R g g R ..f f g 0 Z 2 f f K 2 f f f f R 3 f f R R R 3 g g g f 9 9 R R 4 H 9 9 9 9 3 3 3 R 3 3 4 4 i i b b 9 4 4 9 3 3 b b ! ! ! ! / ^ | | . . . , . . . . . .     > ",
"- , , . , . . . , , . | | ! ! ! ! ! ! v i k k 3 1 k k q q !.!.9 9 4 9 g 3 9 9 9 4 4 H 9 9 4 9 g g g g g g 3 R ..g R R g g g f K 2 f f e J f f f f ....f f R ..f f K 2 e e ..R f g R ..f f (.(.Z Z ....f f R ..f f f f K 2 ..R f 2 2 2 e e K K 2 2 g f 2 2 R R Z K f f f f g g g f f 0 R R 9 9 R R R R 0 g 9 R g 3 R R 3 3 9 9 3 R H 9 R R 9 9 3 R H 4 9 9 b b     6 6 - - h h k k E E D D D D E W h h %.h > > L L     - - v v 4 4 k k 4 9 9 H 9 9 4 9 9 9 9 9 R R 9 9 R R 9 9 R 3 9 9 g 3 9 9 g g R R g g 3 R f f g g f f g 0 2 2 f f e e f f g 0 g f f f f f e e f f f f 3 R ......R f f f g ..g R R g g g f f 0 R R f g R 3 g f f g e K f f K 2 f g f f ..R f f R R R ..f g g g 9 9 3 R 4 H 9 9 9 9 3 3 R R R 3 4 4 i i b b 9 4 9 9 3 3 b b ! ! ! ! / ^ | | . . . , . . . . . .     > ",
"  . . , , . , . . G G ) ) ( ( ! ! ! ! h h 3 1 k k k k 6 6 v v 9 4 R 3 3 3 f f R R R ..9 9 f f R R g f f g g g 3 R g g g g f g g f e 2 g f f f g 0 g f R R g g ..R g f f g f f f g 0 g f f f f Z Z Z Z Z Z g g 3 R 2 2 e e f f f f J J Z K e e f f e e g f f f f f K 2 ....f f f g g g 9 9 g g 3 R R g R R 3 3 3 R g g R R R R 9 9 R R 9 9 R 3 H H 9 9 H H v v 5 5 r r > > v v v v E E D D D D E W v v h h - - u r v v h h 4 4 i v 9 9 4 4 9 9 H H 9 9 9 9 3 R H 9 R R 9 9 R R 4 9 R R 9 9 R 3 3 R 3 g g g 3 g g g f 0 f g 2 2 g f 2 2 g f g f f f f g 0 g e e 2 K f f f f f f g 0 ..R R ..f f f f g g 3 R g f ..R 0 f f f 2 e K 2 e e f f K K f f f f f f g 0 g f f f 3 R 0 f ....g ..9 9 R R 9 9 f f 9 R g 3 3 R 3 g i i } } 9 4 R 3 9 9 b b ! ! ! ! ! ! | | G G . . . . . . = = - - ; ",
"  . . , , , . . . G G ) ) ( ( ! ! ! ! h h 3 1 k k k k 6 6 v v 9 9 3 3 3 3 g g R R R ..9 9 f f R R f f g g g f R R f g g f f f f f 2 2 g g f f f g 0 g 3 R g g R R f g f g f f g g g f f 0 f f Z Z Z Z Z Z g g R R 2 2 e e f f f f J J 2 K e e g f e e g f f f f f K K ....f f f f g g 9 9 g g 3 R R g R R 3 3 3 R 3 g R R R R 9 9 R R 9 9 R R H H 9 9 H H v v 5 5 r r > > v v v v E E D D D D W E v v %.%.  - r r v v h h 4 4 v v 9 9 4 9 9 H 9 H 9 9 9 9 R R 4 9 R R 9 9 R R 9 9 R R 4 9 R 3 3 R 3 g g g g 3 g g g 0 f g 2 2 g f 2 2 g g f f f 0 f f f f e e K K f f f g 0 g f f R R R R f f f f ..g R R g g 3 R 0 f f f 2 e 2 2 e e f f K K f f f f f f f g 0 g f f R R f f g ..g g 9 9 R R 4 9 g g R R g 3 3 R 3 g i i q } 4 4 3 3 4 9 b b ! ! ! ! ! ! | | G G . . . . . . = = - - ; ",
"- = = . . . . . . . , | | ! ! ! ! ! ! h h k k k k k k 6 6 i i R 3 3 R 3 g R R 0 f 9 9 R R R R 0 g 9 R g f f f g 0 ..R f g R R g g R g g f f f f f f f f f R 3 R R R R g g R R f f R ..f f f f g f f g 0 g 3 R g f f f e e K K e e 2 2 e e f f 2 K J e f f g g 2 0 f g f f g g g f R R R R 3 3 f g R R g g R R g 3 4 9 g R 9 9 R R H 4 4 9 9 H 9 9 4 4 H 9 v v 9 4 z z ' ' h h k k E E D D D D W W h h %.h - - $.$.%.%.k k v v 9 4 k k 4 9 H H 9 9 H H 9 9 9 9 3 R H 9 R R 9 9 R R 9 9 R R 9 4 3 3 4 9 g g R R 0 g f g 2 2 g g e e f f K 2 ..R f 2 2 g 2 K 2 2 e e R R f f R R 2 K f f f g e K K 2 g g 2 2 g f f g R R 2 K f f f g R R f f ....g f R ..K K f f f f f f f f R 3 f f 9 9 R 3 9 9 f f 3 g R R R ..R 3 4 9 v v b b k k 4 9 R R b b ! ! ! ! / ^ | | . . . . . . . . . .     > ",
"- = = , . . . . . . , | | ! ! ! ! ! ! h h k k k k k k 6 6 i i R 3 3 R 3 g R R g g 9 9 R R R R 0 g 9 R g f f f f g ..R g g R R g g g g f g g f f g f f g 0 ..R R R R R f g R R g g R ..f f g 0 g f f f f f R R 0 g f f e e K 2 e e 2 2 e e f f K K e e f f g g 2 2 g f g f f f f f R 3 R R 3 3 3 g R R f g R R R 3 4 9 g R 9 9 3 R H 4 9 9 H H 9 9 H H 9 9 v v 9 4 z z ' ' h h k k E E D D D D W E h h h %.- - $.$.%.%.k k v v 9 4 k k 4 9 H H 9 9 H H 9 9 4 9 g R 9 9 3 R H 9 R R 9 9 R R H H 3 3 9 4 g g R R 0 g f g 2 2 f f e e f 0 f 2 R R 0 2 f f K K K K e e R R f f R R K K f f f f K K K K f g 2 2 g f f g R R 2 K f f f f R R f f ....f f ....K K f f g 0 g f f f 3 R f f 4 9 R ..9 9 g g 3 R R g R R 3 3 9 9 v v b b k k 4 9 R R b b ! ! ! ! ^ ^ | | . . . . . . . . . .     > ",
"' , , , . . . , . . , ) ) / / ! ! / ^ 8 8 1 1 9 4 k k b b %.%.v v r u i i v i 4 4 9 9 9 4 g g f f f f g f K K ....f f R R R ..R g f g R R g 3 R g f f R 3 R R 9 9 g g R R R ..R 3 R R R R f f g g f f g g 3 R R R K K K K K 2 f f e e f 0 f f g g 2 0 f g 0 f f g 0 g f f g g 9 9 3 R H 9 R R R R 0 g 9 R g g R 9 9 4 9 9 9 9 9 H 9 9 v v 9 9 4 9 9 9 v v 4 4 i i r r - C h h 8 8 W W D D D D W E h h h h -   r r v v v v v v v v H H v v v v v v 4 4 H H 9 9 9 4 9 9 v v 9 9 4 9 9 9 9 9 3 3 R R 0 g 9 R f f g 0 g f f g g 0 f g 2 2 g f f f g 0 g f f g g f f f f f R R 0 g f g f f R R 0 f 9 9 g g 9 9 9 9 g 3 g g 3 R g g R R R R 9 9 g g R R g g g g f g R R 0 g f g R R 3 R R R 9 9 H H R R g g H H 9 9 5 5 1 1 h h b b k k g g 9 9 b b ! ! ! ! ! ! | | . . . . . . . . = = - - > ",
"' , , . , , . . . , . ) ) / / ! ! / / 8 8 1 1 9 4 k k b b %.%.v v r u i i i v 4 4 9 9 9 4 g g g g f g f f K 2 ..R f f ..R ......R f g R R f g R R f f R 3 R R 9 9 g g R ..R R R ..R 3 R R f f g g f g f f R R R ..f K K K K 2 g g e e f f f g 0 g 2 2 g f g f f f f f f g ..g 9 9 3 R H 9 R R R R 0 f 9 R ..g 9 9 4 9 9 9 9 9 H H 9 9 v v 9 9 4 9 9 9 v v 9 4 h h r r - C h h 8 8 W W D D D D W W h h h %.- - r r v v v v v v v v H H v v v v v v 4 4 4 H H 9 9 4 4 9 v v 9 9 4 9 9 9 9 9 g 3 R R 0 g 9 R f f f g 0 2 R g 2 0 f g 2 2 f f f g 0 g f f g g f f f f f f R ..f f f f g 0 ..R f g 9 9 f f 9 9 9 9 3 3 g g 3 R g g R 3 R R 9 9 g g R 3 g f g g f f R R 0 g f g R R 3 R R R 9 9 H H R R g g H H 9 9 5 5 3 1 h h b b k k g g 9 9 b b ! ! ! ! ! ! | | . . . . . . . . = = - - > ",
"- = = . . . . . . , . | | ! ! ! ! ! ! h i 4 4 9 9 v v } q v i %.%.b b 3 3 } } v v 4 4 i v 9 9 R R R R f f g f K K f f K 2 ....f f f f g f R R R ..R 3 R 3 4 9 g R 9 R 0 f 9 9 9 9 4 9 g g g ..f f f f g f R R 0 f 3 g 2 2 f f g 0 g f 2 2 R R 0 g f g R R R R R ..f g R R R 3 R R 9 9 R R 9 9 R 3 R R R R H H 9 9 v v 9 9 4 9 R R v v 9 9 v v 9 4 v v H H k k v v z z - - 8 8 h h B B D D D D W E h 5 h h     8 8 h h k k v v 9 4 h i i v i i 4 4 H H 9 4 v v 9 9 9 4 9 9 v v 9 9 4 9 9 9 9 4 R R 9 9 R R 9 9 f f g 0 g f f f 2 2 f g 2 0 f g f f f f g g f g 2 2 g f g f f f f f R R 0 g 9 9 9 4 v v 4 9 9 9 3 3 9 9 3 g 9 9 ..R 9 9 R ..R R 0 f 3 g 2 2 f g g g f f 0 2 R R 0 f 9 9 R R v v 9 4 i i t t v v b b %.%.%.h b b 9 9 9 9 1 1 { { ! ! ! ! ( ( | | . . . . . . . . . .     > ",
"- = = . . . . . , , . | | ! ! ! ! ! ! h h 4 4 4 9 v v q q i i %.%.b b 3 3 } } v v 4 4 v v 4 9 R R R R f f f f 2 2 f f K K ....f f g g g g R R R R R R 3 3 9 9 R R R 3 g g 9 9 9 9 9 9 g g g ..f f f g f f R R f f g f 2 2 f f g f f f K K R R f f f g R R R 3 ....g g R R R 3 ..R 9 9 R R 9 9 R R R 3 ..R H H 9 9 v v 4 9 9 9 R R v v 4 9 v v 4 9 v v H H k k v v z z - - 8 8 h h B B D D D D W W 5 5 h h - - 8 8 h h k k v v 4 9 i i v v i i 4 4 H H 4 4 v v 9 9 9 4 4 9 v v 4 9 9 4 4 9 9 9 R R 9 9 R R 9 9 f f g f f f f g 2 2 g g 2 2 g g f g g f f f g g 2 2 f g g g g g g g R R f f 9 9 9 4 v v 9 4 9 9 R 3 9 9 g g 9 9 R R 9 9 R R R 3 g f f g 2 2 f g f f g f 2 2 R R f f 9 9 R R v v 9 9 i i t t v v b b %.%.h h b b 9 9 9 9 1 1 { { ! ! ! ! ( ( | | . . . . . . . . . .     > ",
"' , , = = . . , , G G | | / / ! ! / / 8 8 9 9 9 4 k k b b i i %.%.} } ] ]     i i R R i i R R H H 4 9 9 9 g ....R g g f g g f ....g f ..R R R 4 4 R R 9 H 4 9 9 9 R R H H 4 9 v v R R R 3 g f R R f f ....K K g g g g R R 2 2 g g g g g g f f R R f f 9 9 g g R R f g R R R R 4 9 9 9 9 9 R R 9 9 R R 4 4 9 9 v v i v v i 9 9 9 9 9 9 9 9 9 9 9 4 4 9 v v k k h h r r C ' h h 8 8 W W D D D D W W h h h h - - r r v v i v 4 4 v i i v !.!.4 4 H H H 4 v v i v i i 4 9 v v 9 9 9 9 9 9 9 4 R R 4 9 9 9 9 9 R R R 3 g f g g g g f g g 0 g g g g f g g g R 3 f f g f f f R R f f g g g f R R g g 9 4 4 H H 4 3 3 9 9 g g 9 9 9 9 4 H g g g g f g g g f f f f g g f f f f g f f g 9 9 9 4 H H 9 9 R R v v } }     ; ; k k 8 8 6 6 k k 1 1 4 4 b b ! ! ! ! ! ! | | G G . . . . . . = = - - > ",
"' . , = = . . , , G G | | / / ! ! / / 8 8 9 9 9 4 k k b b i i %.%.} } ] ]     i i R R i i R R H H 4 9 9 9 g ..3 R g g f g g f ..R f f R R R R 4 9 R R 9 H 4 9 9 9 R R H H 9 9 v v R R R R f f R R f f g R K K g g g g R R 2 2 g g g g g g g f R R f f 9 9 f g R R g g R R R R 4 9 9 9 9 9 R R 4 9 R R H 4 4 9 v v v v i v 9 9 9 9 9 9 4 9 9 9 4 H H 4 v v k k h h r r C ' h h 8 8 W W D D D D W W h h h h - - r r v v v i 4 4 v i v v i !.4 4 4 H H 4 v v i v i i 9 9 v v 9 9 9 9 9 9 9 9 R R 4 9 9 9 9 9 R R R 3 g f g g g g g f g 0 g g g g g f g g g 3 f f f g f f R R f f g g f f ..R g g 9 4 4 4 H H 3 3 9 9 g g 9 9 9 9 4 H g g g g f g g g f f f f f f f f f f g f f g 9 9 9 4 H H 4 9 R R v v q }     ; ; k k 8 8 6 6 k k 1 1 4 4 b b ! ! ! ! ! ! | | G G . . . . . . = = - - > ",
"  = = , , , , . . = = | | ^ ^ ! ! ! ! h h k k 9 9 v v q q i i R 3 9 H H v 9 4 4 9 9 4 3 R 9 9 R R H H R R R 3 g f R R f f 9 9 R R R 3 g f R R R 3 9 9 R R 9 9 f f g f R R 4 H R R 4 9 g g g ..f f R R g g g g g g ..f f f g f f f g g g g R R f g f f g f f f g g R R R R 4 9 9 9 H H 4 9 R R R 3 9 9 9 9 v v 4 9 v v 9 9 v v 9 9 v v v v i v 9 9 H H 4 9 v h h h M M - - 8 8 h h B B D D D D W W 5 8 h h - - 8 8 h h k k v v i v i i v v i v 9 9 H H 4 9 v h v v 4 9 9 4 v v 4 9 v v 9 9 9 9 9 9 9 4 g g R R g g g g f g g 3 f f g g g g f g g g 3 R f g R R f f ..R f g R R f g R R g g H H 4 9 v v 9 9 9 9 g g 9 9 9 9 4 H 9 9 R R f f g f f f g g f g R R g g g g g g R R R R 4 H R R 4 H 9 9 4 H v v i v 1 1 k k v v b b 4 4 H H 1 1 { { ! ! ! ! ( ( | | . . = = . . = = , ,     > ",
"- = = , , , , , . = = | | ^ ^ ! ! ! ! h h k k 9 9 v v q q i i 3 3 9 4 H v 4 4 9 9 4 4 3 R 9 9 R R H H R R R 3 f g R R f g 9 9 R R R R f f ..R 3 3 9 9 R R 9 9 g f f g R R H 4 R R 4 9 g g g R f f R R g g g g g g f ..f f g g g g f g g g 3 R g g g g f g g g g g R R R R 9 9 9 9 4 H 9 9 R R R R 9 9 9 9 v v 9 9 v v 9 9 v v 9 9 v v v v i v 9 9 H H 9 9 h h h h M M - - 8 8 h h B B D D D D W W 8 8 h h - - 8 8 h h k k v v v v i !.v v i v 9 9 H H 4 4 v i v v H 4 4 9 v v 9 9 v v 9 9 9 9 9 9 9 9 g g R R g g g g g f R 3 f f g g g g g f g g 3 R f g R R g f ..R f g R R g f ..R f g H H 4 9 v v 9 9 9 9 g g 9 9 9 4 H v 9 9 R R f f ..g g g g f g f R R g g g g g g ..R R R 4 H R R H 4 9 9 4 H v v i v 1 1 k k v v b b 4 4 4 H 1 1 { { ! ! _ ! ( ( | | . . = = , . = = , .     > ",
"' , , = = . . = = G G ) | ( ( ! ! ! ! 8 8 9 9 4 4 H H } } v v i v 9 9 4 4 4 9 9 9 9 9 4 H R R R 3 ..R R R R 3 H H R R 4 9 R R R R f f ..R 3 f 3 3 g g R R g g g g g g R 3 g g 9 9 g g 9 9 R R R R R 3 9 9 R R R R 2 2 g g g g R R 2 2 g g g g R R f g f g 2 2 R R f f 9 9 R R H 4 9 9 v v 9 9 9 9 g g 9 4 4 9 9 4 H 9 v v 4 9 v v v v i v v v i v 9 9 H H 8 8 8 8 r r C C h h h h W W D D D D W W h %.8 8 { { r r u u h h v v i !.v v v i 4 4 v v H 4 v v i v i i 4 4 v v 4 4 H H 1 9 9 9 9 9 9 4 9 9 9 9 g ..R R f f ..R 2 2 g g g g 9 9 g f R R f f ..R 3 f g g g ..R 9 R R R R R R 4 9 9 9 9 9 g f R 3 3 g 3 3 f g 9 9 3 3 9 9 f f g f f g R R g g R R f f 9 9 R ....R R ..9 9 R R R R R R 4 9 9 9 H H 9 9 4 4 9 9 h h b b i v 1 1 4 4 b b ! ! ! ! ! ! | | = = , . = = , , = = - - > ",
"' . , = = . . = = G G | | ( ( ! ! ! ! 8 8 9 9 9 4 H H } } v v v i 4 4 9 4 9 4 9 9 9 9 H H R R R R ......R R R 4 H R R 9 9 R R R R 3 ..R R f f g R g g R R g g g g g g g R g g 9 9 g g 9 9 R R R R R R 9 9 R R R R 2 2 f g f g R R 2 2 g g g g R R g g g g 2 2 R R f g 9 9 R R H H 4 9 v v 9 9 9 9 g g 9 4 4 9 4 4 9 9 v v 9 9 v v i v v v v i v v 4 4 H H 8 8 8 8 r r C C h h h h W W D D D D W W %.%.8 8 { { r r u u h h v v i !.v v i i 4 9 v v 4 9 v v v v v i 4 4 v v 4 9 4 4 9 9 4 9 9 9 4 H 9 9 9 9 g g R R g g R R 2 2 g g g ..R 9 g g R R g g R R f g f g g g 9 4 R R R 3 ..R H 9 9 9 9 9 g g R 3 g g R 3 f f 9 9 R 3 9 9 f g g g g g R R g g R 3 g g 9 4 ....R R ....9 9 R R R R R R 9 9 9 4 H H 4 9 4 4 9 9 h h b b v v 1 1 4 4 b b ! ! ! ! ! ! | | = = . . = = , , = = - - > ",
"- = = . , = = , , = = ) ) ! ! ! ! ! ! h h k k 9 9 v i q q %.%.v v i v 9 9 H H 9 9 v i !.!.H H R R R R R R R R R R H H 4 9 R R f g R R g f 9 R g g 3 R f g g R 3 g 4 4 R 3 9 9 9 9 9 9 9 9 4 H R R R R R R 4 9 R R R 3 g f g g f f g f f f R R f g R R g f R R R 3 9 9 R R 4 H R R H H 4 9 9 4 4 9 9 4 4 4 v v 9 9 v v 9 9 v v 4 9 v v 9 9 v v 4 9 v v %.%.t t r r C - A A 8 8 h h E E D D D D W W 8 8 8 5 - - b b 8 8 [ [ %.%.h h i i 4 H H 4 v v v i 4 H v v v i v v v v v i 9 9 v v 9 9 9 9 9 9 v v 9 9 9 4 3 R 9 9 g f R 3 g g R 3 g g g g g f R 3 g g 9 9 g g 9 9 9 9 9 9 g f 9 9 R R 9 9 9 9 9 9 g g 9 9 9 9 9 9 g f 9 9 R 3 R R f f R R g f R R g g 9 9 g g R R R R R R f f ..R R R 4 H R R H 9 9 9 v v 4 9 v v %.%.b b k k 9 4 4 9 { { ! ! ! ! ! ( | | . . = = = = = = = =     > ",
"- = = . , = = , , = = ) ) ! ! ! ! ! ! h h k k 9 9 v i q q %.%.v v v i 9 9 4 4 9 9 h h !.!.H H R R R R R R R R R R H H 4 9 R R f f R R g g R R g f R R f g 3 3 g 3 4 4 R 3 9 9 9 9 9 9 4 9 9 H R R R R R R 4 9 R R R R f g f g g f f g f f R R f g R R g f R R R R 4 9 R R H 4 R R H 4 9 9 4 4 9 9 4 9 4 4 v v 4 9 v v 9 9 v v 4 9 v v 9 9 v v 9 9 v v %.%.t t r r C - A A 8 8 h h E E D D D D W W 8 8 8 5 - - b b 8 8 [ [ %.%.h h i i H H 4 H v v i i 4 H v v i v v v v v v i 9 9 v v 4 9 9 4 9 9 v v 9 9 9 4 3 R 9 9 f g g 3 3 g 3 3 f f g g g g R R g g 9 9 g g 9 9 9 9 9 9 g f 9 9 R R 9 9 9 9 9 9 g g 9 9 9 9 9 9 g g 9 9 R 3 R ..f f R R g f R R g g 9 9 g g R R R 3 ..R f f R R R R H 4 R R 9 9 9 9 v v 4 4 v v %.%.b b k k 9 4 9 9 { { ! ! ! ! ( ( | | . . = = = = = = = =     > ",
"' , , ) ) , , = = , , :.:./ / ! ! ^ ^ 8 8 9 9 k k k k b b h h h h v v i v 9 9 H v H 4 !.!.(.(.(.(.R R (.(.R R 4 9 R R R R R ^.R R f g ..R g f R R f f 9 3 3 g 9 9 9 9 9 9 R R H 4 4 4 !.H 9 9 9 4 f g 9 9 9 9 9 9 g g R R g f R R f f ..g g g R R R R g g R R H H R R v v 4 9 v v 9 9 4 4 9 9 4 9 4 9 v v v v v i 4 4 v v 9 9 H H 4 9 v v v v i v v v  . .6 6 > > M M A A h h 8 V W W D D D D W W h %.8 8 - - 6 6 b b 8 5 h i i v H H v v 4 9 v v 9 4 v i H 4 v i 4 4 v v 4 9 v v 4 9 9 4 9 9 H H H H v v 9 9 9 4 9 9 9 9 g g g g g g R R g g R R g g 9 9 R 3 3 g 3 3 4 4 R 3 9 9 R R 9 9 9 9 v v 9 9 g g g g 9 9 g f g 3 3 g 9 9 f g R R f f 9 9 g g R R R R H H 4 9 9 4 g f R R 3 R 9 9 9 4 H H R R 4 H v v %.%.v v t t } } v i 3 1 k k b b ! ! ! ! ! ! | | = = , . = = , , = = - - > ",
"' , , ) ) , , = = , , :.:./ / ! ! ^ ^ 8 8 9 9 k k k k b b %.h h h v v i v 9 9 H v H H !.!.(.(.(.(.R R (.(.R R 9 9 R R R R R R R R f f ..R g g R R f f 9 3 g g 9 4 9 9 9 9 R R H 4 4 4 !.H 9 9 9 9 f g 9 9 9 9 9 9 g f R 3 g f ..R f g g g g g R R R R f g R R H H R R v v 4 9 v v 9 9 4 4 4 9 9 4 9 4 v v i v v v 4 4 v v 4 9 v H 9 9 v v v i v v v v  . .6 6 > > M M A A h h 8 V W W D D D D W W %.%.8 8 - - 6 6 b b 8 5 h i i i 4 H v v H 4 v v H 4 !.i H 4 i i 4 H v v 9 9 v v 9 9 9 4 9 9 4 H H H v v 9 9 9 9 9 9 4 9 f f g f f g 9 R f g R R g f 9 9 R 3 3 3 g 3 4 4 3 R 9 9 R R 4 9 9 9 v v 4 9 g g g g 9 9 g g 3 3 g 3 9 9 g f R 3 g f 9 9 g f R 3 R R 4 H 9 9 H H g f R R R R 9 9 9 9 4 H R R 4 H v v %.%.v v t t } } v i 3 1 k k b b ! ! ! ! ! ! | | = = , . = = , , = = - - > ",
"- ) ) = = = = , , < < | | ! ! ! ! ! ! 5 5 v v 4 9 i h 6 6 8 8 k k h h k k h h 9 4 4 H 9 4 (.(.(.(.H H (.(.9 9 R R H H R R 4 H R R 9 4 g f R 3 g g R R g f R R R R v v 4 9 4 H 9 9 v v H H H H R R 9 9 9 4 H H R R R R g g 9 9 g g R R f f ..g g g R R g f H H 4 9 9 4 9 9 v v 9 9 v v 4 9 9 9 g 3 9 9 9 9 v v 9 9 v v H 4 v v 9 9 9 9 v v v v i v %.%.h h i %.8 5 z z C ' 8 8 h h E E D D D D W W 8 8 8 8 - - 8 8 5 5 h h h h 4 4 v i v v v v 4 9 v v v i i v v v i v 9 9 H H 9 9 v v 9 9 H H 4 9 9 4 9 9 9 9 R 3 9 9 9 9 9 9 g f g g 2 2 g g g g R R R 3 9 9 g g 9 4 9 9 9 9 g ..R 9 f g v v 9 4 9 9 3 g 9 9 R 3 9 9 R 3 9 9 g f R 3 f f R R R R 9 9 R R 4 H 9 9 H H R R H H R R H H H H v v H H v v H H v i i v %.%.h h L L v v 4 9 9 4 { { ! ! ! ! / / | | G G = = , . = = = =     > ",
"- ) ) = = = = , . < < | | ! ! ! ! ! ! 5 5 v v 4 9 i h 6 6 8 8 k k h h k k %.%.H 9 4 H 9 4 (.(.(.(.H H (.(.9 9 R R H H R R H 4 R R 9 9 g g R 3 g g R R f f ..R 3 R v v H 4 H H 9 9 v v H H H H R R 9 9 9 9 4 H R R R R g g 9 9 g g R R f f ..g g g R R f f H H 4 9 9 4 9 9 v v 4 9 v v 4 9 9 9 g 3 9 9 9 9 v v 4 9 v v 9 4 v v 9 9 9 9 v v v i v v %.%.h h i %.5 5 z z C C 8 8 h h E E D D D D W W 8 8 8 8 - - 8 8 5 5 h h h h 4 4 v i v v v v 9 9 v v i i v v v v i v 9 9 H H 9 9 v v 4 9 9 4 9 9 H H 4 9 9 4 3 3 9 9 9 9 9 9 g g g g 2 2 f g f g R R R 3 9 9 g g 9 4 9 9 9 9 g f 9 9 g g v v 4 9 4 9 3 g 9 9 3 3 9 9 g 3 9 9 g 3 R R g f R R R R 9 9 R R 4 H 9 9 H H R R H H R R 4 H 4 H v v H H v v H H i i v v %.%.h h L L v v H 4 9 9 { { ! ! ! ! / / | | G G = = . . = = = =     > ",
"  , , = = , , , , G G :.:.^ ^ ! ! ! ! 8 8 9 9 k k v v b b %.%.h h 4 4 v v 4 9 !.!.!.!.!.!.(.(.(.(.H H (.(.H H (.(.9 9 9 9 R 3 9 9 R R R 3 g f R R 3 3 R R g g R ..3 3 9 9 4 9 9 9 9 9 v v 4 H 9 4 R R R 3 g 3 3 R R R 4 9 g g R 3 g 4 R R f f 9 9 9 9 4 H 9 9 9 9 R 3 v v 4 9 v v 9 9 4 9 9 9 4 H 9 9 9 4 H 9 v v v i v v v v v ].v v %.%.v v %.%.i i !.!.!.!.%.%.r r C - 8 8 8 8 E E D D D D W W h h 8 V { { 6 6 i i %.%.v v %.%.!.!.%.%.h h i i v v i !.v v i i H 4 i v v i v v 4 4 4 9 9 4 9 4 9 9 H H 9 9 9 9 R 3 9 9 R R 9 9 f g R R g f R R 3 3 9 9 R R 4 9 g g 9 9 R 3 9 9 9 9 4 H 1 1 4 H 9 9 9 9 g g 9 9 g g R 3 g g 9 9 g g R 3 g g R R 9 9 R R R R H H 9 9 H H R R H H H H H 4 R R i !.4 4 ].v 9 9 v v 9 9 %.%.b b h h 9 9 k k b b ! ! _ ! ! _ | | = = . . = = , , = = - - ; ",
"  , , = = , , , , G G :.:.^ ^ ! ! ! ! 8 8 9 9 k k v v b b %.%.v i H 4 i v 4 4 !.!.!.!.!.!.(.(.(.(.H H (.(.H H (.(.9 9 9 9 R 3 9 9 R R R R f f R R R 3 R R g g 3 R 3 3 9 9 4 9 9 9 9 9 v v 4 4 9 4 R R R 3 3 3 R R R R 4 9 g g R R R 3 3 R R g 9 9 9 9 H H 4 9 9 4 3 3 v v 4 9 v v 9 9 4 9 9 9 9 4 H 9 9 4 4 9 v v v v v i v v v v v ].%.%.v v %.%.h h i i i i %.%.r r C - 8 8 8 8 E E D D D D W W %.h 8 8 { { 6 6 i i %.%.v v %.%.i !.%.%.h h i i v v v i v i i v 4 4 v i v v v v 4 4 H H 1 9 9 9 9 4 H 9 9 4 9 9 R 3 9 9 R R 4 9 g g R R f f ..R 3 R 9 9 R R 9 9 f g 9 9 R 3 9 9 9 9 4 H 1 1 4 H 9 4 9 9 g g 9 9 g g 3 3 g g 9 9 g g 3 R f g R R 9 9 R R R R H H 9 9 H H R R H H H H H 4 R R !.!.H H v v 9 9 v v 9 9 %.%.b b h h 4 9 k k b b ! ! ! ! _ ! | | = = . . = = , , = = - - ; ",
"- = = . , = = . . = = | | ! ! ! ! ! ! 5 5 k k 9 4 h h b b 8 5 k k i v 9 4 H H !.i i !.H H (.(.^.^.H H 4 H (.(.9 9 H H R R H H R R R R R 3 3 R R g R R f f 9 9 9 9 9 4 3 3 9 9 R 3 9 4 4 H H 4 3 3 9 9 f g R R R 3 9 9 9 9 9 9 R 3 9 9 g 3 9 9 g f 9 9 R R 4 9 9 9 9 9 9 9 4 H 9 9 4 9 9 9 v v 9 4 4 H H 4 v v v i v i i v %.%.v v v v i v %.%.v i !.!.v v %.%.!.h 6 M - - 8 8 5 8 Y Y D D D D W W 8 8 8 8 - - r r %.%.h h %.%.h h 5 5 h h i i v v !.!.!.!.%.%.v v v v i v i i v v v i 9 9 4 H 9 9 v v 9 9 9 4 H 9 9 4 g g 9 4 ..g R R g f R R 3 g 9 9 R R 4 9 9 9 9 9 3 3 9 9 R 3 9 9 R R v v 4 9 v v 9 9 9 9 3 3 9 9 9 9 9 9 g g ..R g g R R g g 9 9 9 9 R 3 9 4 H v R R H H H H H H R R 4 H H H v v H H v i 4 4 v v i v L L v v k k 9 9 b b ! ! ! ! ! ! | | G G . . . . = = , , ' - > ",
"- = = , , = = , . = = | | ! ! ! ! ! ! 5 5 k k 9 4 h h b b 5 5 k k i v 9 4 H H v i !.!.H H (.(.R ^.H H H 4 (.(.9 9 H H R R H H R R R R R 3 R R f f ..R 3 f 9 9 9 4 H R R 3 9 9 g 3 4 4 H H 4 3 3 3 9 9 f g R R R 3 9 9 9 9 9 9 R 3 9 9 R 3 9 9 g 3 9 9 R R 9 9 9 9 9 9 9 9 9 4 9 9 H 4 4 9 v v 9 4 4 H H 4 v v v v i v v v  .%.v v v v v i %.%.h h i i v v %.%.h h M M - - 8 8 5 8 Y Y D D D D W W 8 8 8 8 - - r r %.%.h h %.%.v i 5 5 h h i i i v v !.i i %.%.v v v v i v i i v v v v 4 9 9 4 9 9 v v 4 9 9 4 9 9 H 9 f g 9 9 g f R 3 g f 9 R f g 9 9 R R 4 9 9 9 9 9 3 3 9 9 g 3 9 9 R R i v 9 9 v v 4 9 9 9 3 3 9 9 9 9 9 9 g g R ..g g R R f g 9 9 9 9 R 3 9 4 H v R R H H H H H H R R H H 4 H v v 4 H v v 4 H v v i v L L v v k k 9 4 b b ! ! ! ! ! ! | | G G . . . . = = , , ' - > ",
"' , , = = , , , , G G | | ^ ^ ! ! ! ! 8 8 9 4 v v i i b b %.h h h r u 5 5 h !.v v R R !.!.(.(.H H 4 H H H 4 H H H R R 9 9 9 4 4 H R R 4 9 R R R R g g R 3 3 g 9 9 9 9 9 4 H 4 4 9 9 9 v v 3 3 9 4 4 9 9 4 4 R H 4 R R 9 4 4 9 9 4 9 4 9 9 g g R 3 g 3 9 9 R R H 4 9 9 4 9 9 9 9 9 9 4 v v 4 9 v v 9 9 v v 4 4 v i v v %.%.v v !.!.v v %.%.%.%.t t %.%.t 5 h %.8 8 r r > > 8 8 8 8 E E D D D D B B 8 8 r r C - 6 6 i h h h %.%.t 5 %.%.h h H H !.i i i %.%.v v %.%.v v v v v i v v 4 4 v v 4 9 v v 9 9 v v 4 9 v v R R 4 9 R R 9 9 g f R 3 g f 9 9 R R 9 9 9 9 4 4 R 3 9 9 R R 4 9 R R 9 9 9 9 k k 9 4 k k 9 4 9 9 9 9 4 9 g g g 3 f f R R f g 9 9 3 R 9 9 9 4 H H 9 9 H H 4 9 9 4 9 9 H H 4 9 9 4 9 9 %.%.h h 5 t v i %.%.b b i i 9 9 k k b b ! ! ! ! ! ! ) ) = = , . = = , , = = - - ; ",
"' , , = = , , , , G G | | ^ ^ ! ! ! ! 8 8 4 4 v i v i b b %.h h h r u 5 5 h i i v R R i !.(.(.H H H H H H 4 H H H R R 9 9 4 4 H H 3 R H 4 R R R R f f 9 3 3 g 9 9 9 9 9 H 9 4 4 4 9 9 v v R 3 9 4 9 9 4 H R R H 4 R R 9 4 9 9 4 H 9 9 9 9 g f R 3 R 3 9 9 R R 4 4 9 9 4 9 4 9 9 9 9 9 v v 9 9 v v 9 9 v v H 4 !.i v v %.%.!.].!.!.v v %.%.h h t t %.%.t 5 %.%.8 8 r r > > 8 8 8 8 E E D D D D B B 8 8 r r C - 6 6 i h h h %.%.8 5 %.%.h h H H !.!.!.!.%.%.v v %.%.v v i v v v v v 4 4 v v 4 9 v v 9 9 v v 9 9 v v 3 R 9 9 R R 9 9 g f R 3 g f 9 9 R R 4 9 9 9 H H R R 4 9 R R 9 9 R R 4 9 9 9 k k 9 4 k k 9 9 9 9 9 9 9 9 g g g 3 f f ..R f g 9 9 R R 9 9 9 4 H H 9 9 4 H 9 9 H H 4 9 9 4 9 9 H H 9 9 h %.v i 5 t v i %.%.b b h h 9 9 k k b b ! ! ! ! ! ! ) ) = = , . = = , , = = - - ; ",
"- = = , , = = , . = = | | ! ! ! ! ! ! 5 8 v v 4 9 i h 6 6 %.%.h h L L v v G G 4 4 R 3 H H (.(.H H (.(.H H v v H H 4 H R R H H R R H H R R 9 9 R 3 9 4 3 R 3 3 R 3 v v 9 9 v v 4 9 v v 4 H 9 9 9 9 9 4 9 9 9 4 R 3 g R f g H H 4 9 9 4 3 3 R R f f 9 9 9 9 4 4 9 9 4 4 R 3 9 4 9 9 v v 9 9 v v 4 4 v v 4 9 v v v %.h %.v i i !.v v i v v v %.%.h h t t t 5 5 t t 5 6 6 - - 8 8 5 8 Y Y D D D D W W 8 8 8 8 - - 6 6 8 8 h h t t 5 5 5 t i i %.%.v i %.%.i i !.v v v i v 9 9 H v 9 9 v v 9 9 v v 9 9 9 4 H 9 H H 4 9 9 4 3 R 9 9 R R 9 9 R 3 9 9 R 3 9 9 R R 9 9 R R 9 9 R R 4 9 R R 9 9 9 4 v v 9 9 9 4 9 9 v v 4 9 9 4 3 3 9 9 R 3 R R 4 9 9 H R R H H R R 9 9 9 9 H H 9 9 H H R R H H R R H H 9 9 v v } q 5 5 L L u u %.%.{ { i i k k k k { { ! ! ! ! s s ) | G G . . . . = = , ,   ' > ",
"- = = , , = = . , = = | | ! ! ! ! ! ! 5 8 v v H 4 !.h 6 M %.%.h h L L v v G G 4 4 3 R H H (.(.H H (.(.H H v v H H H H 3 R H H R R 9 4 R R 9 9 R 3 9 4 R R 3 3 R 3 v v 9 9 i v H 4 v v 9 4 H 9 9 9 4 4 9 9 9 9 R 3 g R g g H H 9 9 4 9 R 3 R R f f 9 9 9 9 4 4 4 9 9 4 3 3 9 4 9 9 v v 9 9 v v 9 4 v v 9 9 v v v v h h v i !.!.v v v v i v %.%.%.%.t t 5 5 t t t 5 6 6 - - 8 8 5 8 Y Y D D D D W W 8 8 8 8 - - 6 6 8 8 h h t t 5 5 5 5 h h i %.v i 5 %.v i !.i i v v v 4 4 v v 4 9 v v 9 9 v v 9 9 9 4 9 4 4 H H 9 9 9 R 3 9 9 R R 9 9 3 3 9 9 R 3 9 9 R R 9 9 3 R 9 9 R R 9 9 R R 9 9 9 9 v v 9 9 9 4 9 9 v v 4 9 9 4 3 3 9 9 R R R R 4 9 9 H R R 4 H R R H 9 9 9 H H 9 9 H H R R 4 H R R H H 9 9 v v q } 5 5 L L u u %.%.{ { i i k k k k { { ! ! ! ! s s ) | G G . . . . = = , , ' - > ",
"' , , = = , , , , G G | | ^ / ! ! ! ! t t k k v v k k b b h h 8 5 L L ] ] G G v v R R H H 4 H v v 4 H !.!.H H H H 4 9 4 4 R R 9 9 R R 4 9 R R R R R R 4 H 9 4 v v i v v i 9 9 4 H 4 4 v v 4 9 4 4 R 3 9 4 3 R 9 9 R 3 9 9 g 3 9 9 9 9 v v 9 9 9 4 3 3 9 9 9 9 9 4 H 9 9 9 9 9 v v 9 4 v v 4 9 9 4 v v v i !.i %.%.i v v i v v %.%.v v %.%.h h %.%.%.%.t t 5 5 5 t 6 6 - C 8 8 8 8 E E D D D D W W 8 8 u u - - r r %.%.8 8 %.%.t 5 %.%.5 5 h h i %.i i %.%.v v %.%.v v v v 4 4 v v 4 9 4 4 4 9 9 4 9 4 v v H 4 9 9 9 9 9 9 9 4 9 9 R R 4 9 R R 9 9 9 9 9 9 R 3 9 9 9 9 9 9 9 9 4 9 9 H 4 4 k k k k 1 1 4 9 9 9 v v 9 4 v v 3 3 v v R R 9 9 R R 4 9 R R R 3 9 9 H H 9 4 v v H H v v 4 9 v v 9 H !.!.!.!.< < ] ] L L v v %.%.b b %.h k k h h b b ! _ ! ! ! ! | ) = = , . = = , , = = - - ; ",
"' , , = = , , , , G G | | / / ! ! ! ! t t k k v v k k b b h h t 5 L L ] ] G G v v R R H H H 4 v v H H !.i H H 4 H 9 9 H H R R 9 9 R 3 9 9 R R R R R 3 H 4 4 9 v v v v v v 4 9 9 4 9 4 v v 9 9 4 4 R 3 9 4 3 3 9 9 R 3 9 9 3 3 9 9 9 9 v v 4 9 9 4 3 3 9 9 9 4 H 9 9 4 9 9 9 9 v v 9 4 v v 9 9 9 4 v v i v i i %.%.v v v v v v %.%.v v %.%.i !.%.%.h h t t 5 5 t t 6 6 - C 8 8 8 8 E E D D D D W W 8 8 u u - - r r %.%.8 5 %.%.8 5 %.%.5 5 h h i %.i i %.%.i v %.%.v v v v 4 4 v v 4 9 4 4 9 9 4 H 9 9 v v 4 9 9 4 9 9 9 9 9 9 9 9 R R 9 9 R R 9 9 9 9 9 9 R 3 9 9 9 9 9 9 9 9 4 9 9 H 4 4 k k k k 1 1 4 9 9 9 v v 9 4 v v 3 3 v v R R 9 9 R R 9 9 R R R 3 9 9 H H 9 4 v v H H v v 4 9 v v 9 H !.!.!.!.< < ] ] L L v v h h b b h h k k v i b b ! _ ! ! ! ! ) ) = = . . = = , , = = - - ; ",
"- = = . , = = . . = = | | ! ! ! ! ! ! 5 8 h h k k h h 6 6 %.%.k k v v v i i !.H 4 v i 4 R H 4 H H v v H H H H 9 9 H H H H v v R R R 3 ..R H 9 R R H H R R H H 4 4 v v H H 9 4 9 9 v v H 4 v v 9 9 9 9 9 9 9 4 9 9 v v 9 9 9 9 9 4 H 4 4 9 v v 9 9 9 9 9 9 v v 9 9 9 9 9 9 v v 4 9 v v 9 9 v v 4 9 v v i v i i v i i v v !.i !.!.!.%.%.h h %.%.%.i  . . . .u u u u Q Q > > 8 8 8 8 B B D D D D W W 8 8 8 8 - - 6 6 t t 5 5 5 5 h %.5 5 h h %.%.h h %.%.i i %.%.v i %.%.v v v v 4 4 v i 4 R H H 4 9 v v 9 9 v v 9 4 v H R R 9 9 9 9 9 9 R R 9 9 9 9 9 9 9 4 H H 9 9 4 H 9 9 4 H 9 9 9 9 R R k k 4 9 k k 9 9 v v 4 4 v v 4 9 v i 9 9 9 9 9 9 H H R R 9 9 9 9 v v 9 9 H H H H v v 9 9 v v H H v v R R v v i i %.%.v v v v %.%.{ { i i i i k k { { ! ! p p s s | | G G . . . . = = , , ' - > ",
"- = = , , = = . , = = | | ! ! ! ! ! ! 5 8 h h k k %.h 6 M %.%.k k v v v i i i 4 H v i 3 R H 4 H H v v H H H H 9 9 4 H H H v v R R R 3 ..R H 9 R ^.9 4 R R H H 4 4 v v H H 9 4 9 9 v v 4 4 v v 4 9 4 9 9 9 9 9 9 4 v v 9 9 9 4 9 9 H 4 9 9 v v 9 9 9 9 9 9 v v 9 9 9 9 9 9 v v 4 9 v v 9 9 v v 4 9 v v v i v i i v i i i v v !.i !.%.%.h h %.%.%.i  . . . .u u u u Q Q > > 8 8 8 8 E B D D D D W W 5 8 8 8 - - 6 6 t t 5 5 5 5 %.%.t 5 %.%.%.%.h h %.%.i i %.%.i v %.%.v v v v 4 4 v i 4 R H H H 4 v v 9 9 v v 9 4 v H R R 4 9 9 9 9 9 3 R 9 9 9 9 9 9 9 4 H H 4 9 4 H 9 9 4 H 9 9 9 9 R 3 v k 9 9 k k 9 9 v v 4 4 v v 4 9 v i 9 9 9 9 9 9 H H R R 9 9 9 9 v v 9 9 H H H H v v 9 9 v v H H v v R R v v i v i i v v v v %.%.{ { i i !.v k k { { ! ! p p m s | | G G . . . . = = , ,   ' > ",
"' , , = = , , , , G G | | / / ! ! ! ! r r v i i !.V V b b %.h h h 4 4 !.h 4 4 i v 9 4 H H 9 9 v v H H v v H H H H 4 H v v i v 4 H R 3 9 9 R R 4 H H 4 H 9 3 3 H H 4 4 v i 4 4 v v 4 9 v v 9 9 9 4 3 3 9 9 g 3 9 9 9 9 9 9 9 9 9 4 9 9 H 4 4 9 H H 4 9 v v 9 9 4 9 R 3 v v 4 9 i h v v i v v v v v ].v %.%.i v %.%.i v %.%.h h %.%.%.%.%.h h i %.%.8 5 t t L L     b b A A 8 8 8 8 E E D D D D W W 8 8 t t { { - - -     - %.%.t 5 %.%.5 5 h i i %.v i 5 %.%.%.h h %.%.%.%.v v i v v v v v 4 9 v v H H v v 9 9 v v 4 9 9 4 9 9 H 9 9 9 9 4 H 9 9 4 9 9 H H 9 9 H H 9 9 4 H 9 9 H 4 3 R 9 9 1 1 k k 9 9 k k k k v v 9 9 9 9 9 9 v v H H 4 H R R R 3 ..R H H H H H H 4 9 v v H H H H H 4 !.!.v v v v v i 9 9 4 H %.%.k k 8 8 b b 8 5 v v i %.N N _ ! ! ! ! ! ) ) = = . , = = , , = = - - ; ",
"' , , = = , , , , G G | | / / ! ! ! ! r r v i i i V V b b %.h h h 4 4 h h 4 4 v v 9 4 H H 9 9 v v H H v v H H H H H H v v v i 4 H 3 3 9 9 R 3 H H 4 H 9 4 3 R H H 4 4 v i 4 4 v v 4 9 v v 9 9 4 4 R 3 9 4 3 3 9 9 9 9 9 9 9 9 4 H 9 9 4 9 9 9 4 4 9 4 v v 9 9 4 9 3 3 v v 4 4 v i v v v v v v i v v v %.%.v v %.%.v v %.%.%.%.h h %.%.%.%.v i %.%.5 5 t t L L     b b A A 8 8 8 8 E E D D D D W W 8 8 t t { { - - -   - - %.%.t 5 %.%.5 5 i i %.%.v i %.%.%.h h %.%.%.%.%.v v v v v v i v 9 9 v v 4 H !.v 9 9 v v 9 9 9 9 9 9 9 4 9 9 H 4 4 9 4 4 9 9 H H 9 4 9 4 H 9 H H 4 9 9 4 3 R 9 9 1 1 k k 9 9 k k k k v v 4 9 9 9 9 9 v i 4 H 9 4 R R R 3 ..R H H H H H H 4 9 v v H H H H H 4 !.!.v v v i v v 4 9 9 4 %.%.k k 8 8 b b 8 5 v v %.%.b N _ ! ! ! ! ! ) ) = = . , = = , , = = - - ; ",
"- = = . , = = , . = = ) ) ! ! ! ! ! ! u u %.%.i i V 8 b N t t h h k k v i %.%.v v !.i H 4 i v v v i !.v v !.!.H H !.!.v v !.!.H H 9 9 R R H H H H !.i 4 4 H H 4 H i i H H 9 v H H k k 9 4 h v H 4 9 4 4 9 9 4 3 g 9 4 4 9 9 4 9 9 v v 9 9 H 4 4 9 9 4 9 4 9 9 9 9 9 4 H v v v i v v v v v ].i i v %.%.v v %.%.%.%.%.h h i t t =.=.=.t %.%.h h i %.5 5 h %.b b u u b b - - r r 8 8 B B D D D D W W t t 5 8 > > b b w w 5 5 t i %.%.t 5 %.%.5 5 %.%.t 5 !.!.%.%.%.h h %.%.i i v H 4 v v v v i v 4 H v v i v v v 4 9 9 4 H 9 9 H 4 9 H H 9 9 H H 9 9 H H 4 9 9 4 9 9 H H 9 9 v v H 9 H H 4 9 k k k k k k 9 4 v v i v %.%.v v v v v v 4 H 9 4 H H R R i v 9 9 v v 9 9 v v v v i !.v v v v i v v v v v v v v v h h v v %.%.8 8 { { h h h %.%.h { { ! ! ! ! s s | | G G . . . . = = = = ' ' > ",
"- = = , , = = . , = = ) ) ! ! ! ! ! ! u u h h i i V 8 N N t t h h k k v v %.%.i v i i 4 H v v v v i !.v v !.!.H H !.!.v v !.!.4 4 ].9 R R H H H 4 !.!.4 H H H 4 H i v 4 4 i v H 4 k k 9 4 v i 4 R H H 9 9 4 H g g 9 4 9 9 9 9 9 9 v v 9 4 4 4 9 9 4 9 4 9 9 9 9 9 9 4 H v v v v i v v v v v i i v %.%.v v %.%.%.%.h h i %.5 t t =.t t %.%.%.h h i t 5 h %.b b u u b b - - r r 8 8 B B D D D D W W t t 5 8 > > b b w w 5 5 t i %.%.8 5 %.%.5 5 h %.5 5 h i %.%.h h %.%.i i v v H 4 v v v v v i 4 4 v v v v i v 9 9 H H 9 9 H H 4 9 9 4 9 9 H H 9 9 H H 9 9 9 9 9 4 H 9 9 4 i v 9 9 H H 9 9 k k k k k k 9 9 v v v v %.%.i v v v v v 4 H 9 4 H 4 R R i v 9 9 v v 9 9 v v v v i !.v v i v v v v v ].v ].v v v h h v v %.%.8 8 { { h h h h %.%.{ { ! ! ! ! s s | | G G . . . . = = = =   ' > ",
"> = = = = , , , , G G :.:.! ! ! _ ! m r r %.h h h 8 8 - - r r u t 8 5 8 8 8 5 5 5 h h 5 5 h h t t %.%.8 8 h h t 8 %.%.5 8 h h %.%.v v %.h v v !.!.!.!.%.%.%.%.t 5 %.i i !.v v v v i v %.%.v v v i 4 4 4 4 9 9 v v 4 9 v v 9 9 v v k k k k 9 9 k k 1 1 k k 1 1 4 9 9 9 v v 9 4 v v k k i i v v %.h h h %.%.h %.8 5 %.%.5 5 h h 8 V h h 8 V 8 8 8 8 %.%.8 8 %.h r u >.>.C ' 8 8 r r E E D D D D W W 8 8 r u - - 6 6 8 8 r r %.%.t 5 %.%.%.h h h 8 5 h %.5 5 8 8 8 8 5 5 8 8 %.h %.%.h h i i v v %.i v v h h v i v v i v v v 4 9 k k v v v i v v i v v v k k 9 4 h v 9 9 k k k k h h h %.%.h k k v v k k i i k k i i !.v h h v v %.%.i v v v i v %.%.v i %.h %.%.5 t t 5 5 5 5 5 5 t i %.5 5 h h 5 5 h %.5 5 %.%.t u u %.[ [ { { 8 8 k k %.h +.+.p p ! ! ! ! | ) = = , . = = = =   < - - ; ",
"> = = = = , , , , G G :.:.! ! _ ! m m r r %.h h h 8 5 - - r r t t 8 8 8 8 8 5 5 5 h h 5 5 %.%.t 5 %.%.8 8 h h t 8 h %.5 8 h h %.%.v v %.%.v v i !.i !.%.%.%.h t t i i !.v v v v v i v %.%.v v i i 4 H 4 4 9 9 v v 4 9 v v 9 9 v v k k k k 9 9 k k 1 1 k k 1 1 9 9 9 9 v v 4 9 v v k k i i i v v %.h h h h %.%.8 8 h h t 5 h %.5 8 h h 8 8 8 8 5 8 h h 8 8 h h r r >.>.C ' 8 8 r r > E D D D D E E 8 8 t u - - Q Q 8 8 r r %.%.t 5 %.%.%.h h h t 5 h h t 5 8 8 8 8 5 8 8 8 %.h %.%.h h i i v v %.i v v h h v i v v v i v v 4 9 k k v v v i v v v i v v k k 9 4 h v 9 9 k k k k h h %.%.h h k k v v k k i i k k v i i v %.%.v v %.%.i v v v v i %.%.!.v %.%.h %.5 t 5 5 t i 5 5 t t %.%.t 5 %.%.5 5 %.%.8 5 %.%.u u u t [ [ { { 8 8 k k h h +.+.p p ! ! ! ! ) | = = . . = = = = < < - - ; ",
"  ) ) , , = = , , = = | | ! ! ! ! ! ! 8 8 h h k k 8 8 - - 8 8 h h 8 8 8 8 5 t 8 8 8 t t 5 5 t 5 8 t t %.%.t t 5 8 r u t t =.t %.%.8 8 %.h  . .%.%.t t 5 5 [ [ [ [ t t %.%.t t h %.t t =.t t t %.%.5 5 %.%.t 5 v i %.%.v i v i %.%.8 8 %.h %.h v v v v v v v h !.v h %.h h %.%.h h %.%.i i 8 8 8 5 t t %.%.8 8 8 8 5 t h h 8 V 8 8 8 8 8 5 8 8 8 8 u u 8 8 r r r r { { - C r r 8 8 B B D D D D W W t t 5 8 - - 6 6 F F 8 8 t u 5 5 8 8 h h t 8 5 5 t i %.%.t t 5 5 5 8 8 5 5 8 %.%.8 8 %.h %.%.h h %.%.%.i  .5 h i i %.i i %.%.v i 5 5 h h 5 8 8 5 t t h h h h %.%.%.%.t 5 5 5 %.%.t t 5 5 t u 5 5 5 5 h h 5 8 8 8 r r 8 8 t 5 5 5 5 t t 5 5 t %.%.t 5 t t t u u %.[ t t 5 u u  . .t t 5 t 5 t t 5 5 t 8 8 8 8 5 8 8 8 8 8 - - h h h h k k { { ! ! ! ! ( ( :.:.G G = = , . = = = =     > ",
"  ) ) , , = = , , = = | | ! ! ! ! ! ! 8 8 h h k k 8 8 - - 8 8 h h 8 8 8 8 5 t 8 8 t t 8 5 5 t 5 8 t t %.%.t t 8 8 t u 5 t t =.%.%.8 8 %.h  . .%.%.t t 5 5 [ [ [ [ t t %.%.t t %.%.t t 5 t t t %.%.5 t %.%.t 5 v i %.%.i i %.%.v %.8 8 %.%.h h v v v v i v v h !.v h %.h h %.%.h h %.%.i i 8 8 8 5 t t %.%.8 8 8 8 5 t h h 8 V 8 8 8 8 8 8 5 8 8 8 u u 8 8 r r r r { { - C r r 8 8 B B D D D D W W t t 5 8 - - 6 6 F F 8 8 t u 5 t 8 8 h h t 8 5 5 5 t i %.5 t t 5 8 8 8 5 t 8 h h 8 8 h h h %.%.i %.%.%.%.t 5 !.i %.%.i v %.%.h h t 5 h h 8 8 5 5 u t %.h h h %.%.%.h t 5 5 t %.%.t t 5 5 u u 8 5 5 t i %.8 8 8 8 r r 8 8 t t t 5 5 t 5 5 t t %.%.t t t t u u u t t t =.t u u  . .u t t 5 5 t t 5 5 t t 8 8 8 8 5 8 8 8 8 - - h h h h k k { { ! ! ! ! ( ( :.:.G G = = , . = = = =     > ",
"' = = = = , , = = G G :.:.! ! ! ! ! m r r k k h h %.h > > k k k k 9 9 k k k k v v 4 H v i H 4 i v k k v v 9 9 v v 9 4 i i v v h !.v v i h i v h h 5 !.%.%.i v %.%.v v i v %.%.%.%.%.h t 5 %.%.8 8 %.h 8 8 h h %.%.%.h t t %.%.t t 8 8 5 t 8 8 t t %.%.8 8 %.h 8 8 8 8 u r 8 8 8 8 8 5 8 8 8 8 r r 8 8 r r 8 8 r r r 8 r r u r z z F r z 6 F F z z r r 6 6 6 6 6 6 +.+.> > 8 8 F F A A D D D D B B t t r r C - { { 6 6 6 6 r r 6 q r r 6 q [ [ [ q r u u [ r r u r t t r r 8 8 t u 5 t 8 8 8 8 5 t 8 8 8 8 5 8 8 8 %.%.h h %.%.%.%.8 8 5 t 8 8 t t %.%.%.%.h h 5 t i i %.%.v i %.%.%.%.h h %.%.%.%.v i 5 5 h h 5 5 %.h h h v i %.%.v i %.%.i i i !.4 9 v v 9 4 v h !.v v i H H !.i 4 4 v v i v i i v v v i H 4 i v k k %.h - - 8 8 k k h h b N p p ! ! ! ! <.<.= = . . = = = = ) ) - - ; ",
"' = = = = , , = = G G :.:.! ! ! ! ! m F F k k h h %.h > > k k k k 9 9 k k k k v v 9 4 i i 4 H v v k k v v 9 9 v v 9 4 i i v v h h v v %.h i i h %.!.!.%.%.i v %.%.v i !.i %.%.h h %.%.5 5 h h t 8 h h 8 8 h %.%.h %.h t t %.%.t 5 8 8 5 t 8 8 t t %.%.8 8 %.h 8 8 8 8 r r 8 8 8 8 8 5 8 8 8 8 r r 8 8 r r 8 8 r r F F r r r r z z z F 6 6 F F z z r r 6 6 6 6 6 6 +.+.> > 8 8 r r A A D D D D B B t t r r C - { { 6 6 6 6 r r 6 q [ r 6 q q [ [ q r u [ [ r r u r t t r r 8 8 r u 5 5 8 8 8 8 5 t 8 8 8 8 8 5 8 8 %.%.h h %.%.%.%.8 8 t t 8 8 t t %.%.h h %.%.5 5 h i i %.i i %.%.%.%.%.h h %.%.%.i i  .5 h %.5 5 %.h h h v i %.h !.i %.%.i v i i H H v v 9 4 v h !.v !.i H H i i 4 H v v v i v i i v i i 4 4 v v k k h h - - 8 8 k k v i N N p _ ! ! ! ! <.<.= = . . = = = = ) ) - - ; ",
"- < < , , < < , , = = ) | ! ! _ ! ! _ F F h h k k 8 8 - - i i k k i i k k i i k k h h v v v v 4 4 v v 9 9 k k 9 4 v v v i v v 9 9 v i 9 k v i 4 H v v 9 9 %.%.v i v v 4 4 v v H H v v k k k k 9 9 k k k k k k v i i i v v %.h k k v v v i v h k k v v k k k k k k h h h h 8 8 h h 8 8 h h 8 8 h h 8 8 h %.F F 8 8 r r 8 8 8 8 5 8 8 8 8 8 r r r r 6 M r r u r r r N N C - r r r 8 B B D D D D W W r r 8 8 - - 6 6 z z r z [ [ [ t r r u r r r 8 8 8 8 8 5 t 8 8 8 8 8 8 5 8 8 %.h h h %.%.h 5 h i i %.i h h h v v v i v i i v v v %.%.h h i %.k k v v v i v v 4 4 k k 4 9 v v k k v v 9 4 v v 9 9 v v 4 4 k k 9 4 h h k k i v k k h h 4 4 v v 9 4 4 4 4 9 H H 9 4 v i 4 R H H R R H 4 4 9 v v 4 4 v i v v v v v v %.%.i h A A h h h h k k { { ! ! ! ! ( ( :.:.G G = = , . = = = = '   ; ",
"- < < , , < < , , = = ) | ! ! ! ! ! _ r F h h k k 8 8 - - h i k k i i k k i i k k i v v v v v 4 4 v v 9 9 k k 9 9 v v v v v v 4 9 v i 9 k v v H H v i 9 9 %.%.i v v v 4 4 v v H H v v k k k k 9 4 k k k k k k v v i !.v v i i k k v v v i v h k k v v k k k k k k h h h h 8 5 h h 8 V h h 8 8 h h 8 V h h F F 8 8 r r 8 8 8 8 8 8 5 8 8 8 r r u r M M r r u r r r N N C - r r F F B B D D D D W W r r 8 8 - - 6 6 z z r z [ [ [ t r r r u r r 8 8 8 8 5 8 8 8 8 8 8 8 8 8 5 8 h h h %.%.h 5 5 h i i %.i h h h v v i i v v !.i v v %.%.!.h h h k k v i v v i v 4 H k k 4 9 v v k k v v 9 4 v v 4 9 v v 4 H k k 9 4 i i k k i v k k h h 4 4 v v 9 9 9 H 9 4 H H 9 4 v v 4 9 4 H R R H 4 9 9 v v 4 4 v i v v i v v v %.%.h h A A h h h h k k { { ! ! ! ! ( ( :.:.G G = = , . = = = = '   ; ",
"' = = = = , , = = G G :.:.s s ! ! ! ! r r %.h h h h h - - i i t 5 L L h h 8 V h h 4 4 v i v v v v 4 9 v v v v t t i v %.%.4 4 H H g g 9 4 9 9 v v 4 H !.!.%.%.5 5 v v H 4 v v v v v v i v 4 H v v H 4 %.%.v v v i v v v v v v i %.k k %.h k k v v v i v h v v %.%.v v %.%.v v !.i i i t 5 v v %.%.!.h h h h h 8 5 h h 8 8 h h 8 V h h 8 V 8 8 8 8 8 8 8 5 8 V V 8 r r @.@.r r u r E E D D D D B B r r u r - - 6 6 8 8 8 8 5 8 r r 8 8 r r 5 5 h h i %.%.%.h h %.%.i v v i !.i %.%.h h %.%.%.%.v i 5 h h h k k v i k k v v 9 4 h h v v i i i v v v v v i v 9 9 H v H 4 h %.8 5 %.%.k k v v 9 9 k k 9 9 k k k k i i t 5 5 5 H H 4 9 9 4 9 H H 4 !.!.k k h h [ [ i i t u h h 9 4 H v H H v v v v i v 9 9 r r k k q q i i i !.- - 8 8 v v i %.+.+.p _ ! ! ! ! | | = = , . = = = = ) )     > ",
"' = = = = , , = = G G :.:.s s ! ! ! ! r r %.h h h h h - - i i  .5 b b %.h 8 8 h h 4 4 v i v v v v 4 9 v v i v %.t v i %.%.4 4 H H g g 9 4 9 9 v v H H !.!.%.%.t 5 v v 4 9 v v v v v v i v 4 H v v 4 4 %.%.v v v v i v v v v v h h k k h h k k v v i v i i v v v %.v v %.%.v v i i !.v 5 5 v v h h h %.%.h %.h 8 8 h h 8 8 h h 8 V h h 8 8 5 8 8 8 8 5 8 8 8 8 8 8 r r @.@.r r u r E E D D D D E B r r r F - - 6 6 8 8 8 8 8 5 r r 8 8 r r 5 5 h i i %.%.%.h h %.%.i v i i !.v 5 %.v i 5 %.%.h h h %.%.h %.k k h h k k v v H 4 !.h v v i v v v v v ].v v v 4 9 v v 9 4 %.%.t 5 %.i k k v v 4 9 k k 9 9 k k k k h i  .5 5 5 H H H 4 9 9 4 H H 4 !.!.k k v i [ [ i i u u %.%.9 4 4 H H H v v v v v i 9 9 r r k k q q i i i i - - 8 8 v v %.%.+.+.p _ ! ! ! ! | | = = . . = = = = ) )     > ",
"- < < , , < < , , = = | | _ ! _ ! ! _ 5 8 h h h h 8 V - - i i 8 8 { { u u w w %.%.h h H v v i v v h %.!.i t t     %.%.} } 5 5 9 9 v v v v i i v v !.i !.!.L L 9 9 [ [ 4 4 !.h h h h %.%.h %.h v v t u 4 4 t t i v !.!.9 9 v v v v i v k k r r 9 9 [ [ %.%.i i i v h h v v h h v v u u i i u u h h 8 8 h h h h 8 8 8 8 r r 8 8 8 8 8 8 8 8 r F 8 8 r r 8 8 6 6 6 z M M ~ ~ z M F F B B D D D D W W r r r r - - r r r r 8 8 r F 8 8 8 8 8 8 8 8 h h r r 8 8 t t i i %.%.v v %.%.v i i v 5 5 r r h h h h h h h h k k i i v v h h b b v v t t !.!.9 9 v v 9 9 v v 4 4 i i 8 8 k k r r h i i v k k k k i i 4 4 i i b b v v b b v i H H i i 4 9 H H 9 9 v v i i q q 5 5 7 7 i i v v 4 4 i v 4 9 %.%.4 4 %.%.L L q q     u u h i > > h h h h v v ~ ~ ! ! ! ! ( ( | | G G = = = = = = = = ] ] ; ",
"- < < , , < < , , = = ) | _ ! ! ! _ ! 8 8 h h h h 8 8 - - h h 8 8 { { u u w w %.%.v i v v i i v v h h i i u t     %.%.} } 5 5 9 9 v v i v v i v v i !.!.!.L L 9 9 [ [ 4 4 %.h h h h h %.%.%.%.v i u u 4 4 t t v v i !.9 9 v v i v v v k k r r 9 9 [ [ %.%.i i i v v h v v h h v v t u i i u u h i 8 8 h h h h 8 8 8 8 r r 8 8 8 8 8 8 8 8 F F 8 8 r r 8 8 6 6 z z M M ~ ~ z z F F B B D D D D W W r r r r - - r r r r 8 8 r r 8 8 8 8 8 8 8 8 h h r r 8 8 t t !.i %.%.v i %.%.v i i i 8 5 r r h h h h h i i %.k k i i i v v h b b v i t t !.i 9 9 v v 9 9 v v 9 4 i i 8 8 k k r r h i v v k k k k i i 4 9 i i b b v v b b v i H H i i 4 9 H H 9 9 v v i !.q q 5 5 7 7 i i i v 4 4 i v 9 9 %.%.4 4 %.%.L L q q     u u h i > > h h h h v v ~ ~ ! ! ! ! ( ( | | G G = = = = = = = = ] ] ; ",
"' = = = = , , = = G G :.:.! ! ! ! ! m r r h i h h h h - - h i i %.w w o o u u t t v v i i i v v i v v h h h h { { ] ] ] ] v v %.%.i v 4 9 9 9 !.!.v v t  .b b         %.%.%.%.%.%.v v i i i h h h } } { {     %.%.k k %.h v v h h v v %.h [ [ b b     %.%.v i v v k k i i k k 8 8 r r 6 6 L L 8 8 8 5 5 t i h t t r r r r 8 8 { { 8 8 8 8 8 8 F r 8 8 u u 8 8 6 6 ~ ~ A A F F z M E E D D D D B B r r r r - - { { 8 8 6 6 8 8 t t !.h 8 8 h h r r [ [ 8 8 b b %.%.v i i h v v h %.i v } } 6 6 L b h h h h h %.%.%.%.%.5 5 h h - - } } L L v v i v v v 4 9 4 4 i v h h > > C - w w v v i v k k i i 4 4 4 4 4 4 b b ] ] ] ] i i v v 4 H i i H 4 i v k k i i b b ] ] 8 8 h h H H i i H 4 v v i v v v 4 4 b b w w r r h i 8 8 - - 8 8 k k h h { { _ _ _ ! ! ! | | = = = = = = = = | |     o ",
"- = = = = , , = = G G :.:.! ! ! m m m r r h h h h h h - - h i h h w w o o u u u t v v i i i v v v i v %.%.%.%.{ { ] ] ] ] v v %.%.v v 9 4 4 9 !.!.v v  . .b b         %.%.%.%.%.%.v v h h i h %.%.} } { {     %.%.k k %.h v v %.%.v v %.h [ [ b b     %.%.v i v v k k i i k k 8 8 r r 6 6 L L 8 8 t 5 5 t h h t t r r r r 8 8 { { 8 8 8 8 8 8 r r 8 8 u u 8 8 6 6 ~ ~ A A F F z M E E D D D D B B r r r r - - { { 8 8 6 6 8 8 t 5 h h 8 8 h h r r [ [ 8 8 b b h %.i i h h v v h h h v } } 6 6 L b h %.h h h h h %.%.h t 5 h h - - } } L L v v i v v v 4 4 4 4 v v %.%.> > C - w w v v v i k k i i 4 4 4 4 4 4 b b ] ] ] ] i i v v 4 H i i 4 9 i v k k i i b b ] ] 8 8 h h H H i i H H i v v i v v 4 4 b b w w r r h h 8 8 - - 8 8 k k h h { { _ _ ! ! ! ! | | = = = = = = = = | |     o ",
"- < < , , < < , , = = | | ! ! _ _ ! _ 8 8 h h k k 8 8 { { %.%.%.%.h h h h h %.%.h %.%.v i %.h v v i v v v h h h h h h h v v i i v v v 4 9 v v 9 4 v v i !.%.%.t 5 %.%.v i i h v v %.%.h h %.%.i v 8 8 { { t t %.%.%.%.v v i v %.v %.%.v v b b w L t t !.h h h v v h h h h h %.i i 7 7     u t i h 5 5 t h u u t 5 5 t { { ] > r r r r 8 8 8 8 8 8 8 8 F r b b ] > N N C C z M F F B B D D D D W W r r r r - - { { > > E > r r 8 8 8 8 8 8 8 5 h %.{ { { { %.%.%.%.h i i v 5 %.i i h h h h { { 8 8 %.%.%.%.5 5 h %.%.%.%.%.5 8 { { L L h h h h v v i i i v v h 4 4 i v h %.t t !.h h h v v h %.k k i v 4 9 k k k k %.%.%.%.v v 4 H i i H H i i H H v v k k i i v i %.%.k k i v v v i !.H H 9 4 4 4 k k k k i i k k %.%.%.%.{ - h h h h v v ~ ~ ! m ! ! ( ( | | G G = = = = ) ) = = > > ; ",
"- < < , , < < , , = = ) | ! ! _ _ ! _ 8 8 h h k k 8 8 { { %.%.%.%.h i h h h h h %.%.h %.i h h v v i v v v h h h h h %.i v v i v v v v 4 9 v v 4 9 v v !.!.%.%.t 5 %.%.i i h h v v %.%.i h h h v v 8 8 { { t t %.%.%.v i v v v v v h %.i v b b b w t t !.h h h v v %.%.i i %.%.i i 7 7     u t i h 5 5 5 t u u t 5 t t { { ] > r r r r 8 8 8 8 8 8 8 8 r r b b ] > N N C C z M F F B B D D D D W W r r r r - - { { > > E > r r 8 8 8 8 8 8 5 5 h %.{ { { { %.%.%.v i i h i %.%.i i %.%.%.%.{ { 8 8 %.%.%.%.5 5 h h h h h h 8 8 { { L L h h h h v v i v v v i i 4 9 i v %.%.t t !.h h h v v h h k k i v 4 4 k k k k %.%.%.%.v v H H i i H H i i H H i v k k i i i v 5 %.k k i v v v h !.H H 9 4 4 4 k k k k i i k k %.%.%.%.- - h i h h v v ~ ~ ! m ! ! ( ( | | G G = = = = ) ) = = > > ; ",
"' = = < < = = = = , , :.:.! ! ! m ! ! r r h i h h h h > > h h h h h h %.%.h %.8 8 h h h %.k k v v v v %.%.i h h h v v v i v v v v v v i v 4 4 i v 4 4 h !.i v v i i v %.%.9 9 k k k k %.h v v h h i v %.%.v v h h h h h h v v h h v v h %.h h h h h %.%.h v v %.%.i h %.%.%.%.%.%.%.%.5 8 h %.8 8 8 8 8 8 8 8 8 8 8 8 8 8 8 8 8 8 8 8 r r r r M M r r r r r r 6 6 z z - - r F z M B B D D D D Y Y r r r z { { u r r r r r 8 8 8 8 8 8 8 8 8 8 8 8 8 8 8 8 h h 8 V h h h h h %.5 5 %.h 8 8 i h %.h k k i i k k i v v v %.%.v i %.%.%.v i %.%.h h h h h %.%.%.%.%.%.i v %.%.v i %.%.h %.t 5 h %.%.h h h h h k k i v k k i i k k v !.k k i v 4 4 k k k k v h v i i i k k h i k k i v v v v i v v i h k k i i k k h %.k k 8 8 ~ ~ 8 8 h h h h +.+._ _ ! ! ! ! | | < < = = = = = = ) |   ' l ",
"' = = < < = = = = , , :.:.! ! ! m ! ! r r h i h h h h > > h h h h h h %.%.h %.8 8 %.%.h h k k v v v v %.%.%.%.h i h v v i v v v v v v v i 4 4 i v 4 4 h h v v v i i v %.%.4 9 k k k k %.h v v i h v v %.%.i v %.%.%.%.h i h v h h v v h h h h h h h %.%.h v v h h h h h %.%.%.%.h i h 8 8 h h r 8 8 8 8 8 8 8 8 8 8 8 8 8 8 8 8 8 8 8 r r r r M M r r r r r r 6 6 z z - - r F z M B B D D D D Y Y r r r z { { u r r r r r 8 8 8 8 8 8 8 8 8 8 8 8 8 8 8 8 h %.V V h h h h h h 8 5 %.h 8 8 i h %.h k k i i k k i i v v h %.i v %.%.%.%.h i h h h h h h %.%.h h h h v v %.%.v i %.%.h %.5 5 h h h h h h h i k k i v k k i i k k i i k k i v 4 4 k k k k v h v i i v k k h i k k i i v v v i v i h h k k i i k k i h k k 8 8 { ~ 8 8 h h h h +.+._ _ ! ! ! ! | | < < = = = = = = | | C ' l ",
"- ) | = = ) ) , , < < | | ! ! m ! ! ! r r V V h h 8 8 - - { { b b { { { { - - { { - - { { ' ' ~ { { { { { ' ' { { ' - w w     L L { { L L     L L     L w     L L { { b b     L L L L b b     L L { { b L L b b b r r h i 8 8 h %.V 8 %.h 8 8 h h 8 8 h %.8 8 %.%.8 8 %.%.8 8 %.h 8 8 8 8 r r t t t t 8 8 8 8 8 8 F r t t r r 8 8 r r 8 8 r F r r r r r 8 6 6 z r M M ~ ~ z M F r l l D D D D B E r r 8 8 - - M M r r r r r z r r r r 8 8 r r 8 8 8 8 8 8 8 8 8 8 8 8 h h 8 8 5 5 8 8 h h 8 8 h h 8 8 h %.8 8 %.%.5 t 8 8 5 8 %.h 8 8 i h %.%.h h h h %.%.8 8 8 8 { { L L L w } } { { { { { { b b w L { { { { b b b b b b w L } } L L b b w L } b { { { { { { { {     L w { { w w     { {     w w - - { { { { { { { { - - C - V V h h h h { { _ ! ! ! m ! :.:.[.[.[.= = = | | = = > > > ",
"- ) ) = = ) ) , , < < | | ! ! ! ! ! ! r r V V h h 8 8 - - { { L L { { { { - - { { - - { { ' ' ~ { { { { { - ' { {     w w     L L { { L L     L L     L w     L L { { L L     L L L L L b     L w { { b L L L b b r r h i 8 8 %.%.8 8 %.%.8 8 h h 8 8 h %.8 8 %.%.8 8 %.%.8 8 %.%.8 8 8 8 r r t t t t 8 8 8 8 8 8 r r t t r r 8 8 r F 8 8 r F r r r r r r 6 6 r r 6 M ~ ~ z M F r l l D D D D W W r r 8 8 - - M M r r r r r 6 r r r r 8 8 r r 8 8 8 8 8 8 8 8 8 8 8 8 h h 8 8 5 5 8 8 h %.V 8 h h 8 8 %.%.8 8 %.%.t t 8 8 8 8 %.%.8 8 %.%.%.%.%.%.%.%.%.%.8 8 8 8 { { L L w w } } { { { { { { b b w L { { { { L b b b b b b w } } L L b b b w L } { { { { { { { {     w w { { w w     { {     w w - - { { ~ { { { { { - ' - - V V h h h h { { ! ! ! m ! ! :.:.[.[.= = = = | | = = > > > ",
"> < < ) ) = = < < = = :.:.m m ! ! ! m r r h i 8 8 %.h { { 6 6 z 6 6 6 6 z 6 6 b b 6 6 z 6 6 6 } } 6 6 b -.} } b b 6 6 b b q q } } 6 6 } } q q } } 6 q q } q q q } q q } } [ [ } } 6 6 6 6 z r b b { { > > C - > > C - C C { {   ' ~ ~ ' - { { { ~ ~ ~ C ' - - C - - C - - C - - C - - - C - - C A - - - C ~ @.- - ' C - - - - C - - @.- - @.@.C C ' C > > E > > > E > > > r r 6 6 B B D D D D Y Y r r M M - - > > E > > > { {   ' - - ' C - - - - - C - - @.@.- - - - ' C - - - - - - ' C - - - - - - - ' { {   ' ~ { ' - - ' -   { { - - { { { ~ { {   ' ~ { - - C - > >     ] ] [ [ } } 6 6 z 6 [ [ 6 6 [ [ } q q [ 6 6 [ [ 6 6 [ [ q q r r 6 M 6 6 L b 6 6 } } 6 6 L b 6 6 b b 6 6 b b 6 6 } } Q q } } 6 6 6 6 6 Q b b +.+.8 8 h h 8 8 +.+._ p ! ! ! m <.<.  < = = = = < < | | C C E ",
"> < < ) ) = = < < = = :.:.m m ! ! ! ! r r h i 8 8 %.h { { 6 6 z 6 6 6 6 6 z 6 b b 6 6 6 z 6 6 } } 6 6 b -.} } b b 6 6 b b q q } } 6 6 } } 6 q q } q q } } q q q } q q } } [ [ } } 6 6 z 6 6 r b b { { > > C - > > C - C C { {   ' ~ { - - { { ~ ~ ~ ~ C ' - - - C - - C - - - - C - - C - - - A A - - - C ~ @.- - ' C - - - - - - @.@.C - @.~ C C ' C > > > E > > > > > E r r 6 M B B D D D D Y Y r r M M - - > > > E > > { {   ' - - - ' C - - - - - - - @.~ C - - ' C - - - - - - - - - ' C - - - - - - { {   ' ~ { - - ' '   ' { { - - ~ { { ~ { { ' - { {   ' - - > >     ] ] [ [ } } 6 6 6 6 [ [ 6 6 [ [ [ } q [ 6 6 [ [ 6 6 [ [ q q r r M M 6 6 L b 6 6 } } 6 6 b b 6 6 b b 6 6 b b 6 6 } } 6 6 q } 6 6 6 6 6 Q b b +.+.8 8 h %.V 8 +.+._ p ! ! ! m <.<.< < = = = = < < | | C C E ",
"' | | < < | ) = = < < :.:._ _ _ ! _ p r r 8 8 h h 8 8 b b r r 8 8 r r 8 8 r r 8 8 r r 8 5 8 8 8 8 r $.8 8 t u 8 8 8 8 t 5 5 t t 5  .t t t t t t t t t t 5 5 t u t t t %.%.t t 8 8 $.$.8 8 h %.h h 8 8 5 8 8 8 h %.8 8 h h 8 8 5 8 8 8 8 8 8 8 8 8 r r 8 8 r r 8 8 r r r r z r r r r z r z M M M M 6 6 z 6 6 r z M M 6 [ [ 6 6 z 6 6 r z z Q Q Q 6 L b Q Q b b 6 6 @.@.C - 6 6 z 6 l l D D D D B B 6 6 z z > > b b 6 6 6 6 >.>.>.Q b b 6 6 6 6 6 z 6 6 6 6 M M r r 6 6 z r 6 6 z r 6 6 r r M M 6 6 6 z r 6 r r 8 8 r r 8 8 8 8 8 8 8 8 8 8 8 8 8 8 8 8 h h 8 8 h %.8 8 8 8 t t %.%.t t t 5 5 t h h 8 8 8 5 5 t 8 8 u u t 5 8 8 8 8 t t 8 8 t t 5 5 5 8 8 5 t t 8 8 t u 8 8 u u 8 8 u u 8 8 r r t t r r 8 8 r u 8 8 8 8 8 8 { { %.%.8 8 h h ~ ~ ! ! ! ! ! m :.:.[.[.= = = = | | < < > > > ",
"' | | < < ) ) = = < < :.:._ _ _ _ p p r r 8 8 h h 8 8 b b r r 8 8 r r 8 8 r F 8 8 r r 8 8 8 5 8 8 r $.8 8 u u 8 8 8 8 5 5 5 t 5 5  .t t t t t t 5 t t t 5 t t t t t 5 %.%.t t 8 8 $.$.8 8 h h h h 8 8 8 8 8 8 %.%.8 8 h h 8 8 5 8 8 8 8 8 8 8 8 8 r r 8 8 r r 8 8 r F r r z M F r z M z M M 6 M M 6 6 6 z 6 6 r z z 6 [ [ 6 6 6 z 6 6 r z Q Q 6 6 L b Q Q b b 6 6 @.@.C - 6 6 6 z l l D D D D B B 6 6 6 z > > b b 6 6 6 z b >.>.Q b b 6 6 6 6 z M M 6 M M M 6 r r 6 M r r 6 M r r M M r r 6 M 6 6 6 z r 6 r r 8 8 u r 8 8 8 8 8 8 8 8 8 8 8 8 8 8 8 8 h h 8 8 h %.8 8 8 8 5 t %.%.t t t 5 5 t h h 8 8 5 5 t t 8 8 t u 5 5 8 8 8 8 t u 5 8 t 5 8 5 5 8 5 5 t t 8 8 t u 8 8 u u 8 8 u u 8 8 r r t t r r 8 8 r u 8 8 8 8 8 8 { { h h 8 8 h %.~ ~ ! ! ! ! ! ! :.:.[.[.= = = = | | < < > > > ",
"> < < ) ) < < < < , , :.:.m s p p ! ! 6 6 h h h h h %.{ { 8 8 r r h i 8 8 8 8 8 8 8 5 r r %.%.%.%.h i 8 8 8 5 8 8 5 5 8 8 %.%.5 t v h t t %.%.%.%.h i t 5 %.%.%.%.v v %.%.v i %.%.h %.h h v v h %.%.%.%.h %.%.%.%.%.h h h h h %.%.%.%.5 8 %.%.%.%.%.%.%.%.%.%.u t 8 8 t t %.%.t t t t r r r r q q r r r r 8 8 r r r r r z r r r r 8 8 r r r r M M 6 6 6 6 z 6 6 6 b b A A 6 6 L b B B D D D D Y Y 6 6 z 6 > > b b 6 6 z r r r 6 M 6 q q 6 r r r r 8 8 r r r r [ [ r r r r 8 8 r r r r r r r z r r 5 5 t u t 5 5 8 %.%.t 5 h %.8 8 %.%.%.%.h h h h h v v i i v h h h v 8 8 h h h h i i 8 5 h h h h v v i i v v h h h h 5 5 %.%.t 5 %.%.%.%.%.%. . .%.%. . .5 5 t u t 5 t t t 5 5 5 h h t t t 5 q q r r r r 8 8 r r 8 8 6 6 b N 8 8 8 V V V ~ ~ p p ! ! ! ! <.<.< < = = = = < < | | ' ' E ",
"> < < ) ) < < < < , , :.:.s s p p ! ! 6 6 h h h h h h { { 8 8 r r h h 8 8 8 8 8 8 8 8 r r %.%.h h h h 8 8 5 8 8 8 5 8 8 8 %.%.5 5 h %.t t %.%.%.%.h i 5 t %.%.%.%.v v %.%.i v %.h h h h h v v h %.%.%.%.%.h %.%.%.%.h %.%.h h %.%.%.%.5 8 %.%.%.%.%.%.%.%.%.%.t t 8 8 t t %.%.t t t t r r r r q q r r r r 8 8 r r r r r r r r r r 8 8 r F r r z 6 6 M M 6 6 6 6 z b b A A 6 6 L b B B D D D D Y Y 6 6 6 z > > b b 6 6 r r r r M 6 6 [ 6 6 z r r r 8 8 u r r r [ [ r r r r 8 8 u r r r r r z r r r 5 5 t u t 5 8 8 h h 8 5 h %.8 8 %.%.%.%.h h h h v v i i v v %.%.v i %.8 h %.h h h h 5 5 h h h h v v h i i v v h %.h t 5 %.%.5 5 %.%.%.%.%.%. . .%.%. . . .5 t t t t t 5 t 5 5 t h h t t t 5 q q r r r r 8 8 r r 8 8 6 6 b N 8 8 8 V V V ~ ~ p p ! ! ! ! <.<.< < = = = = < < | | ' ' E ",
"' | | = = ) ) , , < < ) | ! ! ! ! ! ! z M 8 8 h h 8 8 b b r r 8 8 8 8 8 8 8 8 8 8 8 8 8 8 r r %.%.h %.h h 8 8 8 5 8 8 5 5 t t %.%.%.%.v i %.%.h i %.%.i v h h h v %.%.%.%.h i h v h h k k %.%.%.h %.%.%.%.%.%.%.%.h h v v h h i i %.%.%.h h h h v v i h h 8 8 5 8 t t 8 8 8 8 %.%.t t r r r r r u u r 8 8 u t 8 8 r r r z r r 5 8 r F r r z r r r z r r r r r 6 M { { ] > b b 6 6 l l D D D D B B >.>.Q 6 > > Q Q 6 6 8 8 r r r r 6 M r r r r 8 8 r r 8 8 u u t 5 r r 8 8 r r 8 8 u r 8 8 u r 8 8 8 8 8 5 8 8 h h 8 8 h h h h h %.%.h v v %.%.%.%.%.%.%.h h h v v h h h h h %.k k %.%.i i %.%.k k %.%.i i i %.%.%.h 5 h i 5 5 %.%.5 5 %.%.t 5 h i %.%.t 5 t u  . .t t t 5 8 8 8 5 5 t 8 8 t t t r r r t t 8 8 8 8 8 8 8 8 { { 8 V V 8 h %.@.@._ p ! _ ( ( :.:.< < < < = = <.<.< < > > A ",
"' | | = = ) ) , , < < | | ! ! ! ! ! ! z M 8 8 h %.V 8 b b r r 8 8 8 8 8 8 8 8 8 8 8 8 8 5 r r %.%.h %.h h 8 8 5 5 8 8 t 5 t t %.%.%.%.i i %.%.i i %.%.i v h h h v %.%.i i h h v v h h k k %.%.%.i %.h %.%.%.%.%.%.h h v v h h i i %.%.i h h h h v v i h h 8 8 5 5 t t 8 8 8 8 %.%.t t r r r r r u u r 8 8 t u 5 8 r r r z r r 5 8 r r r z r r r F z M r r r r M 6 { { ] > b b 6 6 l l D D D D B B >.>.Q 6 > > Q Q Q 6 8 8 r r r r M M r r r r 8 8 r F 8 8 u u t 5 r r 8 8 u r 8 8 r F 8 8 u r 8 8 8 8 5 5 8 8 %.%.8 8 h h h h h h %.%.v v %.%.i h %.%.i i h h v v h h h h h %.k k %.%.i i h h k k %.%.i i h h h h 8 5 h i 5 5 %.%.5 5 %.%.t 5 h i %.%.t 5 u u 5 5 t t 5 5 8 8 8 5 t t 8 8 t t u u r r t t 8 8 8 8 8 8 8 8 { { V V 8 8 h %.@.@._ p ! ! ( ( :.:.< < < < = = <.<.  < > > A ",
"> < < < < = = < < G G :.:.m m ! ! ! ! 6 6 8 8 8 8 h h { { r r 6 M 6 6 h h r r r r r r r r 8 8 t t 8 8 8 8 t 5 8 8 8 5 t u t 5 t t %.%.%.%.%.%.5 8 %.%.%.%.h i %.%.h i %.%.v v %.%.i h %.%.%.h %.%.%.h %.%.v v %.%.i h %.%.k k %.%.i v h h h h h %.h h h h h %.5 8 h %.t t 8 8 8 8 8 8 8 8 8 8 r r 8 8 r r 8 8 r z 8 8 r r r r r r r z r r r r r r 8 8 r r r r 8 8 +.+.B B 6 6 Q Q B B D D D D Y Y 6 6 >.>.> > b b 6 6 8 8 t u q q 6 6 6 z r r [ [ r r r r 8 8 r r t t r r 8 8 r r 8 8 u t 8 8 t u 8 8 r u 8 8 8 8 h h 8 5 h h h h v v %.%.%.%.%.%.%.h h h h h v v i v h h h h h %.h i %.%.i h h h h h h %.i h t 5 h h h h h i 5 5 h h t 5 h i %.%.%.%. . .t  . . .%.%.5  .%.%.5 t 8 8 u u 8 8 r r t t q q k k 6 6 r r z 6 +.+.8 8 h h 8 8 { ~ _ _ ! ! ! ! <.<.< < = = = = < < | | ' ' > ",
"> < < < < = = < < G G :.:.m m ! ! ! ! 6 6 8 8 8 8 h h ~ { r r 6 M 6 6 h h r r r z r r r r 8 8 t t 8 8 8 8 5 8 8 8 5 5 t u t 5 t t %.%.%.%.%.%.5 8 %.%.%.%.v h 5 %.i i %.%.v v %.%.i h %.%.%.h %.%.%.i %.%.v v h h h h h %.k k %.%.i v h h h h h %.%.h %.i h h 8 8 h %.t t 8 8 8 8 8 8 8 8 8 8 F r t 8 r r 8 8 r z 8 8 r r r z r r r r r r r r r r 8 8 r r r r 8 8 +.+.B B 6 6 >.Q B B D D D D Y Y 6 6 >.>.> > b b 6 6 8 8 t u q q 6 6 6 6 z r [ [ r r r r 8 8 r F t t r r 8 8 r r 8 8 t t 8 8 t u 8 8 t u 8 8 8 8 h h 5 5 h h h h v v %.%.i h %.%.h h h h h %.i v v v %.%.i h %.h h h h h i i %.%.i h h h h h 5 5 h i %.%.%.i 8 5 h %.5 5 h h h h %.%. . .t  . . .%.%.t 5 %.%.t 5 5 8 u u 8 8 r r t t q q k k 6 6 r r q 6 +.+.8 8 h h 8 8 ~ ~ p p ! ! ! m <.<.< < = = = = < < | | ' ' > ",
"> | | < < ) ) , , < < | | ! ! ! ! _ _ z M 8 8 8 8 8 8 b b 8 8 r r - - M 6 - - h i r r 8 8 t 5 8 8 t t 5 8 8 8 h %.8 8 5 5 t t %.%.%.%.%.%.%.%.%.%.t t t 5 t t 8 5 8 8 h h %.%.%.h 8 8 h h h h %.%.8 8 %.%.%.%.%.%.h i h h %.%.%.%.%.%.%.h h %.%.%.%.%.%.h 5 8 i h 8 8 8 8 8 8 8 8 r $.%.%.t t 8 8 8 8 8 8 8 8 8 8 8 8 8 8 r F r r q 6 r r r r F F z r r r b b N N C C > > Q Q 6 6 l l D D D D Y Y Q Q 6 6 > > C - b b { { [ [ t t [ q r r [ [ r r r r 8 8 r r t t r r t t r r 8 8 8 8 h h 8 8 8 8 t u 8 8 t u 5 5 8 8 h h 5 8 %.%.8 8 h h %.%.i i h h v v h %.%.v i %.%.h %.h %.%.%.%.5 5 8 8 h h h h i v  .5 h %.5 8 5 5  .t t 5 5 t %.%.h %.i i 5 5 %.%.t 5 !.!.%.%.i i t 5 5  .t t 8 8 t u 5 8 r F { { L L - - M 6 r r ~ ~ 8 8 8 8 8 8 @.@.m m ! _ s s :.:.< < < < = = < < <.<.E E > ",
"> | | < < ) ) , , < < | | ! ! ! _ _ _ z z 8 8 8 8 8 8 b b 8 8 r F - - M 6 - - h i r r 8 8 t t 8 8 t t 8 8 8 8 h h 8 8 5 t t t %.%.%.%.%.%.%.%.%.%.t  .t 5 t t 8 5 8 8 %.%.%.%.h h 8 8 %.%.h %.%.%.8 8 %.h h %.%.v i %.%.h %.h %.h h h h h %.%.h %.i h h %.8 8 i h 8 8 8 8 8 8 8 8 r $.%.%.t 5 8 8 8 8 8 8 8 8 8 8 8 8 8 8 r r r r 6 6 r r $.r r r r r u r b b b N C C > > Q Q 6 6 l l D D D D Y Y Q Q 6 6 > > C - b b { { [ [ t t [ q r r [ [ r r r r 8 8 r r t t r r t t r r 8 8 8 8 h h 8 8 5 8 u u 8 8 t t t 5 8 8 %.h 5 8 %.%.8 8 h h %.%.h h h h v v %.%.%.v i %.%.h %.h %.h %.%.t 5 8 8 h h h h i v 5 5 h h 8 8 8 5 t t 5 t 5 5 %.%.h %.%.i 8 5 %.%.t  .!.i %.%.i !.t 5 5 5 5 t 8 8 t t 8 8 r r ~ { b L - - M 6 r r ~ ~ 8 8 8 8 8 8 @.@.m m _ _ s s :.:.< < < < = = < < <.<.E E > ",
"_.< < | <.= = = = G G | | m m m ! ! m M M 8 8 8 8 8 8 { { r r 6 M { w     q q %.%.%.%.r r 8 8 t t %.%.%.%.v i t 5 t 5 5 5 t h t t 8 8 t t 5 8 t t 8 8 r r 8 8 u u 8 8 8 8 8 8 8 8 h h t t h h h h h %.%.h v i 8 5 v v %.%.i h %.%.h %.8 8 %.%.8 8 h h 8 8 h h 8 8 5 8 8 8 8 8 r u 8 8 r u u u r r 8 8 t u u t r r t u u r 8 8 6 6 r r r r r r M 6 6 6 L b { {   ' +.+.> > b b b b B B D D D D Y l 6 6 >.Q > > { { ~ @.b b r r r r [ [ [ [ r r Q 6 r r r r u u r r 8 8 r r 8 8 r r 8 8 t t 8 8 t u 5 8 r u 8 8 8 8 h %.V 8 8 8 8 8 h h %.%.%.%.5 5 i i %.%.%.h 5 5 h %.5 8 h h h h h h 8 8 i h 8 8 %.%.%.%.%.h 8 8 %.%.5 5 8 8 u u t 5 5 5 h h 5 5 u 5 t t t t 5 t i %.%.%.%.%.t 5 t t [ [ u u t r 5 5 L L { { } } 8 8 r r { { 8 8 %.%.%.%.{ { _ ! ! ! ! _ U U < < = = ) ) = = ) | ; ; j ",
"_.< < <.<.= = = = G G | | m m ! ! m m M M 8 8 8 8 8 8 { { r r M M w w     q q %.%.%.%.r r 8 8 t t %.%.%.%.v i 5 5 t 5 5 5 t h t t 8 8 t t 8 8 t 5 8 8 r r 8 8 u r 8 8 8 8 8 8 8 8 h h t t h h h h h %.%.h v i 5 5 v v %.%.i h %.%.%.h 8 8 h h 8 8 h h 8 8 h h 8 8 8 8 8 8 8 8 r u 8 8 r u u u r r 8 8 t u u t r r r t u r 8 8 q 6 r r $.r r r M 6 6 z b b { {   ' +.+.> > b b b b B B D D D D Y l 6 6 >.Q > > { { ~ @.b b r r r r [ [ [ [ r r Q 6 r r $.r u u r r 8 8 r F 8 8 u r 8 8 t u 8 8 t t 8 8 r u 8 8 8 8 %.%.8 8 8 8 8 8 h h %.%.%.%.5 8 i i %.%.%.h 5 5 %.%.t 5 h h h h %.%.8 8 %.%.8 8 h %.h h h h 8 8 i h 8 5 5 8 u u t 5 5 5 h i 5 5 t 5 5 t t t 8 5 %.%.%.%.%.%.t 5 t t [ [ t u u t 5 5 L L { { } } 5 8 r F { { V 8 h %.h h { { _ ! ! ! m ! :.U < < = = ) ) = = | | U ; j ",
"    < < < = = . . = = | | ( m _ _ ! _ z M 8 8 8 5 5 8 { { u [ 8 8 t u u u [ [ t u u u 8 8 u u 8 5 t 5 %.%.5 8 %.%.5 t t 5 8 5 8 8 t u 8 8 8 8 %.h 8 8 %.%.8 8 t  .8 8 %.%.8 8 8 8 8 8 8 8 %.%.v v %.%.v v h h %.%.%.%.h i 5 8 %.%.8 8 %.%.8 8 h %.V 8 h %.8 8 5 5 8 8 8 5 t t 8 8 r u 8 8 r r t t r r 8 8 r r t t r r r r r r r r 6 6 r r 6 M 6 6 6 6 z r 6 6 M M +.+.> E b b 6 6 l l D D D D Y Y b b >.>.> E >.>.Q >.r r 6 M r r 6 6 z r 6 6 r r [ q r u u r 8 8 r r 8 8 r r 8 8 u t 8 8 r r 8 8 r u 8 8 t t %.%.8 8 8 8 t t %.%.%.%.h i 8 8 h %.h h h h h h %.h 5 8 %.%.5 5 h %.5 5 h %.8 8 8 5 5 8 h %.V 8 8 8 5 t %.%.8 8 8 8 t t 5 5 8 8 8 5 t u u t 5 r %.%.t 5 i h 5 5 %.%.t u u t r r [ [ [ [ r r [ [ r r r r r r ~ { 8 8 8 8 h h - - ! ! ! m ! ! :.:.G G = = = = ) ) = =     ; ",
"  < < < < = = . . = = | | ( m ! _ _ p z M 8 8 8 5 8 8 { { [ [ 8 8 t u u u u [ t t t u 8 8 t r 5 5 8 5 %.%.5 5 %.%.5 5 5 5 8 8 8 5 t u 8 8 8 8 %.h 8 8 h h 8 8 5 5 8 8 %.%.8 8 8 8 8 8 8 8 h h v v h h h v h h %.%.%.%.%.%.8 8 h %.8 8 %.h 8 8 h h 8 8 h %.8 8 5 5 5 8 8 8 5 t 8 8 t u 8 8 r r t u r r 8 8 u r 8 t r r r r r z r r r M r r 6 M 6 6 6 6 r r 6 6 z 6 +.+.> E b b 6 6 l l D D D D Y Y b b >.>.> E >.>.>.Q r r 6 M r r 6 6 r r 6 M r r [ q r u r r 8 8 r r 8 8 u r 8 8 t u 8 8 r r 8 8 u r 8 8 t t %.%.8 8 8 8 5 t %.%.%.%.h i 8 8 %.%.%.%.%.%.%.%.%.h 8 8 %.%.8 5 h %.5 5 %.%.8 8 8 5 5 8 %.h 8 8 8 8 t t %.%.8 8 8 8 t u 5 5 5 8 8 8 u u t 5 r u %.%.t 5 i i 5 8 %.%.u u t 5 r r [ [ [ [ r r [ [ r r r r r r { { 8 8 8 8 h %.@.- ! ! ! m ! ! :.:.G G = = = = ) ) = = <   ; ",
"| = = < < = = = = G G | | s s p p ! m M M 8 8 8 8 8 8 { { r r t t t 5 q [ r r [ [ r r r u 8 5 5 8 %.%.t 5 i v 5 5 5 5 t t 8 8 t u 8 8 t t 8 8 8 8 h %.5 8 h %.8 8 5 5 8 8 %.%.8 8 5 8 8 8 v v i !.i i %.%.i v 8 8 h h 8 8 h %.8 8 t 5 t t t 5 8 8 8 8 8 8 h h 8 8 5 8 8 8 8 8 t u 8 8 t u 8 8 r u u u r r t u r r r r 6 M r r r r M M b b 6 6 6 6 6 6 z 6 6 6 6 M +.+.B B >.>.b b Y Y D D D D Y Y Q Q b b A A { { 6 6 6 z r 6 6 M 6 6 z 6 6 6 6 M r r r r r u r r 8 8 u r 8 8 r r 8 8 t t 8 8 r F 8 8 r r 8 8 t u 8 8 8 8 5 5 8 8 %.h 8 8 5 5 8 8 h h %.%.h %.8 8 5 8 t 5 h h h h h h %.%.h %.t t 8 8 8 8 %.%.8 8 8 8 h h h h 8 5 %.%.5 5 %.%.8 8 8 8 t t 5 8 8 8 t 5 5 5 h %.t t 5 t t t t t 6 6 [ u u r 8 t t t 5 5 [ [ { { 8 8 %.%.5 5 ~ ~ p p ! ! ! ! | | = = = = ) ) = = ) | < < U ",
"| = = < < = = = = G G | | s s p p ! m M M 8 8 8 8 8 8 { { u r t t t 5 q [ r r [ [ r r t u 5 5 8 8 %.%.t 5 i v 5 5 5 5 t t 8 8 t u 8 8 t t 8 8 8 8 h h 8 8 h %.8 8 5 8 8 8 %.%.8 8 8 8 5 8 v v v i !.i h h h h h 8 5 h 8 8 h %.8 8 t 5 5 t u 5 5 8 8 8 8 8 h h 8 8 8 8 8 8 8 8 r u 8 8 t u 8 8 r r u u r r t t r r r r 6 6 z r r r 6 6 L b 6 M Q Q 6 6 6 6 z 6 6 6 +.+.B B >.>.b b Y Y D D D D Y Y Q Q b b A A { { 6 6 6 6 z r 6 6 M 6 6 6 z 6 6 6 r r r r r u r r 8 8 r r 8 8 r u 8 8 t u 8 8 r r 8 8 r r 8 8 u u 8 8 8 8 8 5 5 8 h h 8 8 5 8 8 8 h h h h %.%.8 8 8 8 t t %.h h h h h %.%.h %.t t 8 8 8 8 %.h 8 8 8 8 h %.h h 5 8 h h 5 5 i h 8 8 5 8 8 t 8 8 8 8 t 5 5 5 %.%.t t 5 5 t t t t 6 6 [ u r r t u 5 t t 5 [ [ { { V 8 %.%.t 5 ~ ~ p p ! ! ! ! | | = = = = ) ) = = | | < < U ",
"< | | , , ) ) = = = = | <.m m _ _ ! _ z r 8 8 8 5 r r { { 6 6 t t t u u u [ [ [ t u u 5 5 8 8 8 5 t 8 %.%.t 5 h h 5 t v h 8 8 8 5 u r 8 8 8 8 5 8 8 8 5 5 8 8 h h 8 8 8 8 t u 8 8 r r 8 8 5 5 h h t 5 h h t 5 h %.5 5 %.h 8 8 %.%.t 5 8 8 t u 8 8 8 8 8 8 8 8 8 8 8 8 8 8 r u 8 8 r u 8 8 r r t u u r 8 t r r t u r r r r M M 6 6 { { ~ @.b +.b b N b 6 6 b b 6 6 @.~ C A b b 6 6 l l D D D D Y Y b b >.>.> E +.+.6 6 z 6 b b 6 6 { { L L - - Q Q 6 6 r r r z r r r r r r r r r r r 8 8 r r r 8 8 t u 8 8 r u 8 8 8 8 5 5 8 8 h %.V 8 8 5 5 8 8 5 5 t h h t 5 h %.8 8 h %.V 8 h %.5 5 h h t t t t r r 8 5 8 8 %.h 8 8 5 5 8 8 8 8 8 8 8 8 t u u t 5 t %.%.t 5 h %.t t 5 5 t t h %.5 t 8 5 8 8 t u u u t 5 r u 8 8 8 8 r r { { 8 8 8 8 h h - - ! ! p p ! m :.:., , < < = = ) ) = = < < < ",
"< | | , , ) ) = = = = | <.m m _ _ ! _ z r 8 8 8 5 t r ~ { 6 6 t t t u u u u [ [ u u t 5 5 5 8 t 5 8 8 h h 8 5 %.%.t 5 h h 8 8 8 8 r r 8 8 8 8 8 8 8 8 5 8 5 8 %.%.8 8 8 8 t u 8 8 r r 8 5 5 5 h %.5 5 %.h 5 5 h h t 5 h h 8 8 %.%.t t 8 8 r u 8 8 8 8 8 8 8 8 8 8 8 8 8 8 u u 8 8 t u 8 8 r u u u r r t t r r t t r r r r 6 M 6 6 { { ~ @.b +.b b N b 6 6 L b 6 6 ~ ~ A A b b 6 6 l l D D D D Y Y b b >.>.> E +.+.6 6 6 z b b 6 6 { { L L - - Q Q 6 6 r r r r z r r r F F F z r F F z 8 8 r r 8 8 r u 8 8 t u 8 8 8 8 5 5 8 8 %.%.8 8 8 5 8 8 8 5 5 5 h %.5 5 %.h 8 8 h h 8 8 h h 8 5 h %.5 t t t r r 8 5 8 8 i h 8 8 5 5 8 8 8 8 8 8 8 8 u u t 5 t t %.%.5 5 h h 5 t t 5 t 5 %.%.5 t 8 5 8 8 t u u u t t t u 8 8 8 8 r r { { V 8 8 8 h h - - ! ! p p ! m :.:., , < < = = ) ) = = < < < ",
"| = = = = = = = = G G :.:.s s ! ! ! m r M 8 8 8 8 8 8 { { [ [ r r t t t u 8 8 t u 8 8 V 8 %.%.t u 8 8 t u u t t r 5 5 t h 5 5 t 5 t 8 8 5 h h r r t u r r 8 8 t u 8 8 t u 8 8 r r t u u r 5 8 8 8 5 5 8 8 5 5 t u %.%.t 5 h 5 5 8 %.h 8 8 8 8 t t %.h 8 8 8 8 t t 8 8 r r 8 8 t u 8 8 t u u u r r 8 8 r r r r r r r r 6 M r r b b B E @.@.C A A A @.@.N N 6 6 L b { { o o >.>.b b Y Y D D D D Y l 6 Q b b A C { ~ Q Q 6 6 b b     - - > > > > C - 6 6 z 6 6 r [ [ r r r r 8 8 r r 8 8 t u 8 8 t u 8 8 r r 8 8 8 8 8 5 5 t u 5 8 8 8 5 5 8 h %.t 5 %.%.8 8 h h 8 8 8 5 5 8 h %.5 5 t h u t t [ [ u t t r r 8 8 8 8 h h t 5 8 5 r r 8 8 8 8 t 5 5 8 t 5 t t 8 8 t u 8 8 t u 8 8 [ u 8 8 8 8 5 8 t u 8 8 t t 8 8 r u u u 6 6 { { r r t 5 5 8 ~ ~ p p ! ! ! ! ) ) = = = [.< < = = | | < < ) ",
"| = = = = = = = = G G :.:.m s ! ! ! m r M 8 8 8 8 8 8 { { [ [ r r t t t r 5 8 t u 8 8 V 8 %.%.t u 8 8 t u u t u u t 5 5 5 8 5 t t 8 8 8 8 %.%.r r t u r r 8 8 u u 5 8 u u 8 8 r r t t r r 8 8 8 5 5 8 8 5 5 5 t u %.%.t 5 5 5 8 8 %.h 8 8 8 8 t t %.h 8 8 8 8 5 t 8 8 r r 8 8 t u 8 8 u u t r r [ 8 8 r r r r r r r r M 6 r r b b B E @.@.A A A A @.@.b N 6 6 L b { { o o >.>.b b Y Y D D D D Y l Q Q b b C C { ~ Q Q Q 6 b b     - - > > E > - - M 6 6 6 z r [ [ r r r r 8 8 r r 8 8 u t 8 8 t u 8 8 r r 8 8 8 8 8 5 t t 5 8 8 8 t 5 8 8 h %.t 5 h %.8 8 %.%.8 8 8 5 8 8 h %.V 5 5 t u t 5 u u [ u t r r 8 8 8 8 h h t 5 8 8 r r 8 8 8 8 t 5 5 8 t 5 t t 5 8 u u 5 8 u u 8 8 [ u 8 8 8 8 5 8 u u 8 8 t u 8 8 t u u t 6 6 { { r r t 5 5 8 ~ ~ _ _ _ ! ! ! ) ) = = = [.< < = = <.| < < | ",
"< ) | = = = = , , < < <.<.! ! ! _ _ _ z M 8 8 8 5 r r ~ { 6 6 8 8 [ [ 5 t u r t t t t t 5 t t t 5 8 u u t u u 5 8 t 5 5 8 8 8 8 8 u u 5 8 t t 5 8 r r 8 8 t u 8 8 8 8 8 8 r r F 6 6 6 r $.8 8 h h 8 8 h h 8 5 5 5 8 8 %.h 8 8 t 5 h 5 h %.5 t 8 8 8 8 h h t t 8 8 r r u u u r 8 8 u u 8 8 r r t u r r r u u [ [ r M M r r b b ] > - - s s s s N N 6 6 ~ { +.+.b b     E E N N >.>.l l D D D D Y Y b b N b E E +.+.{ { +.+.- - M 6 ~ ~ x x o o E E { { 6 6 6 6 r r r r r r r r 8 8 r r 8 8 t u 8 8 r u 8 8 u u 8 8 t u 5 5 8 8 8 5 t u 8 8 8 5 h h 8 8 5 8 u t 8 8 8 8 %.%.t 5 h %.t t 8 8 q q r r r t 5 8 r F 8 8 %.%.t 5 8 8 8 8 8 8 h %.8 8 5 5 t t t 5 t t t 5 8 8 8 8 t  .8 8 t t 8 8 t u 8 8 8 5 8 8 t u 8 8 t t q q   7 8 8 8 8 h h @.@.m m p p ! m | | G G < < < < < < < < | | | ",
"< ) | = = = = , , < < <.<.! ! ! _ _ _ z M 8 8 8 5 r r ~ { 6 6 8 8 [ [ 5 t u r t t t t t t t t 5 t 5 u u t r u 8 5 t 5 5 8 8 8 8 8 u u 5 8 t t 8 8 r u 8 8 r u 8 8 8 8 8 8 r r r F 6 6 r r 8 8 h %.V 8 h %.5 8 t 5 8 8 %.%.8 8 8 5 5 5 h h t t 8 8 8 8 h h t t 8 8 u r t u r u 8 8 t u 8 8 r F t u u r r t [ [ r r 6 6 z r b b ] > C - s s s s N N 6 6 { { +.+.b b   - > E b N >.>.l l D D D D Y l Q b b N E E +.+.{ { +.+.- - M 6 ~ ~ x x o o E E { { 6 6 6 6 r r r r r u r r 8 8 r F 8 8 u t 8 8 r r 8 8 r u 8 8 t t 8 5 5 8 8 8 u u 8 8 t 5 h %.8 8 5 5 t u 5 8 8 8 h h 8 5 h h t 5 8 8 6 q r u r u 8 8 r u 8 8 %.%.t 5 8 8 8 8 8 8 h h t 8 t 5 8 t t 5 8 u 5 5 8 8 8 8 t  .8 8 5 t 8 5 t u 8 8 8 5 8 8 t u 8 8 t t q q   7 8 8 8 8 h %.@.@.m m p p ! m | | G G < < < < < < < < | | | ",
"| | | | | = = < < < < :.:.s s ! ! ! O Q Q 8 8 r r 8 8 { { u r r r r t u u u t [ [ t u r r t u u u u t [ [ r r [ [ [ t u u 5 8 t u 8 8 r r 8 8 t u 8 8 r r 8 8 r r 8 8 r r r r [ [ r r r r %.%.%.%.h i 8 5 h %.5 t 8 5 5 8 8 5 8 8 h h 8 8 8 8 t t 8 8 8 8 8 8 r r r r r r r r r r 8 8 r r r r r z r r r r r r q q r r 6 6 z 6 l o > > _ _ s s Q Q k k @.@.+.+.{ { @.@.l l b b N b Y Y D D D D Y Y 6 6 L b > > C - b b { ~ z r k k +.+._ p ! ! o o N N b b 6 6 6 6 z r r r u u r r t [ r r t u r r r u r r t u 5 t 8 8 t u 5 5 t t 5 8 u 5 h h 8 8 5 8 8 8 8 8 8 8 5 5 8 8 %.%.8 8 8 8 r r [ [ 6 q r r r r 8 8 8 8 8 8 r F 8 8 r r 8 8 t t 8 8 8 8 8 8 r r t t r r 8 8 r r 8 8 u r 8 8 [ [ r r r r r u u r 8 t t t 8 8 q 6 ~ { r r 8 8 8 8 ~ ~ p p ! _ _ p U U < < < < | | < < | | <.<.U ",
"| | <.| | = = < < < < :.:.m s ! ! ! O Q Q 8 8 r F 8 8 { { u r r r u u t r 5 t [ [ [ t r r t u u u t t [ q r r [ [ r u u r 8 t t u 8 8 r r 8 8 t u 8 8 r r 8 8 r r 8 8 r r r r [ [ r r r r %.%.%.%.%.h 5 5 h h t t 8 5 5 8 8 5 8 8 h %.V 8 8 8 t u 8 8 8 8 8 8 u r r r r r r z r r 5 8 r r r r z r r r r r r r q q r r 6 6 6 z l o > > _ _ s s Q Q k k @.@.+.+.{ { @.@.l l b b b N Y Y D D D D Y Y Q 6 L b > > C - b b { ~ r r k k +.+._ p ! ! o o N N N b 6 6 z 6 6 r r r t u r r r u r r r t u r r u u r r t t t 5 8 u 5 5 5 t u 5 8 8 t %.%.5 8 t 5 8 8 8 8 8 5 5 8 8 5 %.%.5 8 8 8 r r q [ q q r r r r 8 8 8 8 8 8 r r 8 8 r r 8 8 t u 8 8 8 8 8 8 r r t t r r 8 8 r r 8 8 r u 8 8 [ [ r r r r r u r r t 5 8 t 8 8 6 6 { { r r 8 8 8 8 ~ ~ p p ! _ _ _ U U < < < < | | < < | | <.<.U ",
"< | | < < | | = = < < :.:.! ! ! _ _ p z z 8 8 8 8 u r b N 6 6 r r [ [ [ [ q q r u q q t u r r t u [ [ r r [ q r u r r 8 8 u u t t r r 8 8 r r t t r r t t r u 8 8 r u r r 6 6 r r r r 8 8 t t 5 8 u 5 5 5 5 t u t 5 t t t 8 8 %.%.8 8 8 5 u u t 5 r u 5 8 r r t u [ [ r r [ q r r r r r u r r r r M M 6 z [ [ r r 6 6 6 z 6 b b b A C B B x x M M k k { { C C z 6 o o o E N N >.>.l l D D D D Y Y b b b N E E - - Q Q @.@.r r k k @.~ o o C C B B b b 6 6 N b 6 6 6 z r M [ q r r q q r r r r r r u [ r r [ [ t t r r 8 8 8 8 8 8 5 t r 8 8 8 5 5 8 8 5 5 u u t 5 r u 8 8 8 8 h %.5 8 8 8 r r t u 8 r r r r r 8 8 r r 5 8 8 8 8 8 8 8 8 8 8 8 8 8 r u t t t u u u t t t 5 t t t u r r r t r r r r [ q r r r r u t r r q q   - 8 8 8 8 h %.@.- ! ! p p ! m _._.< < | | <.<.<.| | | | | | ",
"< ) | < < | | = = < < :.:.! ! _ _ ! _ z r 8 8 8 8 u r N N 6 6 r r [ [ [ [ [ } r u q q t u r r r t u [ r r [ q r r r r 8 8 r u u t r r 8 8 r r t t r r t t t u 8 8 r z r r 6 6 r r r r 8 8 5 t t 5 8 u 5 5 5 t t t t t 5 t t 8 h %.V 8 8 8 u u t 5 r u 5 8 r r t u [ [ r r [ q r r r r r u [ r r r 6 z M z [ [ r r 6 6 6 6 >.Q b b A C B B x x M M k k { { ' C z 6 o o o E N N >.>.l l D D D D Y Y b b b b B E - - Q Q @.@.r r k k ~ ~ o o C C B B b b 6 6 N b 6 6 6 6 z r [ q r r q q r u r r r r [ [ r r [ [ t t r r 8 8 8 8 8 8 t u 8 8 8 8 8 5 5 8 8 5 u u t 5 r u 8 8 8 8 h h 8 8 8 8 r r t u 8 r r r r r 8 8 r r 8 8 8 8 8 8 8 8 8 8 8 8 8 8 r u t t t r 5 t t t t t 5 t t u r r r t r r r r [ q r r r r u t r r q q   - 8 8 8 8 h h - - ! ! p p ! m _._.< < | | <.<.| | | | | | | ",
"U | | | | <.<.<.<.< < :.:.! ! ! m ! ! 6 6 8 8 F F z r { { 6 q q [ } } 4 4 q q r u 8 8 r r r r [ [ t u u u 8 8 t u u u t r 5 8 r r r r r r 8 8 t u 8 8 8 8 8 8 r r r r r r r r r r 8 5 $.r 8 8 r r 8 8 8 8 8 8 u u 8 8 t u 5 t t 5 8 8 8 8 t 5 8 t 8 8 8 8 t u r r t u r r r u r r r r r z r r r r r r q [ r r 6 6 [ 6 b b >.>.+.+.+.+.- C B B N N 8 8 - - o o o o E C x x >.>.b b Y Y D D D D X X >.>.b b E E > E E > ( ( 6 6 8 8 C C > > - - { { >.>.b b r r 6 M r r 6 6 r r r r r u r [ r r [ q r r q [ r r r r 8 8 u t 8 8 t u 8 8 8 8 t 5 8 r t t 8 8 8 8 t u t t t u 8 8 r r t t u t 8 8 u u 8 8 [ [ r r r r r 8 t u 8 8 t u 8 5 r r 8 8 u r 8 8 t u 8 8 r r 8 8 t u 8 8 u r r r r r 8 8 r r r r M M k k b b r r q 6 ~ { r r 8 8 8 8 ~ @.p p ! _ _ ! :.:.< < < < ) | < < U U < < U ",
"U | | | | <.<.<.<.< < :.:.! ! ! m ! ! 6 6 8 8 F F z r { { [ q q [ } } 4 4 q q r u 8 8 r r r r [ [ r u u r 8 t t u u u t r 5 8 r r r r r r 8 8 t u 8 8 8 8 8 8 r r r r r r r r u r 8 5 r r 8 8 r r 8 8 8 8 8 5 t r 8 8 t u 5 t t 5 8 8 8 8 5 5 t u 5 8 8 8 t u r r t u r r r u r r r r r r z r r r r r [ [ r r 6 6 6 q b b >.>.+.+.+.+.C C B B b N 8 8 - - o o o o E C x x >.>.b b Y Y D D D D X X >.>.b b E E > E E E ( ( 6 6 8 8 C C > > C - w { >.>.b b r r M M r r 6 6 z r r r u r [ [ r r q q r r [ [ r r r r 8 8 t t 5 8 u 5 8 8 8 5 5 5 r r t 5 8 t 8 8 t u u t u u 8 8 r u t t t t 8 8 u u 8 8 [ [ r r r r r 8 t u 8 8 t t 8 8 r u 8 8 r r t 8 [ u 8 8 r r 8 8 t u 8 8 u r r r r r 8 8 r r r r 6 M k k b b r r 6 6 { { r r 8 8 8 8 @.@.p p p ! ! ! :.:.< < < < | | < < U U < < U ",
"| <.<.<.<.| | < < <.<.U U ! ! ! _ _ _ M M 8 8 8 8 r r { { 6 6 6 q     b b     u u u t 8 8 [ [ [ u u t t t t u u t u u r u u r r r q q r r u u 8 8 8 8 8 8 8 8 r r 6 6 r r u r 8 8 8 8 8 8 r u u t u r 8 8 u u 8 8 r u 8 8 t t u t t u 8 8 t u 8 8 8 8 8 8 r r u r r r u r r r r u r [ r r q q r r q 6 r r q 6 q q 6 6 q 6 b b b b ~ ~ ~ @.B B b b 8 8 - - o o ~ ~ A A o o b b Q Q l l D D D D Y Y b b b b B B ~ ~ - - E E b b 8 8 > > ~ ~ @.~ b b b b 6 6 q 6 r r q 6 r r q [ r r 6 q z r 6 6 u r [ [ u r r u r u u r 8 8 r u 8 8 r u 8 8 8 8 t 5 t t 8 8 t u t t u r t t r r t u r r t t u t 8 8 r r u r [ [ [ u u u 8 8 u u 8 8 r z u u r r r u q q t t u r r r u r 8 8 r r r u r r r r r r 5 8 u r - - { { > > r r q 6 - - r r 8 8 8 8 C C ! ! p p m m }.}.< < < < < < | | | | U U U ",
"| <.<.<.<.| | < < <.<.U U ! ! ! _ _ _ M M 8 8 8 8 r r { { 6 6 q 6     b b     u u u t 8 8 [ [ [ u u u u t u u u t u u r u r r r $.q q r r r u 8 8 8 8 8 8 8 8 r r 6 6 r r r u 8 8 8 8 8 8 u u t t r r 8 8 u r 8 8 t u 8 8 t u t t t u 8 8 r u 8 8 8 8 8 8 r r u r r r u u r r r r q [ r r q [ r r 6 q r r q 6 q q q 6 6 6 b b b b ~ ~ @.~ B B b b 8 8 - - o o ~ ~ A A o o b b Q Q l l D D D D Y Y b b b b B B ~ ~ - - E E b b 8 8 > > ~ ~ @.~ b b b b 6 6 6 q r r q [ r r [ [ u r q q 6 z 6 6 u r [ [ u r r r u r r r 8 8 t u 8 8 r u 8 8 8 8 5 t t t 8 8 r u t t u r t t r u t u r r t t u t 8 8 r r r r q [ u u t u 8 8 t u 8 8 r r u r [ r r u q q t t u r r r r u 8 8 r r u r r r r r r r 8 5 u r - - { { > > r r 6 q - - r r 8 8 8 8 - C ! ! p p m m }.}.< < < < < < | | | | U U U ",
"U | | | | <.<.<.<.< < :.:.! ! ! ! ! ! 6 6 8 8 r r r r { { r r q 6 { { - - r r t t u t r r t u u r 8 8 r u 8 8 r r u r u u 8 8 r r r r r r 8 8 8 8 8 5 8 8 8 8 r r r r r r r u r u u u u t 8 8 r r u r u u 8 8 u u u t u u 8 8 t u t t r r 8 8 u u 8 8 u u u u r r r u u r r r [ [ u r 6 6 r r q q r r 6 q r r 6 q q q } } 6 6 b b b N @.@.B E +.+.8 8 - C B B b N @.~ o o >.>.b b Y Y D D D D X X >.>.+.+.E E ~ ~ N N E E b b r r A A @.@.+.+.{ { 6 Q b b M M 6 6 r r q 6 6 q 6 6 r r r u r r q q r r r r u r r r u u u r r u u r t t u r t t t u 8 8 t t 8 8 u u 8 8 u u 8 8 r r t t u t t 5 t u u r r r r r q [ u t t u t t t u 8 8 r z u r [ r r r u r 8 8 r r u r r r u r r r 8 8 r r r r r u 8 8 6 6 { { r r u r 6 6 { { r r 8 8 8 8 @.@.p p _ _ _ _ :.:.< < < < <.| < < U U < < U ",
"U | | | | <.<.<.<.< < :.:._ ! ! ! ! ! 6 6 8 8 r r r r { { r r 6 6 { { - - r r t t t u r r u t u r 8 8 t u 8 8 r r u r u u 8 8 r r r r r r 8 8 8 8 5 5 8 8 8 8 u r r r r r u u r r r u t t 8 8 r r u u t u 8 8 r u t t t u 8 8 t u u t u r 8 8 u u 8 8 u u u u u r r u r r u r [ [ r r q 6 r r 6 q r r q q r r 6 6 q 6 } } 6 6 b b N N @.@.E E +.+.8 8 - C B B b N @.~ o o >.>.b b Y Y D D D D X X >.>.+.+.E E ~ ~ b N E E b b r r A A @.@.+.+.{ { 6 Q b b M M M 6 r r q 6 q q 6 6 r r r r u r 6 q r r r r u r r r u u r r u r r r u t t u t t u u 8 8 u t 8 8 r u 8 8 u u 8 8 r r t t u t t 5 u u r r r r r r q [ u t t t u t t u 8 8 r z u r [ r r r r u 8 8 r r u r r r r u r r 8 8 r r r r r r 8 8 6 6 { { r r u r 6 6 { { r r 8 8 8 8 @.@.p p p _ _ _ :.:.< < < < | | < < U U < < U ",
"| U U <.<.| | < < <.<.U U ! ! ! ! _ _ M M 8 8 8 8 r r { { 6 6 r r r r t t 6 6 r u u r 8 8 u r u t r r u r r r 8 8 u u |.8 t u t t r u r r r r r t u r t t u r r r 6 6 r r r u 8 8 r u %.%.r u t u r r t t t u 8 8 t u t t u t r t t r t t t t 8 8 r r 8 8 u r r u r u u u r r r r 6 6 q q 6 6 r r M 6 z r 6 6 q 6 6 6 6 q b b Q Q +.+.{ { B B b N r r @.@.l l b b ~ { B B b N b b X X D D D D Y Y b b >.>.B B ~ ~ ~ ~ A C b b 8 8 > > ~ { { { N N b b b b >.>.6 6 q 6 r r 6 q r r q [ r r 6 6 u r [ r r r r r u r r r u u r r 8 8 u t t u r u t t r r u t u u 8 8 r r t u r r t t r r 8 8 8 8 8 8 r r 8 8 u r r u r r 8 8 r r r u u r r u r r r r r r 8 8 r r 8 8 r r r r r r 8 8 u r 8 8 t u 8 8 r r u r r r u r r r 6 6 { { 8 8 8 8 %.%.C C ! ! p p m m _._.< < <.| | | | | | | U U U ",
"| U U <.<.| | < < <.<.U U ! ! ! _ _ _ M M 8 8 8 8 r r { { 6 Q r r u r u t 6 6 r u r r 8 8 u r t t r r u r r r 8 8 u u |.8 u t u u u r r u r r r u u r t t u r r r 6 6 r r u u 8 8 u u %.%.r r t u r r t t u u 8 8 u u u t t u t 8 r r t u u t 8 8 r r 8 8 r r r u u r r u r r $.r 6 6 q q 6 6 r r 6 Q r r 6 6 q 6 6 6 6 6 b b Q Q +.+.{ { B B b N r r @.@.l l b b ~ { B B b N b b X X D D D D Y Y b b >.>.B B ~ ~ ~ ~ - C b b 8 8 > > ~ { { { N N b b b b >.>.6 6 6 q r r 6 q r r q [ r r z 6 u r [ r r r r r r u r u u u r r 8 8 u t t t r u t t r r u t u u 5 8 r r t u r r t t r r 8 8 8 8 8 8 r r 8 8 r r r r r r 8 8 r r r u r r u r r r r r r r 8 8 r r 8 8 r r r r r r 8 8 r u 8 8 u t 8 8 r r u r r r r r u r 6 6 { { 8 8 8 8 %.%.C C ! ! p p m m _._.< < <.| | | | | | | U U U ",
"j :.:.U U <.<.| | < < }.}.! ! ! ! ! ! 6 6 8 8 r r r r @.@.6 6 r r r r 6 6 q [ 6 6 r r r u 8 8 r z r r 6 6 r r u r u u r r 8 8 r u u %.r r u u r r t t r r r r q [ r r r r 8 8 t u 8 8 t t 8 8 u t t u r r 8 8 8 8 8 8 r r t u u r 8 8 t t u t r r u t t u t t u r r u r r r r q q r r 6 6 [ [ 6 6 q [ q q r r 6 6 6 6 b b Q Q b N N b ~ ~ E E ~ ~ F F C C B B - - @.@.( ( b b +.+.Y Y D D D D s s N N +.+.E B @.@.~ ~ E B { { r r - - @.~ +.+.{ { Q Q b b M M Q Q 6 6 q 6 r r [ [ u r 6 6 r r q q r r [ [ u r r r r u r u t t t u t t u r t t u u 8 8 [ [ 8 8 t u 8 8 r u u t r r 8 8 t u 5 t t t 8 8 r r t t r r r u r u u u r r u u r r 8 8 r r 8 8 r r 5 8 r r r r r r u r r r u t r r 8 8 r r r r Q Q r u r r r r b b   - r r 8 8 8 8 @.@.p p _ _ _ _ :.:.< < < < | | < < :.:.; ; ; ",
"_.:.:.U U <.<.| | < < }.}.! ! ! ! ! ! 6 6 8 8 r r r r @.@.6 6 r r u r 6 q r [ 6 6 r r u r 8 8 u r r r z 6 r r r u r u r r 8 8 r u t t r r u u r r t t r r r r q [ r r r r 8 8 t u 8 8 t t 8 8 t t u t r r 8 8 8 8 8 8 r r t t u t 8 8 t t u t r r t t r u u t u r u u r r r r q q r r 6 6 [ [ 6 6 [ [ [ 6 r r q 6 6 6 b b Q Q N N b N @.~ E E ~ ~ F F C C B B - - @.@.( ( b b +.+.Y Y D D D D X s N N +.+.E B @.@.~ ~ o B { { r r - - @.~ +.+.{ { Q Q b N 6 6 Q Q 6 6 6 q r r [ [ u r 6 6 r r q [ r r [ [ r r r r u r r r u t u u t u r u t t t t 8 8 [ [ 8 8 t u 8 8 r u u t r r 8 8 t u 5 t t t 8 8 r r t t u r r u u r r u r r u u r u 8 8 r r 8 8 r r 8 8 r r r r r r r r u r u t r r 8 8 r u r z 6 6 r r r r r r b b   - r r 8 8 8 8 @.@.p p _ _ _ _ :.:.< < < < | | < < :.:.; ; ; ",
"U U U | | <.<.| <.< < U U ! ! ! ! _ _ M M r r 8 8 6 z { { b b r r [ [ r z 6 6 r r [ [ u u r r r r 6 q q 6 6 q r r u u 8 8 r r u u r r u t r r 8 8 u r r r q [ r r r r 8 8 r r 8 8 u r 8 8 t u 8 8 r r t t r r 8 8 t t 8 8 u t t t u r 8 8 r r r u r r t t r r r r u r r r r r r r 6 6 u r 6 6 r r q 6 r r q 6 6 6 6 q 6 6 b b b b +.+.+.+.E B +.+.z z - - o o ~ @.- - E B @.~ +.+.X X D D D D X X +.+.N N l l @.@.~ @.B E { { r r > > ~ { ~ ~ +.+.N b >.Q Q 6 6 M M 6 6 6 q 6 r r 6 6 r r M M 6 z q [ r r r r r u r r r u u r r u u r t t r r 8 8 t u 8 8 t t 8 8 u t 8 8 t u 8 8 r u 8 8 t u 8 8 r u 8 8 r r r u [ r 8 8 r r 8 8 u u 8 8 r z u u r r 8 8 r r r r r r r r 6 6 q [ [ u u u r r r r 6 6 q 6 6 6 r r z 6 b b ' - r r r u 8 8 C C ! ! ! ! ! m }._.< < | | | | | | <.| U U : ",
"U U U <.| <.<.<.<.< < U U ! ! ! ! _ _ M M r r 8 8 z z { { b b r r q [ r r 6 q r r q [ u u r r r r 6 q 6 6 q 6 r r [ u 8 8 r r t u u r t t r r 8 8 u r r r q [ r r r r 8 8 r r 8 8 u r 8 8 t u 8 8 r u u t r r 8 8 u t 8 8 t u t t r r 8 8 u r r u u r t t r r r u r r r r r r r r z 6 r r q 6 r r 6 6 r r q 6 6 6 q 6 6 6 b b b b +.+.+.+.B B +.+.z z - - o o ~ @.- - E B ~ ~ +.+.X X D D D D X X +.+.N b l l @.@.@.~ E E ~ { r r > > ~ { ~ ~ +.+.b b Q Q 6 6 M M 6 6 6 6 q 6 r r 6 6 r r 6 6 r r q [ u r r u r r r r r u u r r u r r u t r r 8 8 r u 8 8 u t 8 8 t u 8 8 r u 8 8 u u 8 8 u t 8 8 t u 8 8 r r r u [ r 8 8 r r 8 8 u u 8 5 r r t u r r 8 8 r r r r r r u r q 6 q [ [ u u u r r r r 6 6 6 6 6 6 r r q 6 b b ' - r r u r 8 8 C C ! ! ! ! ! m }._.< < | | | | | | <.| U U : ",
":.U U :.:.| | | | < < }.}.! ! ! ! ! ! 6 6 8 8 r r r r @.@.b b M M r r q 6 r [ 6 6 [ [ 6 6 r r q 6 6 q z 6 r r q 1.u u r r u t [ [ u t z r 8 8 u t 8 8 r r u r r r t t r r 8 8 u r u t r r 8 8 r r t u r r r u u t 8 8 r r t u u t u t r r 8 8 r r u r r r r r r r r u r r r r q [ r r 6 6 r r q 6 r [ 6 6 [ [ 6 6 6 6 b b N b b N >.>.+.+.> > ~ { r r - - E E - -   - o o { { { ~ o l D D D D s X N N @.~ o l - - { { B B ~ { r r - - -   +.+.+.+.>.>.b b Q Q 6 Q Q 6 6 M r r q 6 q q 6 6 r r q [ r r r r r r u r r r [ [ u u u r 8 8 t u t t r r 8 8 t u 8 8 t t 8 8 r r u t r r 8 8 u r 8 8 t u 8 8 r r r u r r 8 8 r r t t u r 8 5 r r t t u r r u r [ 8 8 u r r r q 6 r r 6 6 q 6 6 q r r u r r r r r r u 6 6 q 6 b b   - r r 8 8 5 8 - - p p _ _ _ _ :.:.| | | | <.| | | :.:.U U : ",
":.U U :.:.| | | | < < }.}.! ! ! ! ! ! 6 6 8 8 r r u r @.@.b b M M r r 6 q r [ 6 6 q [ 6 6 r r q 6 q q z 6 r r 6 1.u u u r r u [ [ u t z r 8 8 u t 5 8 r r u r r r t t r r 8 8 r r t t u r 8 8 r r t u r r r u u u 8 8 r r t u t t u t r r 8 8 r r r r r r r r r u r r r r r r [ [ u r 6 6 r r 6 q r [ 6 6 [ [ 6 6 q 6 b b b b N N >.>.+.+.> > ~ { r r - - E E - -   - o o ~ { { ~ o l D D D D X X N N @.~ o o - - { { B B { { r r - - - - +.+.+.+.>.>.b b >.Q Q Q 6 6 M 6 r r q 6 6 q 6 6 r r q [ r r r r r r u r r r [ [ [ u r r 8 8 t u t t r r 8 8 t t 8 8 t t 8 8 r r r u r r 8 8 r r 8 8 u r 8 8 r r r u r r 8 8 r r t t r r 8 8 r r t t u r r r q [ 8 8 r u r r 6 6 r r q 6 6 6 6 6 r u u r r r r u r r 6 6 6 6 b b   - r r 8 8 5 8 - - p p _ _ _ _ :.:.| | | | <.| | | :.:.U U j ",
"; :.:.| | <.<.| <.< < :.:.! ! ! ! p p 6 6 r r r r 6 M { { b b r r q 6 q q 6 6 [ [ q 6 r r 6 q r r 6 6 q [ 1.1.r r 6 q r r 6 6 u r r r r u r r 8 8 t u 8 8 t u 8 8 r r 8 8 r r r u r r u r u t t t r r u u [ [ u u u r t t u t t u u u t u r u r r u r u t r r u r r r r r r r r r q [ r r 6 6 r r 6 6 r r q 6 6 6 } } } } N N b b +.+.+.+.B B ~ { M M - - o o b b   - B B ~ ~ +.+.X X D D D D Y Y +.+.N b l l @.@.+.+.@.@.~ { r r - - { { { ~ b b +.+.b b b b 6 6 6 6 q 6 6 6 r r q 6 r r 6 6 6 r u r [ r r r u u [ [ [ u u u t t u r 8 8 r u t u u [ [ t t u 8 8 t u t t u r 8 8 u u 5 8 u r 8 8 r r u t r r 8 8 u t 8 8 r $.8 8 u t 8 8 r r u t r r u r r r r r u r r r q 6 r r 6 6 6 q 6 6 r r 6 6 r r 6 6 6 6 b b b b - - r r r r 8 8 C C ! ! ! ! m m _._.< < <.| | | | | | <.U U _.",
"; :.:.<.| <.<.| <.< < :.:.! ! ! ! p p 6 6 r r u r M M { { b b r r 6 q q q q 6 6 [ 6 6 r r q [ r r q 6 r [ 1.1.r r q [ r r 6 6 u r r r r u r r 8 8 u r 8 8 t u 8 8 r r 8 8 r r r u r r r u t r t t u r r u [ [ u u u r t t t u t t u r t t r r u r r u t t r r u r r r u r r r r r u [ r r 6 6 r r 6 6 r r q 6 6 6 q b } } N N N b +.+.+.+.B B { { M M - - o o b b   - B B @.~ +.+.X X D D D D Y Y +.+.N b l l @.@.+.+.@.@.{ { r r - - { { { ~ b b +.+.N b b b Q Q 6 Q 6 6 q 6 r r 6 6 r r 6 6 6 r r r u r r r u u [ [ u u u r t t r r 8 8 u t u u [ [ t t t u 8 8 t u t t r r 8 8 r u 8 8 r u 8 8 r r t t r r 8 8 t t 8 8 r r 8 8 u t 8 8 r r r u r r u r r r r r r u r r 6 6 r r 6 6 6 6 6 6 r r 6 6 r r 6 6 6 q b b N b ' - r r r u 8 8 C C ! ! ! ! ! m _._.< < | | | | | | <.<.U U _.",
"; U U :.:.| | | | < < _._.! ! ! ! ! m Q Q 8 8 r r r r ~ ~ 6 6 Q 6 r r q 6 6 6 q 6 r r 6 6 r r r u r r 1.1.r r r u r r 6 1.r u q [ r r r r t t u t 8 8 t t 8 t r r r r q [ r r r r r r 8 8 8 8 r r u r r r r r r r 8 8 r r 8 8 r u 8 8 r r r u r r 8 8 r r u r r r r r r r r r 6 6 u r r r r r 6 q r r 6 6 q 6 b b b b b N b b ~ { +.+.~ ~ E B @.@.r r A A A A A A B B l l +.+.+.+.l l D D D D X X N N @.~ o l B B b N E E b b r r - - @.@.{ { { { N N +.+.>.>.b b 6 6 q 6 6 6 6 6 r r q 6 r r u r r r r r r r r r r u r r 8 8 [ [ u u u r 8 8 r u 8 8 8 8 8 8 r r 8 8 r r F F z r 8 8 r z 8 8 r r r u r r r r u r 8 8 r r 8 8 r r 5 8 r r u r 6 6 z r q q r r 6 q r r r r r r r z r r 6 q 6 6 q 6 6 6 6 6 r r M M 6 6 b b C - r r 8 8 r r @.@.p p _ _ ! ! :.:.| | < < | | < < U U ; ; / ",
"; U U :.:.| | | | < < _._.! ! ! ! ! m Q Q 8 8 r r r r ~ ~ 6 6 6 6 r r 6 1.6 6 q 6 r r 6 6 r r r r r r 1.1.r z r r u r 6 1.r u q [ r r r r t t t u 8 8 t u r 8 r r u r [ r r r r r r r 8 8 8 8 r r u r r r r r r r 8 8 r u 8 8 r r 8 8 r r r r r r 8 8 r r u r r r r r r r r r q 6 u r r r r r q 6 r r 6 6 6 q b b b b b N b b ~ { +.+.~ ~ E E ~ @.r r A A A A A A B B l l +.+.+.+.l l D D D D X s N N @.~ o l B B b N E E b b r r - - @.@.~ { { { b N +.+.>.>.b b 6 6 q 6 6 6 6 6 r r 6 q r r r r u r r r r r r r r r r r 8 8 u [ [ u r r 8 8 r u 8 8 8 8 8 8 r u 8 8 r r F F r z 8 8 r z 8 8 r r r u r r r r r u 8 8 r r 8 8 r r 5 8 r r r u 6 6 z r q q r r q 6 r r r r u r r z r r 6 6 6 6 q 6 6 6 6 6 r r M M 6 Q b b C - r r 8 8 r r @.@.p p _ _ ! ! :.:.| | < < | | < < U U ; ; / ",
"U :.:.| | | | <.<.< < :.:.! ! ! ! ! ! 6 6 r r u r 6 M @.@.6 6 r r q 6 r r r r q 6 6 6 6 6 q 6 r r 6 1.r r r r r r 1.1.r r 6 6 r r 6 6 r r q q r r r r r u r u r r 6 6 u r q q r r r r 8 8 z r r u 6 6 r r q 6 6 6 r r u r u t t t r r 8 8 u r r r r u 8 8 r r z r 6 6 r u r r u r r u r r 6 6 q 6 6 6 6 6 b b q 6 b b b b N b N N @.~ { { B B +.+.z z - - s s C C A A B B @.~ N N X X D D D D Y l +.+.+.+.B B @.~ A A B E { { r r - C { { ~ @.+.+.{ { b b +.+.Q Q 6 6 6 6 q 6 6 6 6 6 r r M 6 r r q 6 r r 6 q r r q [ r r u r r r [ [ r r u r u u u u 8 5 r r r r 6 6 u r r z r r z r 8 8 r r u r r r r r 6 6 r r r u r r r u r r r r r r 6 6 r u 6 6 $.r 6 6 r r r z z r r z z r 6 6 r z z 6 6 q 6 6 6 6 6 6 6 q 6 6 6 6 - - r r r r 8 8 C C ! _ _ ! ! ! :.:.< < <.| < < U U U ; ; _._.",
"U :.:.| | | | | <.< < :.:.! ! ! ! ! ! 6 6 r r r u r 6 @.@.6 6 r r 6 q r r r r 6 q 6 6 q 6 6 6 r r 6 1.r r r r r r 6 1.r r q 6 r r 6 6 r r q q r r r r u u r r r u 6 6 u r 6 q r r r r 8 8 r r r r 6 6 u r 6 6 6 q r r r r u r u t r r 8 8 u r r r r u 8 8 r r r r 6 6 r r r r u r r r r r 6 6 q 6 6 6 6 6 b b 6 1.b b b b N b N N @.~ { { B B +.+.z z - - s s C C A A o B @.~ N N X X D D D D l l +.+.+.+.B B ~ ~ A A E E ~ { F F C C { { ~ @.+.+.{ { b b +.+.>.Q Q 6 6 M 6 6 6 q 6 6 r r 6 q r r 6 6 r r q 6 r r [ [ u r r r r r q [ r r r u u t u u 8 5 r u r r M M r r 6 z r r r r 8 8 r r r u r r r r 6 6 r r r r u r r r r u r r r r q 6 u r 6 r r r 6 M r r z z r r r z r r q 6 6 z z 6 6 6 q 6 6 6 6 6 6 6 6 q 6 6 - - r r r r 8 8 - C _ _ ! ! ! ! :.:.< < | | < < U U U U _._._.",
"; | | U U | | | | < < :.:.^ ^ ! ! ! ! >.>.8 8 r r r z - - z z 6 6 b b h h 6 6 b b 6 6 6 z q 6 6 6 r r q 1.u r r r r r 6 6 r r 6 6 r r 6 6 r r 6 q r r q [ q q } q q } q q r r 6 M u r r r r r 6 1.r r z r r r M z M r r r t t u u u t u r r r u r 8 8 r r z r 6 6 r r 6 q r r r r r r q 6 r r 6 6 6 6 q 6 6 6 b b N b { { L L { { { ~ @.@.E E { ~ z z - C B B @.~ A A o o ~ ~ @.~ X X D D D D X X N N @.~ E B A A @.~ o B N N r r - - @.@.{ { { { b b +.+.N b b b 6 6 Q Q Q 6 6 M 6 6 6 6 r r q 6 r r 6 q r r 6 6 r r 6 6 r r r r 8 8 r u r r r r 8 8 r r 8 8 r z z r 6 M r r 6 6 r r r r 8 8 r r r r 6 6 r r 6 6 r r r r u r z r r r 6 6 r r 6 6 [ [ q q r r 6 M r r 1.M r r 6 Q r z 6 6 6 6 Q Q 6 6 b b 8 V { { 6 Q b b   - r r 8 8 u r @.@.p p _ _ _ _ | | | | < < | | | | U U U U _.",
"; | | U U | | | | < < :.:.^ ^ ! ! ! ! >.>.8 8 r r r z - - r z z 6 b b h h 6 6 b b 6 6 z 6 6 q 6 6 r r q 1.r r u r r r 6 6 r r 6 6 r r 6 6 z r 6 q r r q [ q q q } q q q q r r 6 6 u t r r r z r M r r z r r r z M r r r r t t u u u t u r r r r u 8 8 r r z r 6 6 u r 6 6 r r r r r r q 6 r r 6 6 6 6 6 q 6 6 b b b N { { b b ~ { { { ~ @.E E ~ ~ z z - C B B ~ @.A A l l @.~ ~ @.X X D D D D X X N N ~ ~ E B A A @.~ B B b N r r - - @.~ { { { ~ b b +.+.N b b b 6 6 Q Q 6 6 q 6 6 6 6 6 r r M 6 r r q 6 r r 6 6 r r q 6 r r r r 8 8 r u r r r r 8 8 r r 5 8 z z r 6 M M r r 6 6 r r F F 8 8 r r r r 6 6 r z 6 6 r r r r u r r r r r 6 6 r r 6 6 [ [ 6 q r r 6 6 r r 6 1.u r 6 Q z 6 6 z 6 M Q Q 6 6 b b 8 V { { 6 6 b b   - r u 8 8 u r @.@.p p _ _ _ _ | | | | < < | | | | U U U U _.",
"; :.:.| | <.<.< < <.<.; U ! ! ! ! ! c 6 6 r r 8 8 M M @.@.6 6 6 6 - - { { B o 6 6 6 6 z r 6 6 r r r u r r 6 6 r r 6 6 r r [ q r r [ [ r r [ [ u r q [ r r [ q r r [ q r r r r u r r r 8 8 r r r u 6 6 r r 6 q 6 M r r 8 8 u r 8 t r r u r r r r u r r z r 6 6 u r 6 6 r r u r M r r u r r 6 6 6 q 6 6 6 6 b b 6 1.b b b b +.+.+.+.@.@.~ ~ Y Y {.{.M M - C B B ~ ~ A A E B @.~ +.+.X X D D D D Y l +.+.+.+.Y l C C @.@.E E { { r r A A @.~ @.@.+.+.{ { b b N N >.Q Q >.6 6 q 6 6 6 6 6 r r M 6 r r 6 q r r q [ r r 6 q r r r r 8 8 r r r r r r r r r r 8 8 F F F F 6 6 r z M M 6 r z z 8 8 r r r r r r r r 6 6 r r q 6 r r 6 6 u r 6 6 r r [ [ r r q [ r r q [ r r 6 Q r r 6 6 r r 6 6 r z 6 6 M M M 6 +.+.- - E > 6 6 q 6   - r r r r 8 8 C C ! _ _ ! ! ! }.}.< < | | | | U U | | ; U ; ",
"; :.:.| | <.<.< < <.<.; U ! ! ! ! ! c 6 6 r r 8 8 M M @.@.6 6 q 6   - { { B o 6 6 6 6 r r 6 6 r r r $.r r 6 6 r r 6 6 r r [ q r r q [ r r [ [ u r q [ z r q q r r [ [ r r u r r u r r 8 8 r r r r 6 6 r r 6 6 M M r r 8 8 u r 8 t r r u r r r r r z r r r 6 6 u r 6 6 r r u r r r r r r r 6 6 q 6 6 6 6 6 b b 6 6 b b b b +.+.+.+.@.@.~ ~ Y Y {.{.M M - C B B ~ ~ A A B B ~ ~ +.+.s s D D D D Y l +.+.+.+.l l C C @.@.B E { { r r A A @.~ @.@.+.+.{ { N b b N Q Q >.>.6 6 6 q 6 6 6 6 r r q 6 r r 6 6 r r 6 q r r 6 6 r r r u 8 8 r r r r u r r r r r 8 8 r r 8 F 6 6 r z M M r z z r 8 8 r r r r r r r r 6 6 r r q 6 r r 6 6 u r 6 6 r r q [ r r 6 q r r q [ r r 6 6 r r 6 M r r q 6 6 z 6 6 M M 6 6 +.+.- - E > 6 6 6 M - - r r r r 8 8 C C ! _ ! ! ! ! }.}.< < | | | | U U | | U U U ",
"; ; U U U | | <.| < < :.:.! ! ! ! ! ! >.>.8 8 r r r r C C Q Q 6 6 M 6 - - r r 6 M r r 6 6 r r u r r r 6 6 r r 6 q r r 6 6 r r 6 6 r r 6 M r r r r r r 6 M [ [ q q r r q q u r 6 q r r u r r r M M 6 6 6 6 6 r z M M F F 6 t t u r t t r r u r r r 8 8 u r r z 6 6 r r r r u r r r r r r r r r 6 6 r r q 6 6 6 6 6 q 6 b b b b ~ { { +.@.@.E E { ~ z z - C B B ~ @.A C B B N N +.+.X X D D D D X X +.+.@.~ o B A A @.~ E E ~ { z z - C - - { { { { b N +.+.>.>.b b 6 6 6 Q Q 6 6 6 r r q 6 r r 6 6 r r M 6 r r 6 6 u r 6 6 r z r r r r q 6 r r r r 8 8 r r 8 8 r r r F Q Q 6 z 6 6 r r r 6 6 r r r u r r r r r q 6 r r r r r u r r z r r M [ [ 6 6 r r q 6 r r 6 6 r r 6 M z r 6 6 r r 6 M r r r z u r r r @.@.6 6 6 6 b b - - 6 6 8 8 r r - C ! _ _ _ ! _ | | | | < < <.<.| | U U U U ; ",
"; ; U U U | | | | < < :.:.! ! ! ! ! ! >.>.8 8 r r z r C C Q Q Q 6 6 6 - - z r 6 6 r r 6 M r r u r r r 6 6 r r 6 6 r r 6 6 r r 6 6 r r 6 M r r r r r r 6 6 [ [ q [ r r [ q u r q q r r r r F F 6 M M 6 6 6 6 z z 6 F F F r t t r r t t u r r r r r 8 8 u r r r 6 6 u r r r r r r r u r r r r r 6 6 r r q 6 6 6 6 q 6 6 b b b b { { +.+.@.@.B E { ~ z z C C B B @.~ A A B B b N +.+.X X D D D D X X +.+.@.~ o B A A @.~ E E { ~ z z - C - - { { { { N N +.+.>.>.b b 6 6 6 Q Q 6 6 6 r r q 6 r r 6 6 r r M M r r 6 6 u r 6 6 r r r r r r 6 6 r r r r 8 8 r r 8 8 r r r r Q Q 6 z 6 6 r r r 6 r r r r r r u r r r 6 6 r r u r M r r r z r r M q [ 6 6 r r q 6 r r 6 6 r r M z r r 6 6 r r 6 6 r r r z u r r r @.@.6 6 6 6 b b   - 6 6 8 8 r r C C ! _ _ _ ! _ | | | | < < | <.| | U U U U ; ",
"; _._.U U | <.| <.< < :.:.! ! ! ! ! c 6 Q r r u t r M @.~ Q Q z 6 6 z 6 r r r 6 6 6 6 r r 6 6 r z 6 6 q 6 6 6 r r M M 6 6 6 6 [ q q 6 r r [ [ r r r r r r 6 6 q [ r r q 6 6 6 r r 6 M r r r z z 6 6 Q r z z 6 6 z z r r r r u t t r r u r 6 6 z r r r r r 6 6 z r r r r z r M r r q 6 r r r r r r q 6 r r 6 6 6 6 b b b b +.+.N N @.~ { ~ o B ~ ~ 6 6 @.@.l l ~ ~ A A E B ~ ~ N N X X D D D D x x {.{.{.{.l l C C @.@.A A @.~ r r > > ~ { - - +.+.{ { b b b b 6 6 >.>.6 6 6 6 r r q 6 r r 6 6 r r M 6 r r r r r r M M r r r r r r u r r u 6 6 z r r r 8 8 r r r r 6 6 6 M M Q Q 6 6 M r z z r r r 6 q r r q 6 r r q 6 r r r r r r r r r r 6 6 q q 6 6 [ [ q 6 [ q 6 6 z r u r r r r r r r M M r z M M r r z r M r 6 6 q 6 A A r r u r 8 8 A A _ _ ! ! ! m }.}.| | | | | <.U U | | _._.; ",
"; _._.U U | | | <.< < :.:.! ! ! ! ! c Q Q r r u t r M ~ ~ 6 6 z 6 6 z 6 r r r 6 6 6 6 r r 6 M r r 6 6 1.M 6 6 z r 6 6 6 M 6 6 q 6 6 6 z r q [ r r r r r r 6 6 q [ r r 6 q 6 M r r 6 6 r r r z z 6 6 Q z z 6 6 z z z r r r r r u t r r r r 6 6 r z r r r r 6 M r r r r r r q 6 r r 6 6 r r r r u r 6 6 r r q 6 6 6 b b b b +.+.N N @.~ { ~ o B ~ ~ z M @.@.l l @.~ A A B B ~ ~ b N X X D D D D l x {.{.{.{.l l C C @.@.A A @.~ r r > > ~ { - - +.+.{ { b b b b Q Q >.>.6 6 6 6 r r q 6 r r 6 6 r r 6 6 r r u r r r 6 6 r r r z z r r r u r 6 6 z r r r 8 8 r r F F 6 6 6 M M Q 6 6 q 6 6 r r r r r 6 6 r r 6 6 z r 6 6 r r r r r r r r z r 6 6 6 q q 6 6 [ q 6 q q 6 M r r r r r r r u r r 6 6 z z 6 6 r r z r M r 6 6 6 M - A r r u r 8 8 A A _ _ ! ! ! m }.}.| | | <.<.<.U U | | _._._.",
"j j j _._.:.:.| <.<.<._._.! ! ! ! m m Q >.u u r r r r C C Q >.6 z z r 6 M M 6 b b 6 6 z r r r 6 M r r 6 6 r r q 6 r r 6 6 r r 6 6 r r [ [ r r [ q r r q [ r r r r r r 6 6 [ [ [ [ u r r r r z Q Q 6 6 6 6 r r 6 M r r z z 8 8 r r r u r r r r 6 6 z r u r r r r r r r r u r r 6 6 u r r r u r 6 6 r r 6 q 6 M 6 6 q 6 b b b N @.~ { ~ - - E B @.@.r z A A B E ~ ~ A C x x {.~ ~ @.X X D D D D X X +.+.@.~ B B A A @.~ E E { ~ M M - C - - @.~ { ~ b N N N >.Q >.>.6 6 6 6 6 6 q 6 r r 6 6 r r 6 q r r r r r r r u r r r r r r r r r r r r u r r r r r r r 8 8 z z r 6 M M 6 M 6 >.6 M 6 6 r r u r r r r r r r 6 6 r r 6 6 5 8 r r r r r r z r [ q r r 6 q r r 6 M r z q 6 r r r z r r 6 1.r r q 6 6 6 6 q 6 6 6 6 r r b b   - 6 6 r r r r C C p p _ _ _ ! :.:.| | | <._._.; U U ; ; _._.",
"_._._._._.:.:.| <.<.<._._.! ! ! ! ! m >.>.u u r r r r C C >.>.6 z z r 6 M M 6 b b 6 6 z r r r 6 6 r r 6 6 r r q 6 r r 6 6 r r 6 6 r r [ [ r r [ [ r r [ [ r r r r r r 6 6 [ [ [ [ r r r r r z Q Q M M 6 6 r r 6 6 F F 6 z 8 8 r r r r r r r r 6 6 z r u r r r r r r r r r r r 6 6 r r r r u r 6 6 r r 6 6 q 6 6 6 6 6 b b N N @.~ { ~ - - E B @.~ z z A A B E ~ ~ - C x x {.~ @.@.X X D D D D X X +.+.@.~ B B A A @.~ E E ~ { M M - C - - @.~ ~ @.N N b N >.>.>.>.6 6 6 6 6 6 6 q r r 6 6 r r q 6 r r r r u r r r r r r r r r r r r r u r r r r r r r r r 8 8 r z z z 6 6 z M 6 Q M z 6 6 r r r r r r r u r r 6 6 r r 6 q 8 8 r r r r r r r z 6 q r r 6 q r r 6 6 r z 6 6 r r z z u r 6 1.r r q 6 6 6 q 6 6 6 6 6 r r b b   - 6 6 r r u r C C p p p _ _ ! :.:.| | | <._._.U U U _._._.j ",
"j j : _._.}.}.| | | <.:.:.! ! ! _ ! ! 6 6 r r r r 6 M @.@.b b 6 6 z 6 6 q 6 6 6 Q M 6 r r M 6 6 6 q 6 r r u r r r 6 6 r u r r u r r r r r r r r r 6 6 z r z r r u u [ r r [ [ u t u r r F Q Q Q 6 6 6 r z 6 6 q 6 q 6 6 z z r r r r r r u r r r r r 6 r r u r r r 6 6 r r u r r r 6 6 r r 6 q 6 M 6 6 6 q 6 6 6 6 b b b b +.+.+.+.@.@.~ ~ Y Y {.{.M M C C x x {.~ A A B B ~ @.@.~ m m D D D D x x {.~ {.{.l l C C @.@.A C @.@.r z > > ~ @.@.~ +.+.{ { b b b b 6 6 6 Q Q M M 6 6 6 6 z 6 6 q 6 r r 6 6 r r r r z r M 6 r r r r r r 6 6 8 8 6 6 r r r r 8 8 r z z r 6 1.z 6 6 z M M 6 6 6 6 z r r r r r z r 6 6 r r 6 6 r z r r r r r r u r r r u t [ [ r r 6 q [ [ 6 q r r M M r r 6 q 6 M r z z r 6 M r r b b 6 6 6 6 b b > > r r r r z r C A _ _ _ ! m m }.}.<.<.; U _._.j j ; ; _.j j ",
"j j : _._.}.}.| | <.| :.:.! ! ! _ ! ! 6 6 r r u r 6 M @.@.b b 6 6 z 6 6 q 6 6 6 Q M 6 r r 6 6 6 6 6 6 r r u r r r M 6 r r u r r r r r r r r r r r 6 6 r z z r [ u u [ r r [ [ u t u r r F Q Q 6 6 q 6 r r 6 Q 6 6 q 6 z z r r r r r r r u r r r r r 6 r r r u r r 6 6 z r r u r r 6 6 z r 6 6 q 6 6 6 6 6 6 6 6 6 b b N b +.+.+.+.@.@.@.~ Y Y {.{.M M - C x x {.~ A A o B @.@.~ ~ m m D D D D x x {.~ {.{.l l C C @.@.A A @.~ z z > > ~ @.@.@.+.+.{ { N b b b Q Q 6 Q 6 M M 6 6 6 6 z 6 6 6 q r r 6 6 r r u r M r M 6 r r r r r r 6 6 8 8 6 6 r r r r 8 8 r z z r 6 M M z Q 6 M M Q Q M M r r r r r r r z r 6 r r 6 M r r r r r r u r r r r r u [ [ [ r r q [ [ [ 6 6 r r 6 6 r r q 6 6 6 r r r r q 6 r r b b Q Q 6 Q b b > > r r r r r F A A _ _ _ ! m m }.}.<.<.; U _._.j j ; ; j j _.",
"l l l l l E E o o <.<._._.! ! ! ! ! ! b b r r r r M M C C M M >.>.b b 6 6 z z 6 6 z M 6 6 q 6 6 Q r 6 6 6 r r 6 6 r r r z r r u r r r 6 6 r r 6 6 r r q 6 8 8 r r r r r r r r r r r u r r r 6 6 Q M M 6 6 r r q 6 6 6 6 M z r u r r r r z z r 6 6 r z 6 6 r r 6 q r r M 6 r r u r r r 6 6 r r q 6 r r 6 6 6 M b b b b b b b N +.+.@.~ - - E B ~ ~ z z C C C A @.@.E E l l @.~ A @.X X D D D D m m ~ ~ A C B B A A +.+.E B @.~ z M C C A C @.~ ~ @.N N N b Q Q >.>.6 6 Q Q 6 6 6 6 6 q 6 6 r r 6 6 r r r r r r 6 6 r r r r 8 8 r r z r z z r r r r r r r r u r 6 6 M M 6 6 r r q 6 6 6 6 6 r r M z z r r r r r 6 6 r r r r r r 6 6 r r 6 6 r r 6 6 r r [ [ u r 6 6 M M 6 6 r z Q Q 6 6 q 6 z z 6 6 6 6 q 6 6 6 b b 6 6 b b C C M M r r r r @.@.p p p _ _ ! :.:.| <.E E o o E E B B B B l ",
"l l l l l B E o o <.<._._.! ! ! ! ! c Q b r r r r M M C C M M >.>.b b 6 6 z z 6 6 z M 6 6 6 q 6 6 6 Q r 6 6 r 6 6 r r r z z r r r u r 6 6 r r 6 6 r r q 6 8 8 r r r u r r r r r r u r r r r z Q Q 6 M M 6 r z 6 6 M M 6 6 r r u r r r r z r r q 6 r r M M r r 6 6 r r M 6 r r r r u r 6 6 r r 6 6 r r q 6 6 6 b N b b b b N N +.+.@.~ - - E > ~ ~ 6 z - C A A @.~ E E l l @.~ A @.X X D D D D m m ~ ~ A C B B A A +.+.E B @.~ 6 6 - C C A ~ ~ @.~ b N N b Q Q Q >.>.6 Q Q 6 6 M 6 6 6 6 6 r r q 6 r r r r r z r M r 6 r r 8 8 u r z z r 6 r r u r r r r r r r 6 6 6 M M 6 r r q 6 6 6 M z M r 6 z z r r r r r 6 6 r r u r M r 6 6 r r 6 z z r 6 6 r r q [ r r 6 6 M M 6 6 r z Q Q 6 6 M 6 z z 6 6 q 6 z 6 6 q b b 6 6 b b C C M M r r r r @.@.p p _ _ ! ! :.:.| <.E E o o E E B B B B l ",
"A > > > > o o > > | | _._.! ! ! ! p p >.>.u r r F Q Q ~ ~ >.>.6 6 >.>.6 M 6 6 q 6 >.>.u r 6 6 q 6 6 6 6 6 6 6 6 6 6 6 r u r r r r 6 6 r r 6 q q 6 6 6 r r u r r r r r r z r 6 r r r r u r 6 6 M 6 6 M z z 6 6 z M 6 6 z z r r r r r 6 r r M M r r M M r r r u r r 6 6 z r Q 6 r z u r r r 6 6 r r q 6 6 6 6 6 q 6 b b 6 6 +.+.N N @.~ @.@.E B @.~ Q Q A A s s C A o B l l C C ~ ~ m m D D D D s X @.@.~ @.l l E B B B x x @.@.6 6 > > - - @.~ +.+.{ { b b b N Q 6 6 Q Q 6 b b 6 6 q 6 z 6 6 6 r r 6 6 r r q 6 r r 6 6 r r z r r r 6 6 r r q 6 r r r r r r 6 q 6 M 6 6 r r M M r z z 6 6 r M M r r z 6 6 r 6 6 r r r r r r r r r F Q Q 6 6 6 q 6 } q q r r r r u r 6 q 6 M 6 6 6 6 Q Q 6 6 6 6 M M 6 6 6 6 b b Q Q 6 6 M 6 > > r z z r r r A A _ _ ! ! ! m _._.< < o o o o E E E E W W B ",
"A > > > > o o > > | | j _.! ! ! ! p p >.>.u r r r q 6 ~ ~ >.>.6 6 >.>.M 6 6 6 6 1.b >.u r 6 q 6 M 6 6 6 6 q 6 6 6 6 6 r u r r r r 6 6 r r 6 6 6 M 6 6 M r u r r r r r r z r 6 u r r r r r 6 6 q 6 6 6 6 r 6 6 r z Q Q 6 z r r z r M r r r M M r r M M r r r r u r 6 6 r r 6 6 r r u r r r 6 6 r r q 6 6 6 6 6 6 q b b 6 6 +.+.N N @.~ @.@.B E { ~ Q Q A A s s C A B B l l C C @.~ m m D D D D X s @.@.~ @.l l B B B B l x @.@.6 6 > > - - @.~ +.+.{ { b b N N 6 6 Q Q 6 6 b b 6 6 q 6 z 6 6 6 r r Q 6 r r 6 6 u r 6 6 r r r z r r 6 6 u r 6 6 r r u r r r 6 6 M M 6 6 r z M M 6 r z 6 r r M M r r 6 6 r r 6 6 r r r r r r r r r r 6 q 6 M 6 6 6 q q } r r u r r r 6 6 Q 6 6 Q Q 6 6 6 6 M 6 6 M M Q 6 6 6 b b Q Q Q 6 6 6 > > r z r r z r C A _ _ ! ! ! m _._.  < o o o o E E E E W E E ",
"> > > o o _._.; ; < < _._.! ! ! ! ! c Q b r r z r M r C C Q >.Q Q 6 6 b b M M >.>.6 6 r z M r 6 q 6 M 6 6 6 6 z 6 6 6 6 Q r r 6 6 r r 6 6 u r 6 6 q 6 6 z r 6 r r r 6 6 6 r r 6 6 r r M 6 z M Q Q r r M M r z M M 6 6 6 M z r 6 6 u r 6 6 r r 6 1.r r M M r r M 6 r r 6 6 z r 6 6 r r 6 6 r r 6 q r r 6 6 6 6 b b Q Q b b Q >.{ { ~ @.C C B E C C Q Q B B B B C C A A l l @.~ A @.X X D D D D m m ~ ~ - C Y Y A A B B B B ~ ~ b b > E C C @.~ ~ ~ N N N N b b b b Q Q >.>.6 6 6 6 q 6 6 6 r r 6 z z r 6 6 r r 6 6 r r q 6 6 z M M r r 6 6 6 6 M z 6 z r z 6 M M 6 r z 6 M r z M M z z 6 6 z M 6 z z r 6 M r r 6 6 z r 6 6 Q 6 Q Q r z 6 6 r r 6 6 [ [ 6 6 r r 6 6 M M Q >.6 6 6 6 6 r 6 6 M 6 q 6 z 6 6 Q Q 6 6 M 6 6 b b   - 6 6 r r z r C A _ p p _ _ _ :.:.| | > > j j l o o o E E E ",
"> > > o o _._.; ; < < _._.! ! ! ! ! ! b b r r r r r z C C Q >.Q Q Q 6 b b M M Q >.6 6 6 z z r 6 M M 6 6 6 6 M 6 6 6 Q M 6 r r 6 6 r r 6 6 r r M M 6 6 6 6 r r r r r r 6 6 u r 6 6 r r 6 6 M M Q Q r r 6 6 r r M M 6 6 6 M z r 6 6 u r r 6 6 r M M r r M M r r M 6 r r 6 6 r r 6 6 r r 6 6 r r q 6 r r 6 6 6 6 b b Q Q b b >.>.{ { ~ @.C C B E C C Q Q B B B B C C C A l l @.~ A @.X X D D D D m m ~ ~ C C Y Y A A o B B B ~ ~ b b B E C C ~ ~ @.~ b N N N b b b b 6 6 >.>.6 6 6 6 6 6 6 6 r r 6 6 r r q 6 r r q 6 r r 6 6 r z z 6 F r 6 6 z 6 6 6 z z z z 6 6 z M 6 r 6 1.r z z 6 6 z M 6 6 z z z r r 6 6 r r 6 6 r r 6 6 Q 6 6 6 r z 6 6 r r 6 6 [ [ 6 6 r r 6 q 6 M >.>.6 6 6 6 6 z 6 6 6 6 z 6 6 Q Q 6 6 6 6 M 6 M b b   - 6 6 r r r z C C p p _ _ _ _ :.:.| | > > j j o l l l E B E ",
"o s ( l l _._.  < < < U ; ! ! ! ! _ _ >.>.u r r r 6 1.~ ~ N b 6 6 +.+.F F 6 M z z 6 6 z M M 6 r r M 6 6 M 6 6 6 6 6 6 r r 6 6 r r q 6 r r 6 6 6 6 6 6 q 6 6 6 r r 6 6 u r 6 6 r r 6 6 r r 6 6 6 6 M 6 r r 6 1.r z Q Q r r r u r r 6 6 z r 6 M r z M M z r 6 q r r 6 6 r r 6 6 r r q 6 r r 6 6 r r 6 1.6 Q b b 6 1.b b b b N N b b   - @.@.l l ~ @.b N E E l l @.@.E E Y l C C @.~ m m D D D D X X @.@.~ @.x x C C @.@.E E ~ @.>.>.B o - - @.~ +.+.{ { N b b b >.>.b b Q Q 6 Q 6 M 6 6 r r q 6 r r 6 6 r r 6 6 r r q 6 6 6 6 6 r r z r M r 6 6 z 6 6 6 r r 6 M z z 6 6 r r 6 q 6 M 6 6 6 6 6 6 r z 6 6 r r 6 6 6 6 q 6 6 6 b b 6 6 q 6 r r M 6 q [ } } 6 6 6 Q Q 6 6 6 6 M 6 M M M 6 6 r z M 6 6 M >.>.6 6 6 6 6 6 6 6 b b A A r z z r r r A A _ _ ! ! ! ! _._.< < > > > > o l l o s s l ",
"o ( ( l l _._.< < < < ; ; ! ! ! ! _ _ >.>.u r r r M M @.~ b N 6 6 +.+.F F 6 M z z z 6 6 M M 6 r r 6 6 q 6 M M 6 6 6 M r r 6 6 z r r 6 r r q 6 6 6 6 6 6 q 6 6 r r q 6 u r 6 6 r r 6 6 r r 6 6 6 M 6 6 r r 6 6 r z Q Q r z r r u r 6 6 r r 6 6 r r M M r r M 6 r r 6 q r r 6 6 r r 6 6 r r q 6 r r 6 6 6 Q b b q 6 b b b b b N b b - - @.~ l l @.@.N N E E Y l @.@.E E l l C C @.~ m m D D D D X X @.@.~ @.x x C C @.@.E E @.@.>.>.B o - - @.~ +.+.{ { b b b b >.>.b b 6 6 z 6 6 q 6 6 r r 6 6 r r q 6 r r 6 6 r r q 6 6 6 6 M r r r z z r 6 6 6 z r 6 6 r 6 z 6 z z 6 F r 6 6 M M Q 6 M M 6 6 r r 6 6 r r 6 6 6 6 q 6 6 6 b b 6 6 6 M r r q 6 [ [ } } 6 6 6 6 Q Q 6 6 6 6 M 6 M M 6 6 r r q 6 6 6 >.>.6 6 6 6 6 6 6 6 b b C A r z z r r r A A p p _ ! ! ! _._.< < > > > > o l l o s s l ",
"s : j ] ] ) | | | < < ; _.! ! ! ! ! c 6 b r r M M 6 6 C C b b N N b N h h b b Q Q 6 Q 6 M r r 6 6 6 6 6 6 z b 6 r r r 6 z 6 r 6 6 6 6 6 q r r 6 6 6 6 b N q 6 z 6 6 6 6 6 q 6 6 6 6 6 6 z r r z 6 M z M M 6 r z 6 M M M 6 r r q 6 z z 6 6 z r 1.M z z 6 6 r r 6 6 r r q 6 r r 6 6 r r 6 6 6 q 6 6 z M b b q 6 b b Q Q >.b b b { { @.@.A C Y Y #.#.>.>.B o B B A C C A x x @.@.@.~ m X D D D D O O ~ ~ #.#.Y Y W W @.@.l l ~ @.~ ~ E B C C @.@.@.@.+.+.{ { b b b b 6 6 >.>.6 6 b b Q Q 6 Q 6 M 6 6 r r q 6 r r 6 6 6 6 6 M z z z 6 6 r r 6 r r M M r r M z z r 6 M r r M M 6 r z 6 M 6 6 Q Q 6 6 6 r r M M 6 Q b b 6 q b b 6 6 6 6 6 6 q 6 [ [ 6 6 6 6 Q Q r r 6 M 6 6 Q Q 6 6 6 6 M 6 M M 6 M Q Q M M b b h h { { >.>.{ { - - 6 6 r z M r C C ! _ _ _ _ _ }.}.<.| < < U U ; ; _.j s s ( ",
"s j j ] ] <.| | | < < ; _.! ! ! ! ! c Q b r r 6 1.r M C C b b N N b N h h b b 6 6 6 6 6 q r r 6 6 6 6 6 z b r M M 6 r 6 6 r r 6 6 6 6 6 q r r 6 6 6 6 b N 6 1.6 6 6 q 6 6 6 6 6 6 6 6 6 z r r 6 6 r z 6 M z z 6 6 z M 6 6 r 6 6 r z 6 M z r r 1.M z z z 6 F r 6 6 r r q 6 r r 6 6 r r 6 q 6 M 6 6 z M b b q 6 b b 6 6 b b N b { { ~ @.C C Y Y #.#.>.>.B B B B C C A A l x @.@.@.~ m X D D D D O O ~ ~ #.#.Y Y W W @.@.l l ~ @.~ ~ E E C C @.@.@.@.+.+.{ { b b N b >.Q Q >.6 6 b b 6 6 6 6 6 6 q 6 r r 6 6 r r 6 6 q 6 6 6 6 r 6 6 r r M M r r 6 M r r r z z z 6 6 r r 6 M r z M M 6 6 Q Q 6 6 6 6 r r M M 6 Q b b q 6 b b 6 6 6 q 6 6 6 q [ [ 6 6 6 6 Q Q r r 6 6 6 M z 6 6 q 6 6 6 6 6 6 6 M Q Q M M b b h h { { >.>.{ { - - 6 6 r r M z - C ! ! p p _ _ }.}.| | < < U U ; ; : j s s s ",
"l j j U U :.:.| <.| | U ; _ ! ! ! _ _ Q >.6 6 r r q 6 - - +.+.N b B E > > o l 6 6 q 6 6 6 6 6 6 z Q 6 6 6 b b 6 6 6 z r r 6 Q r r 6 6 r r q 6 6 6 6 M 6 6 q 6 6 6 b b 6 6 b b 6 6 q 6 r r q 6 r r 6 6 r r 6 6 r z Q Q M M 6 6 r z M 6 r r M M r r M 6 r r 6 6 q 6 6 6 r r 6 6 r r q 6 6 6 6 6 6 6 q 6 6 6 b b b b b b N b +.+.+.+.- -   - o l C C N N E E l l @.@.E E l l C C @.~ m m D D D D X X #.#.~ ~ Y l C C C C B B C C b N E B A C C - { { { ~ b b +.+.>.>.b b Q Q b b Q Q >.b 6 6 Q Q 6 6 6 6 M 6 M M r r q 6 6 6 6 M r r z r M r r z z r r r r r 6 6 r r M M r r M 6 r r 6 6 6 M M Q 6 M 6 6 6 M b b 6 6 b b 6 6 6 6 q 6 b b 6 6 6 q r r 6 6 q q 6 6 [ [ 6 6 6 6 >.>.6 6 6 6 6 6 Q >.6 6 b b - - C C B o b N N b > > M M 6 r z r A A _ _ ! ! ! ! _._.<.<._.; < < ; ; U ; s s X ",
"l j j U U :.:.| | | | ; ; _ ! ! ! _ _ >.>.M M r r 6 M - - +.+.b b > E > > o l 6 6 6 q 6 6 6 6 6 6 6 6 q 6 b b 6 6 6 6 r r 6 6 r r 6 6 r r q 6 6 6 6 M 6 6 6 q Q 6 b b 6 Q b b 6 M 6 z 6 r 6 q r r 6 6 r r 6 6 z z 6 6 z M 6 6 z r 6 q r r 6 6 r r 6 6 z r 6 q 6 M 6 6 r r 6 q r r 6 6 6 6 6 q 6 6 6 6 6 6 b b b b N b b b +.+.+.+.- - - - o o #.#.N N E E l l @.@.E E l l C C ~ ~ m m D D D D X X #.#.~ ~ o l - C C A B B A C N N E B A C - - { { { { N b +.+.>.>.b b Q Q b b 6 6 b b Q Q 6 Q 6 M 6 6 6 6 q 6 r r 6 6 6 6 q 6 r r 6 z z r r r r r 6 r r r M M r r M 6 r r 6 6 z z 6 6 z M 6 6 z 6 6 q 6 6 b b 6 6 b b 6 Q q 6 6 z b b Q Q 6 Q r r q 6 q q 6 6 [ [ 6 6 6 6 >.>.6 6 6 6 6 6 >.>.6 6 b b   - C C B o N N b b > > M M M r r r A A _ _ ! ! ! ! _._.<.<.; ; < < U ; ; ; s s X ",
"l U U U U <.| <.<.< < _._.! ! ! ! ! c 6 b r r M M M M > > N N b b b b { { 6 Q Q Q b b b b 6 6 6 6 z b Q b 6 6 z 6 6 6 6 6 r r 6 q r r q 6 6 6 6 6 6 Q b b 6 6 6 q 6 6 b b 6 6 b b 6 6 6 6 6 M M 6 r r 6 1.r z 6 M 6 M >.>.M M M 6 6 r z M 6 r M M 6 6 6 6 z r 6 6 q 6 6 6 r r 6 6 r r q 6 6 6 6 6 6 6 b b Q Q b b b b { { N N @.~ @.@.E E Y l W W +.+.E B l l C C A A l x @.@.@.@.X X D D D D O O ~ ~ #.#.Y Y W W @.@.l l @.@.+.+.E B B B A A C C +.+.+.+.b b b b 6 6 b b b b N b 6 6 b b Q 6 6 6 6 q 6 6 6 6 6 6 r r M M r r M 6 r r 6 z z r 6 M r z z 6 6 M 6 6 M M Q 6 r r q 6 6 z M 6 6 Q Q 6 6 6 b b 6 6 b b 6 6 b b Q Q >.b 6 6 6 6 r r 6 q q t 6 6 q 6 6 M 6 6 N b 6 6 >.>.6 6 >.>.>.>.>.>.b b b b ~ @.+.+.b b ~ { C C Q Q r r M M C - ! ! ! _ ! ! :.:.| | < < | | < < ; _.l l X ",
"l U U U U <.| <.<.< < _._.! ! ! ! ! ! b b r r M M 6 6 > > N N N b b b { { 6 Q Q Q b N b b 6 6 6 6 6 z b b 6 6 z 6 6 6 6 6 r r 6 q r r 6 6 6 6 6 Q 6 Q b b 6 6 6 6 Q 6 b b 6 6 b b 6 6 6 6 M M Q 6 r r 6 1.r z 6 q Q 6 >.>.6 6 6 6 r z M M z z 6 6 M 6 6 6 r r q 6 6 6 6 6 r r 6 q r r 6 6 6 6 6 6 q 6 b b 6 6 b b b b { { b N @.~ @.@.E E l l W W +.+.E B l l C C C A x x @.@.@.@.X X D D D D O O ~ ~ #.#.Y Y W W @.@.l l @.@.+.+.E B B B A A C C +.+.+.+.b b b N Q 6 b b b b N b 6 6 b b 6 6 6 q 6 6 q 6 6 6 6 6 r r M 6 r r M M r r r z z r 6 M r z 6 6 M M Q 6 M 6 6 6 r z M M z z z 6 6 M 6 Q Q 6 b b 6 6 b N 6 6 b b 6 6 b b 6 6 6 6 r z q [ [ [ 6 6 q q 6 6 6 6 b b 6 6 Q >.6 6 Q >.>.>.>.>.b b b b ~ @.+.+.b b { { - C >.Q r z r M C - ! ! ! _ ! ! :.:.| | < < | | < < ; ; l l s ",
"E :.:.| | | | < < <.| :.:.! ! ! ! _ _ >.>.z z z r Q Q C C +.+.6 6 6 6 6 6 >.>.M M M 6 6 6 b b 6 6 b b b b b b 6 6 6 6 6 z 6 6 6 z 6 6 6 Q 6 6 6 6 b b 6 6 6 6 6 6 6 6 6 6 b b 6 6 b b 6 6 6 6 6 z z 6 6 6 6 6 M M 6 Q 6 6 6 Q M M 6 Q r r Q 6 6 z z 6 z z 6 z 6 6 6 6 6 M 6 6 z r Q 6 6 6 6 6 6 M b b 6 6 b b 6 6 b b b b ~ ~ ~ ~ E E E B s s C C @.@.B B x x @.@.E E l l C C @.~ m m D D D D s s #.#.~ ~ l l C C C C B B A A N N l l B B l l C A - - +.+.N N Q Q b b 6 6 b b 6 6 b b 6 6 b N 6 6 6 6 6 6 6 M 6 6 6 z r r Q 6 6 M 6 6 M z M M r r 6 6 6 6 6 Q Q 6 6 6 6 6 M 6 6 z z 6 6 6 >.>.Q Q N b 6 Q b b M M 6 6 6 6 6 6 M 6 b b 6 6 6 6 z r r 6 6 q b b 6 6 6 6 6 6 b b 6 6 >.>.M 6 b b M M 6 Q r z b b 6 6 6 6 >.>.> > 6 6 6 6 r r A A p p ! ! ! ! _._.< < | | < < ; ; ; U l l l ",
"E :.:.| | | | < < | | :.:.! ! ! _ _ _ >.>.M z z r Q Q C C +.+.6 6 6 6 6 Q >.>.M 6 6 6 6 6 b b 6 6 b b b b b b 6 6 6 6 z 6 6 6 6 6 q 6 6 6 6 q 6 6 b b z M 6 6 6 6 6 M 6 6 b b 6 6 b b 6 6 6 6 z z z 6 6 M M 6 Q r Q Q 6 6 6 6 M M 6 Q r z 6 6 z r 6 6 z r 6 6 6 6 6 6 M 6 6 z r r 6 6 6 6 6 6 M 6 b b 6 6 b b 6 6 b b b b ~ ~ ~ ~ E E E B s s #.C @.@.E B x x @.@.B E l l C A ~ ~ m m D D D D s s C #.~ ~ l l C A C C B B A A N N l l B B x l C A - - +.+.N N Q Q b b 6 6 b b 6 6 b b 6 6 b b Q 6 6 6 6 6 6 6 6 M 6 6 z r 6 6 6 6 6 6 r z M M r r 6 6 6 6 6 6 6 Q >.Q M M 6 Q r z 6 6 6 6 >.>.>.Q N b 6 6 b b 6 6 6 6 6 6 6 6 6 6 b b 6 6 6 6 r r 6 6 6 q b b 6 6 6 6 6 6 b b 6 6 >.>.z 6 b b M M M 6 z z b b 6 6 6 6 >.>.> > 6 6 6 6 r r A A p p ! ! ! ! _._.< < | | < < ; ; ; U l l l ",
"l U U U U < < | | < < _._.! ! ! ! ! m +.+.6 M M 6 M M A A N N N b 6 6 b b 6 6 6 6 6 M 6 Q 6 6 6 Q 6 6 b b 6 6 >.>.6 6 Q >.6 6 } } 6 6 b b 6 6 b b b b b b 6 6 b b 6 6 b b b b b b b b b b 6 Q Q >.6 6 >.Q M z M M 6 z Q Q 6 M Q Q 6 M M M 6 z M M 6 z M M M 6 z M M M M 6 z M M M M M 6 Q 6 6 >.>.z 6 b b >.>.b b b b b N { { - - x x E E X X W W +.+.l l l l @.@.A A x x ~ ~ ~ @.X X D D D D X X ~ ~ #.#.Y Y E E #.#.E E #.#.~ @.Y Y m m Y Y l l ~ ~ ~ ~ b b b b >.>.b b 6 6 6 6 6 6 6 6 6 M 6 6 z M M 6 Q r Q 6 6 6 M M 6 z M M M M 6 6 z r r 6 z z Q 6 6 6 6 Q 6 6 6 Q M M 6 Q r Q >.>.b b b b Q Q b b 6 6 b b } } b b b b b b 6 Q N b 6 6 6 6 Q 6 b b 6 6 b b z 6 b b 6 6 b b Q Q b b 6 6 Q Q 6 M Q Q 6 M M 6 6 6 +.+.C C M M 6 z M M @.@.! ! ! ! ! ! _._.| | <.<.<.| < < :.:.l l ( ",
"l U U U U < < | | < < _._.! ! ! ! ! m +.+.6 M M 6 M M A A N N b b 6 6 b b 6 6 6 6 6 6 6 6 6 6 Q Q 6 6 b b 6 6 >.>.6 6 >.>.Q 6 } } 6 6 b b Q 6 b b b b b b 6 Q b b 6 6 b b b b b b b b b b 6 6 b >.Q 6 Q Q 6 M 6 M z z 6 6 M M Q Q M M M 6 z M M M z z 6 6 M M 6 6 6 6 6 M 6 6 z M M M 6 Q 6 6 >.>.M 6 b b Q >.b b b b b N { { - - x x E E X X W W +.+.l l l l @.@.A A x x ~ ~ ~ @.X X D D D D X X ~ ~ #.#.Y Y E E #.#.E E #.#.@.@.Y Y m m Y Y l l ~ ~ ~ ~ b b b b >.>.b b 6 6 6 6 6 6 6 6 Q 6 6 6 6 6 M 6 6 z M M M M 6 M M z z 6 6 M M 6 r r 6 6 z z 6 M 6 6 >.6 M 6 6 6 6 M M 6 Q 6 >.>.b b N b Q 6 b b 6 6 b b } } b b b b b b 6 6 N b 6 6 z 6 Q 6 b b 6 6 b b 6 6 b b 6 6 b b Q Q b b Q Q 6 Q Q 6 M Q M M 6 z M M @.+.C C M M r z z 6 @.@.! ! ! ! ! ! _._.| | | <.| | < < :.:.l l ( ",
"l U U < < | <.< < <.| :.:._ _ _ _ _ _ N N Q Q z z 6 6 - - N N Q >.b b Q Q 6 M M 6 Q Q 6 M M 6 Q 6 6 Q 6 Q b b 6 Q b b >.>.b b 6 6 } } 6 6 b b M M b b z M b b b b b b 6 6 b b b b { { b b b b 6 Q >.>.M 6 6 M r z 6 6 6 6 6 Q 6 z z 6 M M 6 Q r z 6 6 z z 6 6 M M 6 6 6 6 6 6 M 6 6 Q Q 6 M Q Q Q b b Q Q b b 6 6 b b b b ~ { E E B E l x O O A A ~ ~ B B A C +.+.s s B B ~ ~ ~ ~ s s D D D D X X @.@.~ ~ l Y E B {.{.Y Y E W ~ ~ l Y X X X X l l C #.N N +.+.N b b b >.Q b b 6 6 6 6 6 M 6 6 z M M 6 6 6 6 6 M 6 6 z M M 6 6 6 z r 6 6 z z 6 z 6 6 6 z r 6 6 z M M 6 z M Q Q 6 M b b 6 6 b b N b b b 6 6 b b 6 6 b b } } b b b b b b 6 Q b b 6 6 } } 6 Q b b 6 6 b b 6 6 >.>.Q Q b b Q Q Q Q 6 M Q 6 6 6 Q Q Q 6 b b b b A A M M 6 Q r z C C p p _ ! _ ! _._.< < <.| <.<.| | U U ( ( ( ",
"l U U < < | <.< < | | :.:._ _ _ _ _ _ N N Q Q 6 z z 6 - - N N >.>.b b Q Q 6 6 6 6 6 Q 6 z 6 6 6 6 6 Q Q 6 b b 6 Q b b Q >.b b 6 6 } } Q 6 b b M M b b 6 Q b b b b b b 6 6 b b b b { { b b b b >.Q >.>.M 6 6 M r r 6 6 6 M Q Q z z 6 6 M M 6 6 z z 6 6 M z z 6 6 M M 6 6 M M 6 Q r Q >.6 6 6 6 Q Q b b Q Q b b 6 6 b b b b ~ { E E E B x x O O A A ~ ~ E B A C +.+.s s B B {.~ ~ ~ s s D D D D X X ~ @.@.~ Y Y E B {.~ Y Y E W ~ ~ l Y X X X X l l C #.N N +.+.N b b b >.Q b b 6 6 6 6 6 6 6 6 6 6 M 6 6 z M M 6 6 6 6 6 6 6 M 6 z z 6 z 6 6 6 6 z r 6 6 z M 6 6 6 6 z z z Q Q Q 6 b b 6 6 b b b N b b 6 6 b b 6 6 b b } } b b b b b b >.Q b b 6 6 } } 6 6 b b Q 6 b b 6 6 >.>.Q Q b b 6 6 6 6 6 6 Q 6 6 6 Q Q 6 6 b b b b A A M M M 6 z M C C p p ! ! ! ! _._.< < <.| <.<.| | U U ( ( ( ",
"l U U | <.< < | | < < _._.! ! ! ! ! O N N M M 6 M M z C C b b b b b b b b 6 6 6 6 6 M 6 6 6 6 Q Q 6 M b >.>.Q b b Q >.b b 6 6 >.>.Q Q b b Q >.b b 6 6 b b 6 6 b b 6 Q b b 6 6 b b b b b b >.>.b b 6 6 6 6 z z 6 z 6 6 >.>.M 6 6 M r z z 6 6 M M 6 6 z 6 6 6 6 6 M 6 6 z M M 6 6 6 q 6 b b 6 6 b b 6 6 b b 6 6 b b b >.b N ~ { o o x x x x s s l l W W s s B B x x E B B B +.+.@.@.X X D D D D X X ~ {.#.#.E B B E E W s s l l E E l l p p m m X X ~ @.+.+.N b N N Q >.b b Q Q >.>.z 6 Q Q 6 M M 6 Q M M 6 z M M M M 6 6 6 6 6 6 M 6 z 6 6 z r 6 6 z M 6 6 6 6 6 z z z 6 6 6 6 Q >.Q >.b b 6 6 b b Q 6 M 6 6 6 6 6 M 6 6 z M M N N b b >.Q 6 6 >.>.Q Q b b 6 6 b b 6 6 >.>.Q Q b b 6 6 6 6 6 6 >.Q 6 6 >.>.6 Q b b >.>.+.+.C C Q Q 6 M M 6 @.@.! _ _ _ _ _ :.:.< < | <.<.| < < :.:.l l ( ",
"l U U | <.< < | | < < _._._ ! ! ! ! O N N M M 6 M M z C C b b b b b b N b 6 6 Q 6 M M 6 6 6 6 Q Q 6 M b >.Q Q b b >.Q b b M M >.>.Q Q b b >.>.b b 6 6 b b 6 6 b b 6 Q b b 6 6 b b b b b b >.Q b b 6 6 6 6 z z z 6 6 M >.>.M 6 6 M r z 6 6 6 M M M 6 z M Q 6 6 6 6 6 M 6 6 z M M 6 6 6 b b 6 6 b b 6 6 b b 6 6 b b b >.b N { { o o x x x x s s l l E W s s E B x x B B B B +.+.@.@.X X D D D D X X {.{.#.#.E B E E W W s s l l W E l x p p m m X X ~ @.+.+.N b N N Q >.b b 6 6 b >.6 6 6 6 6 M 6 6 z M M 6 6 6 6 6 6 6 6 M 6 6 z M M z z 6 z 6 6 6 M M 6 z M M M M 6 z z 6 6 M >.>.Q Q b b 6 6 b b Q Q 6 6 6 6 6 6 M 6 6 z M M N N N b >.>.6 6 >.>.Q Q b b Q Q b b 6 6 >.>.>.Q b b 6 6 6 6 6 6 >.Q 6 6 >.>.6 Q b b >.>.+.+.C C Q Q 6 M M 6 @.@._ _ _ _ _ _ :.:.< < | <.| | < < :.:.l l ( ",
"B U U < < | | <.<.< < U U _ _ _ _ p p N N Q Q z z Q >.@.@.+.+.>.>.b N Q Q 6 6 z 6 6 Q 6 M 6 Q 6 Q >.>.6 6 b b Q Q b b Q >.b b 6 6 b b 6 6 Q Q Q 6 b b 6 Q b b 6 6 6 z 6 6 6 z M 6 b b 6 6 6 6 6 6 >.>.M 6 6 M r z 6 Q Q 6 M Q M M Q Q z 6 6 6 6 6 Q >.Q 6 6 6 6 6 M 6 6 z M M 6 6 6 6 6 6 >.>.Q 6 >.>.>.Q b b 6 6 b b b b { { { { E E A A s s X X X s s X C C @.~ E E B E ~ ~ ~ ~ s s D D D D X X @.@.@.~ Y l C A C C @.~ m m Y l O O O O W W #.#.~ ~ +.+.+.+.N b b b 6 6 b b 6 Q Q >.>.6 6 6 6 6 Q >.Q 6 Q Q 6 Q Q Q 6 6 Q 6 6 6 6 6 M 6 6 z M M 6 6 6 6 6 6 6 6 6 6 M 6 >.>.6 M Q >.6 6 b b 6 6 b b Q 6 6 6 6 6 6 6 6 M 6 6 b >.b b Q 6 b b 6 M b b Q 6 b b 6 6 b >.6 6 b b 6 Q Q >.>.6 >.>.6 Q Q Q 6 M b b N b b N N N > > 6 6 6 6 6 z C C _ p ! ! ! ! _._.< < | | < < | | U U l l l ",
"B U U < < | | <.<.< < U U _ _ _ _ p p N N Q Q M z Q >.@.@.+.+.>.>.b N M 6 Q Q 6 6 6 6 6 M 6 6 6 Q >.>.6 6 b b Q Q b b >.>.b b 6 6 b b 6 6 6 6 Q 6 b b >.Q b b 6 6 Q Q 6 6 6 6 6 M b b 6 6 6 6 6 6 >.>.z 6 Q 6 6 z Q Q 6 M Q Q M M 6 Q 6 6 Q Q 6 M Q Q M 6 6 6 6 6 M 6 6 z M M 6 6 6 6 6 6 >.>.M 6 >.>.Q Q b b 6 6 b b b b { { { { E E A A s s X X X X s s C #.~ ~ B E E B ~ ~ ~ ~ s s D D D D X X @.@.~ ~ l Y A A C C @.~ m m Y l O O O O W W #.#.~ ~ +.+.+.+.N b b b 6 6 b b 6 Q >.>.M 6 6 Q Q 6 M Q Q M 6 Q M 6 6 6 6 6 6 Q M M 6 z M M M M 6 6 6 6 6 6 6 M 6 6 z M M 6 >.>.6 6 >.>.Q Q b b 6 6 b b Q 6 6 6 6 6 6 M 6 6 z M >.>.b b 6 6 b b 6 6 b N 6 6 b b Q Q >.>.Q 6 b b Q >.6 >.z 6 >.>.6 6 Q Q Q 6 b b N b b N b N > > 6 6 Q Q 6 z C C p _ p ! _ ! _._.< < | | < < <.| ; U l l l ",
"o < <   < | <.< < <.<.}.}._ ! ! ! ! O N N M M 6 M M Q C C b N { { Q Q b b Q Q >.>.Q Q b b 6 6 b b Q Q b b 6 6 b b >.>.b N Q Q b b 6 6 6 6 6 6 >.b >.>.b b >.>.b b 6 6 >.>.6 6 M 6 6 6 Q b 6 6 >.>.z 6 M M Q 6 Q 6 6 6 >.>.Q Q b b 6 Q Q >.>.6 6 6 6 6 Q >.6 6 6 6 6 Q >.Q 6 Q Q Q 6 M b >.Q 6 6 6 6 6 Q >.Q 6 b b >.>.+.+.N b ~ ~ ~ ~ C C C A B B E W W W ~ ~ ~ @.A A x l ~ ~ ~ @.X X D D D D X X +.+.{.{.E E A A @.@.A C C C l l C A A A ~ @.@.~ N N +.+.b b b N >.>.b b 6 6 b b 6 6 b >.6 6 >.>.6 6 >.>.Q 6 >.>.M 6 >.>.z 6 Q 6 6 6 6 6 6 Q >.Q 6 Q Q Q M 6 6 6 M M 6 Q 6 6 Q >.z 6 >.>.z 6 b b 6 6 M 6 Q 6 6 6 6 6 Q >.Q 6 Q 6 6 6 6 6 Q Q b b >.Q b b >.>.b b 6 6 b N >.Q b b Q Q b b >.>.>.6 Q Q b b 6 Q +.+.N b b b C C Q Q 6 M M 6 @.@.! ! p p p p :.:.< < < < <.<.< < U U o o l ",
"o < < <   <.<.< < <.<.}.}.! ! ! ! ! O N N M M M 6 Q 6 C C b N { { Q Q b b 6 6 >.>.Q Q b b 6 6 b b 6 6 b b 6 Q b b >.>.b N Q Q b b Q Q 6 6 6 6 b b >.>.b b >.>.N b 6 6 >.>.6 6 6 6 Q 6 >.b 6 Q >.>.6 M M 6 Q 6 Q 6 6 6 >.>.z 6 b b 6 6 b >.6 6 6 6 6 6 Q >.6 6 6 6 6 6 Q >.Q 6 Q Q Q 6 >.>.6 6 6 6 6 6 Q >.Q 6 b b >.>.+.+.N N ~ ~ ~ ~ C C C A B B W W W W ~ ~ @.@.A A l l ~ ~ ~ @.X X D D D D X X +.+.{.{.E E A A @.@.C C C A l l C A A A @.@.~ ~ N N +.+.b b b N Q >.b b Q 6 b b 6 6 b >.6 6 >.>.M 6 >.>.6 6 >.>.Q 6 >.>.z 6 Q 6 6 6 6 6 6 6 Q >.Q 6 Q Q M 6 6 6 M M >.Q Q 6 Q >.z 6 >.>.6 6 b b 6 6 6 6 6 6 6 6 Q 6 Q Q 6 M Q Q M 6 Q 6 6 Q b b Q Q b b Q >.b b 6 6 b b 6 6 b b Q 6 b b >.>.6 Q Q Q b b Q Q +.+.N b b b C C Q Q M M 6 6 @.@.! ! p p p p :.:.< < < < <.<.< < U U o o l ",
"E U U < < | | <.<.  < U U _ _ _ _ _ _ N N Q Q z z >.>.- - N N >.>.+.+.F F M M 6 Q 6 6 Q 6 b b Q >.b b >.>.b b >.>.N b b b b b >.Q b b 6 6 >.>.M 6 >.>.Q Q b b 6 6 >.Q 6 6 Q Q 6 M b >.M z 6 Q Q 6 >.>.6 6 b b 6 6 >.>.Q Q b b b b b N Q Q >.>.6 6 Q Q 6 M Q Q M 6 Q >.z 6 >.>.6 6 >.>.6 6 >.>.M 6 6 Q Q Q >.>.>.>.b N N N ~ { N N ~ { +.+.C C ~ ~ #.#.~ ~ @.@.@.@.E B B B ~ @.@.~ s s D D D D X X {.{.+.+.B B A C C C @.~ @.@.@.@.@.@.{ ~ @.@.+.+.{ { b N +.+.N b b b >.>.b b 6 6 b b 6 6 >.>.6 6 >.>.Q 6 >.>.6 6 >.>.Q 6 >.Q Q 6 M Q Q M >.>.Q >.b b Q 6 Q Q 6 Q Q Q 6 6 b b 6 6 >.Q 6 6 b b 6 6 b >.6 6 Q Q 6 6 6 6 6 6 >.6 M 6 Q 6 6 6 6 6 Q >.b b b b b N b b b b N b b N >.>.b b >.>.b b 6 6 >.>.Q Q 6 M Q Q N N b N > > 6 6 6 6 6 z C C _ _ _ ! ! ! _._.< < | | < < < < <.| l l o ",
"E U U < < | | <.<.  < U U _ _ _ _ _ _ N N Q Q z z >.>.- - N N >.>.+.+.F F M M 6 Q 6 6 Q 6 b b >.>.b b >.>.b b >.>.b b b b b b >.>.b b 6 6 >.>.z 6 >.>.Q Q b N 6 6 >.Q 6 6 Q Q Q 6 Q >.6 6 6 Q 6 6 >.>.6 6 b b Q Q >.>.6 6 b b b b N N Q Q >.>.M 6 6 Q Q 6 6 6 6 6 Q >.Q 6 >.>.M 6 >.>.6 6 >.>.6 6 >.Q Q >.>.6 >.>.b N N N ~ { N N ~ { +.+.C #.~ ~ #.#.~ {.@.@.@.@.E E B E @.@.~ ~ s s D D D D s s {.{.+.+.B B A C C C @.~ ~ @.@.@.@.@.@.{ @.@.+.+.{ { N N +.+.N b b b >.>.b b 6 6 b b 6 Q >.>.z 6 >.>.6 6 >.>.M 6 >.>.6 6 Q Q 6 M Q Q M 6 Q >.>.>.b b 6 6 Q Q Q 6 Q Q 6 6 b b 6 6 Q >.z 6 b b 6 6 b >.6 6 6 6 6 6 6 6 6 6 6 >.6 M 6 Q 6 6 6 6 Q >.b b b b b N b b b b N b b N Q >.b b >.>.b b 6 6 >.>.6 Q Q 6 M Q N N b N > > 6 6 Q 6 6 z C C _ _ _ ! ! ! _._.< < | | < < < < <.| l l o ",
"o <.<.<.<.< < <.| < < _._.! ! ! ! ! O N N M M Q Q z 6 C C { { { { N N 8 8 { { { ~ N b b b >.Q b N b b b N Q >.b b >.Q b N Q Q b b Q >.b b Q 6 Q Q 6 6 b b M 6 b b 6 6 b b 6 6 6 6 6 6 >.>.M M >.Q >.>.b b >.>.b b 6 6 >.>.>.>.b N N b b b 6 6 >.>.Q 6 >.Q 6 6 b b 6 6 b b 6 6 b b 6 Q >.>.Q Q >.>.6 >.>.>.>.Q b N Q >.+.+.N b +.+.N b +.+.{.{.@.@.{.{.@.@.@.{.C C C A l l ~ ~ @.@.X X D D D D X X {.{.~ ~ B E A A ~ @.~ ~ ~ ~ ~ ~ ~ ~ ~ ~ +.+.@.~ N b +.+.N b N N N b b b >.>.b b 6 6 b b 6 6 >.>.6 6 >.Q 6 6 >.>.Q 6 >.>.6 6 6 6 6 6 Q >.Q 6 b b >.>.Q >.6 6 6 6 6 Q >.Q 6 Q b b 6 6 >.>.Q 6 b b M M >.>.6 6 Q Q 6 6 6 Q 6 6 b b 6 6 b b 6 6 b b Q >.N b b N b N b b b N b b b N N b b b >.>.Q Q b b b N 8 8 { { b N +.+.C A >.>.M z Q Q @.@.p p p p _ _ :.:.< < | <.| | < < :.:.o o s ",
"o <.<.<.<.< < <.| < < _._.! ! ! ! ! O N N M M Q Q 6 z C C { { { { N N 8 8 { { { ~ N b b b >.>.b N b b b N >.>.b b >.>.b N Q Q b b >.>.b b 6 Q Q Q 6 6 b b M M b b 6 6 b b 6 6 6 6 6 Q M >.M 6 >.>.Q >.b b >.>.b b 6 6 >.>.Q >.b N N b b b 6 6 >.>.6 6 >.Q 6 6 b b M M b b 6 6 b b 6 Q >.>.Q Q Q >.>.6 >.>.>.>.b N N >.+.+.N N +.+.N N +.+.@.{.@.@.{.{.@.@.@.~ C C C A l l ~ ~ ~ @.X X D D D D s s {.{.{.~ E E A A @.@.~ ~ ~ ~ ~ ~ ~ ~ ~ ~ +.+.{.{.N N +.+.b b N N b b b b >.>.b b Q Q b b Q Q >.>.z 6 >.>.6 6 >.>.z 6 >.>.6 6 >.Q Q 6 M Q Q M b b >.>.>.>.M 6 6 Q Q 6 >.>.Q Q b b 6 Q >.>.Q Q b b 6 Q >.>.M 6 Q Q 6 6 6 Q M 6 b b Q Q b b 6 6 b b >.>.b b b b b N b b N N b b b N b b b b >.>.Q Q b b N N 8 8 { { N N +.+.C A >.>.M z Q Q @.@.p p p p p _ :.:.< < | <.| | < < :.:.l o ( ",
"l U U < < | | <.<.< < :.:.! _ _ _ _ _ N N Q >.M M b b A C +.+.>.>.- C > > > > N N b N >.Q b b b b b N Q >.b b >.>.b b >.>.b b b b b N >.>.b N b b b b 6 6 b b z 6 >.>.M 6 >.>.6 6 b b 6 6 >.>.Q 6 N N b b b N >.>.b b >.>.Q >.Q Q b b M 6 >.>.>.Q b b 6 6 b b 6 6 b b 6 6 b b 6 6 >.>.Q >.6 >.>.Q b N b N +.+.Q >.b N N b ~ ~ +.+.~ ~ N N ~ { {.{.~ ~ ~ ~ @.@.@.~ E E B E @.@.@.~ s s D D D D X X @.@.~ ~ B B ~ @.@.@.+.+.@.@.+.+.@.@.+.+.@.~ +.+.{ { N N +.+.b b N N N b b b >.>.b b Q 6 b b 6 6 b b 6 Q b b Q 6 b b 6 6 Q Q 6 M Q Q M 6 Q >.>.>.b b Q 6 Q Q 6 M b >.Q 6 b b >.>.b b 6 Q b b 6 6 b b 6 6 >.>.6 6 Q 6 6 6 b b 6 6 b b >.>.b b b b N b b b N N N b N N b b N N b N N >.b b N N Q Q { { ~ @.B E B B N N b N > E Q Q 6 M Q M C C _ _ _ ! ! ! _._.< < | | <.<.| | U U ( ( l ",
"l U U < < | | <.<.< < :.:._ _ _ _ _ _ N N Q >.M M b b C C +.+.>.>.- C > > > > N N b N 6 6 b b b b N N Q >.+.b Q >.b b Q >.b b b b b N >.>.b b b N N b 6 6 b N z 6 >.>.z 6 >.>.6 6 b b 6 6 >.>.Q 6 N N N b N N >.>.b b >.>.>.>.6 6 b b M 6 >.>.Q Q b b Q Q b b 6 6 b b 6 6 b b 6 6 >.>.Q 6 N >.>.Q b N b N +.+.>.Q N N b N ~ ~ +.+.~ ~ N b ~ ~ ~ ~ ~ ~ ~ {.@.@.~ @.B E B B @.@.~ ~ s s D D D D X X @.@.~ ~ B B @.@.@.~ +.+.@.@.+.+.@.@.+.+.@.~ +.+.{ { b N +.+.N b N N N b b b >.>.b b 6 6 b b 6 Q b b 6 6 b b Q 6 b b 6 6 Q Q Q 6 M Q Q M >.>.>.Q b b 6 6 6 6 6 6 Q >.Q 6 b b >.>.N b 6 Q b b 6 6 N b 6 6 >.>.6 6 Q Q 6 6 b b 6 6 b b >.>.b b b b N b b b N N b b b N N b b N b N b b N b >.N Q 6 { { ~ @.B B B B N N b N > E Q Q 6 M Q M C C _ _ _ ! ! ! _._.< < | | <.<.| | U U ( ( l ",
"o <.<.<.| | <.| | < < _._.! ! ! ! m m +.+.M M 6 Q 6 Q C C N N +.+.{ { ~ @.+.+.+.+.Q >.b N >.>.b b >.Q b b Q Q b b Q >.b N b N b b b N +.+.b b b N b b b b 6 6 b b >.>.>.Q 6 6 b b Q >.b b 6 6 b b b b ~ { b b N b Q Q b b Q 6 b b 6 M >.>.6 6 b b >.>.>.>.Q Q b b 6 Q b b 6 6 b b 6 Q b b >.>.b b N b +.+.b N +.+.N b { ~ +.+.@.@.+.+.@.@.{.{.~ ~ ~ ~ ~ @.@.@.@.~ A A x l ~ ~ #.#.X X D D D D m m @.@.~ ~ B E E B ~ ~ - - {.{.#.C @.~ C C +.+.+.+.+.+.+.+.N N ~ { b b +.+.N b N N >.>.b b 6 6 b b Q Q b b Q Q b b Q Q b b Q Q b b Q >.>.Q Q 6 b N N b Q Q 6 M b >.Q >.N b >.N >.N Q 6 >.>.Q >.b b Q 6 >.>.M 6 6 6 6 6 b b Q >.b b b b b b b b N N b b b b >.>.b b b b +.+.N b b b b b b N >.b b N N N ~ @.@.~ ~ ~ N b { { A A >.>.M 6 >.>.- - p p p p _ _ :.:.| | < < | | < < :.:.U ; j ",
"o <.<.<.| | <.| | < < _._.! ! ! ! ! m +.+.6 M Q Q 6 Q C C b N +.+.{ { @.@.+.+.+.+.>.>.b b Q >.b b >.Q b b 6 Q b b >.>.b N b b N b b b +.+.b b b N >.b b b 6 6 b b >.>.Q Q 6 6 b b Q >.b b 6 6 b b b b { { b b b b >.Q b b 6 6 b b 6 6 >.>.Q Q b b >.>.Q >.6 >.b b 6 6 b b 6 Q b b 6 6 N b >.>.b b N b +.+.b N +.+.N b @.~ N +.@.~ +.+.@.~ {.{.~ ~ ~ ~ ~ ~ @.@.@.@.C A x l ~ ~ C C X X D D D D m m @.@.~ ~ B E E E ~ ~ - - {.{.#.C @.~ C C +.+.+.+.+.+.+.+.N b ~ { N b +.+.N b N N >.>.b b Q 6 b b Q Q b b Q Q b b Q >.b b 6 6 b b >.>.>.Q Q 6 N N b b Q Q 6 M b >.Q >.N N >.>.b N 6 Q b >.>.>.b b 6 Q Q >.>.6 Q Q 6 Q b b Q >.b b b b b b b b b N b b b b >.>.b b b b +.+.N b b b b b b N >.b N N b N ~ @.@.~ ~ ~ b b ~ { A A >.>.z 6 >.>.- - p p p p _ _ :.:.| | < < | | < < :.:.U ; j ",
"> U U < < <.<.<.<.| | :.:._ _ _ _ _ _ N b 6 6 6 6 b b A C ~ ~ N N { { { { { { b b b N b b b b >.>.b b 6 6 b b b b b b b b N N b b { { b b +.+.N b b b b N N b Q 6 b b M M b b b b b N N b b b N b { ~ b b b N >.>.b b 6 Q 6 Q 6 6 Q >.6 >.b b b b b b 6 Q Q >.Q Q b b Q Q b b Q >.b b 6 6 b b N b +.+.b b +.+.N b +.+.+.+.@.~ +.+.{.{.~ ~ ~ @.@.~ #.#.~ ~ Q Q b N B B B B C C @.~ m m D D D D X X C C {.{.E B @.@.N N b N ~ @.@.@.~ @.~ ~ ~ ~ +.+.{ { b N +.{ N N +.+.N b +.+.N b N N b b b b 6 Q >.>.>.Q b b 6 6 >.>.Q >.6 >.>.Q N >.Q >.6 >.Q Q b b Q Q >.>.Q Q b N b b b N b b b b 6 Q N N Q >.b b 6 6 b b 6 6 b b N b +.+.b b N b b b N b b b +.+.N b b N >.>.b N b b b N N b b N b b b b b b +.+.+.+.+.{ N N ~ { +.+.B E Q >.>.Q >.6 A A p p ! ! ! ! _._.< < | | < < U U | | ; ; ] ",
"> U U < < <.<.<.<.| | :.:._ _ _ _ _ _ N b Q Q 6 M b >.C C @.~ N N ~ { { { { { b b b N N b b b >.>.b b 6 6 b b b b b b b b b N b b { { b b +.+.b b b b N N b b 6 6 b b 6 6 b b b b b N N b b b b b +.{ b b N N >.>.N b Q Q 6 Q 6 6 >.>.Q Q b b b N b b 6 Q Q >.6 >.b b 6 6 b b 6 Q b b 6 6 b b N b +.+.b b +.+.N b +.+.+.+.@.~ +.+.{.{.~ ~ ~ @.~ ~ #.#.~ ~ Q Q b N B B B B C C @.~ m m D D D D X X C C {.{.E B @.@.N N N b ~ @.@.~ @.@.@.~ ~ ~ +.+.{ { N N { { N N +.+.b b +.+.N b N N b b b b 6 6 >.>.Q Q b b 6 Q >.>.>.Q >.6 b >.N N Q >.6 >.Q Q b b 6 6 >.>.>.Q b N b b b N b b b b Q Q b N Q >.+.b 6 6 N b 6 6 b b b b +.+.b b N b b b N b b b +.+.b b N b Q >.N N b b b N b b b N N b b b b b +.+.+.+.{ { N N ~ { +.+.E E >.>.Q >.6 >.A A p p ! ! ! ! _._.< < <.| < < U U | | ; ; ] ",
"] | | | <.| | ) | < < _._._ ! ! ! ! m +.+.6 M >.>.Q >.A A ~ { { { +.+.{ ~ b b N N b b b b >.>.N b b b N N b b b N b N N b b b b N b b +.+.b b +.+.b b ~ ~ N b b b b N b b b b b b b N { +.b b L L L b b b b N N b Q Q Q >.M M >.Q >.Q b N >.>.b b 6 6 b b Q Q b b 6 6 b b 6 6 b b 6 Q b b >.>.b N N b +.+.N b N N b b { { { { { { ~ @.{ ~ ~ {.#.#.~ ~ #.#.~ ~ #.C B B B B @.@.A C X X D D D D O O #.#.C C B o E E ~ ~ A A ~ @.#.#.~ ~ {.{.+.+.~ ~ +.+.~ ~ +.+.{ { N b +.+.b b +.+.b b +.+.>.>.b b 6 6 b b Q >.b b Q Q b b 6 6 N b Q >.b N >.Q 6 >.6 M >.>.6 6 >.>.>.>.N N N b +.+.>.>.b N b b N N >.>.b b >.>.>.>.Q >.{ { b N N N b b +.+.N b +.+.b b b N >.b b N b b +.+.b b b N b b b N Q Q b b b b ~ { N N +.+.b b ~ ~ A A N N 6 6 b b - - p p ! ! p _ :.:.<.| < < | | | | :.:.    _.",
"] | | | <.| | | ) < < _._._ ! ! ! ! m +.+.6 6 >.>.Q >.A A ~ { { { +.+.{ { b N b N b b b b Q >.N N N b b N b b b N b N >.N b b b N b b +.+.b b +.+.b b ~ ~ N b b b b b b b b b b b b b +.+.b b L L b b b b b N b b Q Q >.>.M 6 >.>.Q Q b N >.>.b b Q 6 b b Q Q b b 6 6 b b 6 6 b b 6 Q b b >.>.b N N b +.+.N b N N b b { { { { { { ~ ~ @.~ {.{.#.#.~ ~ #.#.~ ~ #.C B B B B @.@.C A X X D D D D O O #.#.C C B o E E ~ ~ A A @.@.C #.~ ~ {.{.+.+.~ ~ +.+.{ ~ +.+.{ ~ b b +.+.b b +.+.b b +.+.>.>.b b 6 6 b b >.>.b b 6 Q N b Q Q b N >.>.N b Q Q >.>.6 6 Q >.6 6 >.>.>.>.N N b b +.+.>.>.b N b b N N >.>.b b >.>.>.>.Q >.{ { N N N N b b +.+.b b +.+.b b N N b N b N b b +.+.b b b N b b b N Q Q b b b b { { b N +.+.b b ~ { A A N N Q Q b b C - p p m ! ! p :.:.<.| < < | | | | :.:.    _.",
"U <.<.<.| <.<.| | <.<._._.! ! _ _ _ _ N N Q >.Q Q b N C C @.~ +.+.{ { N b +.+.>.>.+.+.>.>.+.+.N b N N N N ~ { b b b N N >.b b b b N N b b +.+.N b +.+.{ { ~ { b b N b b b b b >.>.b N N b b b b b ~ { b b b b 6 Q b b Q >.b b M M b b b b N b Q >.b N >.>.b b >.>.b b >.>.b b >.>.b b >.>.b N N b { { b N +.+.b b +.+.b N { { +.+.{ ~ +.+.~ ~ ~ ~ ~ @.@.~ A A @.@.E E B E C C @.~ m m D D D D X X C C @.~ l l C A o o C C C #.~ ~ @.@.N N ~ { {.~ ~ ~ +.+.{ { N b +.{ N b +.+.N b +.+.b b b b >.>.N b Q Q b b Q >.b b Q Q >.>.>.>.b N N N N b 6 6 >.Q Q 6 Q >.6 6 b b b b +.+.N b b b b b b N Q >.b b b b N N Q >.+.+.b N ~ { N N +.+.N b +.+.N b N N b b N N b N { { N N +.+.b b { { b b b b >.>.b N b b b N b N { { { { E E Q >.>.>.Q Q A A p p ! p ! ! _._.< < | | | | ] U | | U U ; ",
"U <.<.<.| | <.<.| | <._._.! ! _ _ _ _ N N Q >.Q Q b N C C @.~ +.+.{ { N b +.{ >.>.+.+.>.>.+.+.b b N N N N ~ { b b N N Q >.b b b b N N b N +.+.N b +.+.{ { ~ { b N b N b b b b >.Q b N b b b b b b { { b b b b 6 6 b b Q >.b b 6 6 b b N b b N >.>.b b >.>.b b >.>.b b >.>.b b >.>.b b >.>.b N b b ~ { b b +.+.b b +.+.N b +.{ +.+.~ ~ +.+.~ ~ ~ ~ @.@.~ ~ A A @.@.E E E B C C @.~ m m D D D D X X C C @.~ l l C A o o C C C #.~ ~ @.~ N N ~ { {.~ ~ ~ +.+.~ { N b +.{ N b +.{ b b +.+.b b N b >.>.N b 6 Q b b >.>.b b Q Q >.>.>.>.N N b N N b 6 6 6 6 Q Q >.>.6 6 b b b b +.+.N b b b b b N N Q >.b b b N >.b N >.+.+.N N { ~ b N +.+.b N +.+.b b b N N b b N b b { { N N +.+.b b { { b b b b >.>.b N N b N b N N { { { { E E >.>.>.>.Q Q A A p p ! p ! ! _._.< < | | | | ] U | | ; U ; ",
"U <.| <.<.| | | | < < _._.! ! ! ! m m +.+.6 Q b N >.b > > { { +.+.N b N N b b { +.N b { { +.+.{ { N b { { +.+.+.+.N b b b b b b b b b +.+.N b { { b b { ~ +.+.{ { b b b b b b +.+.b N b N } } b b b b b b 6 6 b b 6 Q N b Q Q >.>.>.6 +.+.N b b N >.>.b b Q >.b b b b N N b b N b b b b N b b { { b N { { b N +.+.b b { { { { { ~ +.+.{.{.~ +.{.{.~ ~ ~ ~ +.+.C A A A B B ~ @.@.@.X X D D D D m m #.#.C C E E A A @.~ #.C {.{.~ ~ +.+.~ @.~ ~ ~ ~ +.+.~ @.b N +.+.N b b N N b +.+.N b +.+.>.>.b N N b b b >.>.b N b b b b >.>.>.>.>.Q +.+.>.Q Q Q 6 M b b 6 6 >.>.Q Q N b b b b N >.>.b N N b b N Q >.+.+.N b b N b N ~ { +.+.~ { b N +.+.b b N b N b +.+.b b +.+.b N @.{ b N { { b N +.+.N b N N b b +.+.b b +.+.N N ~ @.A A N N 6 Q Q >.C C p p ! ! ! _ :.:.<.| < < | | | | | ) ; ; ; ",
"U | <.<.<.| | | <.< < _._.! ! ! ! m m +.+.6 Q b N >.b > > { { +.+.N b b b b N +.+.N b { { +.+.{ { b b { { +.+.+.+.N b b b b N b b b b +.+.N b { { b N { ~ +.+.{ { N b b b b b +.+.b N b N } } b b b b b b Q Q b b Q >.b N >.Q Q >.>.Q +.+.N b b N >.>.b b >.>.b N b b b N b b N b b b N N b b { { b N { { b N +.+.b b { { { { { { +.+.{.{.~ +.{.{.~ ~ ~ ~ +.+.C A A C B B ~ @.@.@.X X D D D D m m #.#.C C E E A A @.~ #.C {.{.~ ~ +.+.~ @.{.{.{ ~ +.+.~ @.b N +.+.N b N N b b +.+.N b +.+.>.>.b N N b b b >.>.b N b b b N >.>.Q >.>.>.+.+.>.Q >.Q Q 6 b b Q Q >.>.Q Q N N b b b N Q >.b N N b b N Q >.+.+.b b N N N b +.{ +.+.{ { N N +.+.b b N N b N +.+.N b +.+.b N @.{ N N { { N N +.+.b b N N b b +.+.b b +.+.b N @.@.A A N N Q >.Q >.- C p p _ ! ! ! :.:.<.| < < | | | | | ) ; ; ; ",
"<.| <.<.| <.<.< < | | :.:.! ! p p p p N N Q >.>.>.+.+.C C @.~ +.b +.+.b b b b N N +.+.N b { { N N +.+.+.+.{ { N b +.+.b b b N b b N N b N { { b N { ~ +.+.{ ~ b b b b b b +.+.b b ~ { b b b b } } b b 6 6 b b >.>.b b 6 6 b b 6 Q b b b b +.+.N b b b 6 6 b b b >.b b >.>.b b >.>.b b Q >.N N b b { { +.+.{ { b N +.+.+.+.@.@.+.+.@.@.N N ~ {.{.~ ~ @.C #.A A C A E E B B A C ~ ~ m s D D D D s s A A C #.o o C C C A C C @.~ +.+.@.~ +.+.{.{.+.+.{.{.~ +.{ { b N +.+.b b +.+.N b +.+.b b b b b b +.+.>.>.b N N b +.+.>.>.b N N >.N N Q >.b b 6 6 >.>.Q >.b b 6 6 b b b b N N Q >.b b b b +.+.b b b b Q >.N b >.>.{ { +.+.~ { b N +.{ N N +.+.b b +.+.b b +.+.b N { { N N { { N b { { N b b N b b +.+.b b +.+.b N { { ~ { E E >.>.Q >.6 >.A A p p p p _ ! ; _.< < <.| < < <.<.| | U U U ",
"<.| <.| <.<.<.< < | | :.:.! ! p p p p N N Q >.>.>.+.+.C C @.~ +.b +.+.b b b b N N +.+.b b ~ { N N +.+.+.+.{ { N b +.+.b b b N b b b N N b { { b N { { +.+.{ { N b b N b b +.+.N b { { N b b b } } b b 6 6 b b Q >.b b Q 6 b b Q Q b b b b +.+.N b b b 6 6 b b >.>.b b >.>.b b >.>.b b >.>.b N b b { { +.+.{ { N b +.{ +.+.@.@.+.+.@.~ +.N {.{.~ ~ @.@.C #.A A A C E E B B A C ~ ~ m s D D D D X X C A #.#.o o C C A A C #.@.@.+.+.@.~ +.+.{.{.+.+.{.{.~ +.{ { N N +.+.b b +.+.b b +.+.N b b b b N +.+.>.>.N N b b +.+.>.>.N N Q >.+.b >.>.b b 6 6 >.>.Q >.b b 6 6 b b b b b N Q >.+.b b b +.+.b b N b Q >.b b Q >.{ { +.+.{ ~ b N { { b N +.+.b b +.+.N b +.+.N N { { N N { { N b ~ { b N N N b b +.+.b b +.+.b b { { { { E E >.>.>.Q >.6 A A _ p p p ! ! _._.< < <.| < < <.<.| | U U U ",
"<.| | <.<.< < < < < < _._.! ! ! ! m m +.+.Q Q b N N N > > ~ ~ +.+.~ { { { b b { { N b N N b N ~ { N b { { N N +.+.b b N N b N +.+.b b +.+.N b { { +.+.{.{.b b b b b b +.+.N b b b b b +.+.N b b b 6 6 b b b b +.+.>.>.b b Q Q b b b b +.+.N b +.+.>.>.b N N b b N b b b N >.b N N N b N N b b ~ { +.+.{.{.b b +.+.{ { ~ @.~ ~ - - @.@.A C #.#.E W C C W W A A B B B B x x ~ @.@.~ s s D D D D O O #.#.W W B B l l E E B E C C C C ~ ~ ~ ~ +.+.C C { { { ~ @.{ { ~ +.+.{ { N b +.{ N N ~ { b b +.+.N b N N b b +.+.N b +.+.>.>.b N N >.+.+.>.>.>.>.Q Q b b b N b b b b b b N b N N Q >.b N b b +.+.b b b b >.>.b N N N ~ { +.+.{ { b N +.{ N N ~ { b b +.+.b b +.+.b N @.{ N N { { b N +.+.N b +.+.b N +.+.N b +.{ +.+.@.@.A A N N Q >.>.>.@.@.p p ! ! ! ! :.:.| | < < <.| | | | | | | U ",
"<.<.| <.<.< < < < < < _._.! ! ! ! m m +.+.Q Q b N N N > > ~ ~ +.+.~ { { { N b { { b b N N N N { { N b ~ { b N +.+.N b b N b b +.+.N b +.+.b b { { +.+.{.{.b b b b b b +.+.b b b b b b +.+.N b b b 6 6 b b b b +.+.>.>.N b Q Q b b b b +.+.N b +.+.>.>.N N b b b N b b b N >.b N N b b b N >.b { { +.+.{ ~ N b +.+.{ { @.@.~ ~ - - @.@.A C #.#.W W C C W W A A B B B B l x @.@.@.@.X X D D D D O O #.#.W W B B x l E E B E C C C C @.~ ~ ~ +.+.C C { { ~ ~ ~ { { ~ +.+.{ { N N ~ { N N { { N b +.+.N b N N b b +.+.b b +.+.>.>.b N N >.+.+.>.>.>.>.Q Q b b b N b b b b b b b N b N >.>.b N N b +.+.b b b b Q >.N N b N +.{ +.+.{ { N b +.{ N N { { N b +.+.b b +.+.b N @.{ N N { { b N +.+.N b +.+.b N +.+.N b +.{ +.+.@.@.A A N N >.>.Q >.@.@.p p ! ! ! ! :.:.| | < < | | | | | | | | ; ",
"| <.<.| <.< < <.<.< < U U p _ _ _ _ _ N N N b b b +.+.C C ~ @.N N - - V V b b +.+.+.+.N b +.+.N N +.+.b b +.+.N b N N N b +.+.N b +.+.b b { { N N ~ { { { { { b b +.+.b N { { N b { { N b L L b b b b b b N N b b b N N b b b b b +.+.N b +.+.b N N N b b +.+.N N ~ { N N { { b N +.+.b N { { +.+.{ { { { A C C - > > > > > > - - @.@.@.~ A #.+.+.{.{.N N N b N N ~ ~ B E C C @.~ s s D D D D X X C C C #.~ @.N N { { N b @.@.+.+.@.@.~ ~ #.#.A A C A - - C C @.~ - - {.{.{ { +.+.{ { +.+.{ { N N +.+.b N { { N b @.{ N b N N Q >.+.+.N N +.+.>.>.b b >.>.b N N b +.+.>.>.N b b b b N >.>.+.+.N b +.+.b b b N N b +.+.b N { { +.+.{ { b b ~ { N N +.+.N b { { b N { { N N { { b N { { b b b N N b { { >.>.Q Q b b { ~ { { E E >.>.N N Q Q C C _ _ ! ! ! ! _._.< < < < < < | | | | | | ) ",
"| <.<.<.| < < <.<.< < U U p _ _ _ _ _ N N b b b b +.+.C C @.~ +.b - - V V b b +.+.+.+.N b +.+.N N +.+.N b +.+.N b N N b b +.+.N b +.+.b b { { N N ~ { { { { { b N +.+.b N { { N b { ~ b b b b b b b b b b N b N b b N N b b b b b +.+.b b +.+.b N N N b b +.+.N N { { N b @.{ N N +.+.b N { { +.+.{ { { { C C - - > > > > > > - - @.@.@.@.#.#.+.+.{.{.N N N N b N ~ @.E E #.#.@.~ m s D D D D X X C C C C ~ @.N N { { b N @.@.+.+.@.@.~ ~ #.C A A C A - - C C @.~ - - @.~ ~ { +.+.{ { +.+.{ { N b +.+.N b { { N N ~ { N N N N Q >.+.+.N b +.+.>.>.b b >.>.b N b b +.+.Q >.b b b N b b >.>.+.+.b b +.+.b b b N b b +.+.b N { { +.+.~ { b b { { N N +.+.N b { { b N { { b N { { b N { { N b b N N b { { >.>.>.Q b b ~ ~ { { E E >.>.N N Q Q C C _ _ ! ! ! ! _._.< < < < < < <.| | | | | | ",
"U <.<.<.| | <.< < <.<._._.! ! ! _ ! ! { { >.Q Q >.>.>.E E ~ ~ ~ ~ ~ { r r { { { { N N { { { { { { b N +.+.N b +.+.N b +.+.b N { { b N +.{ N b ~ { b N { { { { { ~ N N ~ { { { { { +.+.{ { b b b b >.>.b b +.+.{ { N b +.{ >.>.b N N N { { +.+.{ ~ N N ~ { { { { ~ ~ { - - - - > > - - > > A A { { +.+.+.+.>.>.M M >.>.b b 6 6 >.Q Q 6 { { b N @.~ ~ ~ @.@.~ ~ +.+.{.{.E E ~ @.C #.X X D D D D m m #.#.#.C E E #.#.{ { ~ @.b b ~ { +.+.{ { z z >.>.Q Q +.+.6 M Q 6 { { ~ @.b b ~ { b b { { A C C C - - C C - - C C { { { ~ +.+.+.+.N b { ~ N b N N b b b b b b ~ { b b b b b b +.+.>.>.b N +.+.{ { { { { ~ b b ~ { b b ~ { +.+.{ { ~ { { { +.+.~ { N N { ~ b N +.{ b b N N N N { { { { { ~ b b +.+.+.+.{ { z z @.@.+.+.@.~ E E N N Q >.Q >.C C _ _ ! _ _ _ U U < < < < | | | | | | <.<.| ",
"U <.<.<.| | <.< < <.<._._.! ! ! _ m ! { { >.Q >.>.Q >.E E ~ ~ ~ ~ ~ { r r { { { { b N { { { { { ~ b b +.+.N b +.+.b b +.+.N b { { N b { { b b { { N N ~ { { { { ~ N N ~ { { { { { +.+.{ { N b b b >.>.b b +.+.{ { N b +.{ >.>.N N b N ~ { +.+.{.{.N N { { { { { ~ +.{ - - - - > > - - > > A A { { +.+.+.+.>.>.M M >.>.b b Q 6 Q Q Q 6 { { N N ~ ~ ~ @.@.~ ~ ~ +.+.{.{.E B @.@.#.#.X X D D D D m m #.#.C C W E A C { { ~ ~ N b { { +.+.{ { z z >.>.>.Q b +.6 M 6 6 { { ~ @.b b { { b b { { C C C #.- - C C C - - C { { { { +.+.+.+.b b ~ { N N N b b b b b b b ~ { b b b b b b +.+.Q >.N b +.+.{ { { { { { N b ~ { b b { { +.+.{ { ~ { { { +.+.{ { b N { ~ b N { { b b b N N N ~ { { { { ~ N b +.+.+.+.{ { z z @.@.+.+.@.~ E E N N Q >.Q >.C C _ _ _ _ _ _ U U < < < < | | | | | | <.<.<.",
"< | | <.<.| | < < | | :.:.! ! ! ! _ _ +.+.>.>.>.Q Q >.A A +.+.N b > > > > @.@.N N +.+.N b +.{ +.+.{ { b b N b N b { { N b { { +.+.{ { N b { { b N +.{ b b ~ { +.{ { { { { ~ { { ~ @.{ { { ~ @.b N N b +.+.{ { { { { ~ +.{ - - { { E > A C > > - - C A N b { { b b b b r r F F M 6 6 z r 6 6 z >.>.+.+.+.+.{ { N b +.{ +.+.{ { { { N b { { - - {.{.@.@.~ @.@.@.+.+.C C W E C C C #.O O D D D D X X C A #.#.o o @.@.A C +.+.{.{.{ { - - { { { { b N N N b b { { { ~ @.~ b b b N >.b N Q r r 6 6 M M 6 M ~ ~ ~ { 6 6 b N N b +.+.C C C #.- - > > { { - - @.~ @.@.+.+.{ { { { { ~ +.{ { { b N @.~ ~ ~ - - +.+.{.{.{ { { { { { ~ { { { { { { ~ { { b b { { N b { ~ b b +.+.>.>.b N N b { { N b +.{ >.>.{ { ~ @.B o o o { { +.+.E E >.>.>.Q >.6 A A p p m ! ! ! ; _.< < | | | | | | | <.| | | ",
"< | | <.<.| | < < | | :.:.! ! ! ! _ _ +.+.>.>.>.Q >.>.A A +.+.N b > > > > @.@.N N +.+.N b { { +.+.{ { b b N N N b { { N N { { +.+.{ { N b { { b N +.{ b b ~ ~ ~ { { { { { { ~ +.{ { { { ~ @.~ b N N b +.+.{ { { ~ @.{ { { - - { { E > C C > > - - A A N b { { b N b b r r F F M 6 6 z r 6 6 z >.>.+.+.+.+.{ { N b +.{ +.+.{ { { { N b { { - - @.~ @.@.@.~ @.@.+.+.C C E E #.#.#.#.O O D D D D X X C C #.#.o o @.@.A C +.+.@.~ { { - - { { { { N N N N b b { { { { ~ @.b b N N b b Q Q r r M M 6 M M z C ~ ~ { 6 6 b N b b +.+.C C C #.- - > > { { - - {.{.@.@.+.+.{ { { { { ~ +.{ { { b b ~ { ~ ~ - - +.+.@.~ { { { { { { ~ { { { { { { { ~ { b b { { N b { ~ b b +.+.>.>.b N N b { { N b +.{ >.>.{ { ~ @.B o o o { { +.+.E E Q >.>.>.Q >.A A p p m ! ! ! _._.< < | | | | | | | <.| | | ",
"U | | <.<.<.<.| | < < _._.! ! ! _ m m @.~ Q Q >.>.Q Q E E +.+.N b N N { { >.>.+.+.N b N N N N ~ { +.+.+.+.N b { { +.+.{ { N b +.{ b N { { +.+.{ ~ ~ { @.~ ~ { { { { { C - { { A C C A A C - - > > - - B B A C N N b N ~ +.N b b >.8 8 M M 6 z z z 6 z b b b b { { N b { { b b ~ { b b { { b b +.+.+.+.@.~ N N ~ { N N { ~ N b ~ ~ N b ~ ~ +.+.@.@.{.~ ~ ~ Q Q +.+.W W B B C C C #.X X D D D D O O #.#.C A B E l o Q Q @.~ ~ { { @.+.+.@.~ ~ ~ ~ ~ ~ ~ { { +.+.{ ~ N N { { N b +.+.N N b N N b +.+.N b +.+.>.Q b b >.Q 8 8 8 8 r r F F 6 6 6 6 8 8 M 6 b N b b ~ { b b { { - - C C - - C C - - C - @.~ - - {.{.C C { { ~ ~ ~ { { @.{ { { { { ~ { { b b ~ { { { { { +.+.{ { N b +.+.b b { { b N { { b N N b Q >.{ { b b { { E E N N Q >.>.>.C C _ _ ! _ _ _ :.:.| | | <.<.| | | | | | | :.",
"U <.| <.<.<.<.| | < < _._._ ! ! ! m m @.~ Q Q >.>.Q Q E E +.+.N b N N { { >.>.+.+.N b N N N b { { +.+.+.+.b b ~ { +.+.{ { N N { { b b ~ { +.+.{ ~ ~ { @.~ ~ { { { { { - - { { C C A C C C - - > > - - B B A C N N N b +.+.b b >.>.8 8 M 6 z z 6 z z z b b b b { { b b { { N b ~ { b b { { b b +.+.+.+.{ ~ N b ~ ~ N N ~ { N N { ~ N N ~ { +.+.@.@.~ ~ ~ ~ Q Q +.+.W W B B C C C C X X D D D D O O #.#.A A B E l o Q Q @.~ { { ~ @.+.+.{.{.~ ~ ~ ~ ~ { { { +.+.{ ~ N b ~ ~ b b +.+.b N N N b b +.+.N b +.+.>.Q b b >.Q 8 8 8 8 r r F F 6 6 6 z r 8 6 6 b N b b ~ { b b { { - - C C - - C C - - - C @.@.- - {.{.C C { { ~ ~ ~ { { @.{ { { { { { ~ { b b ~ { { { { ~ +.+.{ { b N +.+.b N ~ { b N { { b N N b >.>.{ { N b { { E E N N Q Q >.>.C C _ _ ! _ _ _ :.:.| | <.<.| | | | | | | | :.",
"| <.<.| <.| | <.<.| | :.:.! ! ! ! ! _ +.+.>.>.Q Q b N A A +.+.N N ~ { N N { { N N ~ ~ +.+.{ ~ { { ~ @.+.+.{ { { { ~ ~ +.+.~ { { { > > - - > > - - E > A C A A C #.> > +.+.{ { Q Q b b 8 8 8 8 r r 6 6 F F M 6 8 8 N N Q >.b N b b >.>.>.>.+.+.>.>.b N b b { ~ N N { { b b { { b N +.{ N >.{ { { ~ @.~ { { @.@.@.~ ~ ~ N N Q Q C - @.~ @.{ @.@.~ ~ - C C C E E B E l l B B A A C #.O O D D D D X X C A A C l l B B E E B E @.@.+.+.@.@.~ ~ ~ ~ ~ ~ #.#.r r { ~ ~ ~ { { N N ~ { N N +.+.N b N N 6 6 +.+.N b b b 6 6 b b >.>.b b b b b b >.>.Q Q 6 6 >.>.6 6 6 6 6 6 8 8 8 8 r r r F 6 6 6 >.>.>.>.Q +.+.>.>.b N A A > > - - A A C - - - {.{.- - { { @.@.~ { C - { { { { b N @.~ { { ~ @.{ { { { +.+.{ ~ +.+.{ { N b +.+.+.+.E E >.>.N N Q >.E E p p m ! m m _._.< < | <.<.| <.| | | | | | ",
"| <.<.| | | | <.<.| | :.:.! ! ! ! _ _ +.+.>.>.>.Q b N A A +.+.N N {.~ N b { { N N ~ ~ +.+.{ { { { ~ ~ +.+.~ { { { ~ ~ +.+.~ { { { > > - - E > - - E > C C A C C C > > +.+.{ { Q Q b b 8 8 8 8 r r 6 6 F F M 6 8 8 N N Q >.+.b b b >.>.>.>.+.+.>.>.b N N b { { N N { { b b { { b N +.{ N >.{ { ~ @.~ @.{ { @.@.~ @.~ ~ N b Q Q C - @.@.~ { @.@.~ ~ - C C C W E E E l l B B A C C C O O D D D D s s A A A C l l B E E E B E @.@.+.+.~ @.@.{.~ ~ ~ ~ C C r r { ~ ~ ~ { { N N ~ { N N +.+.N b N N 6 6 +.+.b b b b 6 6 b b b >.b b b b b b >.>.>.Q Q 6 6 >.z 6 Q 6 6 6 8 8 8 8 r r r F 6 6 6 6 >.>.>.>.+.+.>.>.b N A A > > - - A A C - - - @.~ - - { { @.@.{ { - - ~ { { { N b { ~ ~ { { @.{ { { { +.+.{ ~ +.+.{ { b b +.+.+.+.E E >.>.N N Q >.E E p p ! ! m m _._.< < | <.| | | | | <.| | | ",
"U | <.<.<.<.<.<.| < < _._.! ! ! ! ! ! { ~ Q Q >.>.Q >.E E N b ~ { b b - - { { { { +.+.C C @.~ - - - - C A A A > > C C > > - - ~ ~ { { N b b b >.Q 8 8 8 8 r r r r F 6 { { b b b b b b b b b b N b N b N N b b +.+.N b { { b N +.+.b b { { N N Q >.b b { { +.+.~ { b b +.+.b b { { F F Q Q C - @.~ ~ { { @.N N ~ @.@.@.A A E E - - { { @.~ ~ { { @.~ ~ #.#.A C W E A A E E #.#.#.C X X D D D D m s @.@.A C E E B E @.@.@.@.~ @.@.@.~ ~ ~ { { { - - C A E E B E @.@.N +.@.~ +.+.+.+.b N {.~ z z b b >.>.{ ~ N b +.+.b b +.+.6 6 { { 6 6 { { >.>.b b b b b b >.Q b b 6 6 b b b b >.>.b b b b b b b b 6 Q M M 8 8 r r 8 8 r r z z 8 8 N b b b b b - - N b > > A C A A - - C C C - - C C - C C { { ~ { N N ~ ~ { { +.+.b b ~ @.C - b b >.>.>.>.A A p p ! _ _ _ _._.U U <.<.| | | <.| | | | U ",
"U | <.<.<.<.<.<.| < < _._.! ! ! ! ! ! { ~ Q Q >.>.>.>.E E N b ~ { b b - - { { { { +.+.C C @.~ C - - C A A A A > > C C > > - - @.~ { { b b b b >.>.8 8 8 8 r r r r F 6 { { N b b b b b b b N b N b N b b N N b +.+.N b { { N b +.+.b b { { N N Q Q b b { { +.+.~ { b b +.+.N b { { F F Q Q C C ~ ~ { { @.~ N N ~ @.@.@.C A E E - - { { { ~ ~ { { @.~ ~ #.C A C W E A A B E C C C #.X X D D D D s s @.@.A C E E E B ~ ~ @.@.~ @.@.@.~ ~ ~ ~ { { - - C A E E E B @.@.+.+.~ ~ +.+.+.+.b N {.~ z z b b >.>.~ ~ N N +.+.N b +.+.6 6 { { 6 6 { { >.>.b b b b N b 6 6 b b 6 6 b b b b >.>.b N b b b N b b 6 6 6 6 8 8 r r 8 8 r r z z 8 8 N b b b b b - - N b > > - C C A C - - C C - - C C - - C { { { { b N ~ ~ ~ { { +.N b { @.C - b b >.>.>.>.A A p _ _ _ _ _ _._.U U <.<.| | | | | <.<.| :.",
"| | <.| <.| | | <.<.<.:.:.! ! ! ! p p +.+.>.>.>.Q N N A A > > ~ ~ A A C C > > C C > > C C +.+.b b +.+.8 8 8 8 r r r r 8 8 6 6 r r >.>.Q Q b b 6 Q b b b b { { N b b b b b b b >.>.b b b b b b b b { { Q 6 b N +.+.{ { +.+.+.+.b b ~ { b N { ~ 8 8 - - +.+.{ { N b b b b b { { ~ ~ B E > > - C ~ ~ - - @.~ #.#.@.@.@.@.~ ~ - - +.+.@.@.~ @.@.@.~ ~ C C @.~ - C @.~ A A B E C A #.#.O O D D D D X X C A #.#.x x A A ~ @.- - @.@.{ { ~ @.~ @.~ ~ N N ~ ~ ~ @.@.@.N N +.+.b N ~ ~ N N +.+.C #.o o o B { { b N ~ { +.+.~ ~ +.+.~ ~ ~ { r r { { { { +.+.N N b b b b 6 6 b N b b b b ~ { { { b b b b b b b N Q Q b b N b b N N b b N Q >.+.b 6 6 b b 8 8 r r 8 8 r r r 6 8 8 N b +.+.N b +.+.b b +.+.@.~ > > - C C C @.~ - - - - x l b b >.>.>.>.E E _ _ p p _ ! _._.< < | | <.| | | | | <.| | ",
"<.| | <.| | | | <.<.<.:.:.! ! ! ! p p +.+.>.>.>.>.b N A A > > ~ ~ A A C C > > C C > > - C ~ +.N b +.+.8 8 8 8 r r r r 8 8 M 6 z r Q >.z 6 b b 6 6 b b b b { { b b b b b b b b >.>.b N b b b N b b { { 6 6 b N +.+.{ { +.+.+.+.N b { { N b ~ ~ 8 8 - - +.+.{ { b b b b b b { { ~ @.E E > > - C ~ ~ - - ~ {.- C @.@.@.@.~ ~ - C +.+.@.@.@.@.~ @.~ ~ #.C @.@.A C @.@.A C E E A A C #.O O D D D D X X C A #.#.x x A A @.@.- - @.@.{ { @.@.~ ~ @.~ N N {.~ ~ ~ @.~ N N +.+.N b ~ ~ N N +.+.C C B o B B ~ { N N ~ @.N +.@.~ +.+.~ ~ ~ { r r { { { { +.+.N N N b b b 6 6 b N b b b b ~ { { { b b b b b b N b Q Q b b N b N N b b b N >.>.b b 6 6 b b 8 8 r r 8 8 r r 6 z 8 8 b b +.+.b N +.+.N b +.+.@.@.E > A C C C @.~ - - - - l l b b >.>.>.>.E E _ _ p p _ ! _._.< < | | <.| | | | | | <.| ",
"<.<.| | | <.<.<.<.< < _._.! ! ! ! _ _ ~ ~ Q Q b N >.>.B B N N +.+.8 8 r r M M r r F F 6 z b b b b >.>.b b 6 Q b b >.>.b b b b b b 6 Q b b 6 6 b b b b b b b b 6 6 b b b b N b b b b b b N N N +.+.N N F F { { @.@.b b b N N N { { b b @.@.- - B B B E { { +.+.@.@.+.+.+.+.+.+.@.@.{ { ~ ~ ~ ~ ~ @.{ { ~ @.@.@.C C @.@.- C @.~ ~ @.{ { A A - - E E E E l l C C l l l l l l C #.C C X X D D D D O O A A A A Y Y x x A A A A A C E E E E A A @.@.- C { { ~ @.+.+.@.~ N N { { +.+.+.+.+.+.{ { b N { { b N +.+.@.~ { { N +.@.~ { { A C E > > > b b { { b N b b b N +.+.N N { { F F +.+.N N N N N N b b b N N N 6 6 N N Q Q N N N b b N 6 6 b b M M b b M 6 N b >.>.>.>.>.Q N N 6 Q N N >.>.M M r r r F F F z z z 6 N b b b { { C C N N Q >.>.>.C C p _ ! ! _ _ :.:.< < < < | | | | | | <.| <.",
"<.| | | | <.<.<.<.< < _._.! ! ! ! ! _ ~ ~ Q Q N N Q >.B B N N +.+.8 8 F F M M r r r F z z b b b N >.>.b b Q Q N b >.>.b b b N b b M 6 b b 6 6 b b b b b b b N 6 6 b b b N b b b b N b b N N N +.+.N N F F { { ~ @.+.b b N N N { { b N @.@.- C B B E E { { +.+.@.@.+.+.+.+.+.+.@.@.{ { ~ @.~ ~ @.@.{ { @.@.@.@.C C @.@.- C ~ ~ @.@.{ { A C - - E E E E l l C C l l l l l l C #.C C X X D D D D O O A A A A Y Y x x A A A A C C E E E E A A @.@.C - { { ~ @.+.b ~ ~ N N { { +.+.+.+.+.+.{ { b N @.{ N N +.+.~ ~ ~ { N +.@.~ { { A C > > > > b b { { b N b b b b +.+.N N { { F F +.+.N N N N b N N b b N N N Q 6 N b Q Q N b b b b N 6 6 b b M 6 b b M 6 b b >.>.>.>.Q Q N N >.Q N N >.Q M M r r F F F F z z z 6 b b b N { { A C N N Q >.>.>.C C _ p ! ! _ _ :.:.< < < < | | | | | | | <.<.",
"< | | | <.| | < < < < :.:.! ! ! ! p p +.+.N N >.>.+.+.B B N N N b N N N b +.+.N b b N N >.+.+.N b N N Q >.N N N b N N 6 Q b b b N b b >.>.b b >.Q N b +.+.N b 8 8 { { b N b b b b b N N b { { b b C C C C l l { { +.+.{ { { ~ { +.{ { +.+.~ ~ @.@.{ ~ ~ { { ~ { { ~ { +.+.+.+.+.+.@.@.{ { {.{.@.@.- C - - A A B B Y Y W W B B E B > > C C C A A C E E A A A A C A B B Y Y A A C #.O O D D D D X X A A C #.l l E E A C C - A A C A A A C C l l B B E > A A A A E E E > A C C - +.+.@.~ +.+.+.+.+.+.+.+.+.+.~ ~ ~ { ~ ~ +.+.@.~ { { C - { { { ~ b b { { { { ~ { b b N N - - A A A C +.+.N b +.+.N b +.+.Q Q +.+.{ { 8 8 b b b N b b N b 6 6 b b b b { { b N b b >.6 N N b b b N N >.b b b N b b >.Q N b 6 6 b b 6 6 b b b b o o N N N b N >.A A p p ! ! ! ! _._.< < | | < < | | | | | | | ",
"< | | | <.<.| < < < < :.:.! ! ! ! p p +.+.N N >.>.+.+.B B N N b b b N b b +.+.N b N N >.>.+.+.N b b N N >.b N N b N N 6 Q b b b b N b b >.Q b >.Q b b +.+.N b 8 8 { { b N b b b b b b N b { { b b C C C C l l { { +.+.~ { { { +.+.{ { +.+.~ ~ @.@.{ ~ { { ~ { { { ~ { +.+.+.+.+.+.@.@.{ { {.{.@.@.- C - - A A B B Y Y W W B B B E > > A C A A C #.E E A C A A A A E B Y Y A A #.C O O D D D D X X A A #.#.l l E E A C C - A A C C A A C C l l B B > > A C A A B E E > A C - - +.+.@.~ +.+.+.+.+.+.+.+.+.+.@.~ { ~ ~ ~ +.+.@.~ { { - - { { ~ { b b { { { ~ { { b b N N - - A A C C +.+.N b +.+.N N +.+.Q Q +.+.{ { 8 8 b b b N b b N b 6 6 b b b b { { b b b N 6 Q N N b b N N >.>.b b b b N b Q Q N b 6 6 b b 6 6 N b b b o o N N N b N >.A A p p ! ! ! ! _._.< < | | < < <.| | | | | | ",
"<.| | | | < < | <.< < }.}.! ! ! ! _ _ @.@.N N N b +.+.Y Y b b b N +.+.{ { +.+.{ { b b b N b b b b b N N N >.>.~ ~ h h N N N b b b b N +.+.b b { { b b ~ { C - > > C - { { b b b N >.>.b N N N +.+.b N > > +.+.N b N N ~ ~ +.+.@.~ +.+.@.~ +.N @.@.+.+.C C N N @.@.@.{ @.@.A A B E - - E > A C E E A C A A @.@.- C ~ @.@.@.@.@.- C ~ @.- - @.@.A #.@.@.C A @.~ A A W W l l C C C C X X D D D D O O @.@.- C Y Y W W @.@.- C ~ @.- - @.@.- C ~ @.- C @.@.C C ~ ~ @.@.@.@.- C - - > > C A B E @.@.- C A A A A ~ ~ @.@.@.@.@.@.@.@.@.{ N N { { { { ~ { b b { { ~ { +.+.b b +.+.@.~ b b N N ~ ~ +.+.+.+.>.>.>.>.>.Q - - @.@.> > b b b b b N b b 6 6 b b b b { { 6 6 8 8 +.+.N N >.>.N N b b N N N b b N >.>.+.+.N b N b N b N N B B +.+.>.>.b N A A p p _ _ _ _ :.:.| | < < | | | | | | <.<.| ",
"| | | | | < < <.| < < }.}.! ! ! ! _ _ @.@.b N N N +.+.Y Y b b b N +.+.{ { +.+.~ { b b b N b b b b b b N N Q >.{ ~ h h N N N b b b b b +.+.N b { { N b { { - - E > - - { { b b b N >.>.b N N b +.+.b N > > +.+.N N N N { ~ +.+.@.~ b +.@.~ b +.@.@.+.+.C C N N @.@.{ @.@.@.A A B E - - E > - A B E - C C A @.~ C C @.@.@.@.@.@.C C ~ @.C - ~ @.A #.@.@.C A ~ ~ A A W W l l C C C C X X D D D D O O @.@.- C Y Y E E @.@.- C ~ @.- - @.@.- C ~ @.#.#.@.~ A C ~ ~ @.@.@.@.C C - - > > A C E E @.@.- C A A A A ~ ~ @.@.@.@.@.@.@.@.@.~ N N { { { ~ { { b b { { { { +.+.b b +.+.~ ~ N b b N ~ ~ +.+.+.+.Q >.>.Q Q Q - - @.@.> > b b b b b b N b Q 6 N b b b { { 6 6 8 8 +.+.N N b >.N N b b N N N N N N >.>.+.+.b N b N N b N N B B +.+.>.>.N N A A p p _ _ _ _ :.:.| | < < | | | | | | <.<.| ",
"| | | <.<.| | < < < < :.:.! ! ! ! ! ! ~ ~ N b >.>.~ ~ E E N N +.+.~ { 8 8 b b b N +.+.b b { { b b +.+.N b { +.C - { { B B { { b N { { b N b b N b { { b N ~ { { ~ { { b b { { +.+.+.+.N N { +.N N b N N N N b N N @.@.{ @.@.@.@.{ @.@.@.@.> E A C A A B E E E A C C C @.@.C C - - @.@.{ { ~ @.@.~ ~ @.@.~ @.@.~ @.@.{.{ { ~ @.~ ~ ~ @.@.{ - - @.@.C C @.@.C C C C B B E B C C C #.O O D D D D s s C C @.@.l l E E A A C - A C @.~ @.@.{ @.@.@.~ ~ A C @.~ @.@.~ @.@.@.{ { @.@.{ @.@.@.~ { @.@.~ ~ A C @.@.- C A A A A A A C A A A > > C A B B - - @.@.{ { ~ { b b { { N N +.+.N b { { b N +.+.N N +.+.b N N N N b > > { { +.+.b N N >.b b N b b b N b +.+.A A +.+.B E >.>.N N >.>.b N N b +.+.>.>.b N >.>.8 8 b N { { N N l l N N N b N N E E p p m ! _ ! _._.< < | | | | | | | | | | | ",
"| | | | <.| | < < < < :.:.! ! ! ! ! ! ~ ~ N b >.>.~ ~ E E N N +.+.~ { 8 8 b N b b +.+.b b { { b b +.+.b b +.+.- - { { B B { { N b { { b N N b N b { { b b ~ { { ~ { { b b { { +.+.+.+.N N { +.N N N N N b N N N N @.@.{ @.@.@.~ { @.@.@.@.E E A C A A E E E E A C C C @.@.- C - - @.@.~ { @.@.@.~ ~ @.@.~ @.@.@.~ @.@.{ { ~ @.~ ~ @.@.{ @.- - @.@.C C @.~ C C C #.B B E B C C C C O O D D D D s s C C @.@.l l E E A C A - A C @.@.@.@.@.~ @.@.{ @.C C @.@.@.@.~ @.@.@.{ { @.@.~ ~ ~ @.@.{ ~ @.@.{ C C @.@.C C A A A A C A A C C A > > C A B B - - @.@.{ { { ~ b b { { b N +.+.N b { { N b +.+.N N +.+.b N N b b b > > { { +.+.b N N >.b b N b b b b N +.+.A A +.+.B E >.>.N N b >.b N N b +.+.>.>.N N >.>.8 8 b N { { b N l l N N N N b N E E p p ! ! _ ! _._.< < <.| | | | | | | | | <.",
"<.| | | | < < <.<.< < }.}.! ! ! ! ! _ @.@.N N N N +.+.Y Y b b { ~ ~ { 6 6 - - { { b b b N >.>.b N b b b b N b A A A A ~ @.b N b b b N +.+.b b N N N b +.+.+.+.{ { b b b N ~ +.{ { N N { ~ +.+.@.~ { ~ B B E B C C A A B E A A C #.@.@.- C ~ @.- - @.@.@.@.{ { ~ { { { @.@.~ { @.@.+.+.@.~ { { @.@.~ ~ @.@.~ { @.@.{ @.@.@.~ { @.@.@.{ C - @.@.C A @.@.- C Q Q +.+.A A x x A C C C X X D D D D O O @.@.C - Y Y W W +.+.@.~ - - A C @.~ @.@.~ ~ @.@.{ ~ @.@.{ { ~ ~ ~ { ~ ~ ~ { @.@.{ { @.@.{ { @.@.{ { ~ ~ ~ { @.@.+.+.{ ~ ~ { @.@.@.~ C C @.@.C C A A B E - C C C - - > > > > > > { { ~ { +.+.{ { b N +.+.b b b N b b { { >.>.b N >.b b N Q Q N b b b { { A A B E { { N N >.>.N N >.>.N N >.>.b N { { > > 6 6 - C { { ~ { o o +.+.>.>.N N A A p p _ _ _ _ :.:.| | <.| | | | | | ) | | <.",
"<.| | | | < < <.<.< < _.}.! ! ! ! _ _ @.@.N N N N +.+.Y Y b b ~ ~ ~ { 6 6 - C { { b N b b Q >.+.b N b b b N b A A A A ~ @.b N b b b b +.+.b b N b b b +.+.+.+.{ { b b N N +.+.~ { N N { ~ +.+.@.~ ~ ~ E B B E C C C A B B A A C #.@.@.C - @.@.- C ~ @.- @.{ { ~ ~ { { ~ @.~ { @.@.+.+.@.~ ~ { @.@.~ ~ @.@.{ { @.@.~ ~ @.@.{ @.@.@.~ { - - @.@.C A @.@.C - Q Q +.+.A A x x A C C C X X D D D D O O @.@.C - Y Y E E +.+.@.~ - - A C ~ ~ @.@.{ ~ @.@.~ ~ @.@.{ ~ { ~ ~ { @.~ ~ { @.@.{ { ~ @.~ { @.@.{ { {.~ ~ { @.@.+.+.~ @.{ { @.@.@.~ C C @.~ C C C A > E A C C C - - > > > > > > { { ~ { +.+.{ { N b +.+.N b b b b N { { >.>.b N >.b N N Q >.N b b b { { C A B E { { N b >.>.N N Q >.N N >.>.b N { { > > 6 6 C C { { ~ { o o +.+.>.>.N N A A _ _ _ _ _ _ :.:.| | <.<.| | | | | ) | | <.",
"| | | <.<.| | < < < < :.:.! ! ! ! ! ! ~ ~ N b N N {.{.B B { { { { > > o o { { >.>.b N b b { { b b +.+.>.>.b N b b { { b N +.+.N b { { N b { { ~ { - - { { - - { { B B E > > > A C E > A C - C C - - C C - - C +.+.@.~ { ~ @.@.{ @.~ ~ +.+.{ { ~ { { ~ ~ ~ { ~ +.+.@.~ { ~ @.@.{ { ~ ~ +.+.@.~ { ~ @.@.{ { ~ @.~ ~ @.@.@.{ @.@.@.~ @.@.{ @.- - @.@.C - @.@.@.@.@.@.l l l l A A C #.O O D D D D X s C C @.~ x x E E @.@.{ { C C @.@.C - @.~ - - @.~ ~ @.@.{ ~ @.@.{ { ~ +.+.@.~ +.+.~ ~ ~ { ~ ~ +.+.~ ~ +.+.~ ~ +.+.~ ~ { { ~ { +.+.~ ~ ~ { @.~ ~ { ~ @.{ { @.~ +.+.- - @.@.C A - - B o o o E E A C A C @.@.> > C A @.@.{ { {.~ +.+.{ { b N N N b N N N b b +.+.b b +.+.N b +.+.b N +.+.b N b N >.>.{ { A C o o > > { { Q Q o o N b b N N >.E E p p ! ! ! ! _._.< < | <.| | | <.| | <.| | ",
"| | | <.<.| | < < < < :.:.! ! ! _ ! ! @.~ N N N b {.{.B B { { ~ { > > o o { { >.>.b N b b { { b N +.+.>.>.b N >.b { { b N +.+.b b { { b b { { ~ { - - { { - - { { B B > > > > C A > > C A C C - - C C C - - C +.+.@.~ ~ { @.@.{ @.~ ~ +.+.{ { ~ { { ~ ~ ~ ~ { +.+.@.~ { ~ @.@.{ { { ~ +.+.@.~ ~ { @.@.{ { ~ @.@.{ @.@.@.~ @.@.@.{ @.@.@.~ - - @.@.C C @.@.@.@.@.~ l l l l A A #.#.O O D D D D s s C C @.~ x x E E @.@.{ { A C @.@.- C ~ @.- - ~ ~ @.@.{ ~ @.@.{ { { ~ +.+.~ ~ +.+.{ ~ ~ { @.~ +.+.@.~ +.+.~ ~ +.+.~ ~ { { ~ { +.+.{ ~ { { { ~ { { ~ @.{ ~ @.@.+.+.C - @.@.A A C - o o o o E E A C C A #.@.> > A C @.@.{ { {.~ +.+.{ { N N N N b N N N b b +.+.b b +.+.b b +.+.N N +.+.N b b N >.>.~ { C A o o > > { { >.Q o o N b N N Q >.B E p p ! ! _ ! _._.< < | | | | <.| | | <.| | ",
"<.<.| | | | <.| | <.| _._.! ! ! ! _ _ @.@.N N N N N N Y Y b N +.+.N b { { N N N b N N +.+.+.+.+.+.N N +.+.N N +.+.+.+.@.~ { { - - A C E E A C B B A A > > C - A A C #.C C { { C - ~ ~ ~ { ~ ~ @.@.{ { @.@.+.+.@.~ +.+.~ ~ ~ { @.~ +.+.{.~ +.+.~ @.~ ~ ~ { N N { ~ +.+.~ ~ ~ { ~ ~ { { ~ @.~ ~ - - @.~ ~ ~ ~ { - - @.~ C C @.~ - - @.~ @.@.{ @.- - @.@.- C B B B E B B Y l C #.C C X X D D D D O O @.@.- C Y l l l A A A A ~ @.C C @.~ - - @.@.C - @.@.- - @.~ ~ @.@.{ @.@.@.~ @.@.~ ~ @.~ +.+.~ ~ +.+.{ ~ +.+.{ { +.+.@.~ +.+.~ { +.+.{ ~ { { ~ @.+.+.{ { { ~ { { ~ ~ - - { { @.@.{ { {.~ ~ ~ @.@.@.@.C A - - A A C - > > > E E > @.@.- C - - A A C - @.@.+.+.+.+.+.+.+.+.+.+.+.+.b N +.+.N N +.+.b N +.+.>.>.+.+.N N { ~ B B { { >.>.+.+.C A _ _ _ _ _ _ :.:.| | <.| | | | | <.| | <.:.",
"<.<.| | | | | <.| | | _._.! ! ! ! ! _ @.@.N N N N N N l Y b N +.+.N N { { N N N b N N +.+.+.+.+.+.N N +.+.N N +.+.+.+.@.~ { { - - C C E E A C B B A A > > C - A A A C #.C { { - - @.~ ~ ~ ~ { @.@.{ { @.@.+.+.~ ~ +.+.{ ~ +.{ { ~ +.+.{.~ +.+.@.~ ~ ~ ~ { N N { { +.+.@.~ { ~ @.~ ~ { @.@.{ ~ - - ~ ~ ~ { ~ ~ - - @.~ C C @.~ C - @.~ @.@.@.{ C - @.@.- C B B B B E B l l C C C C X X D D D D O O @.@.C C l l l l C A A A ~ @.C C @.~ - - @.@.- - @.@.- - ~ ~ @.@.{ ~ @.@.~ ~ ~ @.~ ~ ~ @.+.+.~ ~ +.+.{ ~ +.+.{ ~ +.+.@.~ +.+.~ { +.+.{ ~ ~ { @.@.+.+.{ ~ { { { ~ { { - - { { @.@.{ { ~ ~ { ~ ~ @.@.@.A A C - A A C - > > > E E > @.@.C - - - A A - - @.@.+.+.+.+.+.+.+.+.+.+.+.+.N N +.+.N N +.+.N N +.+.Q >.+.+.N N { ~ B B { { >.>.+.+.A A p p _ _ _ _ :.:.| | <.| <.| | | | <.| <.:.",
"| | | <.| | | <.<.<.| :.:._ _ _ ! p p ~ ~ +.+.N N {.{.B B +.+.>.>.{ { N N +.+.N N ~ ~ ~ { C C A C B B C A B B E B B B - C E > - - A C ~ ~ @.@.@.~ ~ ~ ~ ~ C C @.@.@.@.@.@.C - ~ { { @.+.+.~ ~ { { @.@.{ @.~ ~ ~ ~ { @.~ +.+.~ +.+.@.~ +.+.{.~ ~ +.@.@.@.{ N +.N N ~ ~ +.+.@.@.+.+.~ ~ ~ { @.@.~ ~ @.~ ~ { @.@.~ ~ @.@.@.@.C - @.@.- C ~ @.- - @.@.C - @.@.A A C #.l Y Y Y A A #.C O O D D D D X s C C #.C l l E E A A @.~ C C @.~ C - @.@.- C ~ @.- - @.@.@.@.{ @.@.@.{ ~ @.@.~ @.~ @.@.~ @.@.~ { { ~ { { ~ ~ { { ~ @.~ { @.@.@.{ ~ ~ +.+.{ ~ +.{ ~ ~ @.@.~ @.{ { C - { { - C { { @.~ ~ { @.@.+.+.{ ~ ~ { C - @.@.- - ~ @.C - @.@.@.@.@.@.C C @.@.> > C - B B E B A A C #.C C C C A A @.~ ~ ~ +.+.+.+.b N +.+.b N +.+.+.+.l l +.+.+.+.+.+.E E p p ! ! ! ! _._.< < <.| | | <.<.| <.| <.| ",
"| | | | | | | <.<.| | :.:._ _ _ ! p p ~ ~ +.+.N N {.{.B B +.+.>.>.{ { b N +.+.N N ~ ~ ~ ~ C C A A B B C A B B E B B B C C E E - - A C ~ ~ @.@.{ ~ ~ ~ ~ { C C @.~ @.@.@.@.- C { { ~ @.+.+.{ ~ { { @.@.~ ~ ~ { ~ ~ @.~ +.+.{ ~ +.+.@.~ +.+.{.~ +.+.@.@.{ @.~ +.N N ~ ~ +.+.@.~ +.+.~ { +.{ @.@.~ ~ @.@.{ { @.@.~ ~ @.@.@.@.C - @.@.- - ~ @.- - @.@.C C @.@.C A A C Y Y Y Y A A #.#.O O D D D D s s C C #.#.l l E E A C @.@.- C ~ @.- - @.@.- - @.~ C - @.~ @.@.~ ~ @.@.~ ~ ~ @.~ ~ ~ @.~ @.@.@.{ { ~ { { ~ ~ { { { ~ @.~ { @.@.~ ~ { @.~ +.+.{ +.+.~ ~ ~ @.~ @.{ { C - { { - - { { @.~ ~ { @.@.+.+.~ { { { - - @.@.C - @.@.- C ~ @.@.@.@.@.C C @.~ > > C - B B B E A A C #.C C C C C A @.@.{ @.~ +.+.+.b N +.+.N N +.+.+.+.Y l +.+.+.+.+.+.E E p p ! ! _ ! _._.< < <.| | | <.<.| | | <.| ",
"<.| | | | | | | | | | _._.! ! ! ! _ _ @.@.N N {.{.{.{.Y Y A A B E E > A C A A E E A C A A C C ~ @.@.{.C C C A A A A C #.C ~ @.@.@.{ { ~ @.{ { ~ @.+.+.@.~ { ~ - - @.~ C - ~ { ~ ~ +.+.@.@.{ { {.~ ~ ~ ~ @.+.+.@.~ +.+.~ ~ ~ ~ { @.~ +.+.~ +.+.@.~ +.+.~ { +.+.{ { @.~ @.@.@.~ ~ { @.{ - - ~ @.- - @.~ ~ @.~ ~ - - @.~ C - ~ ~ - - @.@.- - ~ @.- C @.~ C - @.~ A C E > x x A C C C X X D D D D O O @.@.A A Y Y B B A C C A - - A C @.@.- C ~ @.@.@.@.@.A C ~ @.~ @.@.{ @.@.~ ~ @.~ ~ { @.@.{ { @.@.~ { @.@.@.~ @.~ ~ { { ~ ~ { { @.{ ~ ~ @.+.+.@.~ { { @.@.{ { @.@.{ { @.@.~ @.C - { { @.@.~ { @.{ +.+.{ @.{ { ~ @.~ { - - +.+.{ { +.+.@.~ ~ { @.~ ~ ~ C C @.@.- C ~ @.A A ~ @.@.@.~ ~ C A B B Y l E E A A A A C A A C B B E B +.+.>.>.+.+.A A _ _ _ _ _ _ ; ; | | | | | | | | | | | | :.",
"<.| | | | | | | | | | _._.! ! ! ! _ _ @.@.N N {.{.{.{.Y Y A A B E > > C - A A E E A C A A C C @.@.~ @.C C C C A A A C C C ~ @.@.~ { { ~ @.{ { ~ @.+.+.@.~ ~ { - - @.~ - - { { ~ ~ +.+.@.~ ~ { @.~ ~ ~ @.@.+.+.@.~ +.+.~ ~ ~ ~ ~ @.+.+.~ ~ +.+.{ ~ +.+.@.~ b +.@.{ ~ ~ ~ @.~ ~ ~ ~ ~ { - - ~ @.C - @.~ @.@.~ ~ - - ~ ~ - - ~ ~ - - @.@.C - @.@.C - @.@.A C @.~ C C E E x x A C C C X X D D D D O O @.@.C A Y Y B B - C A A C - A C @.~ C - @.~ @.@.@.@.C A ~ ~ @.@.{ ~ C @.@.~ @.~ ~ { @.@.{ { ~ @.{ { @.@.~ ~ ~ @.{ { @.~ { { ~ @.~ { @.@.+.+.~ ~ ~ { { @.{ { @.@.~ { { @.~ { C - { { ~ @.~ { @.{ +.+.{ ~ @.{ { @.~ ~ - - +.+.{ { +.+.~ { { { ~ @.~ ~ - C @.~ C - @.~ A A @.@.@.@.{ ~ C A B B l l E E A A A A A A C A B B E B +.+.Q >.+.+.A A _ _ _ _ _ _ ; ; | | | | | | | | | | | | :.",
"| | | | | | | <.<.| | :.:._ _ _ _ _ _ ~ ~ ~ {.N N { ~ B B C C C #.> > A - A A @.~ @.@.+.+.C - ~ ~ @.@.{ ~ @.~ ~ ~ - C ~ @.C - @.~ ~ @.+.+.~ ~ ~ { - - @.~ ~ @.~ { @.@.{ { ~ ~ { { @.@.{ { @.@.~ @.C - ~ ~ ~ @.+.+.~ ~ +.+.@.@.~ @.@.~ +.+.~ ~ +.+.@.@.@.{ ~ ~ +.+.@.@.@.~ ~ @.@.~ ~ @.~ @.@.@.@.~ @.@.{ @.@.@.~ { - - @.~ - - @.@.C - @.@.C C @.@.C C @.@.A A C C l Y Y Y A A C #.O O D D D D s s C C #.#.x x E E A C A #.C A - - A C @.~ C C @.@.A C @.@.@.@.{ @.@.@.~ { @.@.{ { - @.~ ~ @.~ { { ~ { { ~ ~ { +.+.@.~ { ~ @.@.{ { { { b N @.{ { { ~ @.~ { @.@.~ ~ ~ @.@.{ - - @.@.- - ~ { @.~ ~ { { { +.+.~ @.{ { ~ @.~ ~ @.~ +.+.@.@.{ @.~ ~ ~ +.C - C C C #.~ @.@.{.@.~ ~ ~ ~ ~ @.@.+.+.@.~ ~ { C C C #.> C @.~ C C C C l l N N N b N N E E _ p ! ! ! ! _._.< < <.| | | | | <.| :.:.<.",
"| | | | | | | <.<.| | :.:._ _ _ _ _ _ ~ ~ ~ {.N N { ~ B B C C C A > E A - A A @.~ @.@.+.+.C C @.~ @.@.{ ~ @.~ ~ ~ - C ~ @.- - @.~ ~ @.+.+.@.~ { { - - ~ ~ @.@.{ ~ @.@.{ { { ~ { { ~ @.{ { @.@.@.@.C - @.@.~ @.+.+.@.~ +.+.~ ~ ~ ~ @.~ +.+.@.~ +.+.@.~ ~ ~ ~ ~ +.+.@.@.@.~ ~ @.@.~ @.@.~ @.@.@.@.~ @.@.{ @.@.@.~ { - - ~ ~ - - @.@.- C ~ @.A C @.~ C - @.~ A A A C Y Y Y Y A A #.#.O O D D D D X s C C C #.x x E E A A C #.C A - - A C @.@.A C @.@.A C @.@.@.~ ~ { @.@.{ { ~ @.~ { @.@.~ ~ @.~ ~ { { ~ ~ { @.~ +.+.~ ~ ~ { @.@.{ { { { b N @.{ { { @.@.~ { @.@.{ @.@.@.~ { - - ~ @.- - { { @.@.{ { ~ { +.+.~ ~ { { ~ @.~ ~ @.~ +.+.@.~ { ~ @.~ +.+.- - A C C C @.~ @.@.~ ~ ~ { ~ ~ @.~ +.+.@.~ { ~ C C C #.> C @.@.- C A C l l N N N N N b E E p p ! ! ! ! _._.< < <.| | | | | | | :.:.<.",
"U | | <.<.| | | | < < _._.! ! ! ! p p C C N N +.+.+.+.E E - - A A - C C A @.@.- C ~ @.~ @.@.{ { ~ @.~ @.@.{ { ~ { ~ ~ @.~ @.@.~ @.@.~ @.@.~ { @.@.~ @.@.@.+.+.@.~ ~ { @.~ +.+.~ @.+.+.@.~ ~ { @.@.~ ~ @.@.+.+.@.~ +.+.@.~ ~ { @.@.~ ~ ~ @.+.+.@.@.~ ~ @.~ ~ ~ ~ @.@.~ ~ { +.+.@.~ @.~ @.@.~ @.~ @.{ ~ ~ @.@.{ ~ @.@.~ @.@.@.~ C A #.@.C C @.@.C C C #.A A C #.C A B B x x A C C C X X D D D D O O #.C W W E E Y Y #.C W W C C C A @.@.C - @.@.A C @.@.#.C ~ ~ C A #.@.@.@.~ ~ @.@.{ ~ @.@.~ ~ @.@.~ @.~ @.~ ~ ~ @.@.~ ~ @.+.+.@.~ +.+.~ { +.+.@.@.+.+.~ @.@.{ @.@.@.~ @.@.@.@.@.@.@.~ @.@.+.+.~ ~ +.+.@.@.~ { @.@.~ ~ @.@.@.~ @.@.{ ~ ~ @.@.{ ~ @.@.@.C A @.~ @.@.@.~ @.~ ~ { @.@.~ ~ @.@.{ @.- - ~ ~ @.@.@.@.- C @.~ C A B B { ~ +.+.+.+.A A P P P p _ p :.:.| | < < | | | <.<.<.| | :.",
"U | | <.<.| | | | < < _._.! ! ! ! p p C C N N +.+.+.+.E E - - A A C C C A @.@.C - @.@.@.@.{ { ~ @.~ { @.@.{ { ~ { ~ ~ @.@.~ @.@.~ { ~ ~ @.{ { @.@.@.{.~ ~ +.+.@.~ { ~ @.~ +.+.~ @.+.+.@.@.~ ~ @.@.{ ~ @.@.~ +.{ ~ +.+.@.~ ~ @.@.{ ~ @.~ ~ +.+.~ @.@.~ ~ @.~ ~ ~ @.~ ~ { ~ +.+.{ ~ ~ ~ @.@.~ @.~ @.~ ~ @.@.{ ~ @.@.~ @.@.@.@.@.C C ~ @.C A ~ @.C C C #.A A A C - A B B x x A C C C X X D D D D O O #.C W W E E Y Y #.C W W C C C A @.@.C C @.@.C C @.@.C #.~ ~ C C C @.~ @.~ @.@.@.{ @.@.@.{ ~ ~ @.@.~ ~ @.~ ~ @.@.~ ~ @.@.+.+.@.~ +.+.~ { +.+.@.@.+.+.~ @.@.{ @.@.@.~ @.@.@.@.@.@.@.{ @.@.+.+.~ @.+.+.@.~ { { ~ @.~ ~ @.~ { ~ ~ @.@.{ ~ @.@.~ @.@.@.@.A C @.~ ~ @.~ ~ @.@.~ ~ ~ @.@.{ ~ @.@.~ - - @.~ ~ @.~ @.C A ~ ~ C C E B { ~ +.+.+.+.A A p P P p p _ :.:.| | < < | | | <.<.<.| | :.",
"| :.:.<.| | <.< < U U _._.! ! ! ! ! ! @.@.+.+.N N +.+.A A C #.{ { ~ @.~ { ~ @.{ ~ ~ ~ +.+.{ ~ ~ ~ - - ~ @.- - { { @.@.~ @.@.@.{ ~ ~ @.~ @.@.~ ~ @.~ @.@.~ @.@.~ ~ @.@.{ ~ @.~ +.+.@.~ { ~ @.@.{ ~ @.@.@.~ { ~ ~ +.@.~ b +.@.~ ~ ~ @.~ @.~ ~ @.@.~ ~ @.~ ~ ~ @.@.~ ~ @.~ ~ @.@.{ ~ ~ @.~ ~ @.~ ~ { @.@.~ ~ @.@.@.{ @.@.@.~ - C @.~ C - @.~ A A #.C A A #.#.A A C #.l Y B B A A A A p O D D D D s s C A #.#.Y Y B B W W C C C A @.@.C C @.~ C - @.~ A #.~ @.C - @.@.#.C @.@.@.@.~ ~ @.@.{ ~ @.@.~ @.@.@.~ @.@.@.~ ~ @.@.~ ~ { ~ +.+.@.~ ~ ~ @.@.+.+.~ ~ +.+.{ ~ +.+.@.~ b +.@.@.~ ~ @.~ ~ { @.~ +.+.{ ~ +.+.~ ~ ~ { @.@.@.~ ~ @.+.+.~ @.@.{ @.@.~ ~ C C @.@.C C @.~ @.@.@.@.C A ~ ~ @.@.{ { @.@.~ ~ ~ ~ ~ ~ C C @.@.A C ~ @.l l +.+.N N N N W W _ _ ! _ ! ! _._.< < | | < < <.<.| | U U U ",
"| :.:.| | | <.< < U U _._.! ! ! ! ! ! @.@.+.+.N N +.+.A A C #.{ { @.@.{ ~ ~ @.~ ~ ~ @.+.+.~ ~ ~ ~ - - @.@.- - { { @.~ ~ @.@.@.{ ~ ~ @.~ @.@.@.~ @.~ @.{ ~ { @.@.~ ~ @.@.{ ~ @.+.+.@.~ { ~ @.@.{ ~ @.@.@.~ @.~ +.+.~ ~ +.+.{ ~ ~ ~ @.~ @.~ ~ @.@.~ ~ @.~ ~ @.~ ~ @.@.~ @.~ @.@.~ @.@.@.{.~ ~ @.~ ~ @.@.{ @.@.@.~ @.@.@.@.@.C - @.@.A C @.@.C #.#.C A A #.C A A #.C l Y E B A A A A O O D D D D s s C A #.#.Y Y E B W W C C C A @.@.C C @.@.C C @.@.#.C ~ @.C - @.@.- C @.~ ~ @.~ @.@.@.@.{ @.@.~ @.@.@.~ @.@.~ { @.~ @.~ ~ { ~ +.+.@.@.~ ~ @.@.+.+.@.~ +.+.~ { +.+.@.~ +.+.@.@.@.~ ~ ~ { { ~ @.+.+.@.~ +.+.~ ~ ~ ~ @.@.@.~ @.@.+.+.@.~ ~ ~ @.@.{ ~ C C ~ @.C C @.~ @.@.@.@.C A ~ ~ @.@.{ { @.@.~ ~ ~ ~ ~ ~ C C @.@.A C @.@.l l +.+.N N N b E W _ _ ! ! ! ! _._.< < | | < < <.<.| | U U U ",
"U | | :.:.| | <.<.<.| _._.! ! ! ! p p - - N N +.+.N N E E @.@.@.@.{ { @.@.~ @.@.{ { {.~ ~ ~ ~ - - ~ @.C A @.@.@.@.@.~ C C @.~ @.@.@.~ ~ @.@.~ ~ @.~ @.~ @.~ { @.@.{ @.@.@.~ @.~ ~ +.+.~ ~ +.+.@.@.@.~ { @.@.~ @.@.~ @.@.@.@.~ ~ @.~ ~ ~ @.~ ~ ~ @.~ ~ @.@.~ ~ ~ @.~ ~ ~ @.@.{ ~ @.+.+.@.~ { ~ @.@.{ ~ @.@.@.@.C C @.@.- C ~ @.A C @.@.- C #.C A A #.C A A @.@.A A Y Y x x E W W E X X D D D D O O #.C W W Y Y Y Y #.C A A #.C A A #.#.A C C C #.A @.@.- C ~ @.A C @.@.C - ~ @.@.@.@.@.@.@.@.~ @.@.~ @.@.@.{.~ @.~ ~ @.~ ~ {.~ @.@.@.~ { @.~ @.@.~ @.~ ~ @.+.+.~ ~ +.+.@.~ @.@.@.@.+.+.@.~ +.+.~ @.+.+.~ @.+.+.@.~ @.~ @.@.~ @.~ ~ +.+.{ ~ +.+.~ @.@.@.C - { ~ @.@.@.~ A C ~ @.- C @.~ @.@.+.+.@.@.~ ~ C A ~ ~ ~ @.{.~ C C E E +.+.>.>.+.+.C A P P p p p p _._.| | < < <.<.| | U U U U :.",
"U | | :.:.| | <.<.| | _._.! ! ! ! _ p - - N N +.+.N N E E @.@.@.@.{ { ~ @.@.@.{ ~ ~ { { ~ @.~ - - @.@.C A @.@.@.@.@.~ C C ~ ~ @.@.@.~ @.@.~ ~ ~ @.@.~ ~ @.{ ~ ~ @.@.{ ~ @.@.~ @.~ +.+.{ ~ +.+.@.@.@.~ { @.~ ~ @.~ ~ ~ @.@.@.~ ~ @.~ ~ @.~ @.@.~ @.@.~ @.@.~ @.@.@.~ ~ ~ @.~ ~ @.@.+.+.~ @.~ ~ @.@.{ ~ @.@.~ @.C C @.@.C C @.@.#.C @.~ C C C #.C A A #.C A A @.C A Y Y x x E W W W X X D D D D O O #.#.W W l Y Y Y #.C A A #.C A A #.C A C C C #.A @.@.C - @.@.A C @.@.- C @.~ @.~ @.@.@.@.{ ~ @.~ @.@.~ @.@.~ ~ @.@.~ ~ @.@.~ @.@.~ @.@.@.~ ~ @.@.{ ~ ~ ~ +.+.{ ~ +.+.@.@.@.@.@.~ +.+.@.~ +.+.~ @.+.+.@.~ +.+.@.@.@.~ @.@.~ ~ ~ @.+.+.~ ~ +.+.@.@.@.@.- C @.~ @.@.~ @.C C @.@.C A ~ ~ @.@.+.+.@.@.~ ~ C C @.~ ~ @.~ ~ C A E E +.+.>.>.+.+.A A p P p p p p _._.| | < < <.<.| | U U U U :.",
"| :.:.| | U U | | U U _._._ ! ! ! ! ! @.@.+.+.N N +.+.A A C C - - @.~ 8 8 { { { ~ ~ ~ { { ~ @.{ { ~ @.~ ~ ~ @.{ { ~ @.~ ~ @.@.~ @.@.@.~ @.@.@.~ ~ ~ @.{ ~ @.@.@.~ @.@.{ @.@.@.~ @.~ ~ ~ @.~ A @.~ @.@.@.~ @.@.~ ~ @.~ ~ ~ @.@.@.~ @.~ ~ @.{ ~ ~ ~ ~ @.@.{ @.@.@.{ @.@.{ @.@.~ ~ ~ @.@.{ ~ @.@.~ @.@.@.@.@.C - @.@.C - @.@.A C #.C A A #.C A C C C A A A C Q Q >.>.X X x x E E A A O O D D D D s s W W C C Y Y W W +.+.N N A A C #.C A #.C A A C C C A ~ ~ C C @.@.C C @.@.C C @.@.C C @.@.@.~ ~ ~ ~ @.~ ~ @.@.~ @.~ @.@.~ ~ @.@.{ ~ @.@.{ @.@.~ @.~ ~ @.~ @.@.~ ~ ~ @.@.~ ~ @.~ ~ @.~ +.+.~ @.@.{ @.@.~ @.~ @.~ ~ @.@.{ @.@.@.~ @.@.@.+.+.@.~ { ~ #.#.@.@.@.~ ~ ~ @.@.@.~ C C @.@.@.@.+.+.@.~ { ~ @.~ +.+.z z +.+.@.~ { ~ B B N N { ~ N N W W _ _ ! _ ! ! _._.| | <.<.| | :.:.| | :.:.:.",
"| :.:.| | U U | | U U _._.! ! ! ! ! ! @.@.+.+.N N +.+.C A C C - - @.~ 8 8 { { { { ~ ~ ~ { ~ @.~ { @.@.~ @.~ @.{ ~ @.@.~ ~ ~ @.~ @.@.@.@.~ @.@.~ @.@.@.~ ~ @.@.~ @.{ @.@.{ @.@.@.~ { ~ ~ @.~ @.@.~ ~ @.~ ~ ~ @.~ ~ ~ @.@.@.~ - ~ ~ ~ @.~ { @.@.@.{ @.~ ~ ~ @.@.{ @.@.@.@.{ @.~ ~ ~ @.@.{ @.@.@.~ @.@.@.@.@.C C @.@.C C @.@.#.C #.C A A #.C A C C C C A A C Q Q >.>.X X x x E W A A p O D D D D s s W W C C Y Y E E +.+.N N A A C #.C A #.#.A A C C C A ~ ~ C C @.~ C - @.~ C C @.@.A C @.~ @.~ ~ ~ @.@.~ @.@.@.@.~ ~ @.@.{ ~ @.@.~ @.@.{ @.@.@.~ { @.@.~ ~ @.@.~ ~ ~ @.@.~ ~ @.~ ~ { ~ ~ +.@.@.{ ~ @.@.~ @.{ ~ ~ ~ @.@.{ ~ @.@.~ @.@.@.+.+.@.~ { ~ #.#.@.@.@.@.~ @.@.@.@.@.C C @.@.@.@.+.+.@.~ ~ { @.@.+.+.z z +.+.@.~ ~ { B B N N ~ ~ N b W W _ _ ! ! ! ! _._.| | <.<.| | :.:.| | :.:.:.",
"U | | :.:.| | <.<.| | _._.! ! O ! p _ @.@.N N {.{.+.+.B E - - A C @.@.b N B B @.@.{ { - - { { @.@.@.~ @.~ @.~ @.@.~ ~ - - ~ ~ @.@.{ @.@.@.{ ~ @.@.@.~ ~ @.~ ~ @.@.~ ~ ~ @.@.~ ~ @.~ ~ ~ @.~ ~ @.@.@.~ { @.~ @.@.@.@.~ { @.~ @.@.@.{ @.@.@.{ @.@.@.~ @.@.@.@.~ ~ @.@.~ @.@.{ ~ @.@.{ @.@.@.~ @.C C @.@.C C @.@.#.C @.@.A A C #.C A A #.C A C C A A C #.C A B W B B Y Y Y Y #.#.C A X X D D D D O O #.C W W Y Y Y Y A A E E #.C A A #.C C A A C C A C C C A @.@.C C @.@.- C ~ @.A C @.@.C C @.~ @.@.@.{ @.@.@.~ @.~ ~ ~ ~ @.@.{ ~ @.@.~ @.@.~ ~ @.@.@.~ ~ @.@.~ ~ @.@.~ @.@.@.~ ~ @.~ ~ ~ @.@.@.~ - ~ ~ @.@.~ @.@.@.+.+.@.~ ~ ~ @.~ @.~ ~ @.{.{.~ @.~ ~ C #.@.~ @.@.~ @.C A @.~ @.@.{ { ~ @.~ @.@.@.~ @.B B +.+.E E @.@.C C E B ~ ~ N b +.+.A A P P _ _ _ _ _._.; U | | U U | | U U U U :.",
"U | | :.:.| | <.<.| | _._.! ! O ! p _ @.@.N N {.{.+.+.B E - - A C @.@.b b o B @.@.{ { - - { { @.@.~ ~ ~ @.~ ~ @.@.~ ~ - C ~ ~ @.@.~ ~ @.@.@.@.@.@.~ @.@.~ { ~ @.@.~ ~ @.@.~ ~ @.~ ~ ~ @.~ @.~ ~ @.@.~ { @.~ @.@.@.@.~ @.@.~ ~ @.@.@.{ @.~ ~ ~ @.@.~ ~ @.@.@.~ ~ @.{ ~ ~ @.@.{ @.@.@.~ @.~ ~ ~ C C @.@.C C @.@.#.C @.@.C A #.C A A #.C A C C #.C A A #.C A W W E B Y Y Y Y #.#.C A X X D D D D O O #.#.W W l Y Y Y A A E E #.C A A #.C A C C C C A C C C A @.@.C C @.@.C - @.@.A C @.@.C C @.~ @.@.~ ~ @.@.{ ~ @.@.~ @.@.@.~ ~ @.@.{ ~ @.@.~ ~ ~ @.@.~ ~ @.@.~ ~ @.@.~ @.@.~ ~ @.@.@.~ ~ @.~ ~ @.@.@.~ ~ @.@.~ @.@.+.+.~ @.~ ~ @.~ ~ ~ @.@.{.{.~ @.~ ~ C C @.~ { @.{ ~ C A @.~ @.@.{ { { ~ @.~ ~ @.@.@.B B +.+.E E @.@.C C E B ~ ~ N N +.+.A A P P _ _ _ _ _._.U U | | U U <.| U U U U :.",
"| :.:.| | U U | | U U _._.! _ _ _ _ _ @.@.+.+.+.+.@.~ A A C - A C E E ( ( A A @.~ ~ @.@.{ ~ @.{ ~ ~ @.@.{ - - @.~ - - @.@.~ @.~ ~ @.@.@.{ ~ @.~ ~ ~ @.~ { @.@.{ @.@.@.~ ~ @.@.@.{ @.@.~ @.~ @.~ ~ ~ @.@.{ @.@.~ ~ @.@.~ ~ @.@.~ ~ @.~ ~ ~ @.@.~ ~ ~ @.@.{ ~ @.@.~ @.@.@.~ @.@.{ @.@.@.~ @.C C @.~ C - @.~ A A #.@.C - C C A A C C A A C #.A A C C A A C #.E E A C Y Y Y Y W W C C O O D D D D s s W W C C l Y B B E E A A W W C C C A A C W W C C C A C A C A C C A A @.@.C C @.@.- C ~ @.- C ~ @.@.@.~ ~ @.@.{ ~ @.@.~ @.@.@.~ @.C C @.~ @.@.~ ~ ~ @.@.{ @.@.@.~ ~ @.@.~ ~ @.@.{ ~ @.+.+.@.~ ~ ~ @.@.~ { @.@.~ ~ ~ @.~ ~ @.@.+.+.~ @.@.~ @.@.{.{.#.C @.~ ~ @.~ ~ @.@.@.@.@.@.@.~ ~ @.+.+.@.~ +.+.@.~ - A B E - A A C - A l l +.+.N N N N W W _ _ _ ! ! ! }._.< < <.| | | U U | | U U U ",
"<.:.:.| | U U | | U U _._.! _ _ _ _ _ @.@.+.+.+.+.~ ~ A C C C - - > E ( ( A A @.~ @.@.{ { @.@.{ { ~ @.@.{ C - ~ ~ - - @.@.~ @.@.~ @.@.{ @.@.@.~ ~ @.@.~ { ~ @.~ ~ @.@.~ ~ ~ @.@.~ ~ @.@.~ ~ @.~ ~ @.@.{ @.@.~ ~ ~ @.@.~ @.@.@.{ @.@.~ ~ ~ @.@.~ ~ @.@.{ @.@.@.~ @.~ ~ ~ ~ ~ @.@.{ ~ @.@.~ C C @.@.C C @.@.#.C @.@.C C A C C A C #.C A A #.A A A C C A C A E E A C Y Y Y Y W W C C O O D D D D s s W W C C l l B B W W C A W W C C A A C #.E E C C C A C A C A C C A A @.~ C C @.@.C C @.@.C C @.@.@.@.~ ~ @.@.@.{ @.@.@.~ @.~ ~ ~ C C @.~ @.@.~ ~ @.@.{ @.@.@.~ ~ ~ @.@.~ ~ @.{ ~ @.@.+.+.@.~ ~ @.@.@.~ { @.@.~ ~ ~ @.~ ~ ~ @.+.+.@.@.@.~ @.@.~ {.#.C ~ ~ @.~ ~ { @.@.~ @.@.@.@.~ @.@.+.+.@.~ +.+.~ ~ A A B E A A A C - A l l +.+.N N N N W W _ _ ! ! ! ! ; _.< < <.| | | U U | | U U U ",
"U | | :.:.| | <.<.| | _._.! ! ! ! _ _ C C +.+.@.~ b +.B B @.@.@.@.C A @.~ ~ { { ~ { { - - { { ~ @.~ ~ C - { ~ @.~ ~ ~ @.@.@.~ ~ @.{.~ @.@.@.{ ~ @.~ ~ @.@.@.~ ~ @.@.{ @.@.@.~ @.@.~ ~ ~ @.@.~ ~ @.@.~ ~ @.@.{ @.@.@.~ @.~ ~ ~ ~ @.@.{ @.@.@.~ @.~ ~ ~ ~ @.~ ~ @.@.{ ~ @.@.~ @.C C @.~ C - @.~ A A #.@.C C C A C A ~ @.C A #.#.C A A #.C A C C A A A C C A A C E E E B l l C C W W X X D D D D O O #.C W W Y Y l l C C W E A C W W C C W W C A E W C C C A C A A A C C C A ~ @.C C @.@.C C ~ @.C C @.@.~ @.{ ~ @.@.@.{ @.@.@.~ @.@.@.@.C C @.@.~ @.~ ~ @.@.@.{ @.@.@.~ @.~ ~ ~ ~ @.~ ~ @.@.~ ~ @.@.@.{ @.@.~ ~ @.@.~ ~ @.~ ~ ~ @.~ { ~ ~ @.~ ~ @.@.~ ~ @.@.{ ~ ~ @.@.~ ~ @.@.~ ~ @.{ ~ @.~ @.@.~ @.@.~ ~ @.C C C - @.@.E E B B { ~ +.+.+.+.A A p P p _ _ _ _._.| | < < <.| | | U U | | :.",
"U | | :.:.| | <.<.| | _._.! ! ! ! _ _ C C +.+.~ ~ +.+.B B @.@.@.@.A A @.@.{ { { { ~ { - - { { ~ @.~ ~ - - { ~ @.@.~ ~ ~ @.@.~ ~ @.~ ~ @.@.@.{ ~ @.~ ~ @.@.@.~ @.@.{ @.@.@.~ @.@.@.~ ~ @.@.{ @.@.@.{ ~ @.@.{ @.@.@.~ @.~ ~ ~ ~ @.~ ~ ~ @.@.{ ~ @.@.~ @.@.@.~ @.@.@.{ @.@.@.~ @.C C ~ ~ A C @.@.C - @.@.A C C C A A @.~ A A C #.C A #.#.A A C C C A A - A A A A E B B B Y l #.C W W X X D D D D O O #.C W W Y Y l l C #.E E A C W W C C W W C A W W A C A A A C C A C C A A ~ @.- C @.~ C C @.@.A C @.@.~ @.{ ~ @.@.~ ~ @.@.{ ~ @.@.@.@.- C C @.~ @.~ @.@.@.~ ~ @.@.{ ~ @.@.~ @.@.@.@.~ @.@.{ @.@.@.~ ~ @.@.~ ~ ~ @.@.~ ~ @.~ ~ ~ @.~ @.~ @.~ ~ ~ @.~ ~ ~ @.@.{ ~ @.@.~ ~ @.@.~ ~ @.{ ~ ~ @.@.@.@.@.~ ~ @.@.C C C A @.@.E E B B ~ ~ +.+.+.+.A A p P p _ p p _._.| | < < | | | <.:.U | | :.",
"<.:.:.| | U U | | U U _._.! _ _ p p p @.@.{.{.+.+.~ ~ E E A C @.@.- C ~ @.@.~ ~ @.@.@.~ { @.@.{ @.C - @.@.- C ~ @.C - ~ ~ ~ @.~ ~ @.@.~ ~ @.@.@.~ ~ A @.~ @.~ ~ ~ @.@.{ ~ @.@.~ @.@.@.~ @.@.@.@.{ @.@.@.~ @.~ ~ ~ ~ @.~ ~ @.@.{ @.@.@.~ @.~ ~ ~ ~ @.~ ~ @.@.@.{ @.@.@.~ @.@.@.@.@.@.@.@.@.C C @.@.C - C A A A C C C A C C C A #.C A A #.C A A A C A A C C E E W W l Y Y Y W W C C O O D D D D s m W W C A x x E B B E A A W W C C W W C C W W A - W A A C C A C C A A A C C - ~ @.C - @.@.C - @.@.C C @.@.~ @.~ ~ @.@.~ ~ A C ~ ~ C - @.@.C - @.@.C C @.~ @.@.{ ~ @.@.@.{ @.@.@.~ @.~ ~ ~ C C { @.@.@.~ ~ @.@.@.{ @.@.~ @.~ @.@.~ @.@.@.~ @.@.~ ~ C #.~ @.@.@.~ ~ @.@.~ @.@.@.@.{ ~ ~ ~ { @.~ ~ ~ C C +.+.~ @.@.@.C A C C l l +.+.@.~ +.+.E E _ _ ! ! ! ! _._.| | | | | | :.:.| | :.:.U ",
"| :.:.| | U U | | U U _._.! _ _ p p p ~ @.{.{.+.+.~ {.B E A C @.@.C - @.@.@.~ ~ @.~ @.{ { @.@.{ @.- C @.@.- C ~ @.- - ~ ~ @.@.~ ~ @.@.@.~ @.@.@.~ ~ A @.~ @.@.@.{ @.@.@.~ @.~ ~ ~ ~ @.~ ~ @.@.~ ~ @.@.{ ~ @.@.~ @.@.@.~ @.@.@.~ ~ @.@.{ ~ @.@.~ @.@.@.~ @.@.@.~ ~ ~ @.@.{ ~ @.@.~ @.@.@.~ C C @.@.C C A C C A C C - C C C A A C #.C A A #.C A A - C A C C E > W W l Y Y Y E E C C O O D D D D s m W W C A x x E B E E A C W W C C W W A C W W A C A C C C C A C C A A C C C - ~ @.C C @.~ C C @.@.C C @.@.@.@.~ ~ @.@.{ ~ C C @.~ C A @.@.C C @.@.- C @.~ ~ @.~ ~ @.@.{ ~ @.@.~ @.@.@.~ @.C C { @.@.@.~ ~ @.@.~ ~ ~ @.@.~ ~ @.{ ~ @.@.~ ~ @.@.@.~ C C ~ ~ @.@.~ ~ @.~ @.@.@.@.@.~ ~ ~ { ~ ~ @.~ ~ C C +.+.@.~ @.@.C A #.#.l l +.+.~ ~ +.+.B E _ _ ! _ _ ! _._.| | | | | | :.:.| | :.:.U ",
"U | | <.| | | | | < < _._.! ! ! ! p p C C +.+.~ @.+.+.B E ~ ~ A C ~ { C - ~ { @.@.{ { @.~ { { ~ @.@.~ C - ~ @.- - @.~ C - ~ ~ ~ @.@.{ ~ @.@.~ @.@.~ ~ @.@.~ ~ @.~ ~ { @.@.~ ~ @.@.~ ~ @.@.{ ~ @.@.~ @.@.@.~ @.@.@.~ ~ @.@.{ @.@.@.~ @.~ ~ ~ ~ @.~ ~ @.@.~ ~ ~ @.@.{ ~ @.@.~ @.A C @.@.C A ~ ~ C C @.@.- C C C A A C A A A #.C A A #.C A C C A A A C #.C A #.#.W W E B X X W W E B O O D D D D O O A A B E Y Y B B C C C A A C #.A A C - A C C E W C C A A C #.C A C C C A A C - C @.@.- C ~ @.A C @.@.C - @.@.C A ~ ~ @.@.@.@.- C ~ @.- C @.~ C C ~ @.C C @.~ C - @.~ C C @.@.C A @.~ ~ @.~ @.@.@.@.{ @.@.@.{ @.@.{ @.@.@.~ ~ @.@.{ ~ @.@.@.{ @.@.@.@.C C @.~ C A ~ ~ @.@.{ ~ ~ A { ~ @.@.{ ~ ~ @.~ @.@.~ ~ ~ - C ~ @.A A B E { ~ +.+.{ ~ A A p P p _ _ _ _._.| | <.| <.<.| | U U | | :.",
"U | | <.| | | | | < < _._.! ! ! ! p p C C +.+.~ @.+.+.B E ~ ~ A C ~ { C C { { @.@.{ { @.~ { { @.@.~ ~ - - @.~ C - ~ ~ - - @.~ ~ @.~ @.@.@.{ @.@.@.~ ~ @.@.@.{ @.@.~ ~ @.@.~ ~ @.@.{ ~ @.@.~ @.@.@.~ @.@.@.~ ~ @.@.@.{ @.@.@.~ @.~ ~ ~ ~ @.~ ~ @.@.~ ~ @.@.{ @.@.@.~ @.~ ~ ~ ~ C C @.@.C A ~ ~ C C @.@.C - C A A C C C A A #.#.C A A #.C A C C A A C C C A A C W W B B X X W W B B O O D D D D O O A A B E Y Y E B W C C A #.C C A #.C A A C #.E E C C C A A C A A A C A C C C C C @.@.C C @.@.#.C @.@.- C @.@.C A ~ ~ @.@.@.~ - C ~ @.- C @.@.- C ~ @.C C @.~ - C @.~ C C @.~ C C ~ @.{ @.@.@.@.@.@.~ @.@.~ ~ @.@.{ @.@.@.~ ~ @.@.{ ~ ~ @.@.{ @.@.@.@.C C @.~ C A ~ ~ @.@.{ ~ @.@.~ ~ @.@.{ ~ ~ @.~ @.@.~ ~ ~ C - @.@.A A B E { ~ +.+.@.~ - A p p p p _ _ _._.| | <.| <.<.<.| U U | | :.",
"| <.<.| | U U | | ; ; _._._ _ _ ! ! ! @.@.@.{ +.+.~ {.B B A C ~ ~ - - @.@.C - ~ @.~ ~ { { - - ~ ~ @.@.{ @.C C @.~ - - ~ @.@.@.~ ~ @.@.{ @.@.@.~ @.~ ~ ~ ~ C C @.@.C C @.@.#.C @.@.C C @.@.C C @.~ C - @.@.C A @.@.A C @.@.C C @.~ C C @.@.C C @.~ C C @.@.C C @.@.C C @.@.C C @.@.#.C @.@.C C @.~ C C A C C A A C C A C C A A C #.C A #.#.A A C C W W A A A A C A Y Y Y Y W W C C O O D D D D s m W W A A Y l E E W W C C A A A C C A A C E W - C A A C #.C A A C C A A - A A @.~ A A @.@.A C @.~ C - @.~ A A #.@.C C @.@.C C @.@.A C @.@.C C @.~ C C @.@.C A @.@.C C @.@.C C @.~ C C @.@.C A @.@.C A @.~ C C @.@.@.@.{ @.@.@.~ @.C C @.@.C C ~ @.C C @.@.C A @.@.@.@.@.~ @.@.~ ~ @.~ ~ { @.~ @.~ @.@.~ { @.@.~ @.C C C #.l l +.+.~ ~ +.+.E E _ _ _ ! ! m _._.< < | | | | | | | | U U U ",
"| | <.<.| U U | | ; ; _._._ _ ! _ ! ! @.@.~ ~ +.+.{.~ B B A C ~ ~ - - ~ @.C - {.~ ~ ~ { { - - ~ ~ @.@.~ ~ C C @.~ - - ~ @.@.@.~ ~ @.@.~ ~ ~ @.@.{ ~ @.@.~ C C @.~ C - @.~ A #.~ @.- C @.@.C - @.@.C A @.@.C C @.@.C C @.~ C C @.@.C C @.@.C C @.@.C C @.@.C C @.@.C C @.~ C - @.~ A A #.@.C C @.@.- C C C C A C C A A C C C A C C C A A C #.A C C W W C A A A C #.l Y Y Y W W C C O O D D D D s m E E A C l l E E E E #.C A A #.C A A C C W W C A C C C C C A A C A A C C A A @.@.A A @.~ C C @.@.- C ~ @.A C @.@.C C @.~ A C @.@.C C @.@.C C @.@.C C @.@.C C @.~ C - @.@.C C @.~ C C @.@.C A @.@.C C @.~ C C @.@.@.@.{ @.@.@.~ @.C C @.@.C C ~ @.C C @.@.C A @.@.~ @.~ { @.@.~ ~ ~ @.{ ~ @.@.~ @.@.@.@.~ @.@.~ @.C C C #.l l +.+.~ ~ +.+.B E _ _ _ ! m m _._.< < | | | <.| | | | U U U ",
":.| | <.<.| | U U < < _._.! ! ! m p p A C +.+.@.~ b +.l l C - - - { { - - @.~ @.@.~ ~ - - @.~ C - ~ @.C - @.@.@.- @.@.- C ~ @.~ @.~ @.@.@.~ ~ ~ @.@.{ C C @.@.C C @.@.C - @.@.A C @.@.- C @.@.C #.- @.C C @.@.C C @.@.C C @.@.C C @.~ C C @.@.C A @.@.A C @.@.C C @.@.- C ~ @.A C @.@.C C @.@.- C ~ @.A A - C A A C C A A C A C A C C C A A C #.A C C E E C C C A Y Y X X A C E W m m D D D D O O W W E W l Y Y Y A A A A A C C A A - W A C C W E - C A A A C - A A C A A C C A A C - - C @.~ C - @.~ A A #.@.C C @.@.C C @.@.C A @.@.C C @.@.C C @.@.C C @.@.C C @.@.- C @.~ C C @.@.C C @.@.C C @.@.C C @.@.C C @.@.C C @.~ ~ @.@.@.C C @.@.C C @.@.C C @.@.C A ~ @.@.@.~ ~ @.@.~ @.~ @.~ @.- - @.~ - C @.~ C - @.~ A A B E @.@.+.+.~ @.A A p P p _ _ _ _._.| | | <.U U | <.:.U | | U ",
":.| | <.<.| | U U < < _._.! ! ! ! p p A C +.+.@.~ +.+.l l C - - - { { - - @.~ @.@.~ ~ - - @.~ - - @.@.- C ~ @.- - @.@.C - @.@.@.~ ~ { @.@.~ ~ @.@.~ ~ A C @.@.- C @.@.C C @.@.C C @.@.- C @.@.C C @.@.C C @.@.C C @.@.C C @.@.C C @.@.C C @.@.C C @.@.C C ~ @.A C @.@.- C ~ @.A C @.@.C C @.@.C - @.@.A A A C A A C C C A C A C A A C - A C C A A C #.E E C C C A Y Y X X C C E E m m D D D D O O W W E W Y Y Y Y A A A A A C A A C C C A A C W W C C C A #.C A A - C A A C C A A A C C - ~ @.C C @.~ C - @.~ A A #.@.C C @.@.C A @.~ C C @.@.C C @.~ C C @.@.A C @.~ C A @.@.C C @.@.C C @.@.C C @.@.C C @.@.C C @.@.C C ~ ~ @.@.@.@.C C @.@.C C @.@.C C @.@.C C @.@.@.@.~ ~ @.@.~ ~ ~ @.~ ~ - - @.@.C - @.@.C C @.@.C A B E @.@.+.+.@.~ A A p P p _ _ _ _._.| | | <.U U | | U U | | :.",
"U :.:.| | :.:.| | U U _._._ _ _ _ ! ! @.@.@.{ +.+.~ ~ B B A A @.~ ~ @.@.@.C A ~ ~ - - { ~ ~ @.@.~ C - @.~ - - @.@.A C @.@.C C @.@.C C { ~ @.@.{ @.@.@.~ @.C C @.@.C C ~ @.A C @.@.A C ~ @.C - @.@.C C ~ @.C - @.@.C C @.~ C C @.@.C C @.@.C C @.@.C C @.@.A C @.@.C C @.@.C C A C A A @.@.C C @.~ A A A C A A C C C A A C C A A C - A C C A A A C E E A A @.~ N N l Y Y Y W W W W O O D D D D O O W W E W X X W W #.C ~ {.A A C #.C A #.#.W W C C A A A C - A C C A C C #.A A A C A A C C C C @.@.- C ~ @.A C @.@.C C @.@.C C @.@.C C @.@.C C @.~ C C @.@.A C @.@.C C @.~ C A @.@.@.@.@.{ C A @.@.C C @.@.C C @.@.C C @.@.C C @.@.C C @.@.C C @.@.C C @.@.C C @.@.C C ~ @.C - ~ @.@.@.{ @.@.@.~ @.C C ~ @.C - @.@.C C C C l l { ~ ~ ~ { ~ E E _ _ _ _ m m : : < < | | | | <.<.| | U U U ",
"U :.:.| | :.:.| | U U _._._ _ _ _ ! ! @.@.~ ~ +.+.~ ~ B B A A ~ ~ @.@.@.@.C A ~ ~ - - { @.@.@.~ @.C - @.@.- - @.@.C #.~ @.C A @.@.C C ~ ~ ~ @.@.{ ~ @.@.~ C C @.@.C C ~ @.C C @.@.A C ~ @.C - @.@.C C @.@.C C @.~ C C @.@.C C @.@.C C @.@.C C @.@.C C @.@.C C @.@.C C @.@.C C A C A A @.@.- C ~ @.A A C C A A A C C A A C A A C #.C A #.#.A A C C E E C A @.~ N N l Y Y Y E E W W O O D D D D O O W W E W X X W W C C {.{.A A C #.C A #.#.W W C C C A A C #.A C C C A C C A A A C A A A C - C @.@.C - @.@.A C @.@.C C @.@.C C @.@.A C @.@.C C @.@.C C @.@.C C @.~ C C @.@.C C @.~ ~ @.@.{ C A @.@.C C @.@.C C @.@.C C @.@.C C @.@.C C @.@.C C @.@.C C @.@.C C @.@.C C ~ @.C - ~ @.@.@.@.{ @.@.@.~ - C @.@.- C @.@.C C C C l l { ~ ~ ~ ~ {.E E _ _ _ _ m m : : < < | | | | <.<.| | U U U ",
"U | | | | <.| <.<.< < _._.! ! ! ! _ _ C C +.+.~ ~ ~ { B B @.@.C C - - @.~ +.+.- - ~ ~ - - @.@.- - ~ @.- - ~ @.C A @.@.C C @.~ C C @.@.C C @.@.~ @.~ ~ C C @.@.C C ~ @.C A @.@.A C @.@.A C @.@.C C @.~ C C @.@.C C @.@.C C @.@.C C @.@.C C @.@.C C @.@.C C @.@.C C @.@.C C @.~ A A C C C C @.@.C C C A A C A C C A C - A A C A A A C #.C A #.#.A A C C E W N N #.C x x X X W W W W X X D D D D O O W W W E l l l Y ~ ~ @.@.A A A A C A A C A A W W C C C A #.C A A C C C A A C A C C C A A C C C - ~ @.C C @.@.C C @.@.C A @.@.- C @.~ C C @.@.C - @.@.C C @.@.C C @.~ C C @.@.A C @.~ C A @.~ A C @.@.C C @.@.C C @.@.C C @.@.C C @.@.C C @.@.C C @.@.C C ~ @.C C ~ @.C C @.@.C C @.~ @.@.~ ~ C C @.@.C A @.~ C C @.~ A C B B @.~ +.+.@.@.W W P P p p _ _ _._.| | < < | <.<.| U U | | :.",
"U | | | <.| | | <.< < _._.! ! ! ! _ _ C C +.+.~ ~ ~ { B B @.@.C C C - - @.+.+.- - ~ ~ - - @.~ - - ~ @.- - @.@.- C ~ @.C A @.~ C C @.@.C C @.@.@.@.~ ~ C C @.@.C C ~ @.C C @.~ C - ~ @.A C @.~ A C @.@.C C @.@.C C @.@.C C @.@.C C @.@.C C @.@.C C @.~ C C @.@.C C @.@.C C @.~ C A C C - C @.@.C - A C A A C C A A C C A A C A A A A C - A C C A A C C E E N N #.#.l x X X W W W W X X D D D D O O W W E W Y l l Y ~ ~ ~ A C A A A A C A A C A W W C C A A C C C A A C A C C #.A A A C A A A C C C @.~ C - @.~ C C @.@.A C @.@.- C @.~ C C @.@.A C @.@.C C @.@.C C @.@.C C @.@.C C @.@.C - @.@.C - @.@.C C @.@.C C @.@.C C @.@.C C @.@.C C @.@.C C @.@.C C @.@.C - ~ @.C C @.@.C C @.~ @.@.~ ~ C C @.~ A A @.~ C C @.~ - C E B { ~ +.+.@.@.W W P P P p _ _ _._.<.| < < | <.| | U U | | :.",
"| <.| <.<.| | < < | | ; ; _ _ _ _ ! ! @.@.~ ~ +.+.@.@.W E A C ~ ~ +.+.V V @.@.- C - - @.@.- - @.@.C - ~ @.C C @.@.- C @.~ C C @.@.- C @.@.C C @.@.C C @.@.C C @.@.C C @.@.C C @.@.C C @.@.A C @.@.C A @.@.C C @.~ C C @.@.C C @.@.C C @.@.C C @.@.C C @.@.C C @.@.C C @.@.- C ~ @.A C @.@.C C C A A C C C A A C A C A A C A A C #.C A #.#.A A C C W W C A x l l l X X x l l Y W W O O D D D D O O W W W W l Y B B Y Y l l E E A C E W C C E E C A W W C C A A C C C A A C A A A C A A A C C A A C A C @.~ C C @.@.C C @.@.C C @.~ - C @.@.C - @.@.A C @.@.C C @.@.C C @.@.C C @.@.C C @.~ C C @.@.C C @.@.C C @.@.C C @.@.C C @.@.C C @.@.C C @.@.C A @.@.A C ~ @.C C @.~ C C @.@.C C @.~ ~ @.@.@.C C @.~ z z b N @.@.@.@.l l +.+.{ ~ ~ @.E E _ _ _ _ m m _._.< < | <.| | | | | | U U U ",
"| | <.<.<.| | < < | | ; ; _ _ _ _ ! ! @.@.{ @.~ +.+.@.> E C C @.~ +.+.V V @.@.- C - - @.@.A - @.@.C - @.@.C C @.@.C C @.@.C C ~ @.- C @.@.C C @.@.C C @.@.C A @.@.C - @.~ C C @.@.C C @.@.A C @.@.C A @.@.C C @.~ C C @.@.C C @.@.C C @.@.C C @.@.C C @.@.C - @.@.A C @.@.- C ~ @.A C @.@.C C C C A C C C A A A C C A A C C A A C - A C C A A C C E W C A Y l l l X X l l l Y W W O O D D D D O O W W W E Y Y B B Y Y Y l E E A C E W C A E E A C W W C C C A A C #.A C C A A A C A A C C C A C C A C @.@.- C @.@.C C @.@.- C @.@.C A @.@.- C ~ @.- C @.@.C C @.@.C C @.~ C C @.@.A C @.@.- C @.@.C C @.@.C C @.@.C C @.@.C C @.@.C C @.@.C C @.@.C C @.@.A C @.~ C C @.@.C A @.@.C C ~ @.~ ~ @.@.C C @.~ z z b N @.@.@.@.l l +.+.{ ~ {.~ W E _ p p ! m m _._.< < | | | <.| | | | U U U ",
"U | | <.| | | | | < < _._.! ! ! ! ! _ C A +.+.@.~ { ~ B B #.C A C A A C #.l x A C - - - - @.~ C C ~ @.C C @.@.C C @.@.C C @.@.C C @.@.#.C @.@.- C @.@.C C @.@.C C ~ @.C C @.~ C - @.~ A A #.@.C C @.@.A C @.@.C C @.@.A C @.@.C C @.~ C C @.@.C C @.@.C - @.@.A C ~ @.C - @.@.A C @.@.C C A A A A C C A A C C A A C C C A A C - A C C W W C A W W C A W W C A B B Y Y X X W W Y Y O O D D D D O O W W W E Y x x l E E B B A A > E A C W W C A B W C C W W C C A A C C A A C A C C A C A A C C A A C A A A @.~ A C @.@.C C ~ @.A C ~ @.- C @.@.C C @.@.C C @.@.A C @.@.C C @.@.C C @.@.C C @.@.C C @.@.- C @.@.C C @.@.C C @.@.C C @.@.C C @.@.C C @.@.C C ~ @.C C C #.> C @.@.C A @.@.C - @.@.- C ~ @.A A +.+.B E @.@.- C B B @.@.+.+.~ @.W W _ _ p p p _ _._.| | < < | | < < <.<.| | :.",
"U | | <.| | | | | < < _._.! ! ! ! ! _ A A +.+.~ ~ ~ { B B #.C A C A A A C Y x A C - - - - ~ @.C C ~ @.A C @.@.A C @.~ A C @.~ C - @.~ A A #.@.- C ~ @.C C @.@.C C ~ @.C C @.@.- C ~ @.A C @.@.C C @.@.A C @.@.C C @.@.C A @.@.C C @.~ C C @.@.A C @.@.C C ~ @.C C @.@.- C ~ @.A C @.@.C C A A A A A C C A A C A A C C A A C #.C A #.#.W W C A W W A A W W C A B E Y Y X X W W Y Y O O D D D D O O W W W W l x x l E E E B A A W W C C W W C A W W C C E E C A A A C #.C A C A C C A C A A C C A A C A A A @.@.- C @.@.C C @.@.C A @.@.- C @.@.C C @.@.C C @.@.C C ~ @.C C @.@.C C @.@.C C @.@.C C @.@.- C @.@.C C @.@.C C @.@.C C @.@.C C @.@.C C @.@.C C @.@.C C C #.> C @.@.C C @.@.C A ~ ~ C C @.@.A A +.+.B B @.@.C C B B @.@.+.+.@.~ W W _ _ p p _ _ _._.| | < < | | < < <.<.| | :.",
"| <.<.| | U U | | ; ; _._._ _ ! ! p p C C @.~ { { ~ @.E E A C @.@.> E E E A C ~ { - - C - - - @.~ - C ~ @.- C - - A C - - A C @.@.C C @.@.C C @.@.C C @.@.C C ~ @.C C @.@.- C ~ @.A C @.@.C C @.@.C C @.@.C C @.@.- C @.@.C C @.~ A A @.@.C C @.~ C C @.@.C - @.@.C C @.@.C C @.@.#.C @.@.C A C C C A A C A A C C A A A C - A C C W W C A B W A A W W C A E E E E x x l l l Y W W O O D D D D O O W W W W l x E W W E A C W W A A W W A A E E A A W W C A B E A A E E C - A C A A A A C C A A C A A A A C A A ~ @.C C @.~ C A @.@.C C @.@.A C ~ ~ C C @.@.C A ~ ~ C C @.@.C C @.@.C C @.~ C C @.@.C - @.@.C C @.@.C C @.@.A A A C C C @.@.C C @.@.C C @.@.C A ~ @.A A @.@.A C C C C A @.@.C C @.@.C C C A E E E B A A @.@.l l { ~ ~ @.@.{ E E _ _ P P p O }._.< < | <.| | | | | <.:.U U ",
"| <.<.| | U U | | ; ; _._._ _ ! ! p p C C @.~ { { @.@.E E A C @.@.E E E E A C ~ ~ - - C - C - @.@.C #.@.~ A A - - A C - - A C @.@.C - @.@.A C @.@.C C @.@.C C ~ @.C C @.~ C - @.~ A A #.@.C C @.@.C C @.@.C C @.@.- C @.@.C C @.~ A A @.@.C C @.@.C C @.@.- C @.@.C C @.@.C C @.@.#.C @.@.C A C C A A C C C A C C A A A C - A C C W W A A W W C A E W C A B W E E x x x l l Y E E O O D D D D O O W W W W x x E B E E A C W W A A W W A A W W C A W W A A > E A C E E C A A A C C A A A C A A C C C A C A A A ~ @.C C @.~ A C @.@.C C @.@.C C ~ @.C C @.@.C C ~ @.C C @.@.A C @.@.C C @.@.- C @.@.C C @.@.A C @.@.C C @.@.A A C C C C @.@.C C @.@.C C @.@.C A ~ @.A A @.@.A C C C C A @.@.C C @.@.C C A A B E E B A A ~ @.l l { ~ @.@.{ ~ E E _ _ P P O O }._.< < | <.| | | | | | U U U ",
"U < < U U | | | | < < _._.! ! ! ! p p A A {.{.{.{.{.{.Y l C #.C C C C C A @.@.C - @.~ - C @.@.A C @.@.A A - C C A @.@.C C @.@.C C @.@.C C @.@.C C @.@.C C @.@.C C ~ @.C C @.@.C - @.@.C - - - - - - - - - @.@.- C ~ @.A C @.@.C #.@.@.C C @.@.C C @.@.C C @.@.- C @.@.- C C C A A A C A A C C A A A C C A A C - A C C A A C A W W A A W W C A E E C A E E E E B B E B X X W W W W m m D D D D O O W W E W Y l l l E E W W W W W E W W E W A A W W C A E W C C C A A C #.A A C C A A - C A A C A C A C C A C - A A C - A C @.@.#.C ~ @.C C @.@.C C @.@.#.C @.@.C C @.@.- C @.@.A C @.@.C C @.@.- C @.@.C C @.~ C C @.~ C - @.@.C C @.@.- C ~ @.C A @.@.A C @.@.A A C #.C C C A C A @.@.C C @.@.C C @.@.C C @.@.C A ~ @.E E B B @.@.{.{.@.@.B B P P _ _ _ p _._.U U | | | <.| | U U U U :.",
"U < < U U | | | | < < _._.! ! ! ! p p A A {.{.{.{.{.{.l l C C C C C C C A @.@.C - ~ ~ A C @.~ A C @.~ A A C C C A @.@.C C @.@.C C @.@.C C @.@.C C @.@.C C @.@.C C @.@.C C @.@.C C @.@.C C - - C - - - - - @.@.- - ~ @.- C @.@.C C @.@.C A @.@.A C @.@.C C @.@.- C ~ @.C C - C C A A - W A C C C A A - C A C C C A A C #.A A A W W A A W W C A E E C A E E E E B E B B X X W W W W m m D D D D O O W W W W l Y l l E E E E E E W E E E E W C A B W A A W W A C C A #.C A A C C A A A C C A C C A A A C A A C - A A C - A C @.@.#.#.~ @.C C @.@.C C @.@.#.C @.@.C C @.@.C - ~ @.C C @.@.C C @.~ C A ~ ~ C C @.@.C C @.@.C C @.~ C - @.@.C C @.@.C C { @.A C ~ @.A A C #.C A #.#.A C @.@.C A @.@.C A @.@.C A @.@.C C @.@.E E B B @.@.{.{.@.@.B B P P _ _ p p _._.U U | | <.<.<.| U U U U :.",
"U U U U ; ; U < < U U _._.p p ! _ _ _ C C @.~ +.+.@.@.Y Y A A #.C C C @.~ A C @.@.- C ~ @.C C @.@.C C @.@.- C A C A A @.@.C C @.@.C A ~ ~ C C @.@.A C @.~ C C @.~ A C ~ @.A C @.@.- C A C C A C - A A C - A C C - C C @.@.C C - - C A @.~ A A C #.C A #.#.C C @.@.A A C C C C C C A C C - C A C C C A C A C C C C C A C A E E A A W E A C E E C A E E A A B E E W l Y X X Y Y W W P P D D D D O O W W W W x x l Y E B W E E E E W E B E W E E W W B E A C A A A C - A C C A A A C A A A C > > C C A A - - A C @.@.C - @.~ @.@.@.@.A A @.@.C A A C A A @.@.C - ~ @.C C @.@.C - @.@.A C @.@.C A A C - A C C A A @.@.C C @.@.C C @.~ C C @.@.A C @.@.C A @.@.A A - C C A C C A C C A C A @.@.- C ~ @.C C @.@.C A @.@.C C C #.x x ~ ~ ~ { ~ ~ Y Y p _ _ p _ _ }.}.| | <.<.| | U U | | :.:.U ",
"U U U U ; U U < < U U _._.p p ! _ _ _ C C @.@.+.+.~ @.Y Y A A #.#.C C @.@.- C @.@.C C @.@.C C @.@.C C @.@.C A #.#.A A @.@.- C @.@.C C ~ @.C C @.@.C C @.@.- C @.@.C A @.@.A C @.@.C C A C C A C - A A C - C C - - C C @.@.C - A - A C @.@.A A C #.C A #.#.A C @.@.A A A C C C C C A C - C A C C C A A - C A A C C C A A A W W C A W E A A W E C A E E A A B E W W l Y X X Y Y E E P P D D D D O O W W W W l x Y Y B B W E E E E W E B E W E E W W E E A C A A C C A A C #.C A C A A A C C > > A C C A C - A - @.@.- C ~ @.@.@.@.@.A A @.@.A A A C A A ~ @.A C @.~ C - @.~ A A #.@.C C @.@.C A A C - A C C A A @.@.C C @.@.C C @.@.C C @.~ C C @.@.C A @.@.A A C C A C C C - C C C A A @.@.A C ~ ~ C C ~ @.C A @.@.C C C #.x x ~ ~ ~ { ~ ~ Y Y _ _ p p p _ }.}.| | | <.| | U U | | :.:.U ",
":.; U U U U U U U < < j j ! ! _ ! _ p A A {.{.~ @.{.~ l l C C C C @.@.C C - - A A @.@.C C @.@.C C @.@.A A - C C A A - C C @.@.C C C C C A A C C A C C A C @.@.C C C C C C @.@.C C @.@.C A - - > > - - A A C - A A C - C A ~ @.A A C C C C C C C C C C C C @.~ A C C C A A C #.A A A C C A #.#.A A A C W W A A W W A A W E C A E E A A W E A A W E E E E B W W B B Y Y X X C C E E O O D D D D P P W W Y Y l l l l B B E E E W W B W W B W W W B W A A W E A A W E A A A C #.C C A C C C A A A C A A C A A A C #.C - - A C @.@.C C C C C C @.@.C A C C A C @.@.C C @.@.C A @.@.C A @.@.C C @.@.C A C C A C C C A C @.@.A C @.@.C C @.@.A C @.@.A A @.@.C A @.@.A A C A A A C C C C @.@.C C @.~ C C @.@.C C - C A C - C A A l l @.@.{.{.@.@.E E P P _ _ _ _ _._.U U | | U U | | :.:.U U :.",
":.; U U U U U U U < < j j ! ! ! _ p p A A {.{.@.@.~ ~ l l C C A C @.@.C C - - A C @.@.C A @.@.C C @.@.C A A C A C C C C C @.@.C C C C A C C C A A C A A A @.@.C C C C C C @.@.C C @.@.C A C - > > - - A A - - A A - - A C ~ @.A A C C C C C C A C C C C C ~ @.C C #.#.A A C #.A A C C C A #.#.A A C C E W A A E E A A B E C A E E A A E E A A E E E E E B W W B B Y Y X X C C E E O O D D D D P P W W Y Y Y l l l B B B E W W B W W W W B W W W E A A E W A A E E A A A A C A A A C C A A A A C A A C C A C C C C - - A C @.@.C A C - C C @.@.C A C C C #.@.@.C C @.@.C C @.@.C C @.@.C C @.@.C A C - C A A C C C @.@.C A @.@.C C @.@.A C @.@.A A @.@.C C @.@.C A C A C C - C - C ~ @.- C ~ @.C C @.@.A C - C A A A C A A l l @.@.{.{.@.@.E E P P _ _ _ _ _._.U U | | U U | | :.:.U U :.",
"U U ; U ; ; U < < U U _._.p p _ _ p p C C @.@.{.{.#.#.Y Y A A C C A A A C C A C - A C @.@.C C @.@.C C C C C A A C C A C C A A C A C C ~ @.C C @.@.C C @.@.C C @.@.A C @.@.C C @.@.C C C C > > - - A C - - A C - - C C @.~ C C - - A A C A A A C A A A C #.#.A @.@.C A C #.A A C #.W W C C A C C A A A A C E W A A E W A A E W A A W E A A E E A A B B E W B B E W Y Y X X E E E W O O D D D D O O W W W W s s Y Y E E A A B B W W E E E E E > E W W B W W W E A A E E C A E E A A C A A C A A C A A A C #.A A C #.C - - - #.#.#.#.A A A C #.C @.@.C C @.@.A C @.@.C A @.@.W A A A C A C A A A @.@.C A @.@.C C @.@.C C @.@.C A @.@.C C @.@.C A C C C A @.@.A A C C A A C A A A C C C C @.@.C A C C A A @.@.C A @.@.A A A C x x ~ ~ #.#.{.{.Y Y p p ! ! ! _ : : | | U U <.| :.:.; U :.:.U ",
"U U ; U ; U U < < U U _._.p p p _ p p C C @.@.{.{.#.#.Y Y A A C C A A C C A A - - C C @.@.C C @.@.C C C C A A C A C A C C C A C A C C ~ @.C C @.@.C C @.@.C C @.@.A C @.@.C C @.@.A C C C E > - - A A C - C C C - C C @.@.C C - - A A A C A C C C A C C C C - @.@.C A C #.A A C #.W W A C C A C C A A C A E E A A E E A A W E A A E E A A E W A A B B E W B B W W Y Y X X E E E W O O D D D D O O W W W W s s Y Y E E A A B B W W E E E E W E E E B W E W W W C A > E C A E E A A A A C A A A C #.A A A C A A A C #.C C - #.#.#.#.A A A C A C @.@.A C ~ @.C C @.@.C C @.@.A A A A C A C A A A @.@.C C @.@.C C @.@.C C @.@.C C @.@.C C @.@.C C C C C A @.@.C A A C A A A C A A A C C C @.@.C A C C A C @.@.C A @.@.A A A A l x ~ ~ #.#.{.{.Y Y p p ! ! ! _ : : | | U U <.| :.:.U U :.:.U ",
":.; U U U U U U U < < j j _ _ ! ! _ _ A A {.{.@.@.@.@.l l C A @.@.C A C A - - A A C #.C - @.@.C A C #.C A C - A C A A A A A C A A C #.A C @.@.C C C A A A @.@.C C @.@.C C @.@.C A @.@.C C - - A C - - A A @.@.C C @.@.#.C - - C A A C A C C C - C @.@.C A #.#.#.#.#.#.A A #.#.A A A C W W C C C A C C W W C A E E A A E E E E A A A A B B A A W E A A E E N N ~ ~ B B X X E W W W O O D D D D P p W W Y Y X X Y Y {.{.@.~ W W B W W W E E E E B W E W W W C A E E A A A A A C W E A C E > A A A C A A A C #.C C C C - C C C C C A A C A A @.@.A C @.@.@.@.@.@.C C @.~ C C @.@.C A @.@.A A C A A C C C A C C A A A C A A A @.@.A A C C A A C A A A C A A A A C A A C A C C C A C C C A A A C C A A @.@.C A C - C A C C E > B B C C @.~ ~ @.B B P P _ _ p p _.j U U U ; :.:.U U U ; U U ; ",
":.; U U U U U U U < < j j _ _ ! ! ! _ A A {.{.@.@.@.@.l l C A @.@.C A C A - - A C - C C C @.@.C A C #.C A C - A A C A A A A C A A A C - C @.@.C C C C A A @.@.C C @.@.C C @.@.C C @.@.C C - - A C - - A A @.@.A C @.@.A C C - A A C C A A A C A C @.@.C A #.#.#.#.#.#.A A C #.C A A C W E C C A C C C W W C A E W A A E W E E A A A A B B C A E E A A W W N N ~ ~ B B X X E W W W O O D D D D P p W W Y Y X X Y Y {.{.{.@.W W B W W W E E W W B W W W E E A A W E A A A A C A E E A C E > A A C A A C A A A C #.C - - C C C C C A A C C A @.@.A C @.@.@.@.~ @.C C @.~ C C @.@.C C @.@.A A A C A A C C C A C C A A C C A C @.@.A A C A A C C C A C C A A A A C A A C A A A C A C C C A A A C C A A @.@.C A C C A C C C W E E B C C @.~ @.@.E B P P _ _ p p _._.U U U U :.:.U U ; U U U ; ",
"U ; ; U ; :.:.; ; U U _._.! ! _ _ _ _ C C C C {.{.#.#.Y Y E E @.@.A A C A A A C A A A @.@.C A C #.A A A C A C A A A A C C C A C C A A C C A A C A A A C C A A C C A A @.@.C C @.@.C C @.@.C C C - - #.- - A C @.@.C C @.@.C C - - C A A C A A C A A A C #.C C @.@.C A C #.A A A C W E C A E E A C C A A A E E A A E E #.#.@.@.C A E E A A B E E E B B A C Y Y E B x x X X Y Y E W _ _ D D D D m m B B E W X X Y Y B B E W B B E E B B E W W W W W W W ~ ~ C C A A E E A A E E A A E > C C E > A A C A A C A A C C A A @.@.A A C #.C A C C A A @.@.A C @.@.C C @.@.C C @.~ #.#.C A A A C C A C C C A A C A A A C C A C C A A A C A A C C C A C C A A A C C A C C A C A C A A A A C C A C C A C C C C - C @.A A A C C A A A l l @.@.C #.@.@.l l _ p ! ! _ p j j U U :.:.U U ; U U U U j U ",
"U ; ; U U :.:.; ; U U _._.! ! _ _ _ _ A C C C {.{.#.#.Y Y E E @.@.A A A C A A A C A A @.@.C A C #.A A C C A C C A A A C C A A A C A A C C A C C A A A C A A C C C A C @.@.C A @.@.C C @.@.C C C - C C C - C @.@.@.C A @.@.C C - - A C C C A A C A A A C #.C C @.@.C A C #.A A C C E > A A E E A C A A C A E E A A E E #.#.@.@.C A E E A A B E E E B B C A Y Y E B x x X X Y Y E E _ _ D D D D m m B B E W X X Y Y E B W W B B E W B B E E W W W W W W ~ ~ C C C A E E A A E E A A > > - C E > A A A C A A A C #.A A A @.@.C A C #.C C C C C A @.@.C A @.@.A C @.@.C C @.~ #.#.A A A C C A - C C A A C A C C A C C A A A C A A C C C A C C A A C C A A C C A C C A A A C C A C A A C C C C A A A C #.C - @.A A A C A C A C l l @.@.C C @.@.l l p p ! ! p p j j U U :.:.U U ; ; U U U j U ",
"_.U U ; ; ; U U U U U : : _ _ ! ! _ _ C A {.{.#.#.#.#.x x @.@.C A C A +.+.- - A A - C A A C A C C C C A C A A C A C A A A C C A C C A A A C C C A A C C A C C A A C A A A C C A A @.@.C A C - C A C - - #.- @.C C @.@.C C @.@.A A A C A C C C C A C C A C C C C - C C A C C C W E A A W E A A E E A C E W C A E E A A A C +.+.E E E W B B E W B B E E B B B E l l l Y X X W W Y Y O O D D D D _ _ W W Y Y x x l l l Y Y Y E E B B E W B B E E Y Y A A {.~ ~ @.E E A A B E A A W E A A A A A C A A C A W W C C A A C A A A C #.A A A C A C C C A C @.@.C C @.@.C C @.@.C C @.@.A A C C C C A C C A A C A A A C C A A C C A A C A A A C A A C A A A C C A C C A C A A C A A C A C C C A A C A C C A @.@.C C N N A A A C E E Y Y A C C C C #.B B P P _ _ _ _ _._.U ; U U U U U U U _.U U j ",
"_.; U ; ; ; U U U U U : : _ _ ! ! _ _ A C {.{.#.#.#.#.x x @.@.C C A C +.+.C - C A A C A A A C A C C C A C A A A A C C A A C C C A C C C A C C C A A C C A A C C A C C A A A C A A @.@.C A C - C A C - C C @.@.C C @.@.C C @.@.A A C C C A A C C A C C C A C C C C - C A A C #.W W A A W E A A E E A A W W A A E E A A A C +.+.E E E E B W E W B B E W B B E B Y l Y Y X X W W Y Y O O D D D D _ _ W W Y Y x x l l l Y Y l W W B B W W B B W W Y Y A A {.{.@.@.E E A A B E A A E E A C A A A C A A C A W W A C A A C A A A C #.A A C C A A C #.A A @.@.#.C - @.C C @.@.C C @.@.A A C A #.C A C C A C C A C C A A A C A A C C C A C C A A C C C C A C C A C C C C A A C A C C C A A C C C A A C C A @.@.C #.N N A A C C E E Y Y A C #.#.#.#.B B P P _ _ p p _._.U ; U U U U U U _.U U U j ",
"U ; ; U ; :.:.; ; U U _._.! ! _ _ _ _ C C C C @.~ C C l Y B B A A @.@.F F > > - C A A C #.A A - C C A A C A C C C C A C C A A C A C A C C A A C A C C C A A A C A A A C C A A C C A A C C C C - - A C - - A A C C C - C @.A A A C A C A C C A A C A A A C #.A A C E W C C A A A A @.@.N N C C C A E W A A E W A A E E A A B B C A B B E W B B E E B B E E Y Y E B X X X X Y Y W W P P D D D D O O Y Y E E X X Y Y l l B E Y Y E W B B E W W E W W Y Y Y Y l Y E W B E E E W B A A W E A A N N +.+.E E E B W E C C A C C C C - C #.A A A A W W C C A C @.@.C A @.@.C C @.@.C C A C A A C C A A @.@.C C C A C A A C C A C C C A C C C A C - A A C C A C C C A A A C A A A C A A A C C A A C A A C A A A @.@.M M +.+.A A C A x x #.#.#.#.@.@.l l p p ! ! p p : : U U ; _.U U U j U U ; _.; ",
"U ; ; U U :.:.; ; U U _._.! ! _ _ _ _ C C C C @.~ C C l Y B B A C @.@.F F > > - - A A A C A A - C C A A C A C C C A A A C C A A C C A C C A A C A C A A C A A C A A A C C A A A C A A C C - C - - A C - - A A C C C C @.@.A A C C A A A C C A C C C A C C A C C C W E A C C A A A @.@.N N C C A A W E A A E E A A W E A A E B A A E B B E W B B E E B B E Y Y E B X X X X Y Y W W P P D D D D O O Y Y E E X X Y Y l l B E Y Y E E B B W W B E E E Y Y l Y Y Y E E B E E E W B A A E E A A N N +.+.E E E E E W C C A C C C C - C #.A A A A E E A C C C @.@.C A @.@.C C @.@.C C C C A A C A A A @.@.C C C A C A A C A A C A C A C C A A C C A C C A A A C A C A A C A A C A A A C C A A C C A A C A A A @.@.M M +.+.A A A C x x #.#.#.#.@.@.l l p p _ ! _ p : : U U U ; U U U j U U ; _.U ",
"_.; U :.:.U U U U U U : : ! ! _ ! ! _ A A {.~ #.#.@.@.l l C A E E A C A A o o E > A C A A C C A A - C A A C C A C C C A C - C A A C C A A C C A A C A A A A C A C - C C C @.@.C A A C C A - - A C @.@.A A C - C A @.@.C A C #.A A A A W E A #.A A C C C A A A W W C A E W C C A A @.~ #.#.W W B W A A E E A A W E E E B W B B l Y E W B E E E Y Y B B E B B E B B B E W W E B Y Y O O D D D D P p W W Y Y Y Y Y l B B l Y B B l Y B E E E B W B B B E B B A A B B B B E B B W W W A A W E @.@.C A C A E E A C W W C A E E #.#.#.#.#.A A A C A A A @.@.C A A C C C @.@.C A C #.A A C C C - C A C C C C C A A C A A A C A C A C C A A #.A C A C A A C C A C C C A A C C C A C A C C C A A C C C A A C A A A C #.W W E E E W B Y #.#.{.~ #.#.B B P P _ p _ _ _._.U U U U :.:.U U ; _.; ; j ",
"_.U U :.:.U ; U U U U : : ! ! _ ! _ _ C A ~ ~ C C @.@.l l A A W E A A A A o o E > C C A C - C C A A C A A C A A A C #.A A C C A C C A A A C C A A C A A A A C A C A C C C @.@.A A C C A A - C A A @.@.A A C C A A @.@.A C #.#.A A A A W E A #.A A C A A C A A W W C A E W C C C A @.~ #.#.W W W W A A E E A A W E W W B B B B l Y B E B B E W Y Y E B B B E B B B B E W W E B Y Y p O D D D D P P W W Y Y Y Y l l B B l Y B E l l B E E E E B W E W B B B C A B B B E B B W W W W A A E E @.@.C A C A E E A C W W A A E W #.#.#.#.#.A A A A C A A @.@.A A A C C C @.@.C C C C A A C C C C A C C C C #.#.#.A C A C A C A A C C C A C A C A C C A C C A A A C C A A C C C A C C A C C C A A C C A A C A A A A C W E E E E W B Y #.#.{.~ #.#.B B P P _ p _ _ _._.U U U U :.:.U U ; _.U ; j ",
"; _.; ; U U U ; U U ; _.j p p ! ! ! ! - - #.#.@.@.C C l l B B A A B B B E E B C C A A - C A A C A A A C A A C C C A A C C C A A C A A C C A A C A A A C #.C A A C C A C #.A A C C A A C C E > A C C C A C C C C - - - - - A C @.@.C C A C C C z z @.@.C A E W A A E E W E W W C A Y Y E B B B A A E B A A W E A A E B E E Y Y B E Y Y E E E W @.@.{.{.+.+.~ ~ {.{.@.~ #.#.Y Y B B _ _ D D D D O O Y Y E W C C @.@.C C @.~ #.#.C C E > B E Y l B B l Y B E E E A A B E A A E E A C W W A A l l B E E W A A E W A A E E A A A A #.#.Q Q @.@.E E A A C A A C A A C C C C @.@.C C @.@.C A @.@.E W A C C A A C A A - C A A A C A A A C A A C C A A C C A A A C A C A C C A C C C A C A C A C C A C C C A A A A B B E W W E A A l x @.@.C C @.~ Y Y _ p ! ! _ _ _._.U U :.:.U U _.; U U ; _.U ",
"; ; ; U U ; U U ; U ; j j p p ! ! ! ! - - #.#.@.@.C #.l l B B A A E B E E E W C C A A - C A A C A A A C C A A A C A A A C A A C C A C C - A A C A A A C #.C A C C A A C C C A C C A A C C E > C C A C C C C - - - - - - - A C @.@.C C C C C C z z @.@.C A E W C A > E E W W W C A Y Y E B B B A A E B A A E E A A B B W W Y Y E W B Y E W B E @.@.{.{.+.+.~ ~ {.{.@.@.C C Y Y E B _ _ D D D D O O Y Y W W C C @.@.C #.~ ~ C C C C E > B E l l B B l l B E E W A A W E A A E E A C E W C A l l B E E W A A E E A A W E A A C A A C Q Q @.@.E E A A A C A A A C #.C C C @.@.C C @.@.C A @.@.E W A C C A A C A A C C A A A C A A C C C A C C A A C C A A A C A A C C A C C A C A C C A A A C A C C C A A A A B B E W W E A A l x @.@.C C @.~ Y Y _ p ! ! _ _ _._.U U :.:.U U _.; U U ; _.] ",
"] ] U U ; U U ; U U U : : ! ! ! _ ! ! > > ~ ~ C C @.@.x x E E E W C C C A C - E > C A E E C C A A C A C A A A A A C C A A C A A A C A C A C A C A A C A A C - A A A C A A C A A C - C A A C A A C @.@.C C @.@.E E C C W E C C A C C C A C C C C C B B E W C C E W W B W W A A W E A A E E A C E E E B W B B B Y Y W W W W #.#.@.@.+.+.~ ~ ~ @.A A C A E E A A E B B E W W E W Y Y p O D D D D _ _ Y Y E E W W W W W W W W A A C C +.+.~ @.@.{.- - @.@.C A E > B B E W Y Y E E E W C A E E E E B B A A E E A A B E A A A A C #.W B @.@.E B W W W W #.C C A A A W E @.~ A A {.{.E E A A A A #.C W W A C C A C C C A C C A A A A A A C A A A C #.A A A C A A A C A C A C A C A C A A C A A A C C A C A C E E A A B E A A E E Y Y > C @.@.C C B B P P _ p p p _._.U U U U :.:.U U _._.U ; j ",
"] ] U ; U U ; U U U U : : ! ! ! _ ! ! > > ~ ~ #.#.@.@.l x E E E W C C A C - A > > A A E E C C A A C A A A A A C A C C C A - C A A C A A C A C A C A C A A C A C C C C A C C C A C - C A A C A A A @.@.C A @.@.E E C A E E C C C A C C C A C C C C E B B C A C E W B E E B C C E E A A B E C C E > B E B B E B Y Y E E B E #.#.@.@.+.+.~ ~ ~ @.A A A C W E A A B B B E E E E W Y Y p O D D D D _ _ Y Y E W W W W W W W W W C A C C +.+.~ @.@.{.- - @.@.C A E > B B E W Y Y E E E B C C E E E E W B A A E E A A B E A A A A #.#.B B @.@.E B W W W W A C C A A A W E @.@.C A @.~ W E A A A A A C W W A C A A #.C C A C C C A A A A A A A C A A C A C C C A C C A C A C C A C A C A A A C A A - C A A A C E E A A B E A A E E Y Y > C @.@.#.#.B B P P _ _ p p _._.U U U U :.:.U U _._.; ; _.",
"; ; U U U U U ; U ; ; j j p p p p ! ! - C C C @.@.C A l x B B C A A A C A E > C C A A C A A A C C A C C - A A C A A A C A A A C C A C C C C A C C A A A C A C C C C A C C C A C C C A A C #.C A C A A M M @.@.C A A A C A A A @.@.A A C C B B E B A A C #.W W E W W W A A E E E E B B B E W B B E E W @.@.{.{.N N ~ ~ ~ ~ C A A C W E A A E E A A W E W E E B E E E B B B Y Y O O D D D D D D P P O O Y Y Y l W W W B W W W E A A B B A A > > - C > > ~ ~ @.@.{.{.#.#.@.@.#.#.W W B B B B B E W B B E E W E E A A E W A A E E A A l l C A E W A C A A #.#.B E A C A A +.+.Q Q A A C A A A W W C C W W A C A A A C E E A C W W C A W E C A E E C A A A A C A C C A A C C A A A C C A A A C C A C A C A A C W E C A B E E W X X #.#.#.#.#.#.Y Y p p _ ! _ _ : j ; U :.:.:.U U j U ; j j j ",
"; U ; U U U U U ; U ; j j p p p p ! ! - C #.#.@.@.A A l l B B C A A A C A E > C C C A A A A A C A A A C C A A C A A A C A A A C C C A C C C A C C A A A C A A C A A A C #.A A C C C A C C C A C C C A M M @.@.C A A A C A A A @.@.A A C C B B B E A A C #.W W E W E E A A B E E E E B W B B B E E E W @.@.@.{.N N ~ ~ ~ ~ A A C A E E A A W E A A E B E E E B E E E B B B l Y O O D D D D D D P P O O Y Y Y Y E E B E #.W W W A A E B A A E > A C > > ~ ~ @.@.@.{.#.#.@.@.#.#.W W B B B B B B E W W E W W W W A A E E A A W E A A l l C A E W C C A C C C W E A C A A +.+.Q Q A A A C A A W W C C W W C C A A - C E E A C W W A A E E A A E E C C A A C C A C C A A C C C A C C C A A A C C A C A C A A C W E C A E E W E X X #.#.#.#.#.#.Y Y p p _ ! _ _ j j U ; :.:.U ; U U ; ; j j j ",
"o ; U U U U U U U ; U : : ! ! ! ! _ _ B E @.~ A C C C x x E E E B C C A A A C E > A C E E A C A A C A A A C #.E E A C A A C A A A C A C A A C C A A C C A @.@.+.+.~ @.A A C A A A C #.A A A A B E A A E E x x E E C C E > A A W W ~ @.B E E B C C A - A A A A B B B E E B B C A C ~ ~ +.+.N N ~ ~ ~ ~ W W C A E W C A E E E W W W A A E E A A E E E W x x O O p p D D D D D D D D D D D D D D D D D D D D D D O O p O O p X X Y Y W W W W W W W E A A E W A C C A C C C C ~ ~ @.~ { { @.@.@.@.C C C #.B B B B l Y B E E W A C A A A A W E A A A A #.#.#.#.#.A A A E E E B W C E B A A E > A A W E A A W W C C C C +.+.E E A C W W C A W E C A A A C C C A A C W W #.C C A - C A A C C A C A C A A A C C A A C E E E W Y Y Y l A A C #.C #.Y Y P P _ _ p p _._.U U U U :.:.U U U _.E E B ",
"o U U U U U U U ; U U : : ! ! ! ! p _ E > C @.C C C #.x x E E E E A C A A A C E > C A E > C C A C C C A C C C E E A C A A C A A A C A C A A C C A A C C A @.@.+.+.~ @.A A A C A A C A A C A A B E A A E E x x E E A C W E A A E W @.@.E B W W A A C - C A A C B B E W B B E E C C @.~ +.+.N N {.{.@.~ W W C A E W C A W W W W W W A A W E A A E E W W x x O O O p D D D D D D D D D D D D D D D D D D D D D D O O O p O O X X Y Y W W W W B W W W A A W E A #.A A #.#.C C @.~ @.@.{ { @.@.@.@.#.#.#.#.B B B E Y Y E E W W A C A A A A E E A C A A #.#.#.#.#.A A A E E E B C C E B A A E > A A W W A C E E C C C C +.+.E E C C E E A A W E C A A A A C A C C C W W #.C A A - C A A C C C A A C A A C A A C A A E E E W Y Y l l C A #.#.#.#.Y Y p P P _ p p _._.U U U U :.:.; U _.; E E l ",
"o ; U U U U U U U ; ; : j p p _ _ ! _ A C C C C C C A l l B B A A A A A C > > C - A A A A A C A A A C A C A A C A A C C A C C C C C A C - C A C C C A C C @.@.M M A A C A E E A A E E A C A A #.C E B B B E W C C C A A A W E W W B W A A E E E B B B A A B B @.@.+.+.+.+.~ ~ @.@.C A C A A A C #.W W E W E W A A E B W W B E W W Y Y x x P P _ _ D D D D D D D D D D D D D D D D D D D D D D D D D D D D D D D D D D D D D D D D _ _ ! O _ _ B B l Y W W B W A A E W A C W W C A E > A C C C @.~ ~ {.{.{.{.@.+.+.~ @.@.@.E B W B Y Y W W W W A A E E W W C A A A W E A A E B A C C C @.@.W W C A E W C A C C C C M M @.@.E E A A E W A A E E A C A A C C E > A C E W #.#.A C A C C A C C C A C A A C C C A C C C W W > E X X #.#.A A @.@.l l _ p O ! _ _ _.j U U :.:.] U ; ; _._.l l > ",
"o ; U U U U U U U ; ; j j p p _ _ ! _ A A C #.C A C A l l B B A A A A C C E > C - A A A A A A C A A A A C A A A A C A C A A A C C C A C - C A C C A A C - C @.M M A A C A E E A A E E A A A A #.C B B E B B W C C A A A A E E E W B E A A E W E E B B A A B B @.@.+.+.+.+.~ ~ @.@.C A A A A C #.C W W W W W W A A E B E W W W W W Y Y l x P P P _ D D D D D D D D D D D D D D D D D D D D D D D D D D D D D D D D D D D D D D D D _ _ ! O _ _ B B Y Y W W E E A C W W C C E W A A > > A C C C ~ ~ {.{.{.{.{.@.+.+.~ @.@.@.E B W B Y Y E E W W A A W E E W A C A A E E A A B B A C A C @.@.E E A C E W C A C C C C M M @.@.E E C A E W A A E E C C A A C C E > A C E E A C A C A C A A A C A A C C A C C C A A C C W W E E X X C C A A @.@.l l _ p _ ! _ _ _.j U U :.:.] U ; ; }._.l l > ",
"s ; ; ; U U U :.:.U U j : ! ! ! ! p _ B E @.@.C A C A l l B E A A C #.W W A C A C A C E E A C A A C C A C A C E E N N C C #.#.A A C C C A C C E E A A > E E B B B E B A A A C E E C A E E A A B E E W Y Y #.#.W E E E B W E W B B W W C C +.+.N N Q Q @.~ N N C C A A A C #.C W E A C W E A A W E A A E B E E X X O O p O D D D D D D D D D D D D D D D D D D D D D D D D D D D D D D D D D D D D D D D D D D D D D D D D D D D D D D D D D D D D D D D D O O p _ x x l Y E W W W W W W W A A B B W W W W #.C A A C #.~ ~ +.+.~ ~ +.+.~ @.A #.W E E E B B A A W E E W A A C A E > C A E E A C W W C A E E A A B B E E Y l C A E E A C E E A A A A C A E E A C @.~ C A A A C C A C C C W W C C E E C C W W C A E E A A B B l l W W C C #.#.Y Y P P _ _ p p _._.U ; ; U :.:.U U _._.l l l ",
"s ; ; U ; U U :.:.U U j : ! ! ! ! p p E > C @.C A C #.l l B E A A A C W E C A A A C C E > C A A A C A A A - C E E N N C C #.#.A A C C C A C - E E A A E E E B B B B C A A A A W E C A E E A A W E E W Y Y #.#.W E W W B B W W B B E W C C +.+.N N Q Q @.~ N N C C C A A A A C E W C A E E A C W W A A W E E B X X O O O p D D D D D D D D D D D D D D D D D D D D D D D D D D D D D D D D D D D D D D D D D D D D D D D D D D D D D D D D D D D D D D D D O O p _ x x l Y W W W W W W W W A A E B W W W W #.C A A #.#.~ ~ +.+.{.{.+.+.~ @.A #.E E E B B B A A E E E E A A C C E > C A E E A C W E A A E E A A B B E E Y l A A W E C A E E A A A C A A W E A #.~ ~ C A A A C C C A A C E W C C E E #.C W W C A W E A A B B l l W W #.#.#.#.Y Y p P P _ p p ; _.U ; U U :.:.U U _._.l l Y ",
"l _._.U U :.:.U U ; ; j j ! ! _ _ p p C A A C #.C W E B B E B A A E E A A A A #.C A A C A A A C #.A A A A A C A A >.>.@.@.C A A C C A A A E E A C W E A A B B B C A A A A E E A A B E A A E B B E W B B E Y Y A A @.@.{.{.N N N N {.~ ~ @.E E A C A A A C W E C #.W E A A W E #.#.B B B E X X O O D D D D D D D D D D D D D D D D D D D D D D D D D D D D D D D D D D D D D D D D D D D D D D D D D D D D D D D D D D D D D D D D D D D D D D D D D D D D D D D D D D D D D D O O m m B E Y Y E W W W A A C A A C W E C #.W W C C #.C {.{.{.{.+.+.~ ~ @.~ ~ @.~ { E E E B B B A A E E A C W W A A E E E W A A W E E W C A W E C A > E A A W E A #.E E A A A C M M A A A C A A A C E E C A W W C C W W A C E E A C W W W W s X C C W W ~ @.l l _ p ! ! _ _ j j U U :.:.; U U ; ; U s s x ",
"l _._.U U :.:.U U ; ; j j ! ! _ _ p p C A A C #.C W E B B B E A A E E A C A A #.C A A C A A A C #.A A A A A A C A >.>.@.@.C A A C C A A A E E A C W E A A B B E E A A A A B E A A E W A A B B E W B B E B Y Y A A @.@.@.{.N N N N ~ ~ @.~ E E A C A A C C E W C #.W E A A E E #.#.B B B B X X O O D D D D D D D D D D D D D D D D D D D D D D D D D D D D D D D D D D D D D D D D D D D D D D D D D D D D D D D D D D D D D D D D D D D D D D D D D D D D D D D D D D D D D D O O m m B E Y Y E E W W A A A C #.C W E #.#.W E C C C C {.{.{.{.+.+.~ ~ ~ ~ @.~ { ~ W E E E B B A A E E A A W E A A E E E W A A E E E W C A W E A A B E A A W E A #.E E A C A A M M A A A A C A A C E E C C E W #.C W W A C E E A A E W E W X X #.#.W W ~ @.l l _ p ! ! _ _ _.j U U :.:.U U ; ; ; U ( s x "};
