/* XPM */
static char * 3_xpm[] = {
"202 275 208 2",
"  	c None",
". 	c #000000",
"+ 	c #895509",
"@ 	c #D78304",
"# 	c #D87E00",
"$ 	c #D48917",
"% 	c #A05D00",
"& 	c #FC9600",
"* 	c #FF9800",
"= 	c #F39100",
"- 	c #9C5902",
"; 	c #975802",
"> 	c #BD7000",
", 	c #B56C00",
"' 	c #BA7309",
") 	c #BB6E01",
"! 	c #DC8300",
"~ 	c #4D2A03",
"{ 	c #2D1908",
"] 	c #372007",
"^ 	c #2E1A06",
"/ 	c #2A1608",
"( 	c #291606",
"_ 	c #985B0B",
": 	c #3D2206",
"< 	c #261508",
"[ 	c #935400",
"} 	c #8B5301",
"| 	c #521C10",
"1 	c #251406",
"2 	c #361C08",
"3 	c #E68900",
"4 	c #130B04",
"5 	c #874900",
"6 	c #CA7A06",
"7 	c #E88C05",
"8 	c #F08E00",
"9 	c #784402",
"0 	c #834700",
"a 	c #8D4E00",
"b 	c #532C03",
"c 	c #643200",
"d 	c #5A2D00",
"e 	c #5A3205",
"f 	c #773F00",
"g 	c #6B3D03",
"h 	c #CC7800",
"i 	c #1B0E03",
"j 	c #1E1201",
"k 	c #351C05",
"l 	c #4A2601",
"m 	c #090501",
"n 	c #19120B",
"o 	c #1E1C1A",
"p 	c #C37300",
"q 	c #A76000",
"r 	c #AC6200",
"s 	c #AF6801",
"t 	c #2C241A",
"u 	c #714711",
"v 	c #B16500",
"w 	c #D27D00",
"x 	c #E28600",
"y 	c #0E0800",
"z 	c #381F06",
"A 	c #6D5C44",
"B 	c #786D58",
"C 	c #786C56",
"D 	c #756954",
"E 	c #857457",
"F 	c #8C7955",
"G 	c #84755C",
"H 	c #7E7158",
"I 	c #87806F",
"J 	c #8C8574",
"K 	c #837B69",
"L 	c #826C49",
"M 	c #654723",
"N 	c #9C6717",
"O 	c #858172",
"P 	c #AFB9B0",
"Q 	c #A9B6B6",
"R 	c #B5BCB3",
"S 	c #ACBABC",
"T 	c #B4BEB8",
"U 	c #ABB3AD",
"V 	c #C2B389",
"W 	c #EEC97F",
"X 	c #EEC586",
"Y 	c #EBC881",
"Z 	c #BAA983",
"` 	c #CBD6D2",
" .	c #EAFFFF",
"..	c #EBF7F6",
"+.	c #E9F6F6",
"@.	c #F0F9F4",
"#.	c #F1FFFF",
"$.	c #C9CCC2",
"%.	c #D58A18",
"&.	c #C5BBA1",
"*.	c #C9D7D8",
"=.	c #B6A885",
"-.	c #BEB49A",
";.	c #A6AEA3",
">.	c #AAB1A6",
",.	c #93968A",
"'.	c #766346",
").	c #7F6A4A",
"!.	c #786549",
"~.	c #CCCAB7",
"{.	c #E1EEEE",
"].	c #E2EFF0",
"^.	c #E4F4F4",
"/.	c #DCEAEA",
"(.	c #B98D46",
"_.	c #989A8F",
":.	c #D7EAE8",
"<.	c #D5C79B",
"[.	c #F1CB7F",
"}.	c #F0C586",
"|.	c #D0D9D5",
"1.	c #DEF1F0",
"2.	c #81551C",
"3.	c #CD8C27",
"4.	c #D8E6E7",
"5.	c #D9E7E8",
"6.	c #E5EEE7",
"7.	c #BDC3BB",
"8.	c #705B3E",
"9.	c #C19650",
"0.	c #D2D5CC",
"a.	c #CE8C28",
"b.	c #E7E6D5",
"c.	c #6F593B",
"d.	c #C4CBC3",
"e.	c #D8D7C6",
"f.	c #D9E1DD",
"g.	c #B9B7A6",
"h.	c #CDDBDC",
"i.	c #C4D3D4",
"j.	c #D5E3E3",
"k.	c #EEC689",
"l.	c #B1BFC1",
"m.	c #D1DFE0",
"n.	c #B8C6C8",
"o.	c #B4C2C4",
"p.	c #D7E2DF",
"q.	c #D0DEDF",
"r.	c #AFBDC0",
"s.	c #C1CFD0",
"t.	c #BCCACC",
"u.	c #A6B4B6",
"v.	c #A8B6B9",
"w.	c #DFDFD2",
"x.	c #C1CECE",
"y.	c #745936",
"z.	c #EECE99",
"A.	c #F0C88D",
"B.	c #DAC294",
"C.	c #EEC88D",
"D.	c #EECB93",
"E.	c #E4C695",
"F.	c #E6C581",
"G.	c #B8C6C5",
"H.	c #F0F7F0",
"I.	c #EEDEBA",
"J.	c #F0F6EC",
"K.	c #EFE6CC",
"L.	c #F0F2E3",
"M.	c #F0EAD3",
"N.	c #F0E8CF",
"O.	c #EED3A3",
"P.	c #F0F0DF",
"Q.	c #F0EEDB",
"R.	c #F0E3C5",
"S.	c #F0C689",
"T.	c #EFF1E3",
"U.	c #EFE8CF",
"V.	c #F0CE9A",
"W.	c #F0CB93",
"X.	c #F0E6CB",
"Y.	c #EEDAB3",
"Z.	c #EED09E",
"`.	c #EFEDDB",
" +	c #E7D8B8",
".+	c #EFEAD4",
"++	c #B2B5AB",
"@+	c #E3C28E",
"#+	c #EFE2C3",
"$+	c #CCBB99",
"%+	c #EED6AA",
"&+	c #C5BEA7",
"*+	c #EFD8AE",
"=+	c #D7CFB6",
"-+	c #F0DCB9",
";+	c #F1F8EF",
">+	c #F0D5A8",
",+	c #F0D19F",
"'+	c #EFE0BF",
")+	c #EFF4E9",
"!+	c #DDF1EF",
"~+	c #E7DFC6",
"{+	c #C9D1CD",
"]+	c #D7E8E7",
"^+	c #A5A99C",
"/+	c #A2A79A",
"(+	c #88806F",
"_+	c #FFFFFF",
"& & = * & & & & & & = * & & & & & & & & & & & & = & & & & & & & & & & = & & & & & & & & & & & * = & & & & & & & & & & = & & & & & & & h ( b c c g c c c g c g c c g c c g c c c c c c c c c c c c c c c c g c c c c c c c c c c c c c g g c c c g c c c c c c g c g c c d i [ & & & & & & & & & = & & & & & & & & & & & & & & & & & & & & & & = & & * = * & & * & & & & & & & & & & = * & & & & & & = * & & & & & & ",
"* * * * * * * * * * * * * * * * * * & & & * * * * * * * * * * * * * * * * * * * * * * * * * * * * * * * * * * * * * * * * * * * * * * @ j k c c c c c c c c c c c c c c g e c c e c c c c c e g c c c c c c c c c c g c c c c c c c c c c c c c c c c c c c c c c c c g l m ; * * * * * * * * * * * * * * * * * * * * * * * * * * * * * * * * * * * * * * * * * * * * * * * * * * * * * * * * * * * * * * * * * * * ",
"* * * * * * * * * * * * * * * * * * & & * & * * * * * * * * * * * * * * * * * * * * * * * * * * * * * * * * * * * * * * & * * * * * & @ j n                                                                                                                             o m % * * * & * * * * * * * * * * * * * * * * * * * * * * * * * * * * * & * * * * * * * * * * * * * * * * * * * * * * * * * * * * * * * * * ",
"q q q q q q q q q q q q q q q q q q r % % % q q q q q q q q q q q q q q q q q q q q q q q q q q q q q q q q q q q q q q q s q q q q r } t                                                                                                                                 o u q q q q q q q q q q q q q q q q q q q q q q q q q q q q q q q q q q q q q q q q q q q q q q q q q q q q q q q q q q q q q q q q q q q ",
"p p p p p p p p p p p p p p p p p p 6 p p h p p p p p p p p p p p p p p p p p p p p p p p p p p p p > 6 p p p p p p p p p p p p p > p q n                                                                                                                                 n } 6 p p p p p p p p p p p p p p p p p p p p p p > 6 p p p p p p p p p p p p p p p p p p p p p p p p p p p p p p p p p p p p p p p p p p ",
"* * * * * * * * * * * * * * * * * * * * * * * * * * * * * * * * * * * * * * * * * * * * * * * * * * * * * * * * * * * * * * * * * * * @ j                                                                                                                                 y , * * * * * * * * * * * * * * * * * * * * * * * * * * * * * * * * * * * * * * * * * * * * * * * * * * * * * * * * * * * * * * * * * * * ",
"* * * * * * * * * * * * * * * * * * * * * * * * * * * * * * * * * * * * * * * * * * * * * * * * * * * * * * * * * * * * * * * * * * & @ j                                                                                                                                 y , * * * * * * * * * * * * * * * * * * * * * * * * * * * * * * * * * * * * * * * * * * * * * * * * * * * * * * * * * * * * * * * * * * * ",
"* * * * * * * * * * * * * * * * * * * * * * * * * * * * * * * * * * * * * * * * * * * * * * * * * * * * * * * * * * * * * * * * * * * w j                                                                                                                                 y , * * * * * * * * * * * * * * * * * * * * * * * * * * * * * * * * * * * * * * * * * * * * * * * * * * * * * * * * * * * * * * * * * * * ",
"* * * * * * * * * * * * * * * * * * * * * * * * * * * * * * * * * * * * * * * * * * * * * * * * * * * * * * * * * * * * * * * * * * * w j                                                                                                                                 y , * * * * * * * * * * * * * * * * * * * * * * * * * * * * * * * * * * * * * * * * * * * * * * * * * * * * * * * * * * * * * * * * * * * ",
"* * * * * * * * * * * * * * * * * * * * * * * * * * * * * * * * * * * * * * * * * * * * * * * * * * * * * * * * * * * * * * * * * * * @ j                                                                                                                                 y , * * * * * * * * * * * * * * * * * * * * * * * * * * * * * * * * * * * * * * * * * * * * * * * * * * * * * * * * * * * * * * * * * * * ",
"* * * * * * * * * * * * * * * * * * * * * * * * * * * * * * * * * * * * * * & * * * * * * * * * * * * * * * * * * * * * * * * * * * & @ j                                                                                                                                 y , * * * * * * * * * * * * * * * * * * * * * * * * * * * * * * * * * * * * * * * * * * * * * * * * * * * * * * * * * * * * * * * * * * * ",
"* * * * * * * * * * * * * * * * * * * * * * & * * & * * * * * * * * * * * * * * * * * * * * * * * * * * * * * * * * * * * * * * * * * w j                                                                                                                                 y , * * * * * * * * * * * * * * * * * * * * * * * * * * * * * * * * * * * * * * * * * * * * * * * * * * * * * * * * * * * * * * * * * * * ",
"* * * * * * * * * * * * * * * * * * * * * * * * * * * * * * * * * * * * * & * * * * * * * * * * * * * * * * * * * * * * * * * * * * * w j                                                                                                                                 y , * * * * * * * * * * * * * * * * * * * * * * * * * * * * * * * * * * * * * * * * * * * * * * * * * * * * * * * * * * * * * * * * * * * ",
") ) ) , ) ) ' , ) ) ) ) , ) , ) ) ) ) , ) ' ) ) , ) ) , ) ) , ' ) , ) ) , ) ) ) , ) , ) , ' ) ) ) ) ) , ) ' ) ) , ) ) ) , ) 7 * * * * @ j                                                                                                                                 y , * * * * = ) ) ' ) , , ) ) , ) , ) ) ) ) , ) ' ) ) , ) ' ) ) , ) ) ) ) ) , ) ) , ) ) ) ) , ) ) ' ' , , ) ) , ) ) , ) ) ) ) ) ) ' , > , ",
"E F G F F F H I J J J J J J J J J J J J J K J J J J J J J J J J J J J J J J K J J J J J J K J J J J J J J K J J J J J J J G @ * * * * @ j                                                                                                                                 y , * * * * 7 L J J J J J J J J J J J J J J J J K J J J J J J J J J J J J J J J J J J J J J J J J J J J J J J J J J J J J J K H F I F F F ",
"V W X Y Y Y Z `  ...........+...@...................+. .........+...........#...@. .........................+...+...+. . .$.%.* * * * h j                                                                                                                                 y , * * * * 7 &.+.+... ...........+...................+.+. .......+...+.+.+.......+...+...+. .........+...........+.+..... .*.=.Y Y Y W Y ",
"<.[.[.}.[.Y Z |.#. .#.#.#.#.#.#.#.#.#.#.#.#.#.#.#.#.#.#.#.#.#.#.#.#.#.#.#.#.#.#.#.#.#.#.#.#.#.#.#.#.#.#.#.#.#.#.#.#.#.#. .` %.* * * * @ j                                                                                                                                 y , * * * * 7 &.#.#.#.#.#.#.#.#.#.#.#.#.#.#.#.#.#.#.#.#.#. .#.#.#.#.#.#.#.#.#.#.#.#.#.#.#.#.#.#.#.#.#.#.#.#.#.#.#.#.#.#.#.#.` Z W [.[.[.[.",
"<.Y [.[.[.[.Z |.#.#.#.#.#.#.#.#.#.#.#.#.#.#.#.#.#.#.#.#.#. .#.#.#.#.#.#.#.#.#.#.#.#.#.#.#.#.#.#.#.#.#.#.#.#.#.#.#.#.#.#.#.0.%.* * & * w j                                                                                                                                 y , * * * * 7 &.#.#.#.#.#.#.#.#.#.#.#.#.#.#.#.#.#.#.#.#.#.#.#.#.#.#.#.#.#.#.#.#.#.#.#.#.#.#.#.#.#.#.#.#.#. .#.#.#.#.#.#.#.#.|.Z W [.[.[.[.",
"<.Y [.[.[.[.Z |.#.#.#.#.#.#.#.#.#.#.#.#.#.#.#.#.#.#.#.#.#.#.#.#.#.#.#.#.#.#.#.#.#.#.#.#.#.#.#.#.#.#.#.#.#.#.#.#.#.#.#.#.#.e.$ * * * * w j                                                                                                                                 y , * * * * 7 &.#.#.#.#.#.#.#.#.#.#.#.#.#.#.#.#.#.#.#.#.#.#.#.#.#.#.#.#.#.#.#.#.#.#.#.#.#.#.#.#.#.#.#.#.#.#.#.#.#.#.#.#.#.#.|.Z [.[.Y [.[.",
"<.[.}.[.[.Y Z |.#.#.#.#.#.#.#.#.#.#.#.#.#.#.#.#.#.#.#.#.#.#.#.#.#.#.#.#.#.#.#.#.#.#.#.#.#.#.#.#.#.#.#.#.#.#.#.#.#.#.#.#.#.0.$ * * * * w j                                                                                                                                 y , * * * * 7 <. .#.#.#.#. .#.#.#.#.#.#.#.#.#.#.#.#.#.#.#.#.#.#.#.#.#.#.#.#.#.#.#.#.#.#.#.#.#.#.#.#.#.#.#.#.#.#.#.#.#.#.#.#.|.Z W [.}.[.[.",
"<.[.[.[.[.[.Z |.#.#.#.#.#.#.#.#.#.#.#.#.#.#.#.#.#.#.#.#.#.#.#.#.#.#.#.#.#.#.#.#.#.#.#.#.#.#.#.#.#.#.#.#.#.#.#.#.#.#.#.#.#.0.%.* * * * w j                                                                                                                                 y , * * * * 7 g. .#.#.#.#.#.#.#.#.#.#.#.#.#.#.#.#.#.#.#.#.#.#.#.#.#.#.#.#.#.#.#.#.#.#.#.#.#.#.#.#.#.#.#.#.#.#.#.#.#.#.#.#.#.|.Z W [.[.[.[.",
"<.W Y [.[.[.V |.#.#.#.#.#.#.#.#.#.#.#.#.#.#.#.#.#.#.#.#.#.#.#.#.#.#.#.#.#.#.#.#.#.#.#.#.#.#.#.#.#.#.#.#.#.#.#.#.#.#.#.#.#.0.$ * * * * w j                                                                                                                                 y , * * * * 7 &.#.#.#.#.#.#.#.#.#.#.#.#.#.#.#.#.#.#.#.#.#.#.#.#.#.#.#.#.#. .#.#.#.#.#.#.#.#.#.#.#.#.#.#.#.#.#.#.#.#.#.#.#.#.|.Z [.[.[.[.[.",
"<.W [.[.[.[.9.|.#.#.#.#.#.#.#.#.#.#.#.#.#.#.#.#.#.#.#.#.#.#.#.#.#.#.#.#.#.#.#.#.#.#.#.#.#.#.#.#.#.#.#.#...#...#.#.#.#.#.#.0.%.* * * * w j                                                                                                                                 y ) * * * * 7 &.#.#.#.#.#.#.#.#.#.#.#.#.#.#.#.#.#.#.#.#.#.#.#.#.#.#.#.#.#.#.#.#.#.#.#.#.#.#.#.#.#.#.#.#.#.#.#.#.#.#.#.#.#.#.|.Z [.[.[.[.[.",
"<.W Y [.[.Y -.h.#.#.#.#.#.#.#.#.#.#.#.#.#.#.#.#.#.#.#.#.#.#.#.#.#.#.#.#.#.#.{.*.+.#.#.#.#.#.6.i. .#.#...4.j.5.4...#.#.#.#.0.%.* * * * @ j                                                                                                                                 y , * * * * 7 &.#.#.#.#.#.#.#.#.#.#.#.#.#.#.#.#.#.#.#.#.#.#.#.#.#.#.#.#.#.#.#.#.#.#.#.#.#.#.#.#.#.#.#.#.#.#.#.#.#.#.#.#.#.#.|.9.[.[.[.[.[.",
"<.[.[.[.[.k.Z |.#.#.#.#.#.#.#.#.#.#.#.#.#.#.#.#.#.#.#.#.#.#.#.#.#.#.#.#.#.#.5.l.+.#.#.#.#.#.m.l...#.#.#.^./.../.+.#.#.#.#.0.%.* * * * h j                                                                                                                                 y , * * * * 7 &.#.#.#.#.#.#.#.#.#.#.#.#.#.#.#.#.#.#.#.#.#.#.#.#.#.#.#.#.#.#.#.#.#.#.#.#.#.#.#.#.#.#.#.#.#.#.#.#.#.#.#.#.#. .h.-.[.[.[.[.[.",
"<.W [.[.[.[.Z |.#.#.#.#.#.#.#.#.#.#.#.#.#.#.#.#.#.#.#.#.#.#.#.#.#.#.#.#.#.#.5.l.+.#.#.#.#.#.j.n...#.#.#. ./.j.j.#.#.#.#.#.0.$ * * * * @ i                                                                                                                                 y , * * * * 7 &.#.#.#.#.#.#.#.#.#.#.#.#.#.#.#.#.#.#.#.#.#.#.#.#.#.#.#.#.#.#.#.#.#.#.#.#.#.#.#.#.#.#.#.#.#.#.#.#.#.#.#.#.#.#.|.Z [.[.Y [.[.",
"<.W }.[.[.[.Z |.#.#.#.#.#.#.#.#.#.#.#.#.#.#.#.#.#.#.#.#. .#.#.#.#.#.#.#.#.#./.l.+.#.#.#.#.#.m.o...#.#.#.@./.j.{.#.#.#.#.#.0.$ * * * * @ j                                                                                                                                 y , * * * * 7 &.#.#.#.#.#.#.#.#.#.#.#.#.#.#.#.#.#.#.#.#.#.#.#.#.#.#.#. .#.#.#.#.#.#.#.#.#.#.#.#.#.#.#.#.#.#.#.#.#.#.#.#.#.#.|.Z [.[.[.[.[.",
"<.W [.[.[.[.Z |.#.#.#.#.#.#.#.#.#.#.#.#.#.#.#.#.#.#.#.#.#.#.#.#.#.#.#.#.#.#.5.l.^.#.#.#.#.#.j.n...#.#.#.^./.^...#.#.#.#.#.0.$ * * * * h j                                                                                                                                 y , * * * * 7 &.#.#.#.#.#.#.#.#.#.#.#.#.#.#.#.#.#.#.#.#.#.#.#.#.#.#.#.#.#.#.#.#.#.#.#.#.#.#.#.#.#.#.#.#.#.#.#.#.#.#.#.#.#.#.|.Z W [.[.[.[.",
"<.[.[.Y [.[.Z |.#.#.#.#.#.#.#.#.#.#.#.#.#.#.#.#.#.#.#.#.#.#.#.#.#.#.#.#.#.#.6.l.^.#.#.#.#.#.m.o...#.#.#...j./.{.#.#.#.#.#.0.$ * * * * @ j                                                                                                                                 y , * * * * 7 &.#.#.#.#.#.#.#.#.#.#.#.#.#.#.#.#.#.#.#.#.#.#.#.#.#.#.#.#.#.#.#.#.#.#.#.#.#.#.#.#.#.#.#.#.#.#.#.#.#.#.#.#.#.#.|.Z W [.}.[.[.",
"<.W [.[.[.[.Z |.#.#.#.#.#.#.#.#.#.#.#.#.#.#.#.#.#.#.#.#.#.#.#.#.#.#.#.#.#.#./.l.^.#.#.#.#.#.m.o...#.#.#.#./.m.4.@.#.#.#.#.e.%.& & * * @ j                                                                                                                                 y , * * * * 7 &.#.#.#.#.#.#.#.#.#.#.#.#.#.#.#.#.#.#.#.#.#.#.#.#.#.#.#.#.#.#.#.#.#.#.#.#.#.#.#.#.#.#.#.#.#.#.#.#.#.#.#.#.#.#.|.Z [.[.[.[.[.",
"<.W Y [.[.Y Z |.#.#.#.#.#.#.#.#.#.#.#.#.#.#.#.#.#.#.#.#.#.#.#.#.#.#.#.#.#.#./.l.+.#.#.#.#.#.m.o...#.#.#.+.j.h.q.^.#.#.#.#.0.%.& * * & @ j                                                                                                                                 y , * * * * 7 &.#.#.#.#.#.#.#.#.#.#.#.#.#.#.#.#.#.#.#.#.#.#.#.#.#.#.#.#.#.#.#.#.#.#. .#.#.#.#.#.#.#.#.#.#.#.#.#.#.#. .#.#.#.|.Z [.[.[.[.[.",
"<.W [.[.[.W Z |.#.#.#.#.#.#.#.#.#.#.#.#.#.#.#.#.#.#.#.#.#.#.#.#.#.#.#.#.#.#.{.r.m.].{.].].].s.t.#.#.#.#...].4.m.^.#.#.#.#.0.%.* * * & @ i                                                                                                                                 y , * * * * 7 &.#.#.#.#.#.#.#.#.#.#.#.#.#. .#.#.#.#.#.#.#.#.#.#.#.#.#.#.#.#.#.#.#.#.#.#.#.#.#.#.#.#.#.#.#.#.#.#.#.#.#.#.#.#.|.Z [.[.[.[.[.",
"<.[.[.Y [.[.Z |.#.#.#.#.#.#.#.#.#.#.#.#.#.#.#.#.#.#.#.#.#.#.#.#.#.#.#.#.#.#...t.u.v.u.Q S u.Q m.#.#.#...].{.5.4. .#.#.#.#.0.%.* * * & @ j                                                                                                                                 y , * * * * 7 &.#.#.#.#.#.#.#.#.#.#.#.#.#.#.#.#.#.#.#.#.#.#.#.#.#.#.#.#.#.#.#.#.#.#.#.#.#.#.#.#.#.#.#.#.#.#.#.#.#.#.#.#.#.#.|.Z [.Y [.Y Y ",
"<.Y [.[.[.[.Z |.#.#.#.#.#.#.#.#.#.#.#.#.#.#.#.#.#.#.#.#.#.#.#.#.#.#.#.#.#.#.#.].q.*.*.*.*.*.j...#.#.#...].5.5./. .#.#.#.#.0.$ * * * * w j                                                                                                                                 y ) * * * * 7 &.#.#.#.#.#.#.#.#.#.#.#.#.#.#.#.#.#.#.#. .#.#.#.#.#.#.#.#.#.#.#.#.#.#.#.#.#.#.#.#.#.#.#.#.#.#.#.#.#.#.#.#.#.#.|.Z W [.[.[.[.",
"<.Y [.[.Y [.Z |.#.#.#.#.#.#.#.#.#.#.#.#.#.#.#.#.#.#.#.#.#.#.#.#.#.#.#.#.#.#.#.@.#.#.#.#.#.#.#...#.#.#.#...j.5./.@.#.#.#.#.0.$ * * * * w j                                                                                                                                 y , * * * * 7 &.#.#.#.#.#.#.#.#.#.#.#.#.#.#.#.#.#.#.#.#.#.#.#.#.#.#.#.#.#.#.#.#.#.#.#.#.#.#.#.#.#.#.#.#.#.#.#.#.#.#.#.#.#.#.|.Z W [.Y [.[.",
"<.[.[.[.[.[.Z |.#.#.#.#.#.#.#.#.#.#.#.#.#.#.#.#.#.#.#.#.#.#.#.#.#.#.#.#.#.#.{.s.^.#.{.6.#.#./.s.#.#.#.#.]./.+.+.#.#.#.#.#.0.%.* * * * @ j                                                                                                                                 y , * * * * 7 &.#.#.#.#.#.#.#.#.#.#.#.#.#.#.#.#.#.#.#.#.#.#.#.#.#.#.#.#.#.#.#.#.#.#.#.#.#.#.#.#.#.#.#.#.#.#.#.#.#.#.#.#.#.#.|.Z W [.[.[.[.",
"<.[.[.[.[.[.Z |.#.#.#.#.#.#.#.#.#.#.#.#.#.#.#.#.#.#.#.#.#.#.#.#.#.#.#.#.#.#./.l.+.#.s.s.#.#.j.o...#.#.../.5./.{.@.#.#.#.#.0.%.* * * * h j                                                                                                                                 y , * * * * 7 &.#.#.#.#.#.#.#.#.#.#.#.#.#.#.#.#.#.#.#.#.#.#.#.#.#.#.#.#.#.#.#.#.#.#.#.#.#.#.#. .#.#.#.#.#.#.#.#.#.#.#.#.#.#.|.Z [.[.[.[.[.",
"<.W [.[.[.[.Z |.#.#.#.#.#.#.#.#.#.#.#.#.#.#.#.#.#.#.#.#.#.#.#.#.#.#.#.#.#.#.5.l.+.#.i.s.#.#.j.n...#.#.#.^.].#.]...#.#.#.#.0.%.* * * * @ i                                                                                                                                 y , * * * * 7 &.#.#.#.#.#.#.#.#.#.#.#.#.#.#.#.#.#.#.#.#.#.#.#.#.#.#.#.#.#.#.#.#.#.#.#.#. .#.#.#.#.#.#.#.#.#.#.#.#.#.#.#.#.#.|.Z W [.[.[.[.",
"<.W }.[.[.[.Z |.#.#.#.#.#.#.#.#.#.#.#.#.#.#.#.#.#.#.#.#.#.#.#.#.#.#.#.#.#.#.5.l.+.#.i.s.#.#.m.o...#.#.#.+./.+.5.+.#.#.#.#.0.%.* * * * @ j                                                                                                                                 y , * * * * 7 &.#.#.#.#.#.#.#.#.#.#.#.#.#.#.#.#.#.#.#.#.#.#.#.#.#.#.#.#.#.#.#.#.#.#.#.#.#.#.#.#.#.#.#.#.#.#.#.#.#.#.#.#.#.#.|.Z W [.[.[.[.",
"<.[.[.[.[.[.Z |.#.#.#.#.#.#.#.#.#.#.#.#.#.#.#.#.#.#.#.#.#.#.#.#.#.#.#.#.#.#.5.l.^.#.s.x.#.#.j.n...#.#.#.#.].4./.#.#.#.#.#.0.%.* * * * h j                                                                                                                                 4 , * * * * 7 &.#.#.#.#.#.#.#.#.#.#.#.#.#.#.#.#.#.#.#.#.#.#.#.#.#.#.#.#.#.#.#.#.#.#.#.#.#.#.#.#.#.#.#.#.#.#.#.#.#.#.#.#.#.#.|.Z [.[.[.[.[.",
"<.[.[.Y [.[.Z |.#.#.#.#.#.#.#.#.#.#.#.#.#.#.#.#.#.#.#.#.#.#.#.#.#.#.#.#.#.#.6.l.^.#.*.x.#.#.m.o...#.#.#.^.]./.4...#.#.#.#.0.%.* * * * @ j                                                                                                                                 y , * * * * 7 &.#.#.#.#.#.#.#.#.#. .#.#.#.#.#.#.#.#.#.#.#.#.#.#.#.#.#.#.#.#.#.#.#.#.#.#.#.#.#.#.#.#.#.#.#.#.#.#.#.#.#.#.#.#.|.Z [.[.[.[.[.",
"<.W [.[.[.W Z |.#.#.#.#.#.#.#.#.#.#.#.#.#.#.#.#. .#.#.#.#.#.#.#.#.#.#.#.#.#./.l.^.#.i.s.#.#.m.l...#.#.#.+.m./.]...#.#.#.#.0.%.* * * * @ j                                                                                                                                 4 , * * * * 7 <. .#.#.#.#.#.#.#.#.#.#.#.#.#.#.#.#.#.#.#.#.#.#.#.#.#.#.#.#.#.#.#.#.#.#.#.#.#.#.#.#.#.#.#.#.#.#.#.#.#.#.#.#.#.|.Z [.[.[.[.[.",
"<.W [.[.[.W Z |.#.#.#.#.#.#.#.#.#.#.#.#.#.#.#.#.#.#.#.#.#.#.#.#.#.#.#.#.#.#.4.l.6.+.s.t.].+.h.n.+.#.#.#.+.6...]...#.#.#.#.0.%.* * * & @ j                                                                                                                                 y , * * * * 7 &. .#.#.#.#.#.#.#.#.#.#.#.#.#.#.#.#.#.#.#.#.#.#.#.#.#.#.#.#.#.#.#.#.#.#.#.#.#.#.#.#.#.#.#.#.#.#.#.#.#.#.#.#.#.|.Z [.[.[.[.[.",
"<.[.[.[.[.W Z |.#.#.#.#.#.#.#.#.#.#.#.#.#.#.#.#.#.#.#.#.#.#.#.#.#.#.#.#.#.#./.u.u.r.u.u.S S u.l...#.#.#.4.q.5.j...#.#.#.#.0.%.* * * & @ i                                                                                                                                 y , * * * * 7 &. .#.#.#.#.#.#.#.#.#.#.#.#.#.#.#.#.#.#.#.#.#.#.#.#.#.#.#.#.#.#.#.#.#.#.#.#.#.#.#.#.#.#.#.#.#.#.#.#.#.#.#.#.#.|.Z [.[.[.[.W ",
"<.[.[.[.[.W Z |.#.#.#.#.#.#.#.#.#.#.#.#.#.#.#.#.#.#.#.#.#.#.#.#.#.#.#.#.#.#.+.h.i.i.*.i.` ` *.m.#.#.#.#.^./././. .#.#.#.#.0.%.* * * & @ j                                                                                                                                 y , * * * * 7 &.#.#.#.#.#.#.#.#.#.#.#.#.#.#.#.#.#.#.#.#.#.#.#.#.#.#.#.#.#.#.#.#.#.#.#.#.#.#.#.#.#.#.#.#.#.#.#.#.#.#.#.#.#.#.|.Z W [.[.[.[.",
"<.W [.[.}.W Z |.#.#.#.#.#.#.#.#.#.#.#.#.#.#.#.#.#.#.#.#.#.#.#.#.#.#.#.#.#.#...^.#.#.#.#.#.#.#.#.#.#.#.#.#.^.].j...#.#.#.#.0.$ * * * * h j                                                                                                                                 y ) * * * * 7 &.#.#.#.#.#.#.#.#.#.#.#.#.#.#.#.#.#.#.#.#.#.#.#.#.#.#.#. .#.#.#.#.#.#.#.#.#.#.#.#.#.#.#.#.#.#.#.#.#.#.#.#.#.#.|.Z W [.[.[.[.",
"<.[.[.[.[.[.Z |.#.#.#.#.#.#.#.#.#.#.#.#.#.#.#.#.#.#.#.#.#.#.#.#.#.#.#.#.#.#./.n.+.#.#.#.#.#.#.#.#.#.#.#.#.].{.4...#.#.#.#.0.$ * * * * @ j                                                                                                                                 y , * * * * 7 &.#.#.#.#.#.#.#.#.#.#.#.#.#.#.#.#.#.#.#.#.#.#.#.#.#.#.#.#.#.#.#.#.#.#.#.#.#.#.#.#.#.#.#.#.#.#.#.#.#.#.#.#.#.#.|.Z [.[.}.[.[.",
"<.[.[.[.[.W Z |.#.#.#.#.#.#.#.#.#.#.#.#.#.#.#.#.#.#.#.#.#.#.#.#.#.#.#.#.#.#.5.l.].#.#.#.#.#.#.#.#.#.#.#.#.4./.].#.#.#.#.#.0.$ * * * * @ j                                                                                                                                 y , * * * * 7 &.#.#.#.#.#.#.#.#.#.#.#.#.#.#.#.#.#.#.#.#.#.#.#.#.#.#.#.#.#.#.#.#.#.#.#.#.#.#.#.#.#.#.#.#.#.#.#.#.#.#.#.#.#.#.|.Z [.[.[.[.[.",
"<.[.[.[.[.[.Z |.#.#.#.#.#.#.#.#.#.#.#.#.#.#.#.#.#.#.#.#.#.#.#.#.#.#.#.#.#.#.5.l.+.#.#.#.#.#.#.#.#.#.#.#.^.m./.{.^.#.#.#.#.0.$ * * & & @ j                                                                                                                                 y , * * * * 7 &.#.#.#.#.#.#.#.#.#.#.#.#.#.#. .#.#.#.#.#.#.#.#.#.#.#.#.#.#.#.#.#.#.#.#.#.#.#.#.#.#.#.#.#.#.#. .#.#.#.#.#.#.#.|.Z [.[.[.[.[.",
"<.[.[.[.[.[.Z |.#.#.#.#.#.#.#.#.#.#.#.#.#.#.#.#. .#.#.#.#.#.#.#.#.#.#.#.#.#.5.l.+.#.#.#.#.#.#.#.#.#.#.#.+.m.m./...#.#.#.#.0.%.* * * * @ j                                                                                                                                 y , * * * * 7 &.#.#.#.#.#.#.#.#.#.#.#.#.#. .#.#.#.#.#.#.#.#.#.#.#.#.#.#.#.#.#.#.#.#.#.#.#.#.#.#.#.#.#.#.#.#.#.#.#.#.#.#.#.#.f.=.W [.[.[.[.",
"<.[.[.[.Y W Z |.#.#.#.#.#.#.#.#. .#.#.#.#.#.#.#.#.#.#.#.#.#.#.#.#.#.#.#.#.#.6.S *.m.q.q.h.q.m.m.#.#.#.#.@.4.q.].#.#.#.#.#.0.%.* * * * @ j                                                                                                                                 y , * * * * 7 &.#.#.#.#.#.#.#.#.#.#.#.#.#.#.#.#.#.#.#.#.#.#.#.#.#.#.#.#.#.#.#.#.#.#.#.#.#.#.#.#.#.#.#.#.#.#.#.#.#.#.#.#.#.#.f.J W [.[.[.[.",
"<.W [.[.[.[.Z |.#.#.#.#.#.#.#.#.#.#.#.#.#.#.#.#.#.#.#.#.#.#.#.#.#.#.#.#.#.#.5.u.u.v.u.u.v.v.u.n.+.#.#.#././././.@.#.#.#.#.0.$ * * & * h j                                                                                                                                 y , * * * * 7 &.#.#.#.#.#.#.#.#.#.#.#.#.#.#.#.#.#.#.#.#.#.#.#.#.#.#.#.#.#.#.#.#.#.#.#.#.#.#.#.#.#.#.#.#.#.#.#.#.#.#.#.#.#.#.|.=.W [.[.[.[.",
"<.Y [.Y [.[.Z |.#.#.#.#.#.#.#.#.#.#.#.#.#.#.#.#.#.#.#.#.#.#.#.#.#.#.#.#.#.#.5.r.m.].{.{.{.{.{.].#.#.#.^.{.#.#./.+.#.#.#.#.0.$ * * * * @ j                                                                                                                                 y , * * * * 7 &.#.#.#.#.#.#.#.#.#.#.#.#.#.#.#.#.#.#.#.#.#.#.#.#.#.#. .#.#.#.#.#.#.#.#.#.#.#.#.#.#.#.#.#.#.#.#.#.#.#.#.#.#.#.|.W [.[.[.[.[.",
"<.[.[.[.[.W Z |.#.#.#.#.#.#.#.#.#.#.#.#.#.#.#.#.#.#.#.#.#.#.#.#.#.#.#.#.#.#.6.l.+.#.#.#.#.#.#.#.#.#.#.].m.{./.m.+.#.#.#.#.0.$ * * * * @ j                                                                                                                                 y , * * * * 7 &.#.#.#.#.#.#.#.#.#.#.#.#.#.#.#.#.#.#.#.#.#.#.#.#.#.#.#.#.#.#.#.#.#.#.#.#.#.#.#.#.#.#.#.#.#.#.#.#.#.#.#.#.#.#.|.9.z.[.[.}.[.",
"<.[.[.[.[.W Z |.#.#.#.#.#.#.#.#.#.#.#.#.#.#.#.#.#.#.#.#.#.#.#.#.#.#.#.#.#.#.5.l.+.#.#.#.#.#.#.#.#.#.#.#.].].].].#.#.#.#.#.0.%.* * * * h j                                                                                                                                 y , * * * * 7 &.#.#.#.#.#.#.#.#.#.#.#.#.#.#.#.#.#.#.#.#.#.#.#.#.#.#.#.#.#.#.#.#.#.#.#.#.#.#.#.#.#.#.#.#.#.#.#.#.#.#.#.#.#.#.|.Z A.[.[.[.[.",
"<.W [.[.[.[.V |.#.#.#.#.#.#.#.#.#.#.#.#.#.#.#.#.#.#.#.#.#.#.#.#.#.#.#.#.#.#.5.l.^.#.#.#.#.#.#.#.#.#.#.#.#.#.#.#.#.#.#.#.#.0.$ * * * * @ j                                                                                                                                 y , * * * * 7 &.#.#.#.#.#.#.#.#.#.#.#.#.#.#.#.#.#.#.#.#.#.#.#.#.#.#.#.#.#.#.#.#.#.#.#.#.#.#.#.#.#.#.#.#.#.#.#.#. .#.#.#.#. .|.Z Y [.Y Y Y ",
"<.W [.[.[.[.Z |.#.#.#.#.#.#.#.#.#.#.#.#.#.#.#.#.#.#.#.#.#.#.#.#.#.#.#.#.#.#./.n.^.#.#.#.#.#.#.#.#.#.#.#.@...^.{.#.#.#.#.#.0.$ * * * * w j                                                                                                                                 y , * * * * 7 &.#.#.#.#.#.#.#.#.#.#.#.#.#.#.#.#.#.#.#.#.#.#.#.#.#.#.#.#.#.#.#.#.#.#.#.#.#.#.#.#.#.#.#.#.#.#.#.#.#.#.#.#.#.#.f.Z [.[.[.Y Y ",
"<.W [.[.}.W Z |.#.#.#.#.#.#.#.#.#.#.#.#.#.#.#.#.#.#.#.#.#.#.#.#.#.#.#.#.#.#.@.]...#.#.#...#.#.#.#.#.#.#.^.{.5.5.^.#.#.#.#.e.%.* * * * @ j                                                                                                                                 y , * * * * 7 &.#.#.#.#.#.#.#.#.#.#.#.#.#.#.#.#.#.#.#.#.#.#.#.#.#.#.#.#.#.#.#.#.#.#.#.#.#.#.#.#.#.#.#.#.#.#.#.#.#.#.#.#.#.#.|.Z W [.[.[.[.",
"<.W [.[.[.W Z |.#.#.#.#.#.#.#.#.#.#.#.#.#.#.#.#.#.#.#.#.#.#.#.#.#.#.#.#.#.#.].s.x.s.t.s.s.x.x.*.@.#.#.#...j./.+.@.#.#.#.#.0.%.* * * * h j                                                                                                                                 y , * * * * 7 &.#.#.#.#.#.#.#.#.#.#. .#.#.#.#.#.#.#.#.#.#.#.#.#.#.#.#.#.#.#.#.#.#.#.#.#.#.#.#.#.#.#.#.#.#.#.#.#.#.#.#.#.#.#.|.Z [.[.[.[.[.",
"<.[.[.[.[.W Z |.#.#.#.#.#.#.#.#.#.#.#.#.#.#.#.#.#.#.#.#.#.#.#.#.#.#.#.#.#.#.].l.S v.u.u.r.S v.t...#.#.#. ./.5.5.@.#.#.#.#.0.$ * * * * @ j                                                                                                                                 y ) * * * * 7 &.#.#.#.#.#.#.#.#.#.#.#.#.#.#.#.#.#.#.#.#.#.#.#.#.#.#.#.#.#.#.#.#.#.#.#.#.#.#.#.#.#. .#.#.#.#.#.#.#.#.#.#.#.#.|.Z [.[.[.[.[.",
"<.[.[.[.[.W V |.#.#.#.#.#.#.#.#.#.#.#.#.#.#.#.#.#.#.#.#.#.#.#.#.#.#.#.#.#.#.#.^.+.+.s.t.].+.+.+.#.#.#.#.#...+./.^.#.#.#.#.0.$ * & * * w j                                                                                                                                 y , * * * * 7 &.#.#.#.#.#.#.#.#.#.#.#.#.#.#.#.#.#.#.#.#.#.#.#.#.#.#.#.#.#.#.#.#.#.#.#. .#.#.#.#.#.#.#.#.#.#.#.#.#.#.#.#.#.#.|.Z [.[.[.[.[.",
"<.[.[.[.[.[.Z |.#.#.#.#.#.#.#.#.#.#.#.#.#.#.#.#.#.#.#.#.#.#.#. .#.#.#.#.#.#.#.#.#.#.i.s.#.#.#.#.#.#.#.#.#.{.{.j...#.#.#.#.0.%.* * * * @ j                                                                                                                                 y , * * * * 7 &.#.#.#.#.#.#.#.#.#.#.#.#.#.#.#.#.#.#.#.#.#.#.#.#.#.#.#.#.#.#.#.#.#.#.#.#.#.#.#.#.#.#.#.#.#.#.#.#.#.#.#.#.#.#.|.Z W [.[.[.[.",
"<.[.[.[.Y W Z |.#.#.#.#.#.#.#.#.#.#.#.#.#.#.#.#.#.#.#.#.#.#.#.#.#.#.#.#.#.#.#.#.#.#.i.s.#.#.#.#.#.#.#.#.#./.m./.#.#.#.#.#.0.%.* * * * @ j                                                                                                                                 y , * * * * 7 &.#.#.#.#.#.#.#.#.#.#.#.#.#.#.#.#.#.#.#.#.#.#.#.#.#.#.#.#.#.#.#.#.#.#.#.#.#.#.#.#.#.#.#.#.#.#.#.#.#.#.#.#.#.#.|.Z W [.[.[.[.",
"<.Y [.[.[.W Z |.#.#.#.#.#.#.#.#.#.#.#.#.#.#.#.#.#.#.#.#.#.#.#.#.#.#.#.#.#.#.#.#.#.#.s.x.#.#.#.#.#.#.#.#.^.m.m./.+.#.#.#.#.0.%.* * * * h j                                                                                                                                 y , * * * * 7 &.#.#.#.#.#.#.#.#.#.#.#.#.#.#.#.#.#.#.#.#. .#.#.#.#.#.#.#.#.#.#.#.#.#.#.#.#.#.#.#.#.#.#.#.#.#.#.#.#.#.#.#.#.#.|.Z W [.[.[.[.",
"<.Y [.[.[.W Z |.#.#.#.#.#.#.#.#.#.#.#.#.#.#.#.#.#.#.#.#.#.#.#.#.#.#.#.#.#.#.#.#.#.#.s.x.#.#.#.#.#.#.#.#.+.^.{.4.^.#.#.#.#.0.%.* * * * @ j                                                                                                                                 y , * * * * 7 &.#.#.#.#.#.#.#.#.#.#.#.#.#.#.#.#.#.#.#.#.#.#.#.#.#.#.#.#.#.#.#.#.#.#.#.#.#.#.#.#.#.#.#.#.#.#.#.#.#.#.#.#.#.#.|.Z W [.[.[.[.",
"<.[.[.}.[.[.Z |.#.#.#.#.#.#.#.#.#.#.#.#.#.#.#.#.#.#.#.#.#.#.#.#.#.#.#.#.#.#.#.#.#.#.*.x.#.#.#.#.#.#.#.#.#.@...+.#.#.#.#.#.0.%.* * * * w j                                                                                                                                 y , * * * * 7 <. .#.#.#.#.#.#.#.#.#.#.#.#.#.#.#.#.#.#.#.#.#.#.#.#.#.#.#.#.#.#.#.#.#.#.#.#.#.#.#.#.#.#.#.#.#.#.#.#.#.#.#.#.#.|.V W [.[.[.W ",
"<.[.[.[.[.Y Z |.#.#.#.#.#.#.#.#.#.#.#.#.#.#.#.#.#.#.#.#.#.#.#.#.#.#.#.#.#.#.#.#.#.#.*.x.#.#.#.#.#.#.#.#.#.#.#.#.#.#.#.#.#.0.%.* * * * w j                                                                                                                                 y ) * * * * 7 &. .#.#.#.#.#.#.#.#. .#.#.#.#.#.#.#.#.#.#.#.#.#.#.#.#.#.#.#.#.#.#.#.#.#.#.#.#.#.#.#.#.#.#.#.#.#.#.#.#.#.#.#.#.|.Z [.[.[.[.W ",
"<.[.[.[.[.[.Z |.#.#.#.#.#.#.#.#.#.#.#.#.#. .#.#.#.#.#.#.#.#.#.#.#.#.#.#.#.#...j.5.j.o.o.j.j.m.6.#.#.#.#.#.{.{.{.#.#.#.#.#.0.$ * * * * w j                                                                                                                                 y , * * * * 7 &. .#.#.#.#.#.#.#.#.#.#.#.#.#.#.#.#.#.#.#.#.#.#.#.#.#.#.#.#.#.#.#.#.#.#.#.#.#.#.#.#.#.#.#.#. .#.#.#.#.#.#.#.#.|.Z Y [.[.[.[.",
"<.[.[.[.[.[.Z |.#.#.#.#.#.#.#.#.#.#.#.#.#.#.#.#.#.#.#.#.#.#.#.#.#.#.#.#.#.#./.S Q Q Q Q v.v.v.n...#.#.#.^./.^.+.#.#.#.#.#.0.$ * & * * w j                                                                                                                                 y , * * * * 7 &.#.#.#.#.#.#.#.#.#.#.#.#.#.#.#.#.#.#.#.#.#.#.#.#.#.#.#.#.#.#.#.#.#.#.#.#.#.#.#.#.#.#.#.#.#.#.#.#.#.#.#.#.#.#.|.Z Y [.[.[.[.",
"<.[.[.[.[.[.Z |.#.#.#.#.#.#.#.#.#.#.#.#.#.#.#.#.#.#.#.#.#.#.#.#.#.#.#.#.#.#.../.5.j.5.4.5.4.5.{.#.#.#.#...j./.].@.#.#.#.#.e.%.& * * * w j                                                                                                                                 y , * * * * 7 &.#.#.#.#.#.#.#.#.#.#.#.#.#.#.#.#.#.#.#.#.#.#.#.#.#.#.#.#.#.#.#.#.#.#.#.#.#.#.#.#.#.#.#.#.#.#.#.#.#.#.#.#.#.#.|.V C.[.[.[.[.",
"<.W [.[.[.[.Z |.#.#.#.#.#.#.#.#.#.#.#.#.#.#.#.#.#.#. .#.#.#.#.#.#.#.#.#.#.#. .+.#.#.#.#.#.#. .+.#.#.#.#. ././.]. .#.#.#.#.0.%.& * * * w j                                                                                                                                 y , * * * * 7 &.#.#.#.#.#.#.#.#.#.#.#.#.#.#.#.#.#.#.#.#.#.#.#.#.#.#.#.#.#.#.#.#. .#.#.#.#.#.#.#.#.#.#.#.#.#.#.#.#.#.#.#.#.#.|.9.D.[.[.[.[.",
"<.[.Y [.[.W Z |.#.#.#.#.#.#.#.#.#.#.#.#.#.#.#.#.#.#.#.#.#.#.#.#.#.#.#.#.#.#./.t.+.#.#.#.#.#.5.x.+.#.#.#.+.m./.].+.#.#.#.#.0.%.* * & * @ j                                                                                                                                 y , * * * * 7 &.#.#.#.#.#.#.#.#.#.#.#.#.#.#.#.#.#.#.#.#.#.#.#.#.#.#.#.#.#.#.#.#.#.#.#.#.#.#.#.#.#.#.#.#.#.#.#.#.#.#.#.#.#.#.|.Z [.[.[.[.[.",
"<.[.[.[.[.W Z |.#.#.#.#.#.#.#.#.#.#.#.#.#.#.#.#.#.#.#.#.#.#.#.#.#.#.#.#.#.#.5.l.^.#.#.#.#.#.m.l.+.#.#.#...j.m./...#.#.#.#.0.%.* * * * h j                                                                                                                                 y ) * * * * 7 &.#.#.#.#.#.#.#.#.#.#.#.#.#.#.#.#.#.#.#.#.#.#.#.#.#.#.#.#.#.#.#.#.#.#.#.#.#.#.#.#.#.#.#.#.#.#.#.#.#.#.#.#.#.#.|.Z [.[.[.[.[.",
"<.W [.[.[.[.Z |.#.#.#.#.#.#.#.#.#.#.#.#.#.#.#.#.#.#.#.#.#.#.#.#.#.#.#.#.#.#.6.l.+.#.#.#.#.#.m.l.@.#.#.#...]./...#.#.#.#.#.0.%.* * * * @ i                                                                                                                                 y , * * * * 7 &.#.#.#.#.#.#.#.#.#.#.#.#.#.#.#.#.#.#.#.#.#.#.#.#.#.#.#.#.#.#.#.#.#.#.#.#.#.#.#.#.#.#.#.#.#.#.#.#.#.#.#.#.#.#.|.Z [.[.[.[.[.",
"<.W Y [.[.[.Z |.#.#.#.#.#.#.#.#.#.#.#.#.#.#.#.#.#.#.#.#.#.#.#.#.#.#.#.#.#.#.5.l.+.#.#.#.#.#.m.n.@.#.#.#...5.{.]. .#.#.#.#.0.%.* * & * @ j                                                                                                                                 y , * * * * 7 &.#.#.#.#.#.#.#.#.#.#.#.#.#.#.#.#.#.#.#.#.#.#.#.#.#.#.#.#.#.#.#.#.#.#.#.#.#.#.#.#.#.#.#.#.#.#.#.#.#.#.#.#.#.#.|.Z [.[.Y [.[.",
"<.W [.[.}.[.Z |.#.#.#.#.#.#.#.#.#.#.#.#.#.#.#.#. .#.#.#.#.#.#.#.#.#.#.#.#.#.5.l.^.#.#.#.#.#.m.n...#.#.#. .5.5./...#.#.#.#.0.%.* * * * h j                                                                                                                                 y , * * * * 7 &.#.#.#.#.#.#.#.#.#.#.#.#.#.#.#.#.#.#.#.#.#.#.#.#.#.#.#.#.#.#.#.#.#.#.#.#.#.#.#.#.#.#.#.#.#.#.#.#.#.#.#.#.#.#.|.Z Y [.[.[.[.",
"<.W [.[.[.[.Z |.#.#.#.#.#.#.#.#.#.#.#.#.#.#.#.#.#.#.#.#.#.#.#.#.#.#.#.#.#.#./.l.^.#.#.#.#.#.m.o...#.#...../.5.j.+.#.#.#.#.0.%.* * * * @ j                                                                                                                                 y , * * * * 7 &.#.#.#.#.#.#.#.#.#.#.#.#.#.#.#.#.#.#.#.#.#.#.#.#.#. .#.#.#.#.#.#.#.#.#.#.#.#.#.#.#.#.#.#.#.#.#.#.#.#.#.#.#.#.|.Z Y [.Y [.[.",
"<.[.Y [.Y [.Z |.#.#.#.#.#.#.#.#.#.#.#.#.#.#.#.#.#.#.#.#.#.#.#.#.#.#.#.#.#.#.5.l.+.#.#.#.#.#.j.o...#.#.......+./.^.#.#.#.#.0.%.* * * * @ j                                                                                                                                 y , * * * * 7 &.#.#.#.#.#.#.#.#.#.#.#.#.#.#.#.#.#.#.#.#.#.#.#.#.#.#.#.#.#.#.#.#.#.#.#.#.#.#.#.#.#.#.#.#.#.#.#.#.#.#.#.#. .#.|.V C.Y [.[.[.",
"<.[.[.[.[.Y Z |.#.#.#.#.#.#.#.#.#.#.#.#.#.#.#.#.#.#.#.#.#.#.#.#.#.#.#.#.#.#./.l.].#.#.#.#.#.m.n...#.#.#...{.{.].@.#.#.#.#.0.%.* * * & @ j                                                                                                                                 y , * * * * 7 &.#.#.#.#.#.#.#.#.#.#.#.#.#.#.#.#.#. .#.#.#.#.#.#.#.#.#.#.#.#.#.#.#.#.#. .#.#.#.#.#.#.#.#.#.#.#.#.#.#.#.#.#.#.|.9.D.[.[.[.[.",
"<.[.[.[.Y Y V |.#.#.#.#.#.#.#.#.#.#.#.#.#.#.#.#.#.#.#.#.#.#.#.#.#.#.#.#.#.#.].l.*.m.4.q.m.m.o.x.#.#.#.#.{.5.]./...#.#.#.#.0.%.* * * & @ i                                                                                                                                 y , * * * * 7 &.#.#.#.#.#.#.#.#.#.#.#.#.#.#.#.#.#.#.#.#.#.#.#.#.#.#.#.#.#.#.#.#.#.#.#.#.#.#.#.#.#.#.#.#.#.#.#.#.#.#.#.#.#.#.|.V [.[.[.Y [.",
"E.[.}.[.A.D.9.|.#.#.#.#.#.#.#.#.#.#.#.#.#.#.#.#.#.#.#.#.#.#.#.#.#.#.#.#.#.#.@.*.u.u.Q Q v.v.S 5.#.#.#...5.m.5./.@.#.#.#.#.0.%.* & * & @ j                                                                                                                                 y , * * * * 7 &.#.#.#.#.#.#.#.#.#.#.#.#.#.#.#.#.#.#.#.#.#.#.#.#.#.#.#.#.#.#.#.#.#.#.#.#.#.#.#.#.#.#.#.#.#.#.#.#.#.#.#.#.#.#.|.Z [.Y [.Y Y ",
"<.F.Y [.[.[.Z |.#.#.#.#.#.#.#.#.#.#.#.#.#.#.#.#.#.#.#.#.#. .#.#.#.#.#.#.#.#.#.+.{./././.{./.].#.#.#.#.#.#.].^.{.@.#.#.#.#.0.%.* * * * w j                                                                                                                                 4 v * * * * 7 &.#.#.#.#.#.#.#.#.#.#.#.#.#.#.#.#.#.#.#.#.#.#.#.#.#.#.#.#.#.#.#.#.#.#.#.#.#.#.#.#.#.#.#.#.#.#.#.#.#.#.#.#.#.#.|.Z W [.[.[.[.",
"<.Y [.[.[.[.Z |.#.#.#.#.#.#.#.#.#.#.#.#.#.#.#.#.#.#.#.#.#.#.#.#.#.#.#.#.#.#.#.#.#.#.#.+.].].+.#.#.#.#.@.].m.*.{.#.#.#.#.#.0.%.* * * * w j                                                                                                                                 m ) & * * * 7 &.#.#.#.#.#.#.#.#.#.#.#.#.#.#.#.#.#.#.#.#.#.#.#.#.#.#.#.#.#.#.#.#.#.#.#.#.#.#.#.#.#.#.#.#.#.#.#.#.#.#.#.#.#.#.|.Z W [.Y [.[.",
"<.[.[.[.[.W Z |.#.#.#.#.#.#.#.#.#.#.#.#.#.#.#.#.#.#.#.#.#.#.#.#.#.#.#.#.#.#.+.m.@.#.+.n.v.v.l./.#.#.#.^./.j.m./...#.#.#.#.0.%.* * * * @ j                                                                                                                                 4 , * * * * 7 &.#.#.#.#.#.#.#. .#.#.#.#.#.#.#.#.#.#.#.#.#.#.#.#.#.#.#.#.#.#.#.#.#.#.#.#.#.#.#.#. .#.#.#.#.#.#.#.#.#.#.#.#.#.|.Z [.[.[.[.[.",
"<.[.Y [.[.[.Z |.#.#.#.#.#.#.#.#.#.#.#.#.#.#.#.#.#.#.#.#.#.#.#.#.#.#.#.#.#.#.5.l.+.#.q.S ` i.l.t.#.#.#.#.^.{././...#.#.#.#.0.$ * * * * h j                                                                                                                                 4 , * * * * 7 &.#.#.#.#.#.#.#.#.#.#.#.#.#.#.#.#.#.#.#.#.#.#.#.#.#.#.#.#.#.#.#.#.#.#.#.#.#.#.#.#.#.#.#.#.#.#.#.#.#.#.#.#.#.#.|.Z [.[.[.[.[.",
"<.Y [.[.[.Y V |.#.#.#.#.#.#.#.#.#.#.#.#.#.#.#.#.#.#.#.#.#.#.#.#.#.#.#.#.#.#./.l.+.#.*.x.#.#.h.o...#.#.#.].{.+.].+.#.#.#.#.e.%.* * * * @ i                                                                                                                                 y , * * * * 7 &.#.#.#.#.#.#.#.#.#.#.#.#.#.#.#.#.#.#.#.#.#.#.#.#.#.#.#.#.#.#.#.#.#.#.#.#.#.#.#.#.#.#.#.#.#.#.#.#.#.#.#.#.#.#.|.Z W [.[.[.[.",
"<.W [.[.[.[.Z |.#.#.#.#.#.#.#.#.#.#.#.#.#.#.#.#.#.#.#.#.#.#.#.#.#.#.#.#.#.#./.l.+.#.s.s.#.#.m.n...#.#.#.j.m.5./.@.#.#.#.#.0.$ * * * * @ j                                                                                                                                 y , * * * * 7 &.#.#.#.#.#.#.#.#.#.#.#.#.#.#.#.#.#.#.#.#.#.#.#.#.#.#.#.#.#.#.#.#.#.#.#.#.#.#.#.#.#.#.#.#.#.#.#.#.#.#.#.#.#.#.|.Z W [.[.[.[.",
"<.W [.[.[.[.Z 0.#.#.#.#.#.#.#.#.#.#.#.#.#.#.#.#.#.#.#.#.#.#.#.#.#.#.#.#.#.#.5.l.+.#.s.s.#.#.j.o...#.#.#. .5.m.j.@.#.#.#.#.0.%.* * * * h j                                                                                                                                 4 , * * * * 7 &.#.#.#.#.#.#.#.#.#.#.#.#.#.#. .#.#.#.#.#.#.#.#.#.#.#.#.#.#.#.#.#.#.#.#.#.#.#.#.#.#.#.#.#.#.#.#.#.#.#.#.#.#.#.|.Z [.[.[.[.[.",
"<.[.[.[.[.}.Z |.#.#.#.#.#.#.#.#.#.#.#.#.#.#.#.#.#.#.#.#.#.#.#.#.#.#.#.#.#.#.5.l.^.#.s.` #.#.j.o...#.#.#.+.5.m.m.^.#.#.#.#.0.%.* * * * @ j                                                                                                                                 y , * * * * 7 &.#.#.#.#.#.#.#.#.#.#.#.#.#.#.#.#.#.#.#.#.#.#. .#.#.#.#.#.#.#.#.#.#.#.#.#.#.#.#.#.#.#.#.#.#. .#.#.#.#.#.#.#.#.|.Z [.[.[.[.[.",
"<.W [.[.[.Y Z |.#.#.#.#.#.#.#.#.#.#.#.#.#.#.#.#.#.#.#.#.#.#.#.#.#.#.#.#.#.#.6.l.^.#.s.s.#.#.m.l...#.#.#...^.j.q.^.#.#.#.#.0.%.* * * * @ j                                                                                                                                 y , * * * * 7 <. .#.#.#.#.#.#.#.#.#.#.#.#.#.#.#.#.#.#.#.#.#.#.#.#.#.#.#.#.#.#.#.#.#.#.#.#.#.#.#.#.#.#.#.#.#.#.#.#.#.#.#.#.#.|.Z [.[.[.[.[.",
"<.W Y [.[.[.Z |.#.#.#.#.#.#.#.#.#.#.#.#.#. .#.#.#.#.#.#.#.#.#.#.#.#.#.#.#.#.5.l.^.#.i.i.#.#.4.G...#.#.#.#.{.j./. .#.#.#.#.0.%.* * * * h j                                                                                                                                 y , * * * * 7 &. .#.#.#.#.#.#.#.#.#.#.#.#.#.#.#.#.#.#.#.#.#.#.#.#.#.#.#.#.#.#.#.#.#.#.#.#.#.#.#.#.#.#.#.#.#.#.#.#.#.#.#.#.#.|.Z [.[.[.[.[.",
"<.W [.[.[.W Z |.#.#.#.#.#.#.#.#.#.#.#.#.#.#.#.#.#.#.#.#.#.#.#.#.#.#.#.#.#.#./.l.^.#.s.s.#.#.j.o...#.#.#.+.5.^.^.#.#.#.#.#.0.%.* * * * @ j                                                                                                                                 y , * * * * 7 &. .#.#.#.#.#.#.#.#.#.#.#.#.#.#.#.#.#.#.#.#.#.#.#.#.#.#.#.#.#.#.#.#.#.#.#.#.#.#.#.#.#.#.#.#.#.#.#.#.#.#.#.#.#.|.Z [.[.[.[.[.",
"<.W [.[.[.W Z |.#.#.#.#.#.#.#.#.#.#.#.#.#.#.#.#.#.#.#.#.#.#.#.#.#.#.#.#.#.#.].l.i.m.l.h.#.#.j.o...#.#.#...j.{.{.@.#.#.#.#.0.%.* * * * @ j                                                                                                                                 y , * * * * 7 &.#.#.#.#.#.#.#.#.#.#.#.#.#.#.#.#.#.#.#.#.#.#.#.#.#.#.#.#.#.#.#.#.#.#.#.#.#.#.#.#.#.#.#. .#.#.#.#.#.#.#.#.#.#.|.Z W [.[.[.[.",
"<.W [.[.[.W Z |.#.#.#.#. .#.#.#.#.#.#.#.#.#.#.#.#.#.#.#.#.#.#.#.#.#.#.#.#.#.#.s.Q u.l.{.#.#./.s...#.#.#.+.4.^.+.#.#.#.#.#.0.%.* * * * @ j                                                                                                                                 y , * * * * 7 &.#.#.#.#.#.#.#.#.#.#.#.#. .#.#.#.#.#.#.#.#.#.#.#.#.#.#.#.#.#.#.#.#.#.#.#.#.#.#.#.#.#.#.#.#.#.#.#.#.#.#.#.#.#.|.Z W [.}.[.[.",
"<.[.[.[.[.[.Z |.#.#.#.#.#.#.#.#.#.#.#.#.#.#.#.#.#.#.#.#.#.#.#.#.#.#.#.#.#.#.#.../.j.^.#.#.#.@.+.#.#.#.#...j.q.4...#.#.#.#.0.%.* * * * w j                                                                                                                                 y ) * * * * 7 &.#.#.#.#.#.#.#.#.#.#.#.#.#.#.#.#.#.#.#.#.#.#.#.#.#.#.#.#.#.#.#.#.#.#.#.#.#.#.#.#.#.#.#.#.#.#.#.#.#.#.#.#.#.#.|.Z [.[.[.[.W ",
"<.[.[.[.[.[.Z |.#.#.#.#.#.#.#.#.#.#.#.#.#.#.#.#.#.#.#.#.#.#.#.#.#.#.#.#.#.#.^.m...#.#.#.#.#.#.#.#.#.#.#. ./.5.{.@.#.#.#.#.0.$ * * * * h j                                                                                                                                 y , * * * * 7 &.#.#.#.#.#.#.#.#.#.#.#.#.#.#.#.#.#.#.#.#.#.#.#.#.#.#.#.#.#.#.#.#.#.#.#.#.#.#.#.#.#.#.#.#.#.#.#.#.#.#.#.#.#.#.|.Z [.[.[.[.[.",
"<.[.[.}.[.[.Z |.#.#.#.#.#.#.#.#.#.#.#.#.#.#.#.#.#.#.#.#.#.#.#.#.#.#.#.#.#.#./.l.+.#.#.#.#.#.#.#.#.#.#.#.+.{.../.+.#.#.#.#.0.$ * * * & @ j                                                                                                                                 y , * * * * 7 &.#.#.#.#.#.#.#.#.#.#.#.#.#.#.#.#.#.#.#.#.#.#.#.#.#.#.#.#.#.#.#.#.#.#. .#.#.#.#.#.#.#.#.#.#.#.#.#.#.#.#.#.#.#.|.Z [.[.[.[.[.",
"<.[.[.[.[.W =.q.#.#.#.#.#.#.#.#.#.#.#.#.#.#.#.#.#.#.#.#.#.#.#.#.#.#.#.#.#.#./.l.^.#.#.#.#.#.#.#.#.#.#.#.../.{.5...#.#.#.#.0.%.* * * * @ j                                                                                                                                 y , * * * * 7 &.#.#.#.#.#.#.#.#.#.#.#.#.#.#.#.#.#.#.#.#.#.#.#.#.#.#.#.#.#.#.#.#.#.#.#.#.#.#.#.#.#.#.#.#.#.#.#.#.#.#.#.#.#.#.|.Z W [.[.[.[.",
"<.[.[.[.[.W =.h.#.#.#.#.#.#.#.#.#.#.#.#.#.#.#.#.#.#.#.#.#.#.#.#.#.#.#.#.#.#.5.l.+.#.#.#.#.#.#.#.#.#.#.#...].^.].+.#.#.#.#.0.%.* * * * @ j                                                                                                                                 y , * * * * 7 &.#.#.#.#.#.#.#.#.#.#.#.#.#.#.#.#.#.#.#.#.#.#.#.#.#.#.#.#.#.#.#.#.#.#.#.#.#.#. .#.#.#.#.#.#.#.#.#.#.#.#.#.#.#.|.Z W [.[.[.[.",
"<.[.Y [.Y [.9.j.#.#.#.#.#.#.#.#.#.#.#.#.#.#.#.#.#.#.#.#.#.#. .#.#.#.#.#.#.#./.l.].@.#.....#...#.#.#.#. .j.q.5.5.@.#.#.#.#.0.$ * * * * h j                                                                                                                                 y , * * * * 7 &.#.#.#.#.#.#.#.#.#.#.#.#.#.#.#.#.#.#.#.#.#.#.#.#.#.#.#.#.#.#.#.#.#.#.#.#.#.#.#.#.#.#.#.#.#.#.#.#.#.#.#.#.#.#.|.Z W [.[.[.[.",
"<.Y [.[.[.W V |.#.#.#.#.#.#.#.#.#.#.#.#.#.#.#.#.#.#.#.#.#.#.#.#.#.#.#.#.#.#.5.S l.o.l.n.l.l.l.s...#.#.#.../././.#.#.#.#.#.0.$ * * & * @ j                                                                                                                                 y , * * * * 7 &.#.#.#.#.#.#. .#.#.#.#.#.#.#.#.#.#.#.#.#.#.#.#.#.#.#.#.#.#.#.#.#.#.#.#.#.#.#.#.#.#.#.#.#.#.#.#.#.#.#.#.#.#.#.|.Z [.[.[.[.[.",
"<.[.[.[.[.[.V |.#.#.#.#.#.#.#.#.#.#.#.#.#.#.#.#.#.#.#.#.#.#.#.#.#.#.#.#.#.#./.v.l.n.n.n.l.l.o.s.@.#.#.#.#.^.+.4.^.#.#.#.#.0.%.* * * * @ j                                                                                                                                 y , * * * * 7 &.#.#.#.#.#.#.#.#.#.#.#.#.#.#.#.#.#.#.#.#.#.#.#.#.#.#.#.#.#.#.#.#.#.#.#.#.#.#.#.#.#.#.#.#.#.#.#.#.#.#.#.#.#.#.|.Z [.[.[.[.[.",
"<.[.Y [.Y [.Z |.#.#.#.#.#.#.#.#.#.#.#.#.#.#.#.#.#.#.#.#.#.#.#.#.#.#.#.#.#.#.5.l.]. ...@. .#.#. .#.#.#.#. .{.6.4.^.#.#.#.#.0.%.* * * * h j                                                                                                                                 y , * * * * 7 &.#.#.#.#.#.#.#.#.#.#.#.#.#.#.#.#.#.#.#.#.#.#.#.#.#.#.#.#.#.#.#.#.#.#.#.#.#.#.#.#.#.#.#.#.#.#.#.#.#.#.#.#.#.#.|.Z [.Y [.[.[.",
"<.W [.Y [.[.Z |.#.#.#.#.#.#.#.#.#.#.#.#.#.#.#.#.#.#.#.#.#.#.#.#.#.#.#.#.#.#.6.l.^.#.#.#.#.#.#.#.#.#.#.#.#.^./.5...#.#.#.#.0.$ * * * * @ j                                                                                                                                 y , * * * * 7 &.#.#.#.#.#.#.#.#.#.#.#.#.#.#.#.#.#. .#.#.#.#.#.#.#.#.#.#.#.#.#. .#.#.#.#.#.#.#.#.#.#.#.#.#.#.#.#.#.#.#.#.#.#.|.Z [.[.[.W W ",
"<.W [.[.[.[.Z |.#.#.#.#.#.#.#.#.#.#.#.#.#.#.#. .#.#.#.#.#.#.#.#.#.#.#.#.#.#.5.l.+.#.#.#.#.#.#.#.#.#.#.@././.m.].#.#.#.#.#.0.$ * * * * w j                                                                                                                                 y , * * * * 7 &.#.#.#.#.#.#.#.#.#.#.#.#.#.#.#.#.#.#.#.#.#.#.#.#.#.#.#.#.#.#.#.#.#.#.#.#.#.#.#.#.#.#.#.#.#.#.#.#.#.#.#. .#.#.|.Z W [.[.W W ",
"<.W [.Y [.[.Z |.#.#.#.#.#.#.#.#.#.#.#.#.#.#.#.#.#.#.#.#.#.#.#.#.#.#.#.#.#.#./.l.^.#.#.#.#.#.#.#.#.#.#.^.q.5.m.+.#.#.#.#.#.e.%.* * * * @ j                                                                                                                                 y , * * * * 7 &.#.#.#.#.#.#.#.#.#.#.#.#.#.#.#.#.#.#.#.#.#.#.#.#.#.#.#.#.#.#.#.#.#.#.#.#.#.#.#.#.#.#.#.#.#.#.#.#.#.#.#.#.#.#.|.Z W [.[.[.[.",
"<.W [.[.[.Y Z |.#.#.#.#.#.#.#.#.#.#.#.#.#.#.#.#.#.#.#.#. .#.#.#.#.#.#.#.#.#.].h...#.#.#.#.#.#.#.#.#.#.#.#.^././.@.#.#.#.#.0.%.* * * * h j                                                                                                                                 y , * * * * 7 &.#.#.#.#.#.#.#.#.#.#.#.#.#.#.#.#.#.#.#.#.#.#.#.#.#.#.#.#.#.#.#.#.#.#.#.#.#.#.#.#.#.#.#.#.#.#.#.#.#.#.#.#.#.#.|.Z [.}.[.[.[.",
"<.[.[.[.[.[.Z |.#.#.#.#.#.#.#.#.#.#.#.#.#.#.#.#.#.#.#.#.#.#.#.#.#.#.#.#.#.#...].].].{.^.^.^...#.#.#.#.#.#.#.#.#.#.#.#.#.#.0.$ * * * * @ j                                                                                                                                 y ) * * * * 7 &.#.#.#.#.#.#.#.#.#.#.#.#.#.#.#.#.#.#.#.#.#.#.#.#.#.#.#.#.#.#.#.#.#.#.#.#.#.#.#.#.#.#.#.#.#.#.#.#.#.#.#.#.#.#.|.Z [.[.[.[.[.",
"<.[.[.}.[.[.Z |.#.#.#.#.#.#.#.#.#.#.#.#.#.#.#.#.#.#.#.#.#.#.#.#.#.#.#.#.#.#.{.S S v.v.S Q v.n.{.#.#.#.#.#.#.#.#.#.#.#.#.#.0.$ * * & * w j                                                                                                                                 y , * * * * 7 &.#.#.#.#.#.#.#.#.#.#.#.#.#.#.#.#.#.#.#.#.#.#.#.#.#. .#.#.#.#.#.#.#.#.#.#.#.#.#.#.#.#.#.#.#.#.#.#.#.#.#.#.#.#.|.Z [.[.[.[.[.",
"<.[.[.[.[.[.Z |.#.#.#.#.#.#.#.#.#.#.#.#.#.#.#.#.#.#.#.#.#.#.#.#.#.#.#.#.#.#.].*.s.*.` ` s.s.l.s.#.#.#.#.#.#.#.#.#.#.#.#.#.0.%.* * * * @ j                                                                                                                                 y , * * * * 7 &.#.#.#.#.#.#.#.#.#.#.#.#.#.#.#.#.#.#.#.#.#.#.#.#.#.#.#.#.#.#.#.#.#.#.#.#.#.#.#.#.#.#.#.#.#.#.#.#.#.#.#.#.#.#.|.Z Y [.[.[.[.",
"<.[.[.[.[.[.Z |.#.#.#.#.#.#.#.#.#.#.#.#.#.#.#.#.#.#.#.#.#.#.#.#.#.#.#.#.#.#.#.#.#.#.#.#.#.#.h.n...#.#.#.#.#.#.#.#.#.#.#.#.0.%.* * * * @ j                                                                                                                                 y , * * * * 7 &.#.#.#.#.#.#.#.#.#.#.#.#.#.#.#.#.#.#.#.#.#.#.#.#.#.#.#.#.#.#.#.#.#.#.#.#.#.#.#.#.#.#.#.#.#.#.#.#.#.#.#.#.#.#.|.Z Y [.[.[.[.",
"<.Y [.[.[.[.Z |.#.#.#.#.#.#.#.#.#.#.#.#.#.#.#.#.#.#.#.#.#.#.#.#.#.#.#.#.#.#.#.#.#.#.#.#.#.#.m.n.+.#.#.#.#.#.#.#.#.#.#.#.#.0.%.* * * * h j                                                                                                                                 y , * * * * 7 &.#.#.#.#.#.#.#.#.#.#.#.#.#.#.#.#.#.#.#.#.#.#.#.#.#.#.#.#.#.#.#.#.#.#.#.#.#.#.#.#.#.#.#.#.#.#.#.#.#.#.#.#.#.#.|.-.C.[.[.[.[.",
"<.Y [.[.[.W Z |.#.#.#.#.#.#.#.#.#.#.#.#.#.#.#.#.#.#.#.#.#.#.#.#.#.#.#.#.#.#.#.#.#.#.#.#.#.#.m.n...#.#.#.#.#.#.#.#.#.#.#.#.0.%.* * * * @ j                                                                                                                                 y , * * * * 7 &.#.#.#.#.#.#.#.#.#.#.#.#.#.#.#.#.#.#.#.#.#.#.#.#.#.#.#.#.#.#.#.#. .#.#.#.#.#.#.#.#.#.#.#.#.#.#.#.#.#.#.#.#.#.|.9.W [.[.[.[.",
"<.[.[.Y [.[.Z |.#.#.#.#.#.#.#.#.#.#.#.#.#.#.#.#.#. .#.#.#.#.#.#.#.#.#.#.#.#.#.#.#.#.#.#.#.#.j.o...#.#.#.#.#.#.#.#.#.#.#.#.0.%.* * * * w j                                                                                                                                 y , * * * * 7 <. .#.#.#.#.#.#.#.#.#.#.#.#.#.#.#.#.#.#.#.#.#.#.#.#.#.#.#.#.#.#.#.#.#.#.#.#.#.#.#.#.#.#.#.#.#.#.#.#.#.#.#.#.#.|.Z [.[.Y [.[.",
"<.[.[.[.[.[.Z |.#.#.#.#.#.#.#.#.#.#.#.#.#.#.#.#.#.#.#.#.#.#.#.#.#.#.#.#.#.#.#.#.#.#.#.#.#.#.j.n...#.#.#.#.#.#.#.#.#.#.#.#.e.$ * * * * w j                                                                                                                                 y ) * * * * 7 &. .#.#.#.#.#.#.#.#.#.#.#.#.#.#.#.#. .#.#.#. .#.#.#.#.#.#.#.#.#.#.#.#.#.#.#.#.#.#.#.#.#.#.#.#.#.#.#.#.#.#.#.#.|.Z [.[.[.[.[.",
"<.[.Y [.Y [.Z |.#.#.#.#.#.#.#.#.#.#.#.#.#.#.#.#.#.#.#.#.#.#.#.#.#.#.#.#.#.#.#.#.#.#.#.#.#.#.j.o.+.#.#.#.#.#.@.@.#.#.#.#.#.0.$ * * * * w j                                                                                                                                 y , * * * * 7 &. .#.#.#.#.@. .#.#.#.#.#.#.#.#.#.#.#.#.#.#.#.#.#.#.#.#.#.#.#.#.#.#.#.#.#.#.#.#.#.#.#.#.#.#.#.#.#.#.#.#.#.#.#.|.Z W [.[.[.[.",
"<.W [.[.[.[.Z |.#.#.#.#.#.#.#.#.#.#.#.#.#.#.#.#.#.#.#.#.#.#.#.#.#.#.#.#.#.#.#.#.#.#.#.#.#.#.m.o...#.#.#.#.H.I.I.H.#.#.#.#.0.%.* * * * w j                                                                                                                                 y , * * * * 7 &.#.#.#.#.J.I.K.#.#.#.#.#.#.#.#.#.#.#.#.#.#.#.#.#.#.#.#.#.#.#.#.#.#.#.#.#.#. .#.#.#.#.#.#.#.#.#.#.#.#.#.#.#.#.|.Z W [.Y [.[.",
"<.W [.[.[.[.Z f.#.#.#.#.#.#.#.#.#.#.#.#.#.#.#.#.#.#.#.#.#.#.#.#.#.#.#.#.#.#...5.5.5./.5.5.j.o.t.#.#.#.#.#.I.X z.J.#.#.#.#.0.$ * * * * w j                                                                                                                                 y , * * * * 7 &.#.#.#.#.L.C.C.M.#.#.#.#.#.#.#.#.#.#.#.#.#.#.#.#.#.#.#.#.#.#.#.#.#.#.#.#.#.#.#.#.#.#.#.#.#.#.#.#.#.#.#.#.#.#.|.Z W [.[.[.[.",
"<.W Y [.[.[.9.|.#.#.#.#.#.#.#.#.#.#.#.#.#.#.#.#.#.#.#.#.#.#.#.#.#.#.#.#.#.#./.S u.u.Q Q u.u.S 4.#.#.#.#.N.C.X I.@.#.#.#.#.0.$ * * * * w j                                                                                                                                 y , * * * * 7 &.#.#.#.#.@.O.X z.P.#.#.#.#.#.#.#.#.#.#.#.#.#.#.#.#.#.#.#.#.#.#.#.#.#.#.#.#.#.#.#.#.#.#.#.#.#.#.#.#.#.#.#.#.#.|.Z W [.[.[.[.",
"<.[.[.}.[.[.-.h.#.#.#.#.#.#.#.#.#.#.#.#.#.#.#.#.#.#.#.#.#.#.#.#.#.#.#.#.#.#.+.j.4.4.j.j.j.j.{.#.#.#.#.K.D.k.C.Q.#.#.#.#.#.0.$ * * * * @ j                                                                                                                                 y , * * * * 7 &.#.#.#.#.#.R.S.}.z.T.#.#.#.#.#.#.#.#.#.#.#.#.#.#.#.#.#.#.#.#.#.#.#.#.#.#.#.#.#.#.#.#.#.#.#.#.#.#. .#.#.#.#.#.|.9.[.[.[.[.[.",
"<.[.[.[.[.[.=.h.#.#.#.#.#.#.#.#.#.#.#.#.#.#.#.#.#.#.#.#.#.#.#.#.#.#.#.#.#.#.#...@.#.#.#.#.#.@.+.#.#.U.D.k.k.V.H.#.#.#.#.#.0.$ * * * * h j                                                                                                                                 y ) * * * * 7 &.#.#.#.#.#.L.W.S.S.O.T.#.#.#.#.#.#.#.#.#.#.#.#.#.#.#.#.#.#.#.#.#.#.#.#.#.#.#.#.#.#.#.#.#.#.#.#.#.#.#.#.#.#.#.h.-.[.[.[.[.[.",
"<.[.[.[.[.W V |.#.#.#.#.#.#.#.#.#.#.#.#.#.#.#.#.#.#.#.#.#.#.#.#.#.#.#.#.#.#.{.x.^.#.5.j.#.#.4.t...X.D.X k.X Y.#.#.#.#.#.#.0.%.* * * * @ i                                                                                                                                 y , * * * * 7 &.#.#.#.#.#.@.z.k.S.X Z.`.#.#.#.#.#.#.#.#.#.#.#.#.#.#.#.#.#.#.#.#.#.#.#.#.#.#.#.#.#.#.#.#.#.#.#.#.#.#.#.#.#.#.|.Z W [.[.[.[.",
"<.[.[.[.[.W Z |.#.#.#.#.#.#.#.#.#.#.#.#.#.#.#.#.#.#.#.#.#.#.#.#.#.#.#.#.#.#.j.l.^.#.i.s.#.#.j.T  +W.k.O.D.k.K.#.#.#.#.#.#.0.%.* * * * @ j                                                                                                                                 y , * * * * 7 &.#.#.#.#.#.#.I.X D.z.k.D..+#.#.#.#.#.#.#.#.#.#.#.#.#.#.#.#.#.#.#.#.#.#.#.#.#.#.#.#.#.#. .#.#.#.#.#.#.#.#.#.#.|.Z [.[.Y [.[.",
"<.[.[.[.[.W Z |.#.#.#.#.#.#.#.#.#.#.#.#.#.#.#.#.#.#.#.#.#.#.#.#.#.#.#.#.#.#.6.l.+.#.i.s.#.#.m.++@+S.I.`.D.D.T.#.#.#.#.#.#.0.$ * * * * h j                                                                                                                                 y , * * * * 7 &.#.#.#.#.#.#.K.C.O.`.O.X D.#+@.#.#.#.#.#.#.#.#.#.#.#.#.#.#.#.#.#.#.#.#.#.#.#.#.#.#.#.#.#.#.#.#.#.#.#.#.#.#.#.|.Z W [.}.[.[.",
"<.Y [.[.[.[.Z |.#.#.#.#.#.#.#.#.#.#.#.#.#.#.#.#.#.#.#.#.#.#.#.#.#.#.#.#.#.#.5.l.^.#.i.s.@.Q.~.>.E.R...`.C.z.H.#.#.#.#.#.#.0.$ * * * * @ j                                                                                                                                 y , * * * * 7 &.#.#.#.#.#.#.P.D.D.J.J.Y.k.k.Y.J.#.#.#.#.#.#.#.#.#.#.#.#.#.#.#.#.#.#.#.#.#.#.#.#.#.#.#.#.#.#.#.#.#.#.#.#.#.#.|.Z W [.[.[.[.",
"<.[.[.[.}.W Z |.#.#.#.#.#.#.#.#.#.#.#.#.#.#.#.#.#.#.#.#.#.#.#.#.#.#.#.#.#.#.5.l.+.#.i.G.I.W.$+R b.#.#.K.X %+@.#.#.#.#.#.#.0.%.* * * * @ j                                                                                                                                 y , * * * * 7 &.#.#.#.#.#.#.J.z.C.Q.#.@.I.D.k.O.M.#.#.#.#.#.#.#.#.#.#.#.#.#.#.#.#.#.#.#.#.#.#.#.#.#.#.#.#.#.#.#.#.#.#.#.#.#.|.Z [.[.[.[.[.",
"<.[.[.[.[.W Z |.#.#.#.#.#.#.#.#.#.#.#.#.#.#.#.#.#.#.#.#.#.#.#.#.#.#.#.#.#.#.5.l.^.#.i.g.C.C.&+l.+.#.#.I.}.I.#.#.#.#.#.#.#.0.$ * * * & @ j                                                                                                                                 y , * * * * 7 &.#.#.#.#.#.#.@.O.k.K.#.#.#.M.z.X W.I.J.#.#.#.#.#.#.#.#.#.#.#.#.#.#.#.#.#.#.#.#.#.#.#.#.#.#.#.#.#.#.#.#.#.#.#.|.Z [.[.[.[.[.",
"<.[.[.[.[.[.Z |.#.#.#.#.#.#.#.#.#.#.#.#.#.#.#.#.#.#.#.#.#.#.#.#.#.#.#.#.#.#./.l.6.R.&+g.W.R.|.G...#.@.*+S.R.#.#.#.#.#.#.#.0.%.* * * & @ i                                                                                                                                 y , * * * * 7 &.#.#.#.#.#.#.@.Y.S.I.#.#.#.#.T.%+C.X O.`.#.#.#.#.#.#.#.#.#.#.#.#.#.#.#.#.#.#.#.#.#.#.#.#.#.#.#.#.#.#.#.#.#.#.|.Z [.[.[.[.[.",
"<.[.[.[.[.W Z |.#.#.#.#. .#.#.#.#.#.#.#.#.#.#.#.#.#.#.#.#.#.#.#.#.#.#.#.#.#.4.S =+$+++++e.5.i.T ..#.@.O.S.N.#.#.#.#.#.#.#.0.%.* * * & @ j                                                                                                                                 y , * * * * 7 &.#.#.#.#.#.#.#.-+}.*+#.#.#.#.#.@.K.D.X C.I.J.#.#.#.#.#.#.#. .#.#.#.#.#.#.#.#.#.#.#.#.#.#.#.#.#.#.#.#.#.#.#.#.|.Z [.Y [.Y Y ",
"<.[.[.[.[.W =.q.#.#.#.#.#.#.#.#.#.#.#.#.#.#.#. .#.#.#.#.#.#.#.#.#.#.#.#. .J.=+u.U u.u.u.u.u.u.l.+.#.;+V.S.Q.#.#.#.#.#.#.#.0.$ * * * * h j                                                                                                                                 y ) * * * * 7 &.#.#.#.#.#.#.#.R.S.O.@.#.#.#.#.#.#.P.*+C.X z.X.@.#.#.#.#.#.#.#.#.#.#.#.#.#.#.#.#.#.#.#.#.#.#.#.#.#.#.#.#.#.#.|.Z W [.[.[.[.",
"<.[.[.[.[.W =.h.#.#.#.#.#.#.#.#.#.#.#.#.#.#.#.#.#.#.#.#.#.#.#.#.#.#.#.J.#+z.@+&+~.*.m.m.h.q.q.j.#.#.J.W.A.L.#.#.#.#.#.#.#.0.$ * * * * @ j                                                                                                                                 y , * * * * 7 &.#.#.#.#.#.#.#.N.S.O.@.#.#.#.#.#.#.#.@.R.z.C.C.%+M.@.#.#.#.#.#.#.#.#.#.#.#.#.#.#.#.#.#.#.#.#.#.#.#. .#.#.#.#.|.Z [.Y [.[.[.",
"<.W Y [.Y [.9.j.#.#.#.#.#.#.#.#.#.#.#.#.#.#.#.#.#.#.#.#.#.#.#.#.#.@.K.O.k.k.z.N... .#..... .#.#.#.#.L.A.W.J.#.#.#.#.#.#.#.0.%.* * * * @ j                                                                                                                                 y , * * * * 7 &.#.#.#.#.#.#.#.Q.C.z.J.#.#.#.#.#.#.#.#.#.J.I.W.X C.*+Q.@.#.#.#.#.#.#.#.#.#.#.#.#.#.#.#.#.#.#.#.#.#.#.#.#.#.#.|.Z [.[.[.[.[.",
"<.Y [.[.[.W V |.#.#.#.#.#.#.#.#.#.#.#.#.#.#.#.#.#.#.#.#.#.#.#.H..+O.C.k.D.#+J.{.x.o.o.n.o.n.*.+.#.#.Q.S.V.;+#.#.#.#.#.#.#.0.%.* * * & @ j                                                                                                                                 y , * * * * 7 &.#.#.#.#.#.#.#.L.C.D.J.#.#.#.#.#.#.#.#.#.#.#.P.%+C.}.W.I.P.#.#.#.#.#.#.#.#.#.#.#.#.#.#.#.#.#.#.#.#.#.#.#.#.#.|.Z [.[.[.[.[.",
"<.[.[.[.Y [.V |.#.#.#.#.#.#.#.#.#.#.#.#.#.#.#.#.#.#.#.#.#.H.K.O.k.X W.-+L.#...n.S n.n.n.n.n.Q q.#.#.M.A.V.@.#.#.#.#.#.#.#.0.%.* * * & h j                                                                                                                                 y , * * * * 7 &.#.#.#.#.#.#.#.L.W.D.L.#. .{.5./././.{./.{./. .@.M.>+A.S.W.Y.Q.@.#.#.#.#.#.#.#.#.#.#.#.#.#.#.#.#.#.#.#.#.#.#.|.Z W [.[.[.[.",
"<.[.Y [.[.[.Z |.#.#.#.#.#.#.#.#.#.#.#.#.#.#.#.#.#.#.#.L.#+z.k.X D.Y.L.@.#.#.].r.j. .#.@.....s.n.#.#.M.S.,+@.#.#.#.#.#.#.#.0.%.* * * * @ j                                                                                                                                 y , * * * * 7 &.#.#.#.#.#.#.#.J.W.D.P.#.^.r.u.u.v.u.u.u.u.l.].#.#.@.N.O.A.S.D.*+M.@.#.#.#.#.#.#.#.#.#.#.#.#.#.#.#.#.#.#.#.#.|.Z W [.[.[.[.",
"<.W [.[.Y [.Z |.#.#.#.#.#.#.#.#.#.#.#.#.#.#.#.#.;+.+*+W.X X D.I.T.#.#.#.#.#./.l.^.#.#.#.#.#.m.o...#.N.S.O.@.#.#.#.#.#.#.#.0.%.* * * & @ j                                                                                                                                 4 , * * * * 7 &.#.#.#.#.#.#.#.J.W.A.L.#.{.r.s.h.*.h.*.*.s.S ].#.#.#.#.H.N.%+k.X A.O.'+T.@.#.#.#.#.#.#.#.#.#.#.#.#.#.#.#.#.#.|.Z [.[.[.[.[.",
"<.W [.[.[.[.Z |.#.#.#.#.#.#.#.#.#.#.#.#.#.J.Q.I.Z.C.}.k.Z.R.L.#.#.#.#.#.#.#.4.l.^.#.#.#.#.#.m.o...#.N.S.O.@.#.#.#.#.#.#.#.0.%.* * * & @ j                                                                                                                                 y , * * * * 7 &.#.#.#.#.#.#.#.;+W.A.Q.#.].T {.#.#.#.#.#./.l.].#.#.#.#.#.#.@..+%+D.X X D.%+X.L.@. .#.#.#.#.#.#.#.#.#.#.#.#.#.|.Z [.[.[.[.[.",
"<.W [.[.[.W Z |.#.#.#.#.#.#.#.#.@.Q.K.R.Y.z.A.X k.D.%+.+J.#.#.#.#.#.#.#.#.#.5.l.+.#.#.#.#.#.m.n...#.R.S.O.@.#.#.#.#.#.#.#.0.%.* * * * @ j                                                                                                                                 4 , * * * * 7 <. .#.#.#.#.#.#.J.W.S.Q.#.{.l./.#.#.#.#.#./.T {.#.#.#.#.#.#.#.#.#.P.'+Z.C.X S.D.%+'+N.Q.)+#.#.#.#.#.#.#.#.#.#.|.Z [.[.[.[.[.",
"<.W [.[.[.[.Z |.#.#.#.#.#.#.#.#.#+k.k.X S.S.S.D.#+L.#.#.#.#.#.#.#.#.#.#.#.#.5.l.+.#.#.#.#.#.j.l...#.X.X >+#.#.#.#.#.#.#.#.0.%.* * * * h j                                                                                                                                 y , * * * * 7 &. .#.#.#.#.#.#.H.z.k.Q.#.^.l./.#.#.#.#.#.{.l.^.#.#.#.#.#.#.#.#.#.#.#.H..+Y.C.S.X X k.k.D.`.#.#.#.#.#.#.#.#.#.|.Z [.[.[.[.[.",
"<.[.[.[.[.[.Z |.#.#.#.#.#.#.#.#..+O.D.C.k.X }.C.%+X.L.#.#.#.#.#.#.#.#.#.#.#.5.l.^.#.#.#.#.#.j.n...#.R.X O.@.#.#.#.#.#.#.#.0.%.* * * * @ j                                                                                                                                 y , * * * * 7 &. .#.#.#.#.#.#.;+z.A.Q.#.].l./.#.#.#.#.#.{.r.].#.#.#.#.#.#.#.#.#.#.#.J..+%+A.S.S.S.C.C.z.`.#.#.#.#.#.#.#.#.#.|.Z [.[.[.[.[.",
"<.[.[.[.[.[.Z |.#.#.#.#.#.#.#.#.#...J.Q.N.Y.z.A.k.k.D.Y..+@.#.#.#.#.#.#.#.#.5.T +.#.#.#.#.#.m.l...#.N.X O.@.#.#.#.#.#.#.#.0.%.* * * * @ j                                                                                                                                 y , * * * * 7 &.#.#.#.#.#.#.#.J.z.k.Q.#.{.T {.#.#.#.#.#./.l.].#.#.#.#.#.#.#.#.@.`.I.Z.k.k.k.z.*+R.Q.P.J.#.#.#.#.#.#.#.#.#.#.|.Z W [.[.[.[.",
"<.[.[.[.[.[.Z |.#.#.#.#.#.#.#.#.#.#.#.#.#.#.J..+I.Z.k.X A.>+K.H.#.#.#.#.#.#./.l.^.#.#.#.#.#.m.l.+.#.N.S.O.@.#.#.#.#.#.#.#.0.%.* * * * w j                                                                                                                                 y ) * * * * 7 &.#.#.#.#.#.#.#.J.W.A.P.#.^.l./.#.#.#.#.#.{.l.].#.#.#.#.#.#.H.K.%+C.Y S.z.Y.M.J.#.#.#.#.#.#.#.#.#.#.#.#.#.#.#.|.Z W [.[.[.[.",
"<.Y Y [.Y [.Z |.#.#.#.#.#.#.#.#.#.#.#.#.#.#.#.#.#.J.K.%+A.X k.z.#+J.#.#.#.#./.Q n.x.n.x.x.x.l.l.+.#.N.S.O.@.#.#.#.#.#.#.#.0.%.* * * * w j                                                                                                                                 y , * * * * 7 &.#.#.#.#.#.#.#.J.D.A.P.#.+.l.5.#. .#.#.#./.l.^.#.#.#.#.J.K.O.S.X A.O.X.J.@.#.#.#.#.#.#.#.#.#.#.#.#.#.#.#.#.#.|.Z W [.}.[.W ",
"<.Y [.[.[.[.Z |.#.#.#.#.#.#.#.#.#.#.#.#.#.#.#.#.#.#.#.@.P.I.D.S.k.Z.R.H.#.#./.l.S S S v.S v.r.t.+.#.M.k.O.H.#.#.#.#.#.#.#.0.%.* * * * @ j                                                                                                                                 y , * * * * 7 &.#.#.#.#.#.#.#.J.W.A.L.#.+.n.i.+.+.+.^.^.i.l...#.#.J.X.Z.k.X D.Y.Q.@.#.#.#.#.#.#.#. .#.#.#.#.#.#.#.#.#.#.#.#.|.Z [.[.[.[.[.",
"<.Y [.Y [.[.Z |.#.#.#.#.#.#.#.#.#.#.#.#.#.#.#.#.#.#.#.#.#.#.J.I.z.X S.V.X.H. .^.^.+.+.+.+.+.+.+.#.#..+C.z.H.#.#.#.#.#.#.#.0.%.* * * * h j                                                                                                                                 y , * * * * 7 &.#.#.#.#.#.#.#.L.W.D.L.#.#.*.u.S S T S S v.*. .@.K.Z.k.k.z.I.L.#.#.#.#.#.#.#.#.#.#.#.#.#.#.#.#.#.#.#.#.#.#.#.|.Z [.[.[.[.[.",
"<.[.[.[.[.[.Z |.#.#.#.#.#.#.#.#.#.#.#.#.#.#.#.#.#.#.#.#.#.#.#.#.L.'+D.S.S.O.M.#.#.#.#.#.#.#.#.#.#.#.P.C.z.J.#.#.#.#.#.#.#.0.%.* * * * @ j                                                                                                                                 y , * * * * 7 &.#.#.#.#.#.#.#.P.A.W.L.#.#...q.s.s.s.s.s.m...M.%+C.S.W.'+L.#.#.#.#.#.#.#.#.#.#.#.#.#.#.#.#.#.#.#.#.#.#.#.#.#.|.Z [.[.[.[.[.",
"<.[.}.[.[.[.Z |.#.#.#.#.#.#.#.#.#.#.#.#.#.#.#.#.#.#.#.#.#.#.#.#.#.#.J.I.D.X A.Y.L. .#.#.#.#.#.#.#.#.T.D.D.T.#.#.#.#.#.#.#.0.%.* * * * h j                                                                                                                                 y , * * * * 7 &.#.#.#.#.#.#.#.Q.A.V.;+#.#.#.#.#.#.#.#.#.L.Y.W.X W.Y.L.#.#.#.#.#.#.#.#.#.#.#.#.#.#.#.#.#.#.#.#.#.#.#.#.#.#.#.h.Z C.[.[.[.[.",
"<.[.[.[.[.[.Z |.#.#.#.#.#.#.#.#.#.#.#.#.#.#. .#.#.#.#.#.#.#.#.#.#.#.#.#.L.*+C.X D.#+H.#.#.#.#.#.#.#.J.W.W.`.#.#.#.#.#.#.#.0.%.* * * * @ j                                                                                                                                 y , * * * * 7 &.#.#.#.#.#.#.#.N.A.,+@.#...i.s.s.s.s.` x.R &.E.*+T.#.#.#.#.#.#.#.#.#.#.#.#.#.#.#.#.#.#.#.#.#.#.#.#.#.#.#.#.#.|.9.z.[.[.[.[.",
"<.W [.[.[.[.Z |.#.#.#.#.#.#.#.#.#.#.#.#.#.#.#.#.#.#.#.#.#.#.#.#.#.#.#.#.#.@.M.O.k.k.%+Q.@.#.#.#.#.#.H.Z.S.M.#.#.#.#.#.#.#.0.%.* * * * @ j                                                                                                                                 y , * * * * 7 &.#.#.#.#.#.#.#.X.S.>+@.#.^.T Q u.u.u.u.U u.u.w.@.#.#.#.#.#.#.#.#.#.#.#.#.#.#.#.#.#.#.#.#.#.#.#.#.#.#.#.#.#.#.|.V [.[.[.[.[.",
"<.W [.[.[.[.Z |.#.#.#.#.#.#.#.#.#.#.#.#.#.#.#.#.#.#.#.#.#.#.#.#.#.#.#.#.#.#.#.H.#+D.X D.#+J.#.#.#.#.@.>+S.X.#.#.#.#.#.#.#.0.%.* * * * h j                                                                                                                                 y , * * * * 7 &.#.#.#.#.#.#.#.-+}.Y.#.#.{.r.j.6.=+++&.<.~.S ].#.#.#.#.#.#.#.#.#.#.#.#.#.#.#.#.#.#.#.#.#.#.#.#.#.#.#.#.#.#.#.|.Z [.[.[.Y [.",
"<.W [.[.[.[.Z |.#.#.#.#.#.#.#.#.#.#.#.#.#.#.#.#.#.#.#.#.#.#.#.#.#.#.#.#.#.#.#.#.#.`.%+k.S.%+T.#.#.#.#.Y.S.I.#.#.#.#.#.#.#.0.%.* * * & @ j                                                                                                                                 y , * * * * 7 &.#.#.#.#.#.#.#.*+}.-+#.#.^.l.0.*+D.++~.L.6.l.].#.#.#.#.#.#.#.#.#.#.#.#.#.#.#.#.#.#.#.#.#. .#.#.#.#.#.#.#.#.#.|.Z W [.[.[.[.",
"<.[.[.[.[.Y Z |.#.#.#.#.#.#.#.#.#.#.#.#.#.#.#.#.#.#.#.#.#.#.#.#.#.#.#.#.#.#.#.#.#.#.@.#+D.S.z.K.@.#.#.I.k.*+@.#.#.#.#.#.#.0.%.* * * * w j                                                                                                                                 y , * * * * 7 &.#.#.#.#.#.#.@.>+S.X.#.#.{.T B.}.E.++m.#./.l.].#.#.#.#.#.#.#.#.#.#.#.#.#.#.#.#.#.#.#.#.#.#.#.#.#.#.#.#.#.#.#.|.Z W [.Y Y W ",
"<.[.Y [.[.[.Z |.#.#.#.#.#.#.#.#.#.#.#.#.#.#.#.#.#.#.#.#.#.#.#.#.#.#.#.#.#.#.#.#.#.#.#.#.Q.O.k.C.I...#.X.k.O.@.#.#.#.#.#.#.0.%.* * * * w j                                                                                                                                 y , * * * * 7 &.#.#.#.#.#.#.H.V.S.Q.#.;+e.U $+O..+l.m.#.6.l.].#.#.#.#.#.#.#.#.#.#.#.#.#.#.#.#.#.#.#.#.#.#.#.#.#.#.#.#.#. .#.|.Z W [.[.[.Y ",
"<.[.[.[.[.W V |.#.#.#.#.#.#.#.#.#.#.#.#.#.#.#.#.#.#.#.#.#.#.#.#.#.#.#.#.#.#.#.#.#.#.#.#.#.)+I.C.k.*+)+P.C.z.J.#.#.#.#.#.#.e.%.* * * * @ j                                                                                                                                 y , * * * * 7 &.#.#.#.#.#.#.P.W.z.)+)+*+$+++e.J...n.m.#.{.l.{.#.#.#.#.#.#.#.#.#.#.#.#.#.#.#.#.#.#.#.#.#.#.#.#.#.#.#.#.#.#.#.|.Z W [.[.[.[.",
"<.[.[.[.[.W Z |.#.#.#.#.#.#.#.#.#.#.#.#.#.#.#.#.#.#.#.#.#.#.#.#.#.#.#.#.#.#.#.#.#.#.#.#.#.#.@.K.D.X O.U.z.C.Q.#.#.#.#.#.#.0.%.* * * & @ j                                                                                                                                 y , * * * * 7 &.#.#.#.#.#.#.U.C.Z.U.Z.}.@+Q /.#...n.m.#.{.l.^.#.#.#.#.#.#.#.#.#. .#.#.#.#.#.#.#.#.#.#.#.#.#.#.#.#.#.#.#.#.#.|.Z [.[.[.[.[.",
"<.[.[.[.[.W Z |.#.#.#.#.#.#.#.#.#.#.#.#.#.#.#.#.#.#.#.#.#.#.#.#.#.#.#.#.#.#.#.#.#.#.#.#.#.#.#.#..+z.X z.W.X I.#.#.#.#.#.#.0.$ * * * * w j                                                                                                                                 y ) * * * * 7 &.#.#.#.#.#.#.I.X D.D.k.V.~+l.{.#...n.m.#.{.l.].#.#.#.#.#.#.#.#.#.#.#.#.#.#.#.#.#.#.#.#.#.#.#.#.#.#.#.#.#.#.#.|.Z [.[.[.[.[.",
"<.Y [.[.[.[.Z |.#.#.#.#.#.#.#.#.#.#.#.#.#.#.#.#.#.#.#.#.#.#.#.#.#.#.#.#.#.#.#.#.#.#.#.#.#.#.#.#.#.P.Z.S.S.X *+@.#.#.#.#.#.0.$ * * * * w j                                                                                                                                 y , * * * * 7 &.#.#.#.#.#.H.Z.S.X k.O.L...s.].#.@./.].#.].i.+.#.#.#.#.#.#.#.#.#.#.#.#.#.#.#.#.#.#.#.#.#.#.#.#.#.#.#.#.#.#.#.|.Z [.[.[.[.W ",
"<.[.[.[.}.[.Z |.#.#.#.#.#.#.#.#.#.#.#.#.#.#.#.#.#.#.#.#.#.#.#.#.#.#.#.#.#.#.#.#.#. .#.#.#.#.#.#.#.#.L.Z.X S.W.H.#.#.#.#.#.0.%.* * * * @ j                                                                                                                                 y , * * * * 7 &.#.#.#.#.#.L.W.X k.%+J.#.#. .#.#.#.#.#.#.#...#.#.#.#.#.#.#.#.#.#.#.#.#.#.#.#.#.#.#.#.#.#.#.#.#.#.#.#.#.#.#.#.|.Z W [.[.[.[.",
"<.[.[.[.[.W Z |.#.#.#.#.#.#.#.#.#.#.#.#.#.#.#.#.#.#.#.#.#.#.#.#.#.#.#.#.#.#.#.#.#.#.#.#.#.#.#.#.#.#.#.)+Z.S.S.N.#.#.#.#.#.0.%.* * * * @ j                                                                                                                                 y , * * * * 7 &.#.#.#.#.#.#+S.k.%+)+ .#.#...m.*.*.i.*.*.*.h...#.#.#.#.#.#.#.#.#.#.#.#.#.#.#.#.#.#.#.#.#.#.#.#.#.#.#.#.#.#.#.|.Z W [.[.[.[.",
"<.[.[.[.[.W Z |.#.#.#.#.#.#.#.#.#.#.#.#.#.#.#. .#.#.#.#.#.#.#.#.#.#.#.#.#.#.#.#.#.#.#.#.#.#.#.#.#.#.#.#.P.z.X %+@.#.#.#.#.0.%.* * * * h j                                                                                                                                 y , * * * * 7 &.#.#.#.#.H.O.X z.L.#.#.#.#.*.Q S S Q S Q Q l.+.#.#.#.#.#.#.#.#.#.#.#.#.#.#.#.#.#.#.#.#.#.#.#.#.#.#.#.#.#.#.#.|.Z W [.[.[.[.",
"<.[.[.[.[.W Z |.#.#.#.#.#.#.#.#.#.#.#.#.#.#.#.#.#.#.#.#.#.#.#.#.#.#.#.#.#.#.#.#.#.#.#.#.#.#.#.#.#.#.#.#.#..+W.W.;+#.#.#.#.0.%.* * * * @ j                                                                                                                                 y , * * * * 7 &.#.#.#.#.`.k.D.M.#.#.#.#.+.l.*.].].^.].+.].^. .#.#.#.#.#.#.#.#.#.#.#.#.#.#.#.#.#.#.#.#.#.#.#.#.#.#.#.#.#.#.#.|.Z [.[.[.[.[.",
"<.W W [.Y [.Z |.#.#.#.#.#.#.#.#.#.#.#.#.#.#.#.#.#.#.#.#.#.#.#.#.#.#.#.#.#.#.#.#.#.#.#.#.#.#.#.#.#.#.#.#.#.@.M.U.@.#.#.#.#.0.%.* * * * w j                                                                                                                                 y , * * * * 7 &.#.#.#.#.H.I.U.#.#.#.#.#.+.T /.#.#.#.#.#.#.#.#.#.#.#.#.#.#.#.#.#.#.#.#.#.#.#.#. .#.#.#.#.#.#.#.#.#.#.#.#.#.#.|.Z [.[.Y [.[.",
"<.W [.[.[.W Z |.#.#.#.#.#.#.#.#.#.#.#.#.#.#.#.#.#.#.#.#.#.#.#.#.#.#.#.#.#.#.#.#.#. .#.#.#.#.#.#.#.#.#.#.#.#.#.#.#.#.#.#.#.0.%.* * & * w j                                                                                                                                 y , * * * * 7 &.#.#.#.#.#.#.#.#.#.#.#.#.].l./.#.#.#.#.#.#.#.#.#.#.#.#.#.#.#.#.#.#.#.#.#.#.#.#.#.#.#.#.#.#.#.#.#.#.#.#.#.#.#.|.Z [.[.[.[.[.",
"<.[.[.Y [.W Z |.#.#.#.#.#.#.#.#.#.#.#.#.#.#.#.#.#.#.#.#.#.#.#.#.#.#.#.#.#.#.#.#.#.#.#.#.#.#.#.#.#.#.#.#.#.#.#.#.#.#.#.#.#.0.%.* * * * w j                                                                                                                                 y , * * * * 7 <. .#.#.#.#.#.#.#.#.#.#.#.].l./.#.#.#.#.#.#.#.#.#.#.#.#.#.#.#.#.#.#.#.#.#.#.#.#.#.#.#.#.#.#.#.#.#.#.#.#.#.#.#.|.Z W [.[.[.[.",
"<.[.[.[.[.[.Z |.#.#.#.#.#.#.#.#.#.#.#.#.#.#.#.#.#.#.#.#.#.#.#.#.#.#.#.#.#.#.#.#.#.#.#.#.#.#.#.#.#.#.#.#.#.#.#.#.#.#.#.#.#.0.%.* * * * w j                                                                                                                                 y , * * * * 7 g. .#.#.#.#.#.#.#.#.#.#.#.].l.{.#.#.#.#.#.#.#.#.#.#.#.#.#.#.#.#.#.#.#.#.#.#.#.#.#.#.#.#.#.#.#.#.#.#.#.#.#.#.#.|.Z W [.Y [.[.",
"<.[.[.[.[.W Z |.#.#.#.#.#.#.#.#.#.#.#.#.#.#.#.#.#.#.#.#.#.#.#.#.#.#.#.#.#.#.#.#.#.#.#.#.#.#.#.#.#.#.#.#.#.#.#.#.#.#.#.#.#.e.%.* * * * w j                                                                                                                                 y ) * * * * 7 &.#.#.#.#.#.#.#.#.#.#.#.#.].l./.#.#.#.#.#.#.#.#.#.#.#.#.#.#.#.#.#.#.#.#.#.#.#.#.#.#.#.#.#.#.#.#.#.#.#.#.#.#.#.|.Z W [.[.[.[.",
"<.[.[.[.[.W Z |.#.#.#.#.#.#.#.#.#.#.#.#.#.#.#.#.#.#.#.#.#.#.#.#.#.#.#.#.#.#.#.#.#.#.#.#.#.#.#.#.#.#.#.#.#.#.#.#.#.#.#.#.#.0.$ * * * * w j                                                                                                                                 y , * * * * 7 &.#.#.#.#.#.#.#.#.#.#.#.#.].l.{.#.#.#.#.#.#.#.#.#.#.#.#.#.#.#.#.#.#.#.#.#.#.#.#.#.#.#.#.#.#.#.#.#.#.#.#.#.#.#.|.Z W [.[.[.[.",
"<.Y [.[.[.[.V |.#.#.#.#.#.#.#.#.#.#.#.#.#.#.#.#.#.#.#. .#.#.#.#.#.#.#.#.#.#.#.#.#.#.#.#.#.#.#.#.#.#.#.#.#.#.#.#.#.#.#.#.#.0.$ * * * * @ j                                                                                                                                 y , * * * * 7 &.#.#.#.#.#.#.#.#.#.#.#.#.+.l.m.#. .#.#.#.#.#.#.#.#.#.#.#.#.#.#.#.#.#.#.#.#.#.#.#.#.#.#.#.#.#.#.#.#.#.#.#. .#.|.9.[.[.[.[.[.",
"<.Y [.[.[.[.Z |.#.#.#.#.#.#.#.#.#.#.#.#.#.#.#.#.#.#.#.#.#.#.#.#.#.#.#.#.#.#.#.#.#.#.#.#.#.#.#.#.#.#.#.#.#.#.#.#.#.#.#.#.#.0.%.* * * * h j                                                                                                                                 y , * * * * 7 &.#.#.#.#.#.#.#.#.#.#.#.#.#.t.S o.n.l.n.l.n.x.^.#.#.#.#.#.#.#.#.#.#.#.#.#.#.#.#.#.#.#.#.#.#.#.#.#.#.#.#.#.#.#.h.-.[.[.[.[.[.",
"<.[.[.[.}.W Z |.#.#.#.#.#.#.#.#.#.#.#.#.#.#.#.#.#.#.#.#.#.#.#.#.#.#.#.#.#.#.#.#.#.#.#.#.#.#.#.#.#.#.#.#.#.#.#.#.#.#.#.#.#.0.%.* * * * @ i                                                                                                                                 y , * * * * 7 &.#.#.#.#.#.#.#.#.#.#.#.#.#.].x.o.o.l.l.l.l.o.^.#.#.#.#.#.#.#.#.#.#.#.#.#.#.#.#.#.#.#.#.#.#.#.#.#.#.#.#.#.#.#.|.Z W [.[.[.[.",
"<.[.[.[.[.W Z |.#.#.#.#.#.#.#.#.#.#.#.#.#.#.#.#.#.#.#.#.#.#.#.#.#.#.#.#.#.#.#.#.#.#.#.#.#.#.#.#.#.#.#.#.#.#.#.#.#.#.#.#.#.0.%.* * * * @ j                                                                                                                                 y , * * * * 7 &.#.#.#.#.#...#.#.#.#.#.#.#.#.#...........+.+.#.#.#.#.#.#.#.#.#.#.#.#.#.#.#.#.#.#.#.#.#.#.#.#.#.#.#.#.#.#.#.#.|.Z [.[.Y [.[.",
"<.[.[.[.[.[.Z |.#.#.#.#.#.#.#.#.#.#.#.#.#.#.#.#.#.#.#.#.#.#.#.#.#.#.#.#.#.#.#.#.#.#.#.#.#.#.#.#.#.#.#.#.#.#.#.#.#.#.#.#.#.0.%.* * * * h j                                                                                                                                 y , * * * * 7 &.#.#.#.#.+.j.5.]...#.#.#.#.#.#.#.#.#.#.#.].x.+.#.#.#.#.#.#.#.#.#.#.#.#.#.#.#.#.#.#.#.#.#.#.#.#.#.#.#.#.#.#.#.|.Z W [.}.[.[.",
"<.[.[.[.[.W Z |.#.#.#.#.#.#.#.#.#.#.#.#.#.#.#.#.#. .#.#.#.#.#.#.#.#.#.#.#.#.#.#.#.#.#.#.#.#.#.#.#.#.#.#.#.#.#.#.#.#.#.#.#.0.%.* * * * @ j                                                                                                                                 y , * * * * 7 &.#.#.#.#.#.+.5.5.h...#.#.#.#.#.#.#.#.#.#.6.T {.#.#.#.#.#.#.#.#.#.#.#.#.#.#.#.#.#.#.#.#.#.#.#.#.#.#.#.#.#.#.#.|.Z W [.[.[.[.",
"<.[.[.[.[.[.Z |.#.#.#.#.#.#.#.#.#.#.#.#.#.#.#.#.#.#.#.#.#.#.#.#.#.#.#.#.#.#.#.#.#.#.#.#.#.#.#.#.#.#.#.#.#.#.#.#.#.#.#.#.#.0.%.* * * * @ j                                                                                                                                 y , * * * * 7 &.#.#.#.#...5.m.].].#.#.#.#.#.#.#.#.#.#.#.{.l.].#.#.#.#.#.#.#.#.#.#.#.#.#.#.#.#.#.#.#.#. .#.#.#.#.#.#.#.#.#.#.|.Z [.[.[.W [.",
"<.W [.[.Y W Z |.#.#.#.#.#.#.#.#.#.#.#.#.#.#.#.#.#.#.#.#.#.#.#.#.#.#.#.#.#.#.#.#.#.#.#.#.#.#.#.#.#. .#.#.#.#.#.#.#.#.#.#.#.0.%.* * * & @ j                                                                                                                                 y , * * * * 7 &.#.#.#.#...j.{.+.#.#.#.#.#.#.#.#.#.#.#.#.{.l.].#.#.#.#.#.#.#.#.#.#.#.#.#.#.#.#.#.#.#.#.#.#.#.#.#.#.#.#.#.#.#.|.Z [.[.[.[.[.",
"<.[.[.[.[.W Z |.#.#.#.#.#.#.#.#.#.#.#.#.#.#.#.#.#.#.#.#.#.#.#.#.#.#.#.#.#.#.#.#.#.#.#.#.#.#.#.#.#.#.#.#.#.#.#.#.#.#.#.#.#.0.$ * * * & @ i                                                                                                                                 y , * * * * 7 &.#.#.#.#.^.5.].^.#.#.#.#.#.^.^.^.+.^.^.+.j.l.].#.#.#.#.#.#.#.#.#.#.#.#.#.#.#.#.#.#.#.#.#.#.#.#.#.#.#.#.#.#.#.|.Z W [.[.W W ",
"<.[.[.[.[.W Z |.#.#.#.#.#.#.#.#.#.#.#.#.#.#.#.#.#.#.#.#.#.#.#.#.#.#.#.#.#.#.#.#.#.#.#.#.#.#.#.#.#.#.#.#.#.#.#.#.#.#.#.#.#.0.$ * * * & @ j                                                                                                                                 y , * * * * 7 &.#.#.#.#.^.6.{.^.#.#.#.#.+.l.S S Q S S S v.r.].#.#.#.#.#.#.#.#.#.#.#.#.#.#.#.#.#.#.#.#.#.#.#.#.#.#.#.#.#.#.#.|.Z W [.[.W W ",
"<.W [.}.[.[.Z |.#.#.#.#.#.#.#.#.#.#.#.#.#.#.#.#.#.#.#.#.#.#.#.#.#.#.#.#.#.#.#.#.#.#.#.#.#.#.#.#.#.#.#.#.#.#.#.#.#.#.#.#.#.0.%.* * * * h j                                                                                                                                 y , * * * * 7 &.#.#.#.#.../././...#.#.#.^.*.t.s.s.x.s.s.n.T ].#.#.#.#.#.#.#.#.#.#.#.#.#.#.#.#.#.#.#.#.#.#.#.#.#.#.#.#.#.#.#.|.Z W [.[.[.[.",
"<.W [.[.[.Y Z |.#.#.#.#.#.#.#.#.#.#. .#.#.#.#.#.#.#.#.#.#.#.#.#.#.#.#.#.#.#.#.#.#.#.#.#.#.#.#.#.#.#.#.#.#.#.#.#.#.#.#.#.#.0.%.* * * * @ j                                                                                                                                 y , * * * * 7 &.#.#.#.#.+.5./.h./.#.#.#.#.#.#.#.#.#.#.#./.l.].#.#.#.#.#.#.#.#.#.#.#.#.#.#.#.#.#.#.#.#.#.#.#.#.#.#.#.#.#.#.#.|.Z [.}.[.[.[.",
"<.[.[.[.[.[.Z |.#.#.#.#.#.#.#.#.#.#.#.#.#.#.#.#.#.#.#.#.#.#.#.#.#.#.#. .#.#.#.#.#.#.#.#.#.#.#.#.#.#.#.#.#.#.#.#.#.#.#.#.#.0.%.* * * * @ j                                                                                                                                 y , * * * * 7 <.#.#.#.#.+.].].].#.#.#.#.#.#.#.#.#.#.#.#.{.l.].#.#.#.#.#.#.#.#.#.#.#.#.#.#.#.#.#.#.#.#.#.#.#.#.#.#.#.#.#. .#.|.Z [.[.[.[.[.",
"<.[.[.[.[.[.Z |.#.#.#.#.#.#.#.#.#.#.#.#.#.#.#.#.#.#.#.#.#.#.#.#.#.#.#.#.#.#.#.#.#.#.#.#.#.#.#.#.#.#.#.#.#.#.#.#.#.#.#.#.#.0.%.* * * * h j                                                                                                                                 y , * * * * 7 g. .#.#.#.+./.]./...#.#.#.#.#.#.#.#.#.#.#./.l.].#.#.#.#.#.#.#.#.#.#.#.#.#.#.#.#.#.#.#.#.#.#.#.#.#.#.#.#.#.#.#.|.Z [.[.[.[.[.",
"<.[.[.[.[.[.Z |.#.#.#.#.#.#.#.#.#.#.#.#.#.#.#.#.#.#.#.#.#.#.#.#.#.#.#.#.#.#.#.#.#.#.#.#.#. .#.#.#.#.#.#.#.#.#.#.#.#.#.#.#.e.%.* * * * @ j                                                                                                                                 y , * * * * 7 &.#.#.#.#.^.{.+./...#.#.#.#.#.#.#.#.#.#.#.{.n.^.#.#.#.#.#.#.#.#.#.#.#.#.#.#.#.#.#.#.#.#.#.#.#.#.#.#.#.#.#.#.#.|.Z Y [.[.[.[.",
"<.[.[.[.[.[.Z |.#.#.#.#.#.#. .#.#.#.#.#.#.#.#.#.#.#.#.#.#.#.#.#.#.#.#.#.#.#.#.#.#.#.#.#.#.#.#.#.#.#.#.#.#.#.#.#.#.#.#.#.#.0.%.* * * * @ j                                                                                                                                 y , * * * * 7 &.#.#.#.#.../.5.].#.#.#.#.#.#.#.#.#.#.#.#.+.5...#.#.#.#.#.#.#.#.#.#.#.#.#.#.#.#.#.#.#.#.#.#.#.#.#.#.#.#.#.#.#.|.Z Y [.[.[.[.",
"<.Y Y [.[.W Z |.#.#.#.#.#.#.#.#.#.#.#.#.#.#.#.#.#.#.#.#.#.#.#.#.#.#.#.#.#.#.#.#.#.#.#.#.#.#.#.#.#.#.#.#.#.#.#.#.#.#.#.#.#.0.%.* * * & @ j                                                                                                                                 y , * * * * 7 &.#.#.#.#...j.m.m.#.#.#.#.@.]...#.#.@.4.h.m.^.#.#.#. .#.#.#.#.#.#.#.#.#.#.#.#.#.#. .#.#.#.#.#.#.#.#.#.#.#.#.#.|.-.C.[.[.[.[.",
"<.Y [.[.[.W Z |.#.#.#.#.#.#.#.#.#.#.#.#.#.#.#.#.#.#.#.#.#.#.#. .#.#.#.#.#.#.#.#.#.#.#.#.#.#.#.#.#.#.#.#.#.#.#.#.#.#.#.#.#.0.%.* * * * w j                                                                                                                                 y , * * * * 7 &.#.#.#.#.#.^.].5.@.#.#.#.^.o.{.#.#.j.v.u.u.s.#.#.#.#.#.#.#.#.#.#.#.#.#.#.#.#.#.#.#.#.#.#.#.#.#.#.#.#.#.#.#.#.|.9.W [.[.[.[.",
"<.[.[.[.[.[.Z |.#.#.#.#.#.#.#.#.#.#.#.#.#.#.#.#.#.#.#.#.#.#.#.#.#.#.#.#.#.#.#.#.#.#.#.#.#.#.#.#.#.#.#.#.#.#.#.#.#.#.#.#.#.0.%.* * * * @ j                                                                                                                                 y , * * * * 7 &.#.#.#.#...]./.5. .#.#.#.^.l.m.#.#.x.x.{.i.l...#.#.#.#.#.#.#.#.#.#.#.#.#.#.#.#.#.#.#.#.#.#.#.#.#.#.#.#.#.#.#.|.Z [.[.[.[.[.",
"<.[.Y [.[.[.Z |.#.#.#.#.#.#.#.#.#.#.#.#.#.#.#.#.#.#.#.#.#.#.#.#.#.#.#.#.#.#.#.#.#.#.#.#.#.#.#.#.#.#.#.#.#.#.#.#.#.#.#.#.#.0.%.* * * * h j                                                                                                                                 y , * * * * 7 &.#.#.#.#. .].].5...#.#.#.].l.{.#.#.l.*.#.{.l.^.#.#.#.#.#.#.#.#.#.#.#.#.#.#.#.#.#.#.#.#.#.#.#.#.#.#.#.#.#.#.#.|.Z W [.[.[.[.",
"<.[.[.[.}.[.Z |.#.#.#.#.#.#.#.#.#.#.#.#.#.#.#.#.#.#.#.#.#.#.#.#.#.#.#.#.#.#. .#.#.#.#.#.#.#.#.#.#.#.#.#.#.#.#.#.#.#.#.#.#.0.%.* * * * @ i                                                                                                                                 y , * * * * 7 &.#.#.#.#...j./.+.#.#.#.#.^.l.{.#...n.m.#.5.l.^.#.#.#.#.#.#.#.#.#.#.#.#.#.#.#.#.#.#.#.#.#.#.#.#.#.#.#.#.#.#.#.|.Z W [.[.[.[.",
"<.[.[.[.[.[.Z |.#.#.#.#.#.#.#.#.#.#.#.#.#.#.#.#.#.#.#.#.#.#.#.#.#.#.#.#.#.#.#.#.#.#.#.#.#.#.#.#.#.#.#.#.#.#.#.#.#.#.#.#.#.0.%.* * * * @ j                                                                                                                                 y , * * * * 7 &.#.#.#.#.].m./.]...#.#.#.].r.{.#.#.n.m.#.6.l.].#.#.#.#.#.#.#.#.#.#.#.#.#.#.#.#.#.#.#.#.#.#.#.#.#.#.#.#.#.#.#.|.Z W [.[.[.[.",
"<.W Y [.Y [.Z |.#.#.#.#.#.#.#.#.#.#.#.#.#.#.#.#.#.#.#.#.#.#.#.#.#.#.#.#.#.#.#.#.#.#.#.#.#.#.#.#.#.#.#.#.#.#.#.#.#.#.#.#.#.0.$ * * * * h j                                                                                                                                 y , * * * * 7 &.#.#.#.#.].m.m.m...#.#.#.+.l.{.#...x.h.#.{.l.{.#.#.#.#.#.#.#.#.#. .#.#.#.#.#.#.#.#.#.#.#.#.#.#.#.#.#.#.#.#.#.|.Z W [.Y [.[.",
"<.W [.[.[.Y Z |.#.#.#.#.#.#.#.#.#.#.#.#.#.#.#.#.#.#.#.#.#.#.#.#.#.#.#.#.#.#.#.#.#.#.#.#.#.#.#.#.#.#.#.#.#.#.#.#.#.#.#.#.#.0.$ * * * * @ j                                                                                                                                 y , * * * * 7 &.#.#.#.#...5.m.{...#.#.#.{.l.{.#...n.h.#.{.l.^.#.#.#.#.#.#.#.#.#.#.#.#.#.#.#.#.#.#.#.#.#.#.#.#.#.#.#.#.#.#.#.|.Z [.[.[.[.[.",
"E.[.[.[.Y Y V |.#.#.#.#.#.#.#.#.#.#.#.#.#.#.#.#.#.#.#.#.#.#.#.#.#.#.#.#.#.#.#.#.#.#.#.#.#.#.#.#.#.#.#.#.#.#.#.#.#.#.#.#.#.0.$ * * * * @ j                                                                                                                                 y , * * * * 7 &.#.#.#.#...5.6.h.5.#.#.#.].r.{.#.#.n.q.#.6.l.^.#.#.#.#.#.#.#.#.#.#.#.#.#.#.#.#.#.#.#.#.#.#.#.#.#. .#.#.#.#.#.|.Z [.[.[.[.[.",
"<.[.}.[.A.D.9.|.#.#.#.#.#.#.#.#.#.#.#.#.#.#.#.#.#.#.#.#.#.#.#.#.#.#.#.#.#.#.#.#.#.#.#.#.#.#.#.#.#.#.#.#.#.#.#.#.#.#.#.#.#.0.$ * * & & @ j                                                                                                                                 y , * * * * 7 &.#.#.#.#.^.{.+.].+.#.#.#.+.l.m.#.+.l.m.#.{.l.{.#.#.#.#.#.#.#.#.#.#.#.#.#.#.#.#.#.#.#.#.#.#.#.#.#.#.#.#.#.#.#.|.Z [.[.}.[.[.",
"<.Y [.[.[.[.Z |.#.#.#.#.#.#.#.#.#.#.#.#.#.#.#.#.#.#.#.#.#.#.#.#.#.#.#.#.#.#.#.#.#.#.#.#.#.#.#.#.#.#.#.#.#.#.#.#.#.#.#.#.#.0.%.* * * * @ j                                                                                                                                 y , * * * * 7 &.#.#.#.#.../.5.].+...#.#...t.l.t.o.S /.#.{.l.].#.#.#.#.#.#.#.#.#.#.#.#.#.#.#.#.#.#.#.#.#.#.#.#.#.#.#.#.#.#.#.f.=.W [.[.[.[.",
"<.Y [.[.Y [.Z |.#.#.#.#.#.#.#.#.#.#.#.#.#.#.#.#.#.#.#.#.#.#.#.#.#.#.#.#.#.#.#.#.#.#.#.#.#.#.#.#.#.#.#.#.#.#.#.#.#.#.#.#.#.0.%.* * * & @ j                                                                                                                                 y ) * * * * 7 &.#.#.#.#...m.m.m./...#.#.#./.o.l.l.h...#.../.#.#.#.#.#.#.#.#.#.#.#.#.#.#.#.#.#.#.#.#.#.#.#.#.#.#.#.#.#.#.#.#.f.J W [.[.[.[.",
"<.[.[.[.[.[.Z |.#.#.#.#.#.#.#.#.#.#.#.#.#.#.#.#.#.#.#.#.#.#.#.#.#.#.#.#.#.#.#.#.#.#.#.#.#.#.#.#.#.#.#.#.#.#.#.#.#.#.#.#.#.0.%.* * * * h j                                                                                                                                 y , * * * * 7 <. .#.#.#.#.5.h.6.^.#.#.#.#.#. .....#.#.#.#.#.#.#.#.#.#.#.#.#.#.#.#.#.#.#.#.#.#.#.#.#.#.#.#.#.#.#.#.#.#.#.#.#.|.=.W [.[.[.[.",
"<.[.[.[.[.[.Z |.#.#.#.#.#.#.#.#.#.#.#.#.#.#.#.#.#.#.#.#.#.#.#.#.#.#.#.#.#.#.#. .#.#.#.#.#.#.#.#.#.#.#.#.#.#.#.#.#.#.#.#.#.0.%.* * * * @ j                                                                                                                                 y , * * * * 7 g. .#.#.#.+.{.+.].#.#.#.#.#...j.m.m.q.q.q.j.+.#.#.#.#.#.#.#.#.#.#.#.#.#.#.#.#.#.#.#.#.#.#.#.#.#.#.#.#.#.#.#.#.|.W [.[.[.[.[.",
"<.W [.[.[.[.Z |.#.#.#.#.#.#.#.#.#.#.#.#.#.#.#.#.#.#. .#.#.#.#.#.#.#.#.#.#.#.#.#.#.#.#.#.#.#.#.#.#.#.#.#.#.#.#.#.#.#.#.#.#.0.%.* * * * @ j                                                                                                                                 y , * * * * 7 &.#.#.#.#.+.j.j.h./.#.#.#.#.i.v.u.u.v.u.u.u.` #.#.#.#.#.#.#.#.#.#.#.#.#.#.#.#.#.#.#.#.#.#.#.#.#.#.#.#.#.#.#.#.|.9.z.[.[.}.[.",
"<.W }.[.[.[.Z |.#.#.#.#.#.#.#.#.#.#. .#.#.#.#.#.#.#.#.#.#.#.#.#.#.#.#.#.#.#.#.#.#.#.#.#.#.#.#.#.#.#.#.#. .#.#.#.#.#.#.#.#.0.%.* * * * h j                                                                                                                                 y , * * * * 7 &.#.#.#.#.^.].^.{.^.#.#.#.+.o.i.{.{.{.].].s.l.^.#.#.#.#.#.#.#.#.#.#.#.#.#.#.#.#.#.#.#.#.#.#.#.#.#.#.#.#.#.#.#.|.Z A.[.[.[.[.",
"<.[.[.[.[.[.Z |.#.#.#.#.#.#.#.#.#.#.#.#.#.#.#.#.#.#.#.#.#.#.#.#.#.#.#.#.#.#.#.#.#.#.#.#.#.#.#.#.#.#.#.#.#.#.#.#.#.#.#.#.#.0.%.* * * * @ j                                                                                                                                 y , * * * * 7 &.#.#.#.#.+././.]...@.#.#.^.l./.#.#.#.#.#.6.l.].#.#.#.#.#.#.#.#.#.#.#.#.#.#.#.#.#.#.#.#.#.#.#.#. .#.#.#.#.#. .|.Z Y [.Y Y Y ",
"<.[.[.Y [.[.Z |.#.#.#.#.#.#.#.#.#.#.#.#.#.#.#.#.#.#.#.#.#.#.#.#.#.#.#.#.#.#.#.#.#.#.#.#.#.#.#.#.#.#.#.#.#.#.#.#.#.#.#.#.#.0.%.* * * * @ j                                                                                                                                 y , * * * * 7 &.#.#.#.#.{.].....^.#.#.#.^.l.{.#.#.#.#.#.{.l.].#.#.#.#.#.#.#.#.#.#.#.#.#.#.#.#.#.#.#.#.#.#.#.#.#.#.#.#.#.#.#.f.Z [.[.[.Y Y ",
"<.W [.[.[.W Z |.#.#.#.#.#.#.#.#.#.#.#.#.#.#.#.#.#.#.#.#.#.#.#.#.#.#.#.#.#.#.#.#.#.#.#.#.#.#.#.#.#.#.#.#.#.#.#.#.#.#.#.#.#.e.%.* * * * h j                                                                                                                                 y , * * * * 7 &.#.#.#.#.+.m.5./...#.#.#.].r.6.#.#.#.#.#.5.l.+.#.#.#.#.#.#.#.#.#.#.#.#.#.#.#.#.#.#.#.#.#.#.#.#.#.#.#.#.#.#.#.|.Z W [.[.[.[.",
"<.W [.[.[.W Z |.#.#.#.#.#.#.#.#.#.#.#.#.#.#.#.#.#.#.#.#.#.#.#.#.#.#.#.#.#.#.#.#.#.#.#.#.#.#.#.#.#.#.#.#.#.#.#.#.#.#.#.#.#.0.%.* * * & @ j                                                                                                                                 y , * * * * 7 &.#.#.#.#.+.5.5./.#.#.#.#.^.r.{.#.#.#.#.#.6.l.^.#.#.#.#.#.#.#.#.#.#.#.#.#.#.#.#.#.#.#.#.#.#.#.#.#.#.#.#.#.#.#.|.Z [.[.[.[.[.",
"<.W [.[.[.W Z |.#.#.#.#.#.#.#.#.#.#.#.#.#.#.#.#.#.#.#.#.#.#.#.#.#.#.#.#.#.#.#.#.#.#.#.#.#.#.#.#.#.#.#.#.#.#.#.#.#.#.#.#.#.0.$ * * * * w j                                                                                                                                 y , * * * * 7 &.#.#.#.#.#.].]./...#.#.#.].r./.#.#.#.#.#.{.l.].#.#.#.#.#.#.#.#.#.#.#.#.#.#.#.#.#.#.#.#.#.#.#.#.#.#.#.#.#.#.#.|.Z [.[.[.[.[.",
"<.[.[.[.[.W Z |.#.#.#.#.#.#.#.#.#.#.#.#. .#.#.#.#.#.#.#.#.#.#.#.#.#.#.#.#.#.#.#.#.#.#.#.#.#.#.#.#.#.#.#.#.#.#.#.#.#.#.#.#.0.$ * * * * w j                                                                                                                                 y , * * * * 7 &.#.#.#.#...].5.].#.#.#.#.].l./.#.#.#.#.#.{.l.].#.#.#.#.#.#.#.#.#.#.#.#.#.#.#.#.#.#. .#.#.#.#.#.#.#.#.#.#.#.#.|.Z [.[.[.[.[.",
"<.W [.[.}.W Z |.#.#.#.#.#.#.#.#.#.#.#.#.#.#.#.#.#.#.#.#.#.#.#.#.#.#.#.#.#.#.#.#.#.#.#.#.#.#.#.#.#.#.#.#.#.#.#.#.#.#.#.#.#.0.%.* * * * @ j                                                                                                                                 y , * * * * 7 &.#.#.#.#.^./.m.5...#.#.#.].l.{.#.#.#.#.#.{.l.].#.#.#.#.#.#.#.#.#.#.#.#.#.#.#.#.#.#.#.#.#.#.#.#.#.#.#.#.#.#.#.|.Z W [.[.[.[.",
"<.W [.[.[.[.Z |.#.#.#.#.#.#.#.#.#.#.#.#.#.#.#.#.#.#.#.#.#.#.#.#.#.#.#.#.#.#.#.#.#.#.#.#.#.#.#.#.#.#.#.#.#.#.#.#.#.#.#.#.#.0.%.* * * * @ j                                                                                                                                 y , * * * * 7 &.#.#.#.#.^.].5.m.#.#.#.#.+.s.].#.#.#.#.#.{.s.+.#.#.#.#.#.#.#.#.#.#.#.#.#.#.#.#.#.#.#.#.#.#.#.#.#.#.#.#.#.#.#.|.Z W [.[.[.[.",
"<.W [.[.[.W Z |.#.#.#.#.#.#.#.#.#.#.#.#.#.#.#.#.#.#.#.#.#.#.#.#.#.#.#.#.#.#.#.#.#.#.#.#.#.#.#.#.#.#.#.#.#.#.#.#.#.#.#.#.#.0.%.* * * * h j                                                                                                                                 y , * * * * 7 &.#.#.#.#...].5.{.#.#.#.#.#.#.#.#.#.#.#.#.#.#.#.#.#.#.#.#.#.#.#.#.#.#.#.#.#.#.#.#.#.#.#.#.#.#.#.#.#.#.#.#.#.#.|.Z W [.[.[.[.",
"<.[.[.[.[.[.Z |.#.#.#.#.#.#.#.#.#.#.#.#.#.#.#.#.#.#.#.#.#.#.#.#.#.#.#.#.#.#.#. .#.#.#.#.#.#.#.#.#.#.#.#.#.#.#.#.#.#.#.#.#.0.%.* * * * @ j                                                                                                                                 y , * * * * 7 &.#.#.#.#.@.].].j.@.#.#.#.+.h.*.h.*.h.*.h.*.h.+.#.#.#.#.#.#.#.#.#.#.#.#.#.#.#.#.#.#.#.#.#.#.#.#.#.#.#.#.#.#.#.|.Z W [.[.[.[.",
"<.[.[.[.[.[.Z |.#.#.#.#.#.#.#.#. .#.#.#.#.#.#.#.#.#.#.#.#.#.#.#.#.#.#.#.#.#.#.#.#.#.#.#.#.#.#.#.#.#.#.#.#.#.#.#.#.#.#.#.#.0.%.& * * * w j                                                                                                                                 y , * * * * 7 &.#.#.#.#.@.].].4...#.#.#.^.l.Q S S u.v.v.v.T +.#.#.#.#.#.#.#.#.#.#.#.#.#.#.#.#.#.#.#.#.#.#.#.#.#.#.#.#.#.#.#.|.Z [.[.Y [.[.",
"<.[.[.[.Y W Z |.#.#.#.#.#.#.#.#.#.#.#.#.#.#.#.#.#.#.#.#.#.#.#.#.#.#.#.#.#.#.#.#.#.#.#.#.#.#.#.#.#.#.#.#.#.#.#.#.#.#.#.#.#.e.$ * * * * w j                                                                                                                                 y , * * * * 7 &.#.#.#.#. .+.].+.#.#.#.#.#.].].].{.l.` +.].^. .#.#.#.#.#.#.#.#.#.#.#.#.#.#.#.#.#.#.#.#.#.#.#.#.#.#.#.#.#.#.#.|.Z [.[.[.[.[.",
"<.W [.[.[.[.Z |.#.#.#.#.#.#.#.#.#.#.#.#.#.#.#.#.#.#.#.#.#.#.#.#.#.#.#.#.#.#.#.#. .#.#. .#.#.#.#.#.#.#.#.#.#.#.#.#.#.#.#.#.0.$ * * * * w j                                                                                                                                 y , * * * * 7 <. .#.#.#.#.#.#.#.#.#.#.#.#.#.#.#...n.q.#.#.#.#.#.#.#.#.#.#.#.#.#.#.#.#.#.#.#.#.#.#.#.#.#.#.#. .#.#.#.#.#.#.#.|.Z W [.[.[.[.",
"<.Y [.Y [.[.Z |.#.#.#.#.#.#.#.#.#.#.#.#.#.#.#.#.#.#.#.#.#.#.#.#.#.#.#.#.#.#.#.#.#.#.#.#.#.#.#.#.#.#.#.#.#.#.#.#.#.#.#.#.#.0.%.* * * * w j                                                                                                                                 y ) * * * * 7 g. .#.#.#.@.{.+.#.#.#.#.#.#.#.#.#...n.q.#.#.#.#.#.#.#.#.#.#.#.#.#.#.#.#.#.#.#.#.#.#.#.#.#.#.#.#.#.#.#.#.#.#.#.|.Z W [.}.[.[.",
"<.[.[.[.[.W Z |.#.#.#.#.#.#.#.#.#.#.#.#.#.#.#.#.#.#.#.#.#.#.#.#.#.#.#.#.#.#.#.#.#.#.#.#.#.#.#.#.#.#.#.#.#.#.#.#.#.#.#.#.#.0.%.* * * * w j                                                                                                                                 y , * * * * 7 &.#.#.#.#.^./.{./...#.#.#.#.#.#.#...n.m.#.#.#.#.#.#.#.#.#.#.#.#.#.#.#.#.#.#.#.#.#.#.#.#.#.#.#.#.#.#.#.#.#.#.#.|.Z [.[.[.[.[.",
"<.[.[.[.[.W Z |.#.#.#.#.#.#.#.#.#.#.#.#.#.#.#.#.#.#.#.#.#.#.#.#.#.#.#.#.#.#.#.#.#.#.#.#.#.#.#.#.#.#.#.#.#.#.#.#.#.#.#.#.#.0.%.* * * * w j                                                                                                                                 y , * * * * 7 &.#.#.#.#.^.j.m.j...#.#.#.#.#.#.#...n.m.#.#.#.#.#.#.#.#.#.#.#.#.#. .#.#.#.#.#.#.#.#.#.#.#.#.#.#.#.#.#.#.#.#.#.|.Z [.[.[.[.[.",
"<.[.[.[.[.[.V |.#.#.#.#.#.#.#.#.#.#.#.#.#.#.#.#.#.#.#.#.#.#.#.#.#.#.#.#.#.#.#.#.#.#.#.#.#.#.#.#.#.#.#.#.#.#.#.#.#.#.#.#.#.0.%.* * * * @ j                                                                                                                                 y , * * * * 7 &.#.#.#.#.../.j.{.#.#.#.#.#.#.#.#.#.n.m.#.#.#.#.#.#.#.#.#.#.#.#.#.#.#.#.#.#.#.#.#.#.#.#.#.#.#.#.#.#.#.#.#.#.#.|.9.[.[.[.[.[.",
"<.W [.[.[.[.Z |.#.#.#.#.#.#.#.#.#.#.#.#.#.#.#.#.#.#.#.#.#.#.#.#.#.#.#.#.#.#.#.#.#.#.#.#.#.#.#.#.#.#.#.#.#.#.#.#.#.#.#.#.#.0.%.* & * * h j                                                                                                                                 y , * * * * 7 &.#.#.#.#.^./.{.].#.#.#.#.#.#.#.#.@.n.m.#.#.#.#.#.#.#.#.#.#.#.#.#.#.#.#.#.#.#.#.#.#.#.#.#.#.#.#.#.#.#.#.#.#. .h.-.[.[.[.[.[.",
"<.W [.[.}.W Z |.#.#.#.#.#.#.#.#.#.#.#.#.#.#.#.#.#.#.#.#.#.#.#.#.#.#.#.#.#.#.#.#.#. .#.#.#.#.#.#.#.#.#.#.#.#.#.#.#.#.#.#.#.0.%.* * * * @ i                                                                                                                                 y , * * * * 7 &.#.#.#.#.]./.].+.#.#.#.#.#.{./.{.5.l.s./././. .#.#.#.#.#.#.#.#.#.#.#.#.#.#.#.#.#.#.#.#.#.#.#.#.#.#.#.#.#.#.#.|.Z [.[.Y [.[.",
"<.W [.[.[.W Z |.#.#.#.#.#.#.#.#.#.#.#.#.#.#.#.#.#.#.#.#.#.#.#.#.#.#.#.#.#.#.#.#.#.#.#.#.#.#.#.#.#.#.#.#.#. .#.#.#.#.#.#.#.0.%.* * * * @ j                                                                                                                                 y , * * * * 7 &.#.#.#.#...5.6.].#.#.#.#.].l.u.u.u.u.u.u.u.l.].#.#.#.#.#.#.#.#.#.#.#.#.#.#.#.#.#.#.#.#.#.#.#.#.#.#.#.#.#.#.#.|.Z [.[.[.[.[.",
"<.[.[.[.[.W Z |.#.#.#.#.#.#.#.#.#.#.#.#.#. .#.#.#.#.#.#.#.#.#.#.#.#.#.#.#.#.#.#.#.#.#.#.#.#.#.#.#.#.#.#.#.#.#.#.#.#.#.#.#.0.%.* * & * h j                                                                                                                                 y , * * * * 7 &.#.#.#.#.^.^.5.j.#.#.#.#.+.m.h.h.h.m.h.h.h.m...#.#.#.#.#.#.#.#.#.#.#.#.#.#.#.#.#.#.#.#.#.#.#.#.#.#.#.#.#.#.#.|.Z W [.[.[.[.",
"<.[.[.[.[.W V |.#.#.#.#.#.#.#.#.#.#.#.#.#.#.#.#.#.#.#.#.#.#.#.#.#. .#.#.#.#.#.#.#.#.#.#.#.#.#.#.#.#.#.#.#.#.#.#.#.#.#.#.#.0.%.* * * * @ j                                                                                                                                 y , * * * * 7 &.#.#.#.#.^.m./.]...#.#.#.#.#.#.#.#.#.#.#...{...#.#.#.#.#.#.#.#.#.#.#.#.#.#.#.#.#.#.#.#.#.#.#.#.#.#.#.#.#.#.#.|.Z W [.}.[.[.",
"<.[.[.[.[.[.Z |.#.#.#.#.#.#.#.#.#.#.#.#.#.#.#.#.#.#.#.#.#.#.#.#.#.#.#.#.#.#.#.#.#.#.#.#.#.#.#.#.#.#.#.#.#.#.#.#.#.#.#.#.#.e.%.* * * * @ j                                                                                                                                 y , * * * * 7 &.#.#.#.#.#.].@. .#.#.#.#.#.#.#.#.#.#.#.#.{.l.+.#.#.#.#.#.#.#.#.#.#.#.#.#.#.#.#.#.#.#.#.#.#.#.#.#.#.#.#.#.#.#.|.Z [.[.[.[.[.",
"<.Y [.[.Y W Z |.#.#.#.#.#.#.#.#.#.#.#.#.#.#.#.#.#.#.#.#.#.#.#.#.#.#.#.#.#.#.#.#.#.#.#.#.#.#.#.#.#.#.#.#.#.#.#.#.#.#.#.#.#.0.$ * * * & @ j                                                                                                                                 y , * * * * 7 &.#.#.#.#.#.#.#.#.#.#.#.#.#.#.#.#.#.#.#.#.6.l.].#.#.#.#.#.#.#.#.#.#.#.#.#.#.#.#.#.#.#.#.#.#.#.#.#.#.#.#.#.#.#.|.Z [.[.[.[.[.",
"<.Y [.[.[.W Z |.#.#.#.#.#.#.#.#.#.#.#.#.#.#.#.#.#.#.#.#.#.#.#.#.#.#.#.#.#.#.#.#.#.#.#.#.#.#.#.#.#.#.#.#.#.#.#.#.#.#.#.#.#.0.$ * * * & @ i                                                                                                                                 y , * * * * 7 &.#.#.#.#...{././.{...#.#.#.#.#.#.#.#.#.#.{.l.].#.#.#.#.#.#.#.#.#.#.#.#.#.#.#.#.#.#.#.#.#.#.#.#.#.#.#.#. .#.#.|.Z [.[.[.[.[.",
"<.Y [.[.[.W Z |.#.#.#.#.#.#.#.#.#.#.#.#.#.#.#.#.#.#.#.#.#.#.#.#.#.#.#.#.#.#.#.#.#.#.#.#.#.#.#.#.#.#.#.#.#.#.#.#.#.#.#.#.#.0.%.* * * & @ j                                                                                                                                 y , * * * * 7 &.#.#.#.#.].j.].].j.+.#.#.#.#.#.#.#.#.#.#.{.l.].#.#.#.#.#.#.#.#.#.#. .#.#.#.#.#.#.#.#.#.#.#.#.#.#.#.#.#.#.#.#.|.Z [.Y [.Y Y ",
"<.[.[.[.Y [.Z |.#.#.#.#.#.#.#.#.#.#.#.#.#.#.#.#.#.#.#.#.#.#.#.#.#.#.#.#.#.#.#.#.#.#.#.#.#.#.#.#.#.#.#.#.#.#.#.#.#.#.#.#.#.0.$ * * * * w j                                                                                                                                 y , * * * * 7 &.#.#.#.#.+./.#.#./...#.#...4.m.m.j.m.m.m.i.l.].#.#.#.#.#.#.#.#.#.#.#.#.#.#.#.#.#.#.#.#.#.#.#.#.#.#.#.#.#.#.#.|.Z [.[.Y [.[.",
"<.[.}.[.[.[.Z |.#.#.#.#.#.#.#.#.#.#.#.#.#.#.#.#.#.#.#.#.#.#.#.#.#.#.#.#.#.#.#.#.#.#.#.#.#.#.#.#.#.#.#.#.#.#.#.#.#.#.#.#.#.0.$ * * * * w j                                                                                                                                 y ) * * * * 7 &.#.#.#.#.@./.5.j.].#.#.#.^.l.v.v.v.u.u.v.v.r.].#.#.#.#.#.#.#.#.#.#.#.#.#.#.#.#.#.#.#.#.#.#.#.#.#.#.#.#.#.#.#.|.Z [.[.[.[.[.",
"<.[.[.[.[.[.Z |.#.#.#.#.#.#.#.#.#.#.#.#.#.#.#.#.#.#.#.#.#.#.#.#.#.#.#.#.#.#.#.#.#.#.#.#.#.#.#.#.#.#.#.#.#.#.#.#.#.#.#.#.#.0.%.* * * * @ j                                                                                                                                 y , * * * * 7 <. .#.#.#. ./.h./.#.#.#.#.@.{./././.5.6.{.*.r.].#.#.#.#.#.#.#.#.#.#.#.#.#.#.#.#.#.#.#.#.#.#.#.#.#.#. .#.#.#.#.|.Z W [.[.[.[.",
"<.[.[.[.[.[.Z |.#.#.#.#.#.#.#.#.#.#.#.#.#.#.#.#.#.#.#.#.#.#.#.#.#.#.#.#.#.#.#.#.#.#.#.#.#.#.#.#.#.#.#.#.#.#.#.#.#.#.#.#.#.0.%.* * * * h j                                                                                                                                 y , * * * * 7 g. .#.#.#.^./.j.j...#.#.#.#.#.#.#.#.#.#.#.{.l.].#.#.#.#.#.#.#.#.#.#.#.#.#.#.#.#.#.#.#.#.#.#.#.#.#.#.#.#.#.#.#.|.Z W [.Y [.[.",
"<.[.[.[.[.[.Z |.#.#.#.#.#.#.#.#.#. .#.#.#.#.#.#.#.#.#.#.#.#.#. .#.#.#.#.#.#.#.#.#.#.#.#.#.#.#.#.#.#.#.#.#.#.#.#.#.#.#.#.#.0.%.* * * * @ i                                                                                                                                 y , * * * * 7 &.#.#.#.#.+.^.m.j.@.#.#.#.#.#.#.#.#.#.#.#.{.l.^.#.#.#.#.#.#.#.#.#.#.#.#.#.#.#.#.#.#.#.#.#.#.#.#.#.#.#.#.#.#.#.|.Z W [.[.[.[.",
"<.W [.[.[.[.Z |.#.#.#.#.#.#.#.#.#.#.#. .#.#.#.#.#.#.#.#.#.#.#.#.#.#.#.#.#.#.#.#.#.#.#.#.#.#.#.#.#.#.#.#.#.#.#.#.#.#.#.#.#.0.%.* * * * @ j                                                                                                                                 y , * * * * 7 &.#.#.#.#...{.m.{.#.#.#.#.#.#.#.#.#.#.#.#.{.T ].#.#.#.#.#.#.#.#.#.#.#.#.#.#.#.#.#.#.#.#.#.#.#.#.#.#.#.#.#.#.#.|.Z W [.[.[.[.",
"<.[.[.[.[.W Z |.#.#.#.#.#.#.#.#.#.#.#.#.#.#.#.#.#.#.#.#.#.#.#.#.#.#.#.#.#.#.#.#.#.#.#.#.#.#.#.#.#.#.#.#.#.#.#.#.#.#.#.#.#.0.%.* * * * h j                                                                                                                                 y , * * * * 7 &.#.#.#.#.{.{.+.^.#.#.#.#.#.#.#.#.#.#.#.#.].x.].#.#.#.#.#.#.#.#.#.#.#.#.#.#.#.#.#.#.#.#.#.#.#.#.#.#.#.#.#.#.#.|.9.[.[.[.[.[.",
"<.[.[.[.[.W Z |.#.#.#.#.#.#.#.#.#.#.#.#.#.#.#.#.#.#.#.#.#.#.#.#.#.#.#.#.#.#.#.#.#.#.#. .#.#.#.#.#.#.#.#.#.#.#.#.#.#.#.#.#.0.%.* * * * @ j                                                                                                                                 y , * * * * 7 &.#.#.#.#.^.m.{.].#.#.#.#.#. .@.#. .@. .#...+.#.#.#.#.#.#.#.#.#.#.#.#.#.#.#.#.#.#.#.#.#.#.#.#.#.#.#.#.#.#.#.#.h.-.[.[.[.[.[.",
"<.W Y [.[.[.Z |.#.#.#.#.#.#.#.#.#.#.#.#.#.#.#.#.#.#.#.#.#.#.#.#.#.#.#.#.#.#.#.#.#.#.#.#.#.#.#.#.#.#.#.#.#.#.#.#.#.#.#.#.#.0.%.* * * * @ j                                                                                                                                 y , * * * * 7 &.#.#.#.#..././.5.+.#.#.#.+.s.x.n.x.n.t.t.n.s.+.#.#.#.#.#.#.#.#.#.#.#.#.#.#.#.#.#.#.#.#.#.#.#.#.#.#.#.#.#.#.#.|.Z [.[.[.[.[.",
"<.W [.[.[.[.Z |.#.#.#.#.#.#.#.#.#.#.#.#.#.#.#.#.#.#.#.#.#.#.#.#.#.#.#.#.#.#.#.#.#.#.#.#.#.#.#.#.#.#.#.#.#.#.#.#.#.#.#.#.#.0.%.* * * & @ j                                                                                                                                 y , * * * * 7 &.#.#.#.#.^.j./.m./.#.#.#.].r.l.l.l.v.l.l.l.r.].#.#.#.#.#.#.#.#.#.#.#.#.#.#.#.#.#.#.#.#.#.#.#.#.#.#.#.#.#.#.#.|.Z [.[.Y [.[.",
"<.W [.[.[.[.V |.#.#.#.#.#.#.#.#.#.#.#.#.#.#.#.#.#.#.#.#.#.#.#.#.#.#.#.#.#.#.#.#.#.#.#.#.#.#.#.#.#.#.#.#.#.#.#.#.#.#.#.#.#.0.%.* * * & @ i                                                                                                                                 y , * * * * 7 &.#.#.#.#.^.^.+.].#.#.#.#.].r.m.#.].l.m...5.l.].#.#.#.#.#.#.#.#.#.#.#.#.#.#.#.#.#.#.#.#.#.#.#.#.#.#.#.#.#.#.#.|.Z W [.[.[.[.",
"<.W Y [.[.Y Z |.#.#.#.#.#.#.#.#.#.#.#.#.#.#.#.#.#.#.#.#.#.#.#.#.#.#.#.#.#.#.#.#.#.#.#.#.#.#.#.#.#.#.#.#.#.#.#.#.#.#.#.#.#.0.%.* * * & @ j                                                                                                                                 y , * * * * 7 &.#.#.#.#.+.].j.5...#.#.#.].l.].#.#.n.m.#.6.l.].#.#.#.#.#.#.#.#.#.#.#.#.#.#.#.#.#.#.#.#.#.#.#.#.#.#.#.#.#.#.#.|.Z W [.}.[.[.",
"<.[.[.[.[.W Z |.#.#.#.#.#.#.#.#.#.#.#.#.#.#.#.#.#.#.#.#.#.#.#.#.#.#.#.#.#.#.#.#. .#.#.#.#.#.#.#.#.#.#.#.#.#.#.#.#.#.#.#.#.0.$ * * * * h j                                                                                                                                 y , * * * * 7 &.#.#.#.#.^.m.].]...#.#.#.].l.{.#...n.m.#.{.l.^.#.#.#.#.#.#.#.#.#.#.#.#.#.#.#.#.#.#.#.#.#.#.#.#.#.#.#.#.#.#.#.|.Z W [.[.[.[.",
"<.[.[.[.[.[.Z |.#.#.#.#.#.#.#.#.#.#.#.#.#.#.#.#.#.#.#.#.#.#.#.#.#.#.#.#.#.#.#.#.#.#.#.#.#.#.#.#.#.#.#.#.#.#.#.#.#.#.#.#.#.0.$ * * * * @ j                                                                                                                                 y , * * * * 7 &.#.#.#.#.@.5.5.].#.#.#.#.^.l.{.#...n.m.#.{.l.{.#.#.#.#.#.#.#.#.#.#.#.#.#.#.#.#.#.#.#.#.#.#.#.#.#.#.#.#.#.#.#.|.Z [.[.[.[.[.",
"<.[.[.[.[.[.Z |.#.#.#.#.#.#.#.#.#.#.#.#.#.#.#.#.#.#.#.#.#.#.#.#.#.#.#.#.#.#.#.#.#.#.#.#.#.#.#.#.#.#.#.#.#.#.#.#.#.#.#.#.#.0.$ * * * * @ j                                                                                                                                 y , * * * * 7 &.#.#.#.#.].{.+.5.@.#.#.#.^.l./.#.@.n.m.#.{.l.{.#.#.#.#.#.#.#.#.#.#.#.#.#.#.#.#.#.#.#.#.#.#.#.#.#.#.#.#.#.#.#.|.Z [.[.[.[.[.",
"<.[.Y [.[.}.Z 0.#.#.#.#.#.#.#.#.#.#.#.#.#.#.#.#.#.#.#.#.#.#.#.#.#.#.#.#.#.#.#.#.#.#. .#.#.#.#.#.#.#.#.#.#.#.#.#.#.#.#.#.#.0.$ * * & & @ j                                                                                                                                 y , * * * * 7 &.#.#.#.#.^.+.#.]...#.#.#.].l.{.#...l.q.#./.l.^.#.#.#.#.#.#.#.#.#.#.#.#.#.#.#.#.#.#.#.#.#. .#.#.#.#.#.#.#.#.#.|.Z [.Y [.Y Y ",
"<.F.[.[.[.[.Z |.#.#.#.#.#.#.#.#.#.#.#.#.#.#.#.#.#.#.#.#.#.#.#.#.#.#.#.#.#.#.#.#.#.#.#.#.#.#.#.#.#.#.#.#.#.#.#.#.#.#.#.#.#.0.%.* * * * @ j                                                                                                                                 y , * * * * 7 &.#.#.#.#...]./.j./...#.#.^.T /.#...t.q.#.6.l.].#.#.#.#.#.#.#.#.#.#.#.#.#.#.#.#.#.#.#.#.#.#.#.#.#.#.#. .#.#.#.|.Z W [.[.[.[.",
"<.Y [.}.[.[.Z |.#.#.#.#.#.#.#.#.#.#.#.#.#.#.#.#.#.#.#.#.#.#.#.#.#.#.#.#. .#.#.#.#.#.#.#.#.#.#.#.#.#.#.#.#.#.#.#.#.#.#.#.#.0.%.* * * * @ j                                                                                                                                 y ) * * * * 7 &.#.#.#.#.#.....5...#.#.#...h.^.#.#.{.^.#.^.*.^.#.#.#.#.#.#.#.#.#.#.#.#.#.#.#.#.#.#.#.#.#.#.#.#.#.#.#.#.#.#.#.|.Z [.}.[.[.[.",
"<.[.[.[.[.[.Z |.#.#.#.#.#.#.#.#.#.#.#.#.#.#.#.#.#.#.#.#.#.#.#.#.#.#.#.#.#.#.#.#.#.#.#.#.#.#.#.#.#.#.#.#.#.#.#.#.#.#.#.#.#.0.%.* * * * h j                                                                                                                                 y , * * * * 7 <. .#.#.#...j.j./. .#.#.#.#.#.#.#.#.#.#.#.#.#.#.#.#.#.#.#.#.#.#.#.#.#.#.#.#.#.#.#.#.#.#.#.#.#.#.#.#.#.#.#.#.#.|.Z [.[.[.[.[.",
"<.[.[.[.Y [.Z |.#.#.#.#.#.#.#.#.#.#.#.#.#.#.#.#.#.#.#.#.#.#.#.#.#.#.#.#.#.#.#.#.#.#.#.#.#.#.#.#.#.#.#.#.#.#.#.#.#.#.#.#.#.0.%.* * * * @ j                                                                                                                                 y , * * * * 7 g. .#.#.#.../.j.j./...#.#.#.].s.t.t.t.t.t.i.^.#.#.#.#.#.#.#.#.#.#.#.#.#.#.#.#.#.#.#.#.#.#.#.#.#.#.#.#.#.#.#.#.|.Z [.[.[.[.[.",
"<.Y [.[.Y [.Z |.#.#.#.#.#.#.#.#.#.#.#.#.#.#.#.#.#.#.#.#.#.#.#.#.#.#.#.#.#.#.#.#.#.#.#.#.#.#.#.#.#.#.#.#.#.#.#.#.#.#.#.#.#.0.%.* * * * @ j                                                                                                                                 y , * * * * 7 &.#.#.#.#...j.{.].+.#.#.#.@.s.v.l.l.l.l.l.v.x.@.#.#.#.#.#.#.#.#.#.#.#.#.#.#.#.#.#.#.#.#.#.#.#.#.#.#.#.#.#.#.#.|.=.Y [.[.[.[.",
"<.W [.[.[.[.Z |.#.#.#.#.#.#.#.#.#.#.#.#.#.#.#.#.#.#.#.#.#.#.#.#.#.#.#.#.#.#.#.#.#.#.#.#.#.#.#.#.#.#.#.#.#.#.#.#.#.#.#.#.#.0.%.* * * * h j                                                                                                                                 y , * * * * 7 &.#.#.#.#.{.m./.]...#.#.#.+.l.q.......+...q.l.^.#.#.#.#.#.#.#.#.#.#.#.#.#.#.#.#.#.#.#.#. .#.#.#.#.#.#.#.#.#.#.|.Z Y [.[.[.[.",
"<.[.[.[.[.[.Z |.#.#.#.#.#.#.#.#.#.#.#.#.#.#.#.#.#.#.#.#.#.#.#.#.#.#.#.#.#.#.#.#.#.#.#.#.#.#.#.#.#.#.#.#.#.#.#.#.#.#.#.#.#.0.$ * * * * @ j                                                                                                                                 y , * * * * 7 &.#.#.#.#.^.h.i.j...#.#.#.^.l./.#.#.#.#.#./.l.^.#.#.#. .#.#.#.#.#.#.#.#.#.#.#.#.#.#.#.#.#.#.#.#.#.#.#.#.#.#.#.|.-.C.[.[.[.[.",
"<.[.[.[.[.[.Z |.#.#.#.#.#.#.#.#.#.#.#.#.#. .#.#.#.#.#.#.#.#.#.#.#.#.#.#.#.#.#.#.#.#.#.#.#.#.#.#.#.#.#.#.#.#.#.#.#.#.#.#.#.0.$ * * * * w j                                                                                                                                 y , * * * * 7 &.#.#.#.#.+.5.5.].#.#.#.#.].l.{.#.#.#.#.#.{.l.].#.#.#.#.#.#.#.#.#.#.#.#.#.#.#.#.#.#.#.#.#.#.#.#.#.#.#.#.#.#.#.|.9.W [.[.[.[.",
"<.Y [.[.[.[.Z f.#.#.#.#.#.#.#.#.#.#.#. .#.#.#.#.#.#.#. .#.#.#.#.#.#.#.#.#.#.#.#.#.#.#.#.#.#.#.#.#.#.#.#.#.#.#.#.#.#.#.#.#.e.%.* * * * @ j                                                                                                                                 y , * * * * 7 &.#.#.#.#...].{.j.#.#.#.#.].l.5.#.#.#.#.#./.l.^.#.#.#.#.#.#.#.#.#.#.#.#.#.#.#.#.#.#.#.#.#.#.#.#.#.#.#.#.#.#.#.|.Z [.[.[.[.[.",
"<.[.[.Y }.[.Z 0.#.#.#.#.#.#.#.#.#.#.#.#.#.#.#.#.#.#.#.#.#.#.#.#.#.#.#.#.#.#.#.#.#.#.#.#.#.#.#.#.#.#.#.#.#.#.#.#.#.#.#.#.#.0.%.* * * * h j                                                                                                                                 y , * * * * 7 &.#.#.#.#.#.+.^.5...#.#.#.+.l.{.#.#.#.#.#.{.l.{.#.#.#.#.#.#.#.#.#.#.#.#.#.#.#.#.#.#.#.#.#.#.#.#.#.#.#.#.#.#.#.|.Z [.[.[.[.[.",
"<.[.[.[.[.[.Z |.#.#.#.#.#.#.#.#.#.#.#.#.#.#.#.#.#.#.#.#.#.#.#.#.#.#.#.#.#.#.#.#.#.#.#.#.#.#.#.#.#.#.#.#.#.#.#.#.#.#.#.#.#.0.$ * * * * @ j                                                                                                                                 y , * * * * 7 &.#.#.#.#.../.j.].#.#.#.#.].l.{.#.#.#.#.#./.l.{.#.#.#.#.#.#.#.#.#.#.#.#.#.#.#.#.#.#.#.#.#.#.#.#.#.#.#.#.#.#.#.|.Z W [.[.[.[.",
"<.[.[.Y [.[.Z |.#.#.#.#.#.#.#.#.#.#.#.#.#.#.#.#.#.#.#.#.#.#.#.#.#.#.#.#.#.#.#.#.#.#.#.#.#.#.#.#.#.#.#.#.#.#.#.#.#.#.#.#.#.0.$ * * & * w j                                                                                                                                 y , * * * * 7 &.#.#.#.#.+.m.5./...#.#.#.].r.{.#.#.#.#.#.6.l.^.#.#.#.#.#.#.#.#.#.#.#.#.#.#.#.#.#.#.#.#.#.#. .#.#.#.#.#.#.#.#.|.Z W [.[.[.[.",
"<.W [.[.[.[.Z |.#.#.#.#.#.#.#.#.#.#.#.#.#.#.#.#.#.#.#.#.#.#.#.#.#.#.#.#.#.#.#.#. .#.#.#.#.#.#.#.#.#.#.#.#.#.#.#.#.#.#.#.#.0.%.* * * * @ j                                                                                                                                 y , * * * * 7 &.#.#.#.#.^.{.+.5.+.#.#.#.].r.{.#.#.#.#.#.{.T ^.#.#.#.#.#.#.#.#.#.#.#.#.#.#.#.#.#.#.#.#.#.#.#.#.#.#.#.#.#.#.#.|.Z W [.}.[.[.",
"<.W [.[.[.[.Z 0.#.#.#.#.#.#.#.#.#.#.#.#.#.#.#.#.#.#.#.#.#.#.#.#.#.#.#.#.#.#.#.#.#.#.#.#.#.#.#.#.#.#.#.#.#.#.#.#.#.#.#.#.#.0.%.* * * * @ j                                                                                                                                 y , * * * * 7 &.#.#.#.#.+.5.5.j.{...#.#.+.m.+.#.#.#.#.#.+.m...#.#.#.#.#.#.#.#.#.#.#.#.#.#.#.#.#.#.#.#.#.#.#.#.#.#.#.#.#.#.#.|.Z [.[.[.[.[.",
"<.W [.[.}.Y Z |.#.#.#.#.#.#.#.#.#.#.#.#.#.#.#.#.#.#.#.#.#.#.#.#.#.#.#.#.#.#.#.#.#.#.#.#.#.#.#.#.#.#.#.#.#.#.#.#.#.#.#.#.#.0.%.* * * * h j                                                                                                                                 y , * * * * 7 &.#.#.#.#.#.#.#.#.#.#.#.#.#.#.#.#.#.#.#.#.#.#.#.#.#.#.#.#.#.#.#.#.#.#.#.#.#.#.#.#.#.#.#.#.#.#.#.#.#.#.#.#.#.#.|.Z [.[.[.[.[.",
"<.[.[.[.[.Y Z |.#.#.#.#.#.#.#.#.#.#.#.#.#.#.#.#.#.#.#.#.#.#.#.#.#.#.#.#.#.#.#.#.#.#.#.#.#.#.#.#.#.#.#.#.#.#.#.#.#.#.#.#.#.0.%.* * * * @ j                                                                                                                                 y , * * * * 7 &.#.#.#.#.#.#.#.#.#.#.#.#.#.#.#.#.#.#.#.#.#.#.#.#.#.#.#.#.#.#.#.#.#.#.#.#.#.#.#.#.#.#.#.#.#.#.#.#.#.#.#.#.#.#.|.Z [.[.[.[.[.",
"<.[.[.[.[.W Z |.#.#.#.#.#.#.#.#.#.#.#.#.#.#.#.#.#.#.#.#.#.#.#.#.#.#.#.#.#.#.#.#.#.#.#.#.#.#.#.#.#.#.#.#.#.#.#.#.#.#.#.#.#.e.%.* * * * w j                                                                                                                                 y , * * * * 7 &.#.#.#.#.#.#.#.#.#.#.#.#.#.#.#.#.#.#.#.#.#.#.#.#.#.#.#.#.#.#.#.#.#.#.#.#.#.#.#.#.#.#.#.#.#.#.#.#.#.#.#.#.#.#.|.Z W [.[.[.[.",
"<.[.[.[.[.W Z |.#.#.#.#.#.#.#.#.#.#.#.#.#.#.#.#.#.#.#.#.#.#.#.#.#.#.#.#.#.#.#.#.#.#.#.#.#.#.#.#.#.#.#.#.#.#.#.#.#.#.#.#.#.0.%.* * * * w j                                                                                                                                 y ) * * * * 7 &.#.#.#.#.#.#.#.#.#.#.#.#.#.#.#.#.#.#.#.#.#.#.#.#.#.#.#.#.#.#.#.#.#.#.#.#.#.#.#.#.#.#.#.#.#.#.#.#.#.#.#.#.#.#.|.Z W [.[.[.[.",
"<.[.[.[.[.[.Z |.#.#.#.#.#.#.#.#.#.#.#.#.#.#.#.#.#.#.#.#.#.#.#.#.#.#.#.#.#.#.#.#.#.#.#.#.#.#.#.#.#.#.#.#.#.#.#.#.#.#.#.#.#.0.%.* * * * w j                                                                                                                                 y , * * * * 7 <. .#.#.#.#.#.#.#.#.#.#.#.#.#.#.#.#.#.#.#.#.#.#.#.#.#.#.#.#.#.#.#.#.#.#.#.#.#.#.#.#.#.#.#.#.#.#.#.#.#.#.#.#.#.|.Z [.[.[.[.[.",
"<.[.W [.Y [.Z |.#.#.#.#.#.#.#.#.#.#.#.#.#.#.#.#.#.#.#.#.#.#.#.#.#.#.#.#.#.#.#.#.#.#.#.#.#.#.#.#.#.#.#.#.#.#.#.#.#.#.#.#.#.0.%.* * * * w j                                                                                                                                 y , * * * * 7 g. .#.#.#.#.#.#.#.#.#.#.#.#.#.#.#.#.#.#.#.#.#.#.#.#.#.#.#.#.#.#.#.#.#.#.#.#.#.#.#.#.#.#.#.#.#.#.#.#.#.#.#.#.#.|.Z [.[.[.[.[.",
"<.W [.[.[.W Z |.#.#.#.#.#.#.#.#.#.#.#.#.#.#.#.#.#.#.#.#.#.#.#.#.#.#.#.#.#.#.#.#.#.#.#.#.#.#.#.#.#.#.#.#.#.#.#.#.#.#.#.#.#.e.%.* * * * w j                                                                                                                                 y , * * * * 7 &.#.#.#.#.#.#.#.#.#.#.#.#.#.#.#.#.#.#.#.#.#.#.#.#.#.#.#.#.#.#.#.#.#.#.#.#.#.#.#.#.#.#.#.#.#.#.#.#.#.#.#.#.#.#.|.Z [.[.Y [.[.",
"<.Y [.[.[.}.Z |.#.#.#.#.#.#.#.#.#.#.#.#.#.#.#.#.#.#.#.#.#.#.#.#.#.#.#.#.#.#.#.#.#.#.#.#.#.#.#.#.#.#.#.#.#.#.#.#.#.#.#.#.#.0.%.* * * * w j                                                                                                                                 y , * * * * 3 &.#.#.#.#.#.#.#.#.#.#.#.#.#.#.#.#.#.#.#.#.#.#.#.#.#.#.#.#.#.#.#.#.#.#.#.#.#.#.#.#.#.#.#.#.#.#.#.#.#.#.#.#.#.#.|.Z [.[.Y [.[.",
"Z Y Y F.F.F.Z {+..+.+.+.+.+.+.+.....]...+.+.+.+.+.+.+.+.+.+.+.+.....^.@.^.+.+.@.+.#.+.+...+.+.@.+.^.^.+.+.+.+.+...+.+.....$.$ * * * * @ j                                                                                                                                 y , * * * * 7 &.^.+.+.+.+.^.+.+.+.+.+...+.+.@.^.+.+.@.+...+.)++.+.+.+.+.+.+.+.+.+.+.+.....+.@.+.+.+.+.^.@.+.+.+.+.+.+.^.+.^.` =.F.Y Y Y Y ",
"G F G F E F B K J K J K K J K K K K (+K (+(+K (+(+K J K K J K K K K K K K J K K K K K K K J K K K K J K K J K K K K K K K G 6 * * * * 6 j                                                                                                                                 y , * * * * 3 L (+K (+(+K J K K J K K K K K K K J K K K K K K J K K J K K J K K J K K K K K K K K J K K K K J K K J K K K K K B F F G G G ",
"_ - - - _ - _ - - _ - - - _ ; - _ - % ; - _ ; - - _ - - _ - ; - _ - - - _ ; - _ - ; % % _ _ - - _ - _ - - _ - - _ - - ; ; ; ! * * * * h j                                                                                                                                 y , * * * * 8 - - _ ; ; - ; - _ - - - _ - _ ; ; ; _ - - - % _ _ - _ - - _ - - _ - ; - _ - % % _ _ _ - _ - ; - - _ - - _ - - _ ; _ - _ - _ ",
"* & & & & & & & & & & & & & & & & & * * & & & & & & & & & & & & & & & & & & & & & & & & & & & & & & & & & & & & & & * & * * * * * * * @ j                                                                                                                                 y , * * * * * & * * * & * & & & & & & & & & * * & & & & * * * & & & & & & & & & & & & & & & & & & & & & & & & & & & & & & * * & & & & & & ",
"* * * * * * * * * * * * & * * * * * * * * * * * * * * * * * * * * * * * * * * * * * * * * * * * & * * * * * & * * * * * * * * * * * * h j                                                                                                                                 y , * * * * * * * * * * * * * * * * * * * * * * * * * * * * * * * * * * * * * & * * * * * * * * * * * & * * * * * * * * * * * * * * * * * ",
"* * * * * * * * * * * * * * & * * * * * * * * * * * * * & * * * * * * * * * & * * * * * * * & * * * * * * * * * * * * * * * * * * * * @ j                                                                                                                                 y , * * * * * * * * * * * * * * * * * * * * * * * * * * * * * & * * * * * & * * * * * * & * * * * * * * & * * & * * * * * * * * * * * * * ",
"* * * * * * * * * * * * * * * * * * * * * * * * * * * * & * * * * & * * * * * * * * * * * * * * * * * * * & * * * & * * & * * * * * * @ j                                                                                                                                 y , * * * & * * * * * * * * * * & * * & * * * * & * * * * * * & * * * * & * * * & * * * * * * * & * * & * * * * * * * * * * * & * * * * & ",
"* * * * * * * * & * * & * * & * * * & * * & * * & * * * * * * * * * * * * & & * * * * & * * * * & * * * * * * * * * * * * * * * * * & @ j                                                                                                                                 y , * * * * * * * * * * * * * * * * * * * * * * * * * * * * * * * * * * * * * * * * * * * * * * * * * * * * & * * * * & * * * * * * * * * ",
"* * * * * * * * * * * * * * * * * & * * * * & * * * * * * * * & * * & * * * * * * * * * * * * * * * & * * * * * * * * & * * * * * * & @ i                                                                                                                                 y , * & * * * * * * * * & * & * * * * * * * & * * * * * * * * * * * * * * * & * * * * & * * * * * * & * * * * * * * * * * * * * * & * * * ",
"* * * * * * * * * * * * * & * * * * * * * * * * * * * & * * * * * * * * * * * * * & * * * * & * * * * * * * * & * * * * * * * * * * * @ j                                                                                                                                 y , * * * * * & * * * * * * * * * * & * * * * * * * * * * & * * * * & * * * * * * * * * * * & * * * * * * * * * & * * * * & * * * * * * * ",
"* * * * * * * * * * * * * * * * * * * * * * * * * * * * * * * * * * * * * * * * * * * * * * * * * * * * * * * * * * * * * * * * * * & @ j                                                                                                                                 y , * * * * * * * * * * * * * * * * * * * * * * * * * * * * * * * * * * * * * * * * * * * * * * * * * * * * * * * * * * * * * * * * * * * ",
"7 3 7 3 3 3 7 3 3 3 7 3 3 7 3 3 7 3 3 3 7 3 3 3 7 3 3 3 7 3 3 3 7 3 x 3 3 3 3 3 3 3 3 7 3 3 3 7 3 3 7 3 3 3 3 7 3 3 7 3 7 3 3 3 3 3 7 > j                                                                                                                                 4 q 7 7 3 3 3 7 7 7 x 3 7 7 3 3 3 3 7 3 3 7 3 7 3 3 3 3 3 3 3 7 3 3 3 7 3 3 3 7 3 3 3 7 3 x 3 3 3 3 3 3 3 3 7 3 3 3 7 3 3 3 7 7 3 x 7 3 7 "};
