/* XPM */
static char * 8_xpm[] = {
"202 272 28 1",
" 	c None",
".	c #A76000",
"+	c #A96301",
"@	c #5A380A",
"#	c #151517",
"$	c #2A1708",
"%	c #362611",
"&	c #9C5902",
"*	c #C37400",
"=	c #593205",
"-	c #0E0F10",
";	c #3D2405",
">	c #BD6D02",
",	c #FF9800",
"'	c #794800",
")	c #000000",
"!	c #241303",
"~	c #482B00",
"{	c #F29000",
"]	c #1E1003",
"^	c #FB9500",
"/	c #F08F00",
"(	c #190D02",
"_	c #EA8B00",
":	c #E68A00",
"<	c #6C4100",
"[	c #422502",
"}	c #DE8402",
"..++@#$                                                                                                                                                                                             #%&+++",
"****=-%                                                                                                                                                                                             -;>***",
",,,,')!                                                                                                                                                                                             )~{,,,",
",,,,')]                                                                                                                                                                                             )~{,,,",
",,,,')!                                                                                                                                                                                             )~{,,,",
",,,,')$                                                                                                                                                                                             )~{,,,",
",,,,')!                                                                                                                                                                                             )~{,,,",
",,,,')!                                                                                                                                                                                             )~{,,,",
",,,,')!                                                                                                                                                                                             )~{,,,",
",,,,')!                                                                                                                                                                                             )~{,,,",
",,,,')!                                                                                                                                                                                             )~{,,,",
",,,,')!                                                                                                                                                                                             )~{,,,",
",,,,')!                                                                                                                                                                                             )~{,,,",
",,,,')!                                                                                                                                                                                             )~{,,,",
"^^,,')!                                                                                                                                                                                             )~{,,,",
",,,,')!                                                                                                                                                                                             )~{,,,",
",,,,')!                                                                                                                                                                                             )~{,,,",
",,,,')!                                                                                                                                                                                             )~{,,,",
"^,,,')!                                                                                                                                                                                             )~{,,,",
",,,,')!                                                                                                                                                                                             )~{,,,",
",,,,')!                                                                                                                                                                                             )~{,,,",
",,,,')!                                                                                                                                                                                             )~{,,,",
",,,,')!                                                                                                                                                                                             )~{,,,",
",,,,')!                                                                                                                                                                                             )~{,,,",
",,,,')!                                                                                                                                                                                             )~{,,,",
",,,,')!                                                                                                                                                                                             )~{,,,",
",,,,')!                                                                                                                                                                                             )~/,,,",
",,,,')!                                                                                                                                                                                             )~/,,^",
",,,,')!                                                                                                                                                                                             )~{,,,",
",,,,')!                                                                                                                                                                                             )~{,,,",
"^,,,')!                                                                                                                                                                                             )~{,,,",
",,,,')!                                                                                                                                                                                             )~{,,,",
",^,,')!                                                                                                                                                                                             )~{,,,",
",,,,')!                                                                                                                                                                                             )~{,,,",
",^,,')!                                                                                                                                                                                             )~{,,,",
",,,,')!                                                                                                                                                                                             )~{,,,",
",,,,')!                                                                                                                                                                                             )~{,,,",
",,,,')!                                                                                                                                                                                             )~{,,,",
",,,,')!                                                                                                                                                                                             )~{,,,",
",,,,')!                                                                                                                                                                                             )~{,,,",
",,,,')!                                                                                                                                                                                             )~{,,,",
",,,,')!                                                                                                                                                                                             )~{,,,",
",,,,')!                                                                                                                                                                                             )~{,,,",
",,,,')!                                                                                                                                                                                             )~{,,,",
",,,,')!                                                                                                                                                                                             )~{,,,",
",,,,')!                                                                                                                                                                                             )~{,,,",
",,,,')!                                                                                                                                                                                             )~/,,,",
",,,,')!                                                                                                                                                                                             )~{,,,",
",,,,')!                                                                                                                                                                                             )~{,,,",
",,,,')!                                                                                                                                                                                             )~{,,,",
",,,,')!                                                                                                                                                                                             )~{,,,",
",,,,')!                                                                                                                                                                                             )~{,,,",
",,,,')!                                                                                                                                                                                             )~/,,,",
",,,,')!                                                                                                                                                                                             )~/,,,",
"^,,,')!                                                                                                                                                                                             )~{,,,",
",,,,')!                                                                                                                                                                                             )~{,,,",
",,,,')!                                                                                                                                                                                             )~{,,,",
",,,,')!                                                                                                                                                                                             )~{,,,",
",,,,')!                                                                                                                                                                                             )~{,,,",
",,,,')!                                                                                                                                                                                             )~{,,,",
"^,,,')!                                                                                                                                                                                             )~{,,,",
",^,,')!                                                                                                                                                                                             )~{,,,",
",,,,')!                                                                                                                                                                                             )~{,,,",
",,,,')!                                                                                                                                                                                             )~{,,,",
",,,,')!                                                                                                                                                                                             )~{,,,",
",,,,')!                                                                                                                                                                                             )~{,,,",
",,,,')!                                                                                                                                                                                             )~{,,,",
",,,,')!                                                                                                                                                                                             )~{,,,",
",,,,')!                                                                                                                                                                                             )~{,,,",
",,,,')!                                                                                                                                                                                             )~{,,,",
",,,,')!                                                                                                                                                                                             )~{,,,",
",,,,')!                                                                                                                                                                                             )~{,,,",
",,,,')!                                                                                                                                                                                             )~{,,,",
",,,,')!                                                                                                                                                                                             )~{,,,",
",,,,')!                                                                                                                                                                                             )~/,,,",
",,,,')!                                                                                                                                                                                             )~/,,,",
",,,,')!                                                                                                                                                                                             )~/,,,",
",,,,')!                                                                                                                                                                                             )~{,,,",
"^^,,')!                                                                                                                                                                                             )~{,,,",
",,,,')!                                                                                                                                                                                             )~{,,,",
",,,,')!                                                                                                                                                                                             )~{,,,",
",,,,')!                                                                                                                                                                                             )~{,,,",
"^,,,')!                                                                                                                                                                                             )~{,,,",
",,,,')!                                                                                                                                                                                             )~{,,,",
",^,,')!                                                                                                                                                                                             )~{,,,",
",,,,')!                                                                                                                                                                                             )~{,,,",
",,,,')!                                                                                                                                                                                             )~{,,,",
",,,,')!                                                                                                                                                                                             )~{,,,",
",,,,')!                                                                                                                                                                                             )~{,,,",
",,,,')!                                                                                                                                                                                             )~{,,,",
",,,,')!                                                                                                                                                                                             )~{,,,",
",,,,')!                                                                                                                                                                                             )~{,,,",
",,,,')!                                                                                                                                                                                             )~{,,,",
",,,,')!                                                                                                                                                                                             )~{,,,",
",,,,')!                                                                                                                                                                                             )~/,,,",
",,,,')!                                                                                                                                                                                             )~{,,,",
",,,,')!                                                                                                                                                                                             )~{,,,",
",,,,')!                                                                                                                                                                                             )~{,,,",
",,,,')!                                                                                                                                                                                             )~{,,,",
",,,,')!                                                                                                                                                                                             )~{,,,",
",,,,')!                                                                                                                                                                                             )~/,,,",
",,,,')!                                                                                                                                                                                             )~/,,,",
"^,,,')!                                                                                                                                                                                             )~{,,,",
",,,,')!                                                                                                                                                                                             )~{,,,",
",,,,')!                                                                                                                                                                                             )~{,,,",
",,,,')!                                                                                                                                                                                             )~{,,,",
",,,,')!                                                                                                                                                                                             )~{,,,",
",,,,')!                                                                                                                                                                                             )~{,,,",
"^^,,')!                                                                                                                                                                                             )~{,,,",
",,,,')!                                                                                                                                                                                             )~{,,,",
",,,,')!                                                                                                                                                                                             )~{,,,",
",,,,')!                                                                                                                                                                                             )~{,,,",
",,,,')!                                                                                                                                                                                             )~{,,,",
",,,,')!                                                                                                                                                                                             )~{,,,",
",,,,')!                                                                                                                                                                                             )~{,,,",
",,,,')!                                                                                                                                                                                             )~{,,,",
",,,,')!                                                                                                                                                                                             )~{,,,",
",,,,')!                                                                                                                                                                                             )~{,,,",
",,,,')!                                                                                                                                                                                             )~{,,,",
",,,,')!                                                                                                                                                                                             )~{,,,",
",,,,')!                                                                                                                                                                                             )~{,,,",
",,,,')!                                                                                                                                                                                             )~{,,,",
",,,,')!                                                                                                                                                                                             )~/,,,",
",,,,')!                                                                                                                                                                                             )~/,,,",
",,,,')!                                                                                                                                                                                             )~/,,,",
",,,,')!                                                                                                                                                                                             )~{,,,",
",,,,')!                                                                                                                                                                                             )~{,,,",
",,,,')!                                                                                                                                                                                             )~{,,,",
",,,,')!                                                                                                                                                                                             )~{,,,",
",,,,')!                                                                                                                                                                                             )~{,,,",
",,,,')!                                                                                                                                                                                             )~{,,,",
",,,,')!                                                                                                                                                                                             )~{,,,",
",,,,')!                                                                                                                                                                                             )~{,,,",
",,,,')!                                                                                                                                                                                             )~{,,,",
",,,,')!                                                                                                                                                                                             )~{,,,",
",,,,')!                                                                                                                                                                                             )~{,,,",
",,,,')!                                                                                                                                                                                             )~{,,,",
",,,,')!                                                                                                                                                                                             )~{,,,",
",,,,')!                                                                                                                                                                                             )~{,,,",
",,,,')!                                                                                                                                                                                             )~{,,,",
",,,,')!                                                                                                                                                                                             )~{,,,",
",,,,')!                                                                                                                                                                                             )~{,,,",
",,,,')!                                                                                                                                                                                             )~/,,,",
",,,,')!                                                                                                                                                                                             )~{,,,",
",,,,')!                                                                                                                                                                                             )~{,,,",
",,,,')!                                                                                                                                                                                             )~{,,,",
",,,,')!                                                                                                                                                                                             )~{,,,",
",,,,')!                                                                                                                                                                                             )~{,,,",
",,,,')!                                                                                                                                                                                             )~/,,,",
",,,,')!                                                                                                                                                                                             )~/,^,",
",,,,')!                                                                                                                                                                                             )~{,,,",
",,,,')!                                                                                                                                                                                             )~{,,,",
",,,,')!                                                                                                                                                                                             )~{,,,",
",,,,')!                                                                                                                                                                                             )~{,,,",
",,,,')!                                                                                                                                                                                             )~{,,,",
",,,,')!                                                                                                                                                                                             )~{,,,",
",,,,')!                                                                                                                                                                                             )~{,,,",
",,,,')!                                                                                                                                                                                             )~{,,,",
",,,,')!                                                                                                                                                                                             )~{,,,",
",,,,')!                                                                                                                                                                                             )~{,,,",
",,,,')!                                                                                                                                                                                             )~{,,,",
",,,,')!                                                                                                                                                                                             )~{,,,",
",,,,')!                                                                                                                                                                                             )~{,,,",
",,,,')!                                                                                                                                                                                             )~{,,,",
",,,,')!                                                                                                                                                                                             )~{,,,",
",,,,')!                                                                                                                                                                                             )~{,,,",
",,,,')!                                                                                                                                                                                             )~{,,,",
",,,,')!                                                                                                                                                                                             )~{,,,",
",,,,')!                                                                                                                                                                                             )~{,,,",
",,,,')!                                                                                                                                                                                             )~{,,,",
",,,,')!                                                                                                                                                                                             )~/,,,",
",,,,')!                                                                                                                                                                                             )~/,,^",
",,,,')!                                                                                                                                                                                             )~{,,,",
",,,,')!                                                                                                                                                                                             )~{,,,",
",,,,')!                                                                                                                                                                                             )~{,,,",
",,,,')!                                                                                                                                                                                             )~{,,,",
",,,,')!                                                                                                                                                                                             )~{,,,",
",,,,')!                                                                                                                                                                                             )~{,,,",
",,,,')!                                                                                                                                                                                             )~{,,,",
",,,,')!                                                                                                                                                                                             )~{,,,",
",,,,')!                                                                                                                                                                                             )~{,,,",
",,,,')!                                                                                                                                                                                             )~{,,,",
",,,,')!                                                                                                                                                                                             )~{,,,",
",,,,')!                                                                                                                                                                                             )~{,,,",
",,,,')!                                                                                                                                                                                             )~{,,,",
",,,,')!                                                                                                                                                                                             )~{,,,",
",,,,')!                                                                                                                                                                                             )~{,,,",
",,,,')!                                                                                                                                                                                             )~{,,,",
",,,,')!                                                                                                                                                                                             )~{,,,",
",,,,')!                                                                                                                                                                                             )~{,,,",
",,,,')!                                                                                                                                                                                             )~/,,,",
",,,,')!                                                                                                                                                                                             )~{,,,",
",,,,')!                                                                                                                                                                                             )~{,,,",
",,,,')!                                                                                                                                                                                             )~{,,,",
",,,,')!                                                                                                                                                                                             )~/,,,",
",,,,')!                                                                                                                                                                                             )~/,,,",
",,,,')!                                                                                                                                                                                             )~/,,,",
",,,,')!                                                                                                                                                                                             )~/,,,",
",,,,')!                                                                                                                                                                                             )~{,,,",
",,,,')!                                                                                                                                                                                             )~{,,,",
",,,,')!                                                                                                                                                                                             )~{,,,",
",,,,')!                                                                                                                                                                                             )~{,,,",
",,,,')!                                                                                                                                                                                             )~{,,,",
",,,,')!                                                                                                                                                                                             )~{,,,",
",,,,')!                                                                                                                                                                                             )~{,,,",
",,,,')!                                                                                                                                                                                             )~{,,,",
",,,,')!                                                                                                                                                                                             )~{,,,",
",,,,')!                                                                                                                                                                                             )~{,,,",
",,,,')!                                                                                                                                                                                             )~{,,,",
",,,,')!                                                                                                                                                                                             )~{,,,",
",,,,')!                                                                                                                                                                                             )~{,,,",
",,,,')!                                                                                                                                                                                             )~{,,,",
",,,,')!                                                                                                                                                                                             )~{,,,",
",,,,')!                                                                                                                                                                                             )~{,,,",
",,,,')!                                                                                                                                                                                             )~{,,,",
",,,,')!                                                                                                                                                                                             )~{,,,",
",,,,')!                                                                                                                                                                                             )~{,,,",
",,,,')!                                                                                                                                                                                             )~{,,,",
",,,,')!                                                                                                                                                                                             )~/,,,",
",,,,')!                                                                                                                                                                                             )~/,,,",
",,,,')!                                                                                                                                                                                             )~/,,,",
",,,,')!                                                                                                                                                                                             )~{,,,",
",,,,')!                                                                                                                                                                                             )~{,,,",
",,,,')!                                                                                                                                                                                             )~{,,,",
",,,,')!                                                                                                                                                                                             )~{,,,",
",,,,')!                                                                                                                                                                                             )~{,,,",
",,,,')!                                                                                                                                                                                             )~{,,,",
",,,,')!                                                                                                                                                                                             )~{,,,",
",,,,')!                                                                                                                                                                                             )~{,,,",
",,,,')!                                                                                                                                                                                             )~{,,,",
",,,,')!                                                                                                                                                                                             )~{,,,",
",,,,')!                                                                                                                                                                                             )~{,,,",
",,,,')!                                                                                                                                                                                             )~{,,,",
",,,,')!                                                                                                                                                                                             )~{,,,",
",,,,')!                                                                                                                                                                                             )~/,,,",
",,,,')!                                                                                                                                                                                             )~/,,,",
",,,,')!                                                                                                                                                                                             )~/,,,",
",,,,')!                                                                                                                                                                                             )~{,,,",
",,,,')!                                                                                                                                                                                             )~{,,,",
",,,,')!                                                                                                                                                                                             )~{,,,",
",,,,')!                                                                                                                                                                                             )~{,,,",
",,,,')!                                                                                                                                                                                             )~{,,,",
",,,,')!                                                                                                                                                                                             )~{,,,",
",,,,')!                                                                                                                                                                                             )~{,,,",
",,,,')!                                                                                                                                                                                             )~{,,,",
",,,,')!                                                                                                                                                                                             )~{,,,",
",,,,')!                                                                                                                                                                                             )~{,,,",
",,,,')!                                                                                                                                                                                             )~{,,,",
",,,,')!                                                                                                                                                                                             )~{,,,",
",,,,')!                                                                                                                                                                                             )~{,,,",
",,,,')!                                                                                                                                                                                             )~{,,,",
",,,,')!                                                                                                                                                                                             )~{,,,",
",,,,')!                                                                                                                                                                                             )~{,,,",
",,,,')!                                                                                                                                                                                             )~{,,,",
",,,,')!                                                                                                                                                                                             )~{,,,",
",,,,')!                                                                                                                                                                                             )~{,,,",
",,,,')!                                                                                                                                                                                             )~{,,,",
",,,,')!                                                                                                                                                                                             )~{,,,",
",,,,')!                                                                                                                                                                                             )~{,,,",
",,,,')!                                                                                                                                                                                             )~{,,,",
",,,,')!                                                                                                                                                                                             )~{,,,",
",,,,')!                                                                                                                                                                                             )~/,,,",
",,,,')!                                                                                                                                                                                             )~{,,,",
",,,,')!                                                                                                                                                                                             )~{,,,",
",,,,')!                                                                                                                                                                                             )~{,,,",
",,,,')!                                                                                                                                                                                             )~{,,,",
",,,,')!                                                                                                                                                                                             )~{,,,",
",,,,')!                                                                                                                                                                                             )~{,,,",
",,,,')!                                                                                                                                                                                             )~{,,,",
",,,,')(                                                                                                                                                                                             )~{,,,",
",,,,')-                                                                                                                                                                                             )~{,,,",
"__::<)                                                                                                                                                                                              )[}:::"};
