/* XPM */
static char * single_xpm[] = {
"148 274 214 2",
"  	c #000000",
". 	c #895509",
"+ 	c #D78304",
"@ 	c #D87F00",
"# 	c #9C5901",
"$ 	c #FC9600",
"% 	c #FF9800",
"& 	c #F49100",
"* 	c #A05C04",
"= 	c #955802",
"- 	c #EE9000",
"; 	c #C37200",
"> 	c #B96C04",
", 	c #B56C00",
"' 	c #BD7000",
") 	c #DC8300",
"! 	c #432603",
"~ 	c #2D1B01",
"{ 	c #2B1D09",
"] 	c #341C05",
"^ 	c #2A1608",
"/ 	c #3D2205",
"( 	c #291505",
"_ 	c #925400",
": 	c #8B5301",
"< 	c #521C10",
"[ 	c #271408",
"} 	c #351C08",
"| 	c #E58900",
"1 	c #372007",
"2 	c #130B04",
"3 	c #A76000",
"4 	c #874900",
"5 	c #CA7901",
"6 	c #F08F00",
"7 	c #794604",
"8 	c #834700",
"9 	c #8C4E00",
"0 	c #532D03",
"a 	c #643200",
"b 	c #5B3203",
"c 	c #693A02",
"d 	c #9A5700",
"e 	c #5B2E00",
"f 	c #743D00",
"g 	c #1E1005",
"h 	c #D47C00",
"i 	c #E28600",
"j 	c #EC8D00",
"k 	c #4D2E00",
"l 	c #190F05",
"m 	c #573206",
"n 	c #07090B",
"o 	c #161719",
"p 	c #AF6800",
"q 	c #AB6100",
"r 	c #2B2318",
"s 	c #B26500",
"t 	c #251406",
"u 	c #C67806",
"v 	c #381F07",
"w 	c #000000",
"x 	c #986213",
"y 	c #664A28",
"z 	c #786D58",
"A 	c #776B55",
"B 	c #7E7159",
"C 	c #857457",
"D 	c #8C7955",
"E 	c #87806F",
"F 	c #8A8473",
"G 	c #837A68",
"H 	c #B0731A",
"I 	c #84755C",
"J 	c #786C56",
"K 	c #6D593E",
"L 	c #846534",
"M 	c #766245",
"N 	c #AAB1A6",
"O 	c #AFB9B0",
"P 	c #BDC2BA",
"Q 	c #A7B1AF",
"R 	c #ACB3AD",
"S 	c #ABB6B5",
"T 	c #C7B48A",
"U 	c #EEC97F",
"V 	c #ECC982",
"W 	c #E6C581",
"X 	c #BAA983",
"Y 	c #CAD6D3",
"Z 	c #EAFFFF",
"` 	c #F0FAF4",
" .	c #E8F7F8",
"..	c #E9F6F6",
"+.	c #F1FFFF",
"@.	c #E0EDEC",
"#.	c #C48D37",
"$.	c #CF891E",
"%.	c #D2DAD5",
"&.	c #B6A885",
"*.	c #7E7664",
"=.	c #745936",
"-.	c #7F6A4A",
";.	c #705B3E",
">.	c #D1CBB4",
",.	c #E1EFF0",
"'.	c #DDF1EF",
").	c #E3F4F4",
"!.	c #77654B",
"~.	c #CDDBDC",
"{.	c #DEF1F0",
"].	c #DDEAEB",
"^.	c #D5C79B",
"/.	c #F1CB7F",
"(.	c #F0CC83",
"_.	c #C78F3A",
":.	c #DADFD5",
"<.	c #D7EAE8",
"[.	c #B79152",
"}.	c #D3E3E2",
"|.	c #D9E6E7",
"1.	c #D9E7E8",
"2.	c #DAE5DF",
"3.	c #B2BBB6",
"4.	c #C4CBC3",
"5.	c #C2B18E",
"6.	c #786549",
"7.	c #D18B1F",
"8.	c #C09A5C",
"9.	c #CCD8D6",
"0.	c #DAC395",
"a.	c #C9D7D8",
"b.	c #D1DFE0",
"c.	c #B1BFC1",
"d.	c #B8C6C8",
"e.	c #B8C6C7",
"f.	c #BF9A5C",
"g.	c #D0DEDF",
"h.	c #C0CECF",
"i.	c #ACBABC",
"j.	c #A7B5B8",
"k.	c #C6D4D5",
"l.	c #C1CFD0",
"m.	c #F0F7F0",
"n.	c #B4C2C4",
"o.	c #A8B6B9",
"p.	c #A6B4B6",
"q.	c #AFBEC0",
"r.	c #D7E2DF",
"s.	c #BDCBCD",
"t.	c #D5D4C5",
"u.	c #878171",
"v.	c #BAC7C6",
"w.	c #EFE8CF",
"x.	c #F0D3A4",
"y.	c #F0EEDB",
"z.	c #EFEAD3",
"A.	c #EED8AE",
"B.	c #EFEEDB",
"C.	c #EECB94",
"D.	c #EEC689",
"E.	c #F0E8CF",
"F.	c #EFE0BF",
"G.	c #EEC586",
"H.	c #EED3A3",
"I.	c #F0F6EB",
"J.	c #EECE99",
"K.	c #ECEFE3",
"L.	c #EEC98D",
"M.	c #F0C586",
"N.	c #F0C688",
"O.	c #F0DAB3",
"P.	c #EFDDBA",
"Q.	c #F0F2E3",
"R.	c #EFE2C3",
"S.	c #EFF0DF",
"T.	c #F0CA8B",
"U.	c #EEDAB3",
"V.	c #F0CF9B",
"W.	c #EFD6AA",
"X.	c #F2F8EE",
"Y.	c #D3BE98",
"Z.	c #F0DEBA",
"`.	c #F0E6CB",
" +	c #E2D6BA",
".+	c #F0EAD3",
"++	c #F0E1C2",
"@+	c #E7E1CC",
"#+	c #E1C28F",
"$+	c #EFF1E3",
"%+	c #E5C796",
"&+	c #EED09D",
"*+	c #E0CDA8",
"=+	c #E6E6D6",
"-+	c #F0CB92",
";+	c #C4B9A0",
">+	c #F0D7AC",
",+	c #D6BB8C",
"'+	c #F0F0DF",
")+	c #EFE5CB",
"!+	c #B4B6AA",
"~+	c #CABB9C",
"{+	c #E1DCC6",
"]+	c #CBD2CC",
"^+	c #EFF5EC",
"/+	c #D6E8E7",
"(+	c #AD9A75",
"_+	c #6F4613",
":+	c #9FA397",
"<+	c #A7AEA4",
"[+	c #A5A99C",
"}+	c #A2A79A",
"|+	c #695740",
"1+	c #FFFFFF",
"7 4 8 8 8 8 8 8 8 8 8 8 8 8 8 8 8 8 8 8 8 8 8 8 8 8 8 8 4 8 8 8 8 8 8 8 8 4 8 8 8 8 8 8 8 8 8 4 | $ $ $ $ $ $ $ % & % $ $ $ $ $ $ $ $ $ & % % $ $ $ $ $ $ $ % $ $ $ $ $ $ $ $ $ $ % & & $ $ $ & % $ $ $ $ $ $ $ $ % $ $ & $ $ $ $ & $ $ % & % $ $ $ $ $ $ $ $ $ % & % $ $ $ $ $ $ $ $ $ $ $ $ $ $ $ $ 6 ",
"i j & j & j & j & - & - & - & 6 6 - 6 6 6 6 6 - & - - & - - & - - & j & - & - & - & - & - & j ' - % % % % % % % % % % % % % % % % % % % % % % % % % % % % % % % % % % % % % % % % % % % % % % % % % % % % % % % % % % % % % % $ % % % % % % % % % % % % % % % % % % % % % % % % % % % % % % % % % % % & ",
"& % % % % % % % % % % % % % % % % % % % % % % % % % % % % % % % % % % % % % % % % % % % % % % 5 j % % % % $ % % % % % % % % % % % % % % % % % % % % % % $ % % % % % % % % % % % % % % % % % % % % % % % % % % % % % % % % % % $ $ % % % % % % % % % % % % % % % % % % % % % % % % % % % % % % % % % % & ",
"& % % % % % % % % % % % % % % % % % % % % % % % % % % % % % % % % % % % % % % % % % % % % % % 5 j % % % - = _ # # # # # 3 3 3 3 3 3 3 3 3 3 3 p 3 3 3 3 3 3 3 3 3 3 3 3 3 3 3 3 3 3 3 3 3 3 3 3 3 3 3 3 3 3 3 3 3 3 3 3 3 3 3 q q * * 3 3 3 3 3 3 3 3 3 3 3 3 3 3 3 3 3 3 3 3 3 3 3 3 3 3 3 3 3 3 3 3 3 ",
"& % % % j s > ; ; ' ; ; ; ' ; ; ; ; ; ; ; ; ; ; ; ; ; ; ; ; ; ; ; ; ; ' ; ; ; ; ; ; ' ; ; ; ' 3 j % % % - b t ( ( ( t c ; ; ; u ' ; ; ; u ; ; ' u ' u ' u u ' ; u ; ; u ' u u ; ' u ; ; u ; u u ; ; u ' u ; u ; ; ; 5 ; ; ; ; ; ; ; 5 ; ; 5 ; ; ; ; ; u ; ; u ; ; 5 ; ; ; ; ; ; ; u ; u ' u u u ' u ; ' ",
"- % % % i k ( ] ] ] ] 7 3 3 3 p 3 3 3 3 3 3 p 3 3 3 3 p 3 3 3 3 3 3 p 3 3 3 3 3 p 3 3 3 3 3 3 = - % % % 6 b [ ^ ^ ^ ^ 7 % % % % % % % % % % % % % % % % % % % % % % % % % % % % % % % % % % % % % % % % % % % % % % % % % % % % % % % % % % % % % % % % % % % % % % % % % % % % % % % % % % % % % % % $ ",
"& % % % | 0 [ ^ ^ t t x % % % % % % % % % % $ % % % % % % % % % % % % % % % % % % % % % % % % 5 j % % % j b [ { ^ ^ ^ 7 % % % % % % % % % % % % % % % % % % % % % % % % % % % % % % % % % % % % % % % % % % % % % % % % % % % % % % % % % % % % % % % % % % % % % % % % % % % % % % % % % % % % % % % & ",
"- % % % i k ^ ^ ^ ^ ^ = % % % % % % % % % % % % % % % % % % % % % % % % % % % % % % % % % % % 5 j % % % j b t ( ^ ^ [ 7 $ % % % % % % % % % % % % % % % % % % % % % % % % % % % % % % % % % % % % % % % % % % % % % % % % % % % % % % % % % % % % % % % % % % % % % % % % % % % % % % % % % % % % % % & ",
"& % % % i k [ ^ ^ ^ ^ = % % % % % % % % % % % % % % % % % % % % % % % % % % % % % % % % % % % 5 j % % % j c 0 m m m m = % % % % % % % % % % % % % % % % % % % % % % % % % % % % % % % % % % % % % % % % % % % % % % % % % % % % % % % % % % % % % % % % % % % % % % % % % % % % % % % % % % % % % % % & ",
"& % % % | m 1 / / / / 3 % % % % % % % % % % % % % % % % % % % % % % % % % % % % % % % % % % $ 5 j % % % j : ) j - - j & % % % % % % % % % % % % % % % % % % % % % % % % % % % % % % % % % % % % % % % % % % % % % % % % % % % % % % % % % % % % % % % % % % % % % % % % % % % % % % % % % % % % % % % & ",
"& % % % i 4 u h + + h | % % % % $ % % % % % % % % % % % % % % % % % % % % % % % % % % % % % % 5 j % % % j _ - % % % % % % % % % % % % % % % % % % % % % % % % % % % % % % % % % % % % % % % % % % % % % % % % % % % % % % % % % % % % % % % % % % % % % % % % % % % % % % % % % % % % % % % % % % % % & ",
"- % % % i _ $ % % % % % % % % % % % % % % % % % % % % % % % % % % % % % % % % % % % % % % % % 5 j % % % j : j % % % % % % % % % % % % % % % % % % % % % % % $ % % % % % % % % % % % % % % % % % % % % % % % % % % % % % % % % % % % % % % % % % % % % % % % % % % % % % % % % % % % % % % % % % % % % & ",
"& % % % i _ & % % % % % % % % % % % % % % % % % % % % % % % % % % % % % % % % % % % % % % % $ 5 j % % % j : - % % % % % % % % % % % % % % % % % % % % % % % % % % % % % % % % % % % % % % % % % % % % % % % % % % % % % % % % % % % % % % % % % % % % % % % % % % % % % % % % % % % % % % % % % % % % $ ",
"- % % % i = & % % % % % % % % % % % % % % % % % % % % % % % % % % % % % % % % % % % % % % % % 5 j % % % | _ - % % % % | > > > ' , p , , , p , , , p , , , p , > , , , , , ' > , , , > > > > , > > > > , , , > ; > > > > > > > > > > > > > > ; > ; > > ' , , , ; > > > > > > > > > > > > > > @ % % % % % ",
"& % % % i _ & % % % % i ; ; ; ; ; 5 ; ; ; 5 ; ; ; ; ; ; 5 ; ; ; ; ; 5 ; ; 5 ; ; 5 ; ; ; ; 5 ; q j % % % j _ j % % % % ; y z A z z A A z z A A z z A A z z A A z z z A B z z z A A z z A A C D D D D D B E F F F F F F F F F F F F F F F F F F F F F F F F F F F F F F F F F F F F F F F F G H % % % % & ",
"& % % % i _ $ % % % % p y z G I I I I I I I I I I I I I I I I I I I I I I I I I I I I I I I B L j % % % j : - % % % % ; M N O P P Q P O P Q P P P Q P O P R P O O S O O O O O P S O S O R T U V W U W X Y Z `  . .` ..`  ..... .` Z ..`  . . . .`  . .`  .Z Z  . ...` ` Z `  . . . .` ..+.@.#.% % % % & ",
"& % % % i _ & % % % % * ;.>.@.,.,.,.,.,.,.,.,.,.,.@.,.,.,.,.,.,.@.,.,.@.,.,.,.,.,.,.,.,.,.'.).&.j % % % j _ - % % % % ; !.~. .{.).).). .).).).{.).).).).).).).). .Z ).).). .).).).).). .].^././.(.(.U X %.+.+.+.+.+.+.+.+.+.+.+.+.+.+.+.+.+.+.+.+.+.+.+.+.+.+.+.+.+.+.+.+.+.+.+.+.+.+.+.` @._.% % % % & ",
"& % % % i _ & % % % % q ;.4.+.+.+.+.+.+.+.+.+.+.+.+.+.+.+.+.+.+.+.+.+.+.+.+.+.+.+.+.+.+.+.+.+.5.j % % % j : j % % % % ; 6.}.Z Z Z Z Z Z Z Z Z Z Z Z Z Z Z Z Z Z Z Z Z Z Z Z Z Z Z Z Z Z ).^.U /././.U X %.+.+.+.+.+.+.+.+.+.+.+.+.+.+.+.+.+.+.+.+.+.+.Z +.+.+.+.+.+.+.+.+.+.+.+.+.+.+.+.+.@.#.% % % % 6 ",
"& % % % i = & % % % % q ;.4.+.+.+.+.+.+.+.+.+.+.+.+.+.+.+.+.+.+.+.+.+.+.+.+.+.+.+.+.+.+.+.+.+.5.j % % % j _ j % % % % > !.}.Z Z Z Z Z Z Z Z Z Z Z Z Z Z Z Z Z Z Z Z Z Z Z Z Z Z Z Z Z Z ).^.U /.(./.U X %.+.+.+.+.+.+.+.+.+.+.+.+.+.+.+.+.+.+.+.+.+.+.+.+.+.+.+.+.+.+.+.+.+.+.+.+.+.+.+.+.@._.% % % % & ",
"& % % % i _ & % % % % q ;.4.+.+.+.+.+.+.+.+.+.+.+.+.+.+.+.+.+.+.+.+.+.+.+.+.+.+.+.+.+.+.+.+.+.5.j % % % j : j % % % % ; !.}.Z Z Z Z Z Z Z Z Z Z Z Z Z Z Z Z Z Z Z Z Z Z Z Z Z Z Z Z Z Z ).^.U /././.U X %.+.+.+.+.+.+.+.+.+.+.+.+.+.+.+.+.+.+.+.+.+.+.+.+.+.+.+.+.+.+.+.+.+.+.+.+.+.+.+.+.@._.% % % % & ",
"- % % % i _ & % % % % q ;.4.+.+.+.+.+.+.+.+.+.+.+.+.+.+.+.+.+.+.+.+.+.+.+.+.+.+.+.+.+.+.+.+.+.5.j % % % j _ - % % % % ; !.}.Z Z Z Z Z Z Z Z Z Z Z Z Z Z Z Z Z Z Z Z Z Z Z Z Z Z Z Z Z Z ).^././././.U X %.+.+.+.+.+.+.+.+.+.+.+.+.+.+.+.+.+.+.+.+.+.+.+.+.+.+.+.+.+.+.+.+.+.+.+.+.+.+.+.+.@._.% % % % & ",
"& % % % i _ $ % % % % q ;.4.+.+.+.+.+.+.+.+.+.+.+.+.+.+.+.+.+.+.+.+.+.+.+.+.+.+.+.+.+.+.+.+.+.5.j % % % | _ j % % % % ; !.}.Z Z Z Z Z Z Z Z Z Z Z Z Z Z Z Z Z Z Z Z Z Z Z Z Z Z Z Z Z Z ).^.U /././.U X %.+.+.+.+.+.+.+.+.+.+.+.+.+.+.+.+.+.+.+.+.+.+.+.+.+.+.+.+.+.+.+.+.+.+.+.+.+.+.+.+.@._.% % % % $ ",
"- % % % i _ & % % % % q ;.4.+.+.+.+.+.+.+.+.+.+.+.+.+.+.+.+.+.+.+.+.+.+.+.+.+.+.+.+.+.+.+.+.+.5.j % % % j _ j % % % % ; !.}.Z Z Z Z Z Z Z Z Z Z Z Z Z Z Z Z Z Z Z Z Z Z Z Z Z Z Z Z Z Z ).^.U (././.U X %.+.+.+.+.+.+.+.+.+.+.+.+.+.+.+.+.+.+.+.+.+.+.+.+.+.+.` +.+.+.+...Z ` ` +.+.+.+.` @._.% % % % & ",
"& % % % i _ & % % % % q ;.4.+.+.+.+.+.+.+.+.+.+.+.+.+.+.Z +.+.+.+.+.+.+.+.+.+.+.+.+.+.+.+.+.+.5.j % % % j _ j % % % % ; !.}.Z Z Z Z Z Z Z Z Z Z Z Z Z Z Z Z Z Z Z Z Z Z Z Z Z Z Z Z Z Z ).^./././.U U X %.+.+.+.+.+.+.+.+.+.+.+.+.+.+.+.+.+. .%.,.+.+.+.+.+.` a.,.+.+.Z ,.b.].1.,.+.+.+.+.@._.% % % % & ",
"& % % % i _ $ % % % % q ;.4.+.+.+.+.+.+.+.+.+.+.+.+.+.+.+.+.+.+.+.+.+.+.+.+.+.+.+.+.+.+.+.+.+.5.j % % % j _ j % % % % ; !.}.Z Z Z Z Z Z Z Z Z Z Z Z Z Z Z Z Z Z Z Z Z Z Z Z Z Z Z Z Z Z ).^././././.U X %.+.+.+.+.+.+.+.+.+.+.+.+.+.+.+.+.+.` c.b.+.+.+.+.+.,.c.|.+.+.+.` 1...,.@.+.+.+.+.@._.% % % % & ",
"& % % % i _ & % % % % q ;.4.+.+.+.+.+.+.+.+.+.+.+.+.+.+.+.+.+.+.+.+.+.+.+.+.+.+.+.+.+.+.+.+.+.5.j % % % j : j % % % % ; !.}.Z Z Z Z Z Z Z Z Z Z Z Z Z Z Z Z Z Z Z Z Z Z Z Z Z Z Z Z Z Z ).^.U /././.U X %.+.+.+.+.+.+.+.+.+.+.+.+.+.+.+.+.+...d.b.+.+.+.+.+...c.1.+.+.+.+.@.}.}.,.+.+.+.+.@._.% % % % & ",
"& % % % i = & % % % % q ;.4.+.+.+.+.+.+.+.+.+.+.+.+.+.+.+.+.+.+.+.+.Z +.+.+.+.+.+.+.+.+.+.+.+.5.j % % % j _ - % % % % ' !.}.Z Z Z Z Z Z Z Z Z Z Z Z Z Z Z Z Z Z Z Z Z Z Z Z Z Z Z Z Z Z ).^.U /./.(.U X %.+.+.+.+.+.+.+.+.+.+.+.+.+.+.+.+.+...e.b.+.+.+.+.+...c.].+.+.+.+.,.|.1...+.+.+.+.@._.$ % % % & ",
"& % % % i _ & % % % % q ;.4.+.+.+.+.+.+.+.+.+.+.+.+.+.+.+.+.+.+.+.+.+.+.+.+.+.+.+.+.+.+.+.+.+.5.j % % % j : j % % % % ; !.}.Z Z Z Z Z Z Z Z Z Z Z Z Z Z Z Z Z Z Z Z Z Z Z Z Z Z Z Z Z Z ).^./././.(.U X %.+.+.+.+.+.+.+.+.+.+.+.+.+.+.+.+.+.Z e.b.+.+.+.+.+.,.c.1.+.+.+.+.|.....+.+.+.+.+.@._.$ % % % $ ",
"- % % % i _ & % % % % q ;.4.+.+.+.+.+.+.+.+.+.+.+.+.+.+.+.+.+.+.+.+.+.+.+.+.+.+.+.+.+.+.+.+.Z 5.j % % % j _ j % % % % ; !.}.Z Z Z Z Z Z Z Z Z Z Z Z Z Z Z Z Z Z Z Z Z Z Z Z Z Z Z Z Z Z ).^././././.U X %.+.+.+.+.+.+.+.+.+.+.+.+.+.+.+.+.+.` e.b.+.+.+.+.+...c.1.+.+.+.+.1.|.@...+.+.+.+.@._.$ % % % & ",
"& % % % i d & % % % % q ;.4.+.+.+.+.+.+.+.+.+.+.+.+.+.+.+.+.+.+.+.+.+.+.+.+.+.+.+.+.+.+.+.+.+.5.j % % % j _ j % % % % ' !.}.Z Z Z Z Z Z Z Z Z Z Z Z Z Z Z Z Z Z Z Z Z Z Z Z Z Z Z Z Z Z ).^.U /././.U X %.+.+.+.+.+.+.+.+.+.+.+.+.+.+.+.+.+. .c.b.+.+.+.+.+...c.@.+.+.+.+.,.|.b...+.+.+.+.@._.$ % % % 6 ",
"- % % % i _ & % % % % q ;.4.+.+.+.+.+.+.+.+.+.+.+.+.+.+.+.+.+.+.+.+.+.+.+.+.+.+.+.+.+.+.+.+.+.5.j % % % j _ j % % % % ' !.}.Z Z Z Z Z Z Z Z Z Z Z Z Z Z Z Z Z Z Z Z Z Z Z Z Z Z Z Z Z Z ).^././././.U X %.+.+.+.+.+.+.+.+.+.+.+.+.+.+.+.+.+...d.b.+.+.+.+.+...c.1.+.+.+.+.|.~.g.1.+.+.+.+.@._.$ % % % & ",
"& % % % i _ & % % % % q ;.4.+.+.+.+.+.+.+.+.+.+.+.+.+.+.+.+.+.+.+.+.+.+.+.+.+.+.+.+.+.+.+.+.+.5.- % % % j _ j % % % % ' !.~.Z Z Z Z Z Z Z Z Z Z Z Z Z Z Z Z Z Z Z Z Z Z Z Z Z Z Z Z Z Z ).^./././.U U X %.+.+.+.+.+.+.+.+.+.+.+.+.+.+.+.+.+.Z h.h.@.,.@.,.,.b.i.,.+.+.+.+.@.].b.1.+.+.+.+.@._.% % % % & ",
"& % % % i _ & % % % % q ;.4.+.+.+.+.+.+.+.+.+.+.+.+.+.+.+.+.+.+.+.+.+.+.+.+.+.+.+.+.+.+.+.+.+.5.j % % % | : - % % % % , A b.Z Z Z Z Z Z Z Z Z Z Z Z Z Z Z Z Z Z Z Z Z Z Z Z Z Z Z Z Z Z ).^./././.(.U X %.+.Z +.+.+.+.+.+.+.+.+.+.+.+.+.+.+.+.g.S j.S S i.j.j.h...+.+.+.,.@.@.}...+.+.+.+.@._.$ % % % & ",
"& % % % i _ & % % % % q ;.4.+.+.+.+.+.+.+.+.+.+.+.+.+.+.+.+.+.+.+.+.+.+.+.+.+.+.+.+.+.+.+.+.+.5.j % % % j : j % % % % ; 6.}.Z Z Z Z Z Z Z Z Z Z Z Z Z Z Z Z Z Z Z Z Z Z Z Z Z Z Z Z Z Z {.^.W (././.U X %.+.+.+.+.+.+.+.+.+.+.+.+.+.+.+.+.+.+.+.b.a.a.a.a.a.%.,.+.+.+.+.@.1.|.|...+.+.+.+.@._.% % % % & ",
"& % % % i = & % % % % q ;.4.+.+.+.+.+.+.+.+.+.+.+.+.+.+.+.+.+.+.+.+.+.+.+.+.+.+.+.+.+.+.+.+.+.5.j % % % j _ j % % % % > !.}.Z Z Z Z Z Z Z Z Z Z Z Z Z Z Z Z Z Z Z Z Z Z Z Z Z Z Z Z Z Z '.^.V /././.U X %.+.+.+.+.+.+.+.+.+.+.+.+.+.+.+.+.+.+.` +.+.+.+.+.+.+.` +.+.+.+.+.@.|.|...+.+.+.+.@._.% % % % & ",
"& % % % i _ & % % % % q ;.4.+.+.+.+.+.+.+.+.+.+.+.+.+.+.+.+.+.+.+.+.+.+.+.+.+.+.+.+.+.+.+.+.+.5.j % % % j : j % % % % ; !.}.Z Z Z Z Z Z Z Z Z Z Z Z Z Z Z Z Z Z Z Z Z Z Z Z Z Z Z Z Z Z ).^.U /././.U X %.+.+.+.+.+.+.+.+.+.+.+.+.+.+.+.+.+.` k.1.+...b.` +...l.,.+.+.+...|.).m.` +.+.+.+.@._.% % % % $ ",
"- % % % i _ & % % % % q ;.4.+.+.+.+.+.+.+.+.+.+.+.+.+.+.+.+.+.+.+.+.+.+.+.+.+.+.+.+.+.+.+.+.+.5.j % % % j _ - % % % % ; !.}.Z Z Z Z Z Z Z Z Z Z Z Z Z Z Z Z Z Z Z Z Z Z Z Z Z Z Z Z Z Z ).^.U /././.U X %.+.+.+.+.+.+.+.+.+.+.+.+.+.+.+.+.+. .c.b.+.].c...+...c.|.+.+.+.@.|.1.]...+.+.+.+.@._.% % % % & ",
"& % % % i _ $ % % % % q ;.4.+.+.+.+.+.+.+.+.+.+.+.+.+.+.+.+.+.+.+.+.+.+.+.+.+.+.+.+.+.+.+.+.Z 5.j % % % | _ j % % % % ; !.}.Z Z Z Z Z Z Z Z Z Z Z Z Z Z Z Z Z Z Z Z Z Z Z Z Z Z Z Z Z Z ).^.V /.(./.U X %.+.+.+.+.+.+.+.+.+.+.+.+.+.+.+.+.+...d.b.+.@.c...+...c.1.+.+.+...,.+. .,.+.+.+.+.@._.% % % % & ",
"- % % % i _ & % % % % q ;.4.+.+.+.+.+.+.+.+.+.+.+.+.+.+.+.Z +.+.+.+.+.+.+.+.+.+.+.+.+.+.+.+.+.5.j % % % j _ j % % % % ; !.}.Z Z Z Z Z Z Z Z Z Z Z Z Z Z Z Z Z Z Z Z Z Z Z Z Z Z Z Z Z Z {.^.U /././.U X %.+.+.+.+.+.+.+.+.+.+.+.+.+.+.+.+.+.` d.b.+.].c.,.+...c.].+.+.+.+.1...,.,.+.+.+.+.@._.$ % % % & ",
"& % % % i _ & % % % % q ;.4.+.+.+.+.+.+.+.+.+.+.+.+.+.+.+.+.+.+.+.+.+.+.+.+.+.+.+.+.+.+.+.+.+.5.j % % % j _ j % % % % ; !.}.Z Z Z Z Z Z Z Z Z Z Z Z Z Z Z Z Z Z Z Z Z Z Z Z Z Z Z Z Z Z ).^./././.U U X %.+.+.+.+.+.+.+.+.+.+.+.+.+.+.+.+.+. .c.b.+.@.c...+.,.c.1.+.+.+.+...1.|...+.+.+.+.@._.$ % % % $ ",
"& % % % i _ $ % % % % q ;.4.+.+.+.+.+.+.+.+.+.+.+.+.+.+.+.+.+.+.+.+.+.+.+.+.Z +.+.+.+.+.+.+.+.5.j % % % j _ j % % % % ; !.}.Z Z Z Z Z Z Z Z Z Z Z Z Z Z Z Z Z Z Z Z Z Z Z Z Z Z Z Z Z Z ).^././././.U X %.+.+.+.+.+.+.+.+.+.+.+.+.+.+.+.+.+.` d.b.+.1.c...+...c.1.+.+.+.+.,.,.b.,.+.+.+.+.@._.$ % % % & ",
"& % % % i = & % % % % s ;.4.+.+.+.+.+.+.+.+.+.+.+.+.+.+.+.+.+.+.+.+.Z +.+.+.+.+.+.+.+.+.+.+.+.5.j % % % j : j % % % % ; 6.}.Z Z Z Z Z Z Z Z Z Z Z Z Z Z Z Z Z Z Z Z Z Z Z Z Z Z Z Z Z Z ).^.U /././.(.X %.+.+.+.Z +.+.+.+.+.+.+.+.+.+.+.+.+...d.b.+.@.c...+...n.1.+.+.+.+.1.}.,.,.+.+.+.+.@.#.% % % % 6 ",
"& % % % i _ & % % % % q ;.4.+.+.+.+.+.+.+.+.+.+.+.+.+.+.+.+.+.+.+.+.+.+.+.+.+.+.+.+.+.+.+.+.+.5.j % % % j _ - % % % % ; 6.}.Z Z Z Z Z Z Z Z Z Z Z Z Z Z Z Z Z Z Z Z Z Z Z Z Z Z Z Z Z Z ).^.U /./././.X %.+.+.+.+.+.+.+.+.+.+.+.+.+.+.+.+.+. .c.~...b.c.]...@.c.1.+.+.+.+.@.....,.+.+.+.+.@._.$ % % % & ",
"& % % % i _ & % % % % q ;.4.+.+.+.+.+.+.+.+.+.+.+.+.+.+.+.+.+.+.+.+.+.+.+.+.+.+.+.+.+.+.+.+.+.5.j % % % j : j % % % % ; !.}.Z Z Z Z Z Z Z Z Z Z Z Z Z Z Z Z Z Z Z Z Z Z Z Z Z Z Z Z Z Z ).^.U /././.U X %.+.+.+.+.+.+.+.+.+.+.+.+.+.+.+.+.+.` c.i.i.o.p.o.q.i.j.1.+.+.+.,.~.|.|.,.+.+.+.+.@._.$ % % % & ",
"- % % % i _ & % % % % q ;.4.+.+.+.+.+.+.+.+.+.+.+.+.+.+.+.+.+.+.+.+.+.+.+.+.+.+.+.+.+.+.+.+.Z 5.j % % % j _ j % % % % ; !.}.Z Z Z Z Z Z Z Z Z Z Z Z Z Z Z Z Z Z Z Z Z Z Z Z Z Z Z Z Z Z ).^./././.(.U X 9.+.+.+.+.+.+.+.+.+.+.+.+.+.+.+.+.+.+.b.k.k.Y k.k.k.k.~.,.+.+.+. .@.|.|...+.+.+.+.@.#.$ % % % & ",
"& % % % i _ $ % % % % q ;.4.+.+.+.+.+.+.+.+.+.+.+.+.+.+.+.+.+.+.+.+.+.+.+.+.+.+.+.+.+.+.+.+.+.5.j % % % | _ 6 % % % % > 6.}.Z Z Z Z Z Z Z Z Z Z Z Z Z Z Z Z Z Z Z Z Z Z Z Z Z Z Z Z Z Z ).^.U /././.U X %.+.+.+.+.+.+.+.+.+.+.+.+.+.+.+.+.+.+.....+.+.+.+.+.+.+.+.+.+.+.+...,.1.@.+.+.+.+.@._.% % % % & ",
"- % % % i _ & % % % % q ;.4.+.+.+.+.+.Z +.+.+.+.+.+.+.+.+.+.+.+.+.+.+.+.+.+.+.+.+.+.+.+.+.+.+.5.j % % % j _ j % % % % ; !.}.Z Z Z Z Z Z Z Z Z Z Z Z Z Z Z Z Z Z Z Z Z Z Z Z Z Z Z Z Z Z ).^././././.U X %.+.+.+.+.+.+.+.+.+.+.+.+.+.+.+.+.+. .h.b.+.+.+.+.+.+.+.+.+.+.+.+...@.].,.+.+.+.` @._.% % % % $ ",
"& % % % i _ & % % % % q ;.4.+.+.+.+.+.+.+.+.+.+.+.+.+.+.+.+.+.+.+.+.+.+.+.+.+.+.+.+.+.+.+.+.+.5.j % % % j : j % % % % ; !.}.Z Z Z Z Z Z Z Z Z Z Z Z Z Z Z Z Z Z Z Z Z Z Z Z Z Z Z Z Z Z ).^./././.U U X %.+.+.+.+.+.+.+.+.+.+.+.+.+.+.+.+.+...e.b.+.+.+.+.+.+.+.+.+.+.+.+.,.|.@.` +.+.+.+.@._.% % % % & ",
"& % % % i _ 6 % % % % q ;.4.+.+.+.+.+.+.+.+.+.+.+.+.+.+.+.+.+.+.+.+.+.+.+.+.+.+.+.+.+.+.+.+.+.5.j % % % j _ - % % % % ; !.}.Z Z Z Z Z Z Z Z Z Z Z Z Z Z Z Z Z Z Z Z Z Z Z Z Z Z Z Z Z Z ).^././.U (.U X %.+.+.+.+.+.+.+.+.+.+.+.+.+.+.+.+.+...c.b.+.+.+.+.+.+.+.+.+.+.+.+.|.b...@.+.+.+.+.@._.% % % % & ",
"& % % % i _ & % % % % * ;.4.+.+.+.+.+.+.+.+.+.+.+.Z +.+.+.+.+.+.+.+.+.+.+.+.+.+.+.+.+.+.+.+.+.5.j % % % j _ j % % % % ; !.}.Z Z Z Z Z Z Z Z Z Z Z Z Z Z Z Z Z Z Z Z Z Z Z Z Z Z Z Z Z Z ).^././././.U X %.+.+.+.+.+.+.+.+.+.+.+.+.+.+.+.+.+...d.b.+.+.+.+.+.+.+.+.+.+.+.+.1.b.1.@.+.+.+.+.@._.% % % % & ",
"- % % % i _ & % % % % q ;.4.+.+.+.+.+.+.+.+.+.+.+.+.+.+.+.+.+.+.+.+.+.+.+.+.+.+.+.+.+.+.+.+.+.5.j % % % j _ j % % % % ; !.}.Z Z Z Z Z Z Z Z Z Z Z Z Z ).Z Z Z Z Z Z Z Z Z Z Z Z Z Z Z Z ).^././././.U X %.+.+.+.+.+.+.+.+.+.+.+.+.+.+.+.+.+...e.h.b.b.g.g.g.g.b...+.+.+.+.@.~.|.+.+.+.+.+.@._.$ % % % & ",
"& % % % i _ & % % % % q ;.4.+.+.+.+.+.+.+.+.+.+.+.+.+.+.+.+.+.+.+.+.+.+.+.+.+.+.+.Z +.+.+.+.+.5.j % % % j : j % % % % ; !.}.Z Z Z Z Z Z Z Z Z Z Z Z Z Z Z Z Z Z Z Z Z Z Z Z Z Z Z Z Z Z {.^.U /./.(.U X %.+.+.+.+.+.+.+.+.+.+.+.+.+.+.+.+.+.Z c.p.j.o.o.j.j.j.i.1.+.+.+.,.1.@.1. .+.+.+.+.@._.$ % % % $ ",
"& % % % i _ $ % % % % q ;.4.+.+.+.+.+.+.+.+.+.+.+.+.+.+.+.+.+.+.+.+.+.+.+.+.+.+.+.+.+.+.+.+.+.5.j % % % j _ j % % % % ; 6.}.Z Z Z Z Z Z Z ).Z Z Z Z Z Z Z Z Z Z Z Z Z Z Z Z Z Z Z Z Z Z ).^.V /././.U X %.+.+.+.+.+.+.+.+.+.+.+.+.+.+.+.+.+.` e.Y ].@.,.@.].@.@.` +.+...].+.+...@.+.+.+.+.@._.$ % % % & ",
"- % % % i = & % % % % q ;.4.+.+.+.+.+.+.+.+.+.+.+.+.+.+.+.+.+.+.+.+.+.+.+.+.+.+.+.+.+.+.+.+.+.5.j % % % j _ j % % % % ; !.}.Z Z Z Z Z Z Z Z Z Z Z Z Z Z Z Z Z Z Z Z Z Z Z Z Z Z Z Z Z Z ).^./././.(.U X %.+.Z +.+.+.+.+.+.Z +.+.+.+.+.+.+.+. .e.b.+.+.+.+.+.+.+.+.+.+.+.}.1.1.b.].+.+.+.+.@._.$ % % % 6 ",
"& % % % i _ & % % % % q ;.4.+.+.+.+.+.+.+.+.+.+.+.+.+.+.+.+.+.+.+.+.+.+.+.+.+.+.+.+.Z +.+.+.+.5.- % % % j _ j % % % % ; !.}.Z Z Z Z Z Z Z Z Z Z Z Z Z Z Z Z Z Z Z Z Z Z Z Z Z Z Z Z Z Z ).^././././.U X %.+.+.+.+.+.+.+.+.+.+.+.+.+.+.+.+.+.` c.b.+.+.+.+.+.+.+.+.+.+.+...,.).)...+.+.+.+.@._.$ % % % & ",
"& % % % i = & % % % % q ;.4.+.+.+.+.+.+.+.+.+.+.+.+.+.+.+.+.+.+.+.+.+.+.+.+.+.+.+.+.+.+.+.+.+.5.j % % % j _ j % % % % ; !.}.Z Z Z Z Z Z Z Z Z Z Z Z Z Z Z Z Z Z Z Z Z Z Z Z Z Z Z Z Z Z ).^./././././.X %.+.+.+.+.+.+.+.+.+.+.+.+.+.+.+.+.+. .d.b.+.+.+.+.+.+.+.+.+.+.+.+.+.+.+.+.+.+.+.+.@._.% % % % & ",
"& % % % | _ & % % % % q ;.4.+.+.+.+.+.+.+.+.+.+.+.+.+.+.+.+.+.+.+.+.+.+.+.+.+.+.+.+.+.+.+.+.+.5.j % % % | _ j % % % % ' !.}.Z Z Z Z Z Z Z Z Z Z Z Z Z Z Z Z Z Z Z Z Z Z Z Z Z Z Z Z Z Z ).^.U /././.U X %.+.+.+.+.+.+.+.+.+.+.+.+.+.+.+.+.+. .h.1.+.+.+.+.+.+.+.+.+.+.+.+... .@...+.+.+.+.@._.$ % % % & ",
"- % % % i = & % % % % q ;.4.+.+.+.+.+.+.+.+.+.+.+.+.+.+.+.+.+.+.+.+.+.+.+.+.+.+.+.+.+.+.+.+.+.5.j % % % j : j % % % % ; !.}.Z Z Z Z Z Z Z Z Z Z Z Z Z Z Z Z Z Z Z Z Z Z Z Z Z Z Z Z Z Z ).^.U /././.U X %.+.+.+.+.+.+.+.+.+.+.+.+.+.+.+.+.+.+.,...` +.+.+.` +.+.+.+.+.+.+.].].1.@.+.+.+.+.@._.% % % % & ",
"& % % % i _ & % % % % q ;.4.+.+.+.+.+.+.+.+.+.+.+.+.+.+.+.+.+.+.+.+.+.+.+.+.+.+.+.+.+.+.+.+.+.5.j % % % j _ j % % % % ; !.}.Z Z Z Z Z Z Z Z Z Z Z Z Z Z Z Z Z Z Z Z Z Z Z Z Z Z Z Z Z Z ).^.U (././.U X %.+.+.+.+.+.+.+.+.+.+.+.+.+.+.+.+.+.` ~.h.h.l.l.s.l.s.l.,.+.+.+.+.@.1...,.+.+.+.+.@._.% % % % & ",
"- % % % i _ $ % % % % q ;.4.+.+.+.+.+.+.+.+.+.+.+.+.+.+.+.+.+.+.+.+.+.+.+.+.+.+.+.+.+.+.+.+.+.5.j % % % j : - % % % % ; !.}.Z Z Z ).Z Z Z Z Z Z Z Z Z Z Z Z Z Z Z Z Z Z Z Z Z Z Z Z Z Z ).^././././.U X %.+.+.+.+.+.+.+.+.+.+.+.+.+.+.+.+.+...h.3.i.o.p.i.q.i.c.@.+.+.+.+.@.1.1.,.+.+.+.+.@._.% % % % & ",
"& % % % i _ & % % % % q ;.4.+.+.+.Z +.+.+.+.+.+.+.+.+.+.+.+.+.+.+.+.+.+.+.+.+.+.+.+.+.+.+.+.+.5.j % % % j _ j % % % % ; !.}.Z Z Z Z Z Z Z Z Z Z Z Z Z Z Z Z Z Z Z Z Z Z Z Z Z Z Z Z Z Z ).^././././.U X %.+.+.+.+.+.+.+.+.+.+.+.+.+.+.+.+.+.` ,.....b.q.]...,.,.+.+.+.+.+.....,.@.+.+.+.+.@._.% % % % $ ",
"& % % % i _ & % % % % q ;.4.+.+.+.+.+.+.+.+.+.+.+.+.+.+.+.+.+.+.+.+.+.+.+.+.+.+.+.+.+.+.+.+.+.5.j % % % | _ j % % % % ' !.}.Z Z Z Z Z Z Z Z Z Z Z Z Z Z Z Z Z Z Z Z Z Z Z Z Z Z Z Z Z Z '.^./.(./.(./.X %.+.+.+.+.+.+.+.+.+.+.+.+.+.+.+.+.+.+.+.+.+.@.c.).+.+.+.+.+.+.+.+.).].1.@.+.+.+.+.@._.% % % % $ ",
"& % % % i _ & % % % % q ;.4.+.+.+.+.+.+.+.+.+.+.+.+.+.+.+.+.+.+.+.+.+.+.+.+.+.+.+.+.+.+.+.+.+.5.j % % % j _ - % % % % ' !.}.Z Z Z Z Z Z Z Z Z Z Z Z Z Z Z Z Z Z Z Z Z Z Z Z Z Z Z Z Z Z {.^././././.U X 9.+.+.+.+.+.+.+.+.+.+.+.+.+.+.+.+.+.+.+.+.+.1.c.).+.+.+.+.+.+.+.+.).|.1...+.+.+.+.@.#.$ % % % & ",
"- % % % i _ $ % % % % q ;.4.+.+.+.+.+.+.+.+.+.+.+.+.+.+.+.+.Z +.+.+.+.+.+.+.+.+.+.+.+.+.+.+.Z 5.j % % % j _ j % % % % ' !.~.Z Z Z Z Z Z Z Z Z Z Z Z Z Z Z Z Z Z Z Z Z Z Z Z Z Z Z Z Z Z {.^.V /././.U X %.+.+.+.+.+.+.+.+.+.+.+.+.+.+.+.+.+.+.+.+.+.@.c.,.+.+.+.+.+.+.+.+.1.b.1.@.+.+.+.+.@._.$ % % % & ",
"& % % % i _ & % % % % q ;.4.+.+.+.+.+.+.+.+.+.+.+.+.+.+.+.+.+.+.+.+.+.+.+.+.+.+.+.+.+.+.+.+.+.5.j % % % j : j % % % % , A }.Z ).Z Z Z Z Z Z Z Z Z Z Z Z Z Z Z Z Z Z Z Z Z Z Z Z Z Z Z Z {.^.V /././.U X %.+.+.+.+.+.+.+.+.+.+.+.+.+.+.+.+.+.+.+.+.+.@.c...+.+.+.+.+.+.+.` ,.,.1.@.+.+.+.+.@._.$ % % % & ",
"- % % % i _ & % % % % s ;.4.+.+.+.+.+.+.+.+.+.+.+.+.+.+.+.+.+.+.+.+.+.+.+.+.+.+.+.+.+.+.+.Z +.5.j % % % j : j % % % % ; 6.}.Z Z Z Z Z Z Z Z Z Z Z Z Z Z Z Z Z Z Z Z Z Z Z Z Z Z Z Z Z Z ).^./././.(.U X %.+.+.+.+.+.+.+.+.+.+.+.+.+.+.+.+.+.+.+.+.+.@.c...+.+.+.+.+.+.+.+.` Z ..` +.+.+.+.@.#.$ % % % 6 ",
"& % % % i _ $ % % % % q ;.4.+.+.+.+.+.+.+.+.+.+.+.+.+.Z +.+.+.+.+.+.+.+.+.+.+.+.+.+.+.+.+.+.+.5.j % % % j _ j % % % % > !.}.Z Z Z Z Z Z Z Z Z Z Z Z Z Z Z Z Z Z Z Z Z Z Z Z Z Z Z Z Z Z ).^././././.U X %.+.+.+.+.+.+.+.+.+.+.+.+.+.+.+.+.+.+.+.+.+.@.c.,.+.+.+.+.+.+.+.+.+.+.+.+.+.+.+.+.@._.$ % % % & ",
"& % % % i _ & % % % % q ;.4.+.+.+.+.+.+.+.+.+.+.+.+.+.+.+.+.+.+.+.+.+.+.+.+.+.+.+.+.+.+.+.+.+.5.j % % % j : - % % % % ; !.}.Z Z Z Z Z Z Z Z Z Z Z Z Z Z Z Z Z Z Z Z Z Z Z Z Z Z Z Z Z Z ).^./././.U U X %.+.+.+.+.+.+.+.+.+.+.+.+.+.+.+.+.+.Z ,.b.b.a.3.b.b.1.b...+.+.+.+.).,.@...+.+.+.+.@._.$ % % % & ",
"& % % % i _ & % % % % q ;.4.+.+.+.+.+.+.+.+.+.+.+.+.+.+.+.+.+.+.+.+.+.+.+.+.+.+.+.+.+.+.+.+.+.5.j % % % j _ j % % % % ; !.}.Z Z Z Z Z Z Z Z Z Z Z Z Z Z Z Z Z Z Z Z Z Z Z Z Z Z Z Z Z Z ).^./././.U U X %.+.+.+.+.+.+.+.+.+.+.+.+.+.+.+.+.+...c.S i.p.j.o.o.o.i.@.+.+.+.+.1.,... .+.+.+.+.@._.% % % % & ",
"- % % % i _ $ % % % % q ;.4.+.+.+.+.+.+.+.+.+.+.+.+.+.+.+.+.+.+.+.+.+.+.+.+.+.+.+.+.+.+.+.+.+.5.j % % % | _ j % % % % ; !.}.Z Z Z Z Z Z Z Z Z Z Z Z Z Z Z Z Z Z Z Z Z Z Z Z Z Z Z Z Z Z ).^.U /././.U X %.+.+.+.+.+.+.+.+.+.+.+.+.+.+.+.+.+.+.@.1.1.1.1.1.1.1.@...+.+.+.+.].].@.m.+.+.+.+.@._.% % % % & ",
"& % % % i _ & % % % % q ;.4.+.+.+.+.+.+.+.+.+.+.+.+.+.+.+.+.+.+.+.+.+.+.+.+.+.+.+.+.+.+.+.+.+.5.j % % % j _ j % % % % ; !.}.Z Z Z Z Z Z Z Z Z Z Z Z Z Z Z Z Z Z Z Z Z Z Z Z Z Z Z Z Z Z ).^.U (././.U X %.+.+.+.+.+.+.+.+.+.+.+.+.+.+.+.+.+.+.` +.+.+.+.+.+.+...` +.+.+.+.,.1.,...+.+.+.+.@._.% % % % $ ",
"- % % % i _ & % % % % q ;.4.+.+.+.+.+.+.+.+.+.+.+.+.+.+.+.+.+.+.+.+.+.+.+.+.+.+.+.+.+.+.+.+.+.5.j % % % j _ j % % % % ; !.}.Z Z Z Z Z Z Z Z Z Z Z Z Z Z Z Z Z Z Z Z Z Z Z Z Z Z Z Z Z Z ).^././././.U X 9.+.+.+.+.+.+.+.+.+.+.+.+.+.+.+.+.+...h.b.+.+.+.+.+...s.].+.+.+.+.b.b...@.+.+.+.+.@._.% % % % & ",
"& % % % i _ 6 % % % % q ;.4.+.+.+.+.+.+.Z +.+.+.+.+.+.+.+.+.+.+.+.+.+.+.+.+.+.+.+.+.+.+.+.+.+.5.j % % % j _ j % % % % ; !.}.Z Z Z Z Z Z Z Z Z Z Z Z Z Z Z Z Z Z Z Z Z Z Z Z Z Z Z Z Z Z ).^././././.U X %.+.+.+.+.+.+.+.+.+.+.+.+.+.+.+.+.+...c.b.+.+.+.+.+.,.c.1.+.+.+.` ].b.|.,.+.+.+.+.@._.% % % % & ",
"& % % % i _ & % % % % * ;.4.+.+.+.+.+.+.+.+.+.+.+.+.+.+.+.+.+.+.+.+.+.+.+.+.+.+.+.+.+.+.+.+.+.5.j % % % j : j % % % % ; !.}.Z Z Z Z Z Z Z Z Z Z Z Z Z Z Z Z Z Z Z Z Z Z Z Z Z Z Z Z Z Z ).^./.(./.(.U X %.+.+.+.+.+.+.+.+.+.+.+.+.+.+.+.+.+...d.b.+.+.+.+.+...c.1.+.+.+.+.,.@.,.` +.+.+.+.@._.$ % % % 6 ",
"& % % % i = & % % % % q ;.4.+.+.+.+.+.+.+.+.+.+.+.+.+.+.+.+.+.+.+.+.+.+.+.+.+.+.Z +.+.+.+.+.+.5.j % % % j _ - % % % % ; 6.}.Z Z Z Z Z Z Z Z Z Z Z Z Z Z Z Z Z Z Z Z Z Z Z Z Z Z Z Z Z Z ).^././././.U X %.+.+.+.+.+.Z +.+.+.+.+.+.+.+.+.+.+...e.b.+.+.+.+.+...c.1.+.+.+.+.1.].,. .+.+.+.+.@._.$ % % % & ",
"- % % % i _ & % % % % q ;.4.+.+.+.+.+.+.+.+.+.+.+.+.+.+.+.+.+.+.+.+.+.+.+.+.+.+.+.+.+.+.+.+.+.5.j % % % j : j % % % % ; !.}.Z Z Z Z Z Z Z Z Z Z Z Z Z Z Z Z Z Z Z Z Z Z Z Z Z Z Z Z Z Z ).^.U /././.U X %.+.+.+.+.+.+.+.+.+.+.+.+.+.+.+.+.+.Z e.b.+.+.+.+.+.,.n.1.+.+.+.+.,.1.1...+.+.+.+.@.#.$ % % % & ",
"& % % % | _ & % % % % q ;.4.+.+.+.+.+.+.+.+.+.+.+.+.+.+.+.+.+.+.+.+.+.+.+.+.+.+.+.+.+.+.+.+.+.5.j % % % j _ j % % % % ; !.}.Z Z Z Z Z Z Z Z Z Z Z Z Z Z Z Z Z Z Z Z Z Z Z Z Z Z Z Z Z Z ).^.U /./././.X %.+.+.+.+.+.+.+.+.+.+.+.+.+.+.+.+.+.` e.b.+.+.+.+.+...c.1.+.+.+...,.1.b.,.+.+.+.+.@._.% % % % & ",
"- % % % i _ & % % % % q ;.4.+.+.+.+.+.+.+.+.+.Z +.+.+.+.+.+.+.+.+.+.+.+.+.+.+.+.+.+.+.+.+.+.+.5.j % % % j _ j % % % % ; !.}.Z Z Z Z Z Z Z Z Z Z Z Z Z Z Z Z Z Z Z Z Z Z Z Z Z Z Z Z Z Z ).^././././.U X %.+.+.+.+.+.+.+.+.+.+.+.+.+.+.+.+.+...c.b.+.+.+.+.+...n.1.+.+.+..... .@.@.+.+.+.+.@._.% % % % & ",
"& % % % i = & % % % % q ;.4.+.+.+.+.+.+.+.+.+.+.+.+.+.+.+.+.+.+.+.+.+.+.+.+.+.+.+.+.+.+.+.+.+.5.j % % % j _ j % % % % ; !.}.Z Z Z Z Z Z Z Z Z Z Z Z Z Z Z Z Z Z Z Z Z Z Z Z Z Z Z Z Z Z ).^./.(././.U X %.+.+.+.+.+.+.+.+.+.+.+.+.+.+.+.+.+...d.b.+.+.+.+.+...c.].+.+.+...,.@.@...+.+.+.+.@._.% % % % $ ",
"& % % % i _ $ % % % % q ;.4.+.+.+.+.+.+.+.+.+.+.+.+.+.+.+.+.+.+.+.+.+.+.+.+.+.+.+.+.+.+.+.+.+.5.- % % % j _ j % % % % ; !.}.Z Z Z Z Z Z Z Z Z Z Z Z Z Z Z Z Z Z Z Z Z Z Z Z Z Z Z Z Z Z ).^./././.U U X %.+.+.+.+.+.+.+.+.+.+.+.+.+.+.+.+.+.+.h.e.b.b.b.b.b.k.i.,.+.+.+...|.@.@.@.+.+.+.+.@._.% % % % & ",
"& % % % i _ & % % % % q ;.4.+.+.+.+.+.+.+.+.+.+.+.+.+.+.+.+.+.+.+.+.+.+.+.+.+.+.+.+.+.+.+.+.Z 5.j % % % | : j % % % % ; 6.}.Z Z Z Z Z Z Z Z Z Z Z Z Z Z Z Z Z Z Z Z Z Z Z Z Z Z Z Z Z Z ).0./././.U U X %.+.+.+.+.+.+.+.+.+.+.+.+.+.+.+.+.+.+.1.i.S j.S S i.o.Y +.+.+.+.,.g.|.|...+.+.+.+.@._.% % % % & ",
"& % % % i _ & % % % % q ;.4.+.+.+.+.+.+.+.+.+.+.+.+.+.+.+.+.+.+.+.+.+.+.+.+.+.+.+.+.+.+.+.+.+.5.j % % % j : j % % % % ; 6.}.Z Z Z Z Z Z Z Z Z Z Z Z Z Z Z Z Z Z Z Z Z Z Z Z Z Z Z Z Z Z {.^.W /././.U X %.+.+.+.+.+.+.+.+.+.+.+.+.+.+.+.+.+.+.+.,.@.1.].].@.,.Z +.+.+.+.+.)...]...+.+.+.+.@.#.$ % % % 6 ",
"& % % % i = & % % % % q ;.4.+.+.+.+.+.+.+.+.+.+.+.+.+.+.+.+.+.+.+.+.+.+.+.+.+.+.+.+.+.+.+.+.+.5.j % % % j _ j % % % % > !.}.Z Z Z Z Z Z Z Z Z Z Z Z Z Z Z Z Z Z Z Z Z Z Z Z Z Z Z Z Z Z '.^.V /./.(.U X %.+.+.+.+.+.+.+.+.+.+.+.+.+.+.+.+.+.+.+.+.+.+.+.,.,.,.` +.+.+.+.,.@.Y b. .+.+.+.+.@._.$ % % % & ",
"& % % % i _ & % % % % q ;.4.+.+.+.+.+.+.+.Z +.+.+.+.+.+.+.+.+.+.+.+.+.+.+.+.+.+.+.+.+.+.+.+.+.5.j % % % j : j % % % % ; !.}.Z Z Z Z Z Z Z Z Z Z Z Z Z Z Z Z Z Z Z Z Z Z Z Z Z Z Z Z Z Z ).^.U /./.(.U X %.+.+.+.+.+.+.+.+.+.+.+.+.+.+.+.+.+.+.b.,.+.+.k.i.p.S ~.+.+.+.Z @.1.|.|...+.+.+.+.@.#.$ % % % & ",
"- % % % i _ & % % % % q ;.4.+.+.+.+.+.+.+.+.+.+.+.+.+.+.+.+.+.+.+.+.+.+.+.+.+.+.+.+.+.+.+.+.Z 5.j % % % j _ - % % % % ; !.}.Z Z Z Z Z Z Z Z Z Z Z Z Z Z Z Z Z Z Z Z Z Z Z Z Z Z Z Z Z Z ).^././././.U X %.+.+.+.+.+.+.+.+.+.+.+.+.+.+.+.+.+.` e.b.+.,.c.s.~.h.i.,.+.+.+. .@.1.1...+.+.+.+.@._.% % % % & ",
"& % % % i _ $ % % % % q ;.4.+.+.+.+.+.+.+.+.+.+.+.+.+.+.+.+.+.+.Z +.+.+.+.+.+.+.+.+.+.+.+.+.+.5.j % % % | _ j % % % % ; !.}.Z Z Z Z Z Z Z Z Z Z Z Z Z Z Z Z Z Z Z Z Z Z Z Z Z Z Z Z Z Z ).^.U /././.U X %.+.+.+.+.+.+.+.+.+.+.+.+.+.+.+.+.+...c.b.+.@.c...+.,.c.1.+.+.+.` ]...,.@.+.+.+.+.@._.% % % % & ",
"- % % % i _ & % % % % q ;.4.+.+.+.+.+.+.+.+.+.+.+.+.+.+.+.+.+.+.+.+.+.+.+.+.+.+.+.+.+.+.+.+.+.5.j % % % j _ j % % % % ; !.}.Z Z Z Z Z Z Z Z Z Z Z Z Z Z Z Z Z Z Z Z Z Z Z Z Z Z Z Z Z Z ).^.U /././.U X %.+.+.+.+.+.+.+.+.+.+.+.+.+.+.+.+.+...d.b.+.1.c...+...c.1.+.+.+.,.g.1.@...+.+.+.+.@._.% % % % $ ",
"& % % % i _ & % % % % q ;.4.+.+.+.+.+.+.+.+.+.+.+.+.+.+.+.+.+.+.+.+.+.+.+.+.+.+.+.+.+.+.+.+.+.5.j % % % j _ j % % % % ; !.}.Z Z Z Z Z Z Z Z Z Z Z Z Z Z Z Z Z Z Z Z Z Z Z Z Z Z Z Z Z Z ).^.U /./.U U X %.+.+.+.+.+.+.+.+.+.+.+.+.+.+.+.+.+.` e.b.+.@.c.m.+...c.1.+.+.+.+.@.b.g.,.+.+.+.+.@._.% % % % & ",
"& % % % i _ $ % % % % q ;.4.+.+.+.+.+.+.+.+.+.+.+.+.+.+.+.+.+.+.+.+.+.+.+.+.+.+.+.+.+.+.+.+.+.5.j % % % j _ j % % % % ; !.}.Z Z Z Z Z Z Z Z Z Z Z Z Z Z Z Z Z Z Z Z Z Z Z Z Z Z Z Z Z Z ).^.U /./.(.U X %.+.+.+.+.+.+.+.+.+.+.+.+.+.+.+.+.+.` c.b.+.1.c...+...n.1.+.+.+.+.1.b.b.1.+.+.+.+.@._.% % % % & ",
"& % % % i _ & % % % % q ;.4.+.+.+.+.+.+.+.+.+.+.+.+.Z +.+.+.+.+.+.+.+.+.+.+.+.+.+.+.+.+.+.+.Z 5.j % % % j : j % % % % ; !.}.Z Z Z Z Z Z Z Z Z Z Z Z Z Z Z Z Z Z Z Z Z Z Z Z Z Z Z Z Z Z ).^.U /././.U X %.+.+.+.+.+.+.+.+.+.+.+.+.+.+.+.+.+. .e.b.+.1.c...+.,.c.1.+.+.+.+.).@.b.@.+.+.+.+.@._.$ % % % 6 ",
"& % % % i = & % % % % q ;.4.+.+.+.+.+.+.+.+.+.+.+.+.+.+.+.+.+.+.+.+.+.+.+.+.+.+.+.+.+.+.+.+.+.5.j % % % j _ - % % % % ; !.}.Z Z Z Z Z Z Z Z Z Z Z Z Z Z Z Z Z Z Z Z Z Z Z Z Z Z Z Z Z Z ).^.U /./././.X 9.+.+.+.+.+.+.+.+.+.+.+.+.+.+.+.+.+. .n.b.+.1.c...+...c.1.+.+.+.+.,.@.|...+.+.+.+.@._.$ % % % & ",
"& % % % i _ & % % % % q ;.4.+.+.+.+.+.+.+.+.+.+.+.+.+.+.+.+.+.+.+.+.+.+.+.+.+.+.+.+.+.+.+.+.+.5.j % % % j : j % % % % > 6.}.Z Z Z Z Z Z Z Z Z Z Z Z Z Z Z Z Z Z Z Z Z Z Z Z Z Z Z Z Z Z ).^././././.U X %.+.+.+.+.+.+.+.+.+.+.+.+.+.+.+.+.+...e.g.+.1.e...+...c.@.+.+.+.+.1.,...` +.+.+.+.@._.$ % % % & ",
"- % % % i _ & % % % % q ;.4.+.+.+.+.+.+.+.+.+.+.+.+.+.+.+.+.+.+.+.+.+.+.+.+.+.+.+.+.+.+.+.+.+.5.j % % % j _ j % % % % ; 6.}.Z Z Z Z Z Z Z Z Z Z Z Z Z Z Z Z Z Z Z Z Z Z Z Z Z Z Z Z Z Z ).^././.(./.U X %.+.+.+.+.+.+.+.+.+.+.+.+.+.+.+.+.+.+.s.v.b.s.e...+...3.1.+.+.+.+.1.1.1...+.+.+.+.@._.% % % % & ",
"& % % % i d & % % % % q ;.4.+.+.+.+.Z +.+.+.+.+.+.+.+.+.+.+.+.+.+.+.+.+.+.Z +.+.+.+.+.+.+.+.+.5.j % % % j _ - % % % % ' !.}.Z Z Z Z Z Z ).Z Z Z Z Z Z Z Z Z Z Z Z Z Z Z Z Z Z Z Z Z Z Z ).^.U /././.U X %.+.+.+.+.+.+.+.+.+.+.+.+.+.+.+.+.+.+.|.S p.o.g.+.+...s.].+.+.+.Z |.,...` +.+.+.+.@.#.% % % % & ",
"- % % % i _ & % % % % q ;.4.+.+.+.+.+.+.+.+.+.+.+.+.+.+.+.+.+.+.+.+.+.+.+.+.+.+.+.+.+.+.+.+.+.5.j % % % | _ - % % % % ' !.}.Z Z Z Z Z Z Z Z Z Z Z Z Z Z Z Z Z Z Z Z Z Z Z Z Z Z Z Z Z Z ).^.U /././.U X %.+.+.+.+.+.+.+.+.+.+.+.+.+.+.+.+.+.+.+.,.|.@...+.+.+...+.+.+.+.+.1.g.b.).+.+.+.+.@._.% % % % & ",
"& % % % i _ & % % % % q ;.4.+.+.+.+.+.+.+.+.+.+.+.+.+.+.+.+.+.+.+.+.+.+.+.+.+.+.+.+.+.+.+.+.+.5.j % % % j : - % % % % ' !.~.Z Z Z Z Z Z Z Z Z Z Z Z Z Z Z Z Z Z Z Z Z Z Z Z Z Z Z Z Z Z ).^././././.U X %.+.+.+.+.+.+.+.+.+.+.+.+.+.+.+.+.+.+.b.,.+.+.+.+.+.+.+.+.+.+.+.+.,.1.1...+.+.+.+.@._.% % % % & ",
"& % % % i _ & % % % % q ;.4.+.+.+.+.+.+.+.+.+.+.+.+.+.+.+.+.+.+.+.+.+.+.+.+.+.+.+.+.+.+.+.+.+.5.j % % % j _ - % % % % , A b.Z Z Z Z Z Z Z Z Z Z Z Z Z Z Z Z Z Z Z Z Z Z Z Z Z Z Z Z Z Z ).^./.(././.U X 9.+.+.+.+.+.+.+.+.+.+.+.+.+.+.+.+.+...e.b.+.+.+.+.+.+.+.+.+.+.+.+.].` ,.@.+.+.+.+.@._.% % % % $ ",
"& % % % i _ & % % % % * ;.4.+.+.+.+.+.+.+.+.+.+.+.+.+.+.+.+.+.+.+.+.+.+.+.Z +.+.+.+.+.+.+.+.+.5.j % % % j _ j % % % % ; !.}.Z Z Z Z Z Z Z Z Z Z Z Z Z Z Z Z Z Z Z Z Z Z Z Z Z Z Z Z Z Z ).^.U /././.U X %.+.+.+.+.+.+.+.+.+.+.+.+.+.+.+.+.+...e.|.+.+.+.+.+.+.+.+.+.+.+.+.@.].1.,.+.+.+.+.@._.$ % % % & ",
"- % % % i _ & % % % % q ;.4.+.+.+.+.+.+.+.+.+.+.+.+.+.+.+.+.+.+.+.+.+.+.+.+.+.+.+.+.+.+.Z +.+.5.j % % % | : j % % % % ; !.}.Z Z Z Z Z Z Z Z Z Z Z Z Z Z Z Z Z Z Z Z Z Z Z Z Z Z Z Z Z Z ).^.U /././.U X %.+.+.+.+.+.+.+.+.+.+.+.+.+.+.+.+.+.Z c.b.+.+.+.+.+.+.+.+.+.+.+. .@.....,.+.+.+.+.@._.$ % % % & ",
"& % % % i _ & % % % % q ;.4.+.+.+.+.+.+.+.+.+.+.+.+.+.+.+.+.+.+.+.+.+.+.+.+.+.+.+.+.+.+.+.+.+.5.j % % % j _ j % % % % ; !.}.Z Z Z Z Z Z Z Z Z Z Z Z Z Z Z Z Z Z Z Z Z Z Z Z Z Z Z Z Z Z ).^.U /././.U X %.+.+.+.+.+.+.+.+.+.+.+.+.+.+.+.+.+...n.~.` `  .Z  .` ` +.+.+.+.@.~.|.|.,.+.+.+.+.@._.$ % % % $ ",
"& % % % i _ $ % % % % q ;.4.+.+.+.+.+.+.+.+.+.+.+.+.+.+.+.+.+.+.+.+.+.+.+.+.+.+.+.+.+.+.+.+.+.5.j % % % j _ j % % % % ; !.}.Z Z Z Z Z Z Z Z Z ).Z Z Z Z Z Z Z Z ).Z Z Z Z Z Z Z Z Z Z Z ).^.U (././.U X %.+.+.+.+.+.+.+.+.+.+.+.+.+.+.+.+.+...c.q.d.c.n.n.d.c.d.@.+.+.+.+.,.1.1...+.+.+.+.@._.$ % % % & ",
"- % % % i _ & % % % % q ;.4.+.+.+.+.+.+.+.+.+.+.+.+.+.+.+.+.+.+.+.+.+.+.+.+.+.+.+.+.+.+.+.+.+.5.- % % % j _ j % % % % ; !.}.Z Z Z Z Z Z Z Z Z Z Z Z Z Z Z Z Z Z Z Z Z Z Z Z Z Z Z Z Z Z ).^././././.U X %.+.+.+.+.+.+.+.+.+.+.+.+.+.+.+.+.+.+.d.q.n.n.d.n.c.d.d.@.+.+.+.+. ...@.@.+.+.+.+.@._.% % % % 6 ",
"& % % % i = & % % % % q ;.4.+.+.+.+.+.+.+.+.+.+.+.+.+.+.+.+.+.+.+.+.+.+.+.+.+.+.+.+.+.+.+.+.+.5.j % % % j _ j % % % % ; !.}.Z Z ).Z Z Z Z Z Z Z Z Z Z Z Z Z Z Z Z Z Z Z Z Z Z Z Z Z Z Z ).^./././.(.U X %.+.+.+.+.+.+.+.+.+.+.+.+.+.+.+.+.+. .c.b.+.` ` Z +...` +.+.+.+.+.).].1.@.+.+.+.` @._.$ % % % & ",
"& % % % i _ & % % % % q ;.4.+.+.+.+.+.+.+.+.+.+.+.+.+.+.+.+.+.+.+.+.+.+.+.+.+.+.+.+.+.+.+.+.+.5.j % % % j : j % % % % ; !.}.Z Z Z Z Z Z Z Z Z Z Z Z Z Z Z Z Z ).Z Z Z Z Z Z Z Z Z Z Z Z ).^.U /././.U X %.Z +.+.+.+.+.+.+.+.+.+.+.+.+.+.+.+...n.b.+.+.+.+.+.+.+.+.+.+.+.+...@.1...+.+.+.+.@._.$ % % % & ",
"- % % % i _ $ % % % % q ;.4.+.+.+.+.+.+.+.+.+.+.+.+.+.+.+.+.+.+.+.+.+.+.+.+.+.+.+.+.+.+.+.+.+.5.j % % % j _ j % % % % > !.}.Z Z Z Z Z Z Z Z Z Z Z Z Z Z Z Z Z Z Z Z Z Z Z Z Z Z Z Z Z Z ).^.U /././.U X %.+.+.+.+.+.+.+.+.+.+.+.+.+.+.+.+.+.` d.b.+.+.+.+.+.+.+.+.+.+.+.,.].b.1.` +.+.+.+.@._.$ % % % & ",
"& % % % i = & % % % % q ;.4.+.+.+.+.+.+.+.+.+.+.+.+.+.+.+.+.+.+.+.+.+.+.+.+.+.+.+.+.+.+.+.+.+.5.j % % % | _ j % % % % ; !.}.Z Z Z Z Z Z Z Z Z Z Z Z Z Z Z Z Z Z Z Z Z Z Z Z Z Z Z Z Z Z ).^.U /././.U X %.+.+.+.+.+.+.+.+.+.+.+.+.+.+.+.+.+...c.b.+.+.+.+.+.+.+.+.+.+.+.|.b.1.@.+.+.+.+.+.@._.% % % % & ",
"& % % % i _ & % % % % q ;.4.+.+.+.Z +.+.+.+.+.+.+.+.+.+.+.+.+.+.+.+.+.+.+.+.+.+.+.+.+.+.+.+.+.5.j % % % j _ j % % % % ; !.}.Z Z Z Z Z Z Z Z Z ).Z Z Z Z Z Z Z Z Z Z Z Z Z Z Z Z Z Z Z Z ).^.U /././.U X %.+.+.+.+.+.+.+.+.+.+.+.+.+.+.+.+.+. .g.@.+.+.+.+.+.+.+.+.+.+.+.+...@.|...+.+.+.+.@._.% % % % & ",
"& % % % i _ $ % % % % q ;.4.+.+.+.+.+.+.+.+.+.+.+.+.+.+.+.+.+.+.+.+.+.+.+.+.+.+.+.+.+.+.+.+.+.5.j % % % j _ j % % % % ; !.}.Z Z Z ).Z Z Z Z Z Z Z Z Z Z Z Z Z Z Z Z Z Z Z Z Z Z Z Z Z Z ).^./././.(.U X %.+.+.+.+.+.+.+.+.+.+.+.+.+.+.+.+.+.+...,...,.,.,.....+.+.+.+.+.+.+.+.+.Z +.+.+.+.@._.% % % % & ",
"- % % % i _ & % % % % q ;.4.+.+.+.+.+.+.+.+.+.+.+.+.+.+.+.+.+.+.+.+.+.+.+.+.+.+.+.+.+.+.+.+.+.5.j % % % j _ 6 % % % % ; !.}.Z Z Z Z Z Z Z Z Z Z Z Z Z Z Z Z Z Z Z Z Z Z Z ).Z Z Z Z Z Z ).^././././.U X %.+.+.+.+.+.+.+.+.+.+.+.+.+.+.+.+.+. .d.S o.i.o.o.o.c.g.+.+.+.+.+.+.+.+.+.+.+.+.+.@._.% % % % $ ",
"& % % % i _ & % % % % q ;.4.+.+.+.+.+.+.+.+.+.+.+.+.+.+.+.+.+.+.Z +.+.+.+.+.+.+.+.+.+.+.+.+.Z 5.j % % % j _ j % % % % ; !.}.Z Z Z Z Z Z Z Z Z Z Z Z Z Z Z Z Z Z Z Z Z Z Z Z Z Z Z Z Z Z '.^.U (././.U X %.+.+.+.+.+.+.+.+.+.+.+.+.+.+.+.+.+.` b.l.k.k.Y k.k.d.c.).+.+.+.+.+.+.+.+.+.+.+.+.@._.% % % % $ ",
"- % % % i _ & % % % % q ;.4.+.+.+.+.+.+.+.+.+.+.+.+.+.+.+.+.+.+.+.+.+.+.+.+.+.+.+.+.+.+.+.+.+.5.j % % % | : j % % % % ; !.}.Z Z Z Z Z Z Z Z Z Z Z Z Z Z Z Z Z Z Z Z Z Z Z Z Z Z Z Z Z Z {.^.U /././.U X %.+.+.+.+.+.+.Z +.+.+.+.+.+.+.+.+.+.+.+.+.+.+.+.+.+.@.c.1.+.+.+.+.+.+.+.+.+.+.+.+.@._.% % % % & ",
"- % % % i _ $ % % % % q ;.4.+.+.+.+.+.+.+.+.+.+.+.+.+.+.+.+.+.+.+.+.+.+.+.+.+.+.+.+.+.+.+.+.+.5.j % % % j _ j % % % % ; !.}.Z Z Z Z Z Z Z Z Z Z Z Z Z Z Z Z Z Z Z Z Z Z Z Z Z Z Z Z Z Z {.^.V /././.U X %.+.+.+.+.+.+.+.+.+.+.+.+.+.+.+.+.+.+.+.+.+.+.+.+.+...c.1.+.+.+.+.+.+.+.+.+.+.+.+.@.#.$ % % % & ",
"& % % % i _ & % % % % q ;.4.+.+.+.+.+.+.+.+.+.+.+.+.+.+.+.+.+.+.+.+.+.+.+.+.+.+.+.+.+.+.+.+.+.5.j % % % j _ - % % % % > !.}.Z Z Z Z Z Z Z Z Z Z Z Z Z Z Z Z Z Z Z Z Z Z Z Z Z Z Z Z Z Z '.^.V (././.U X %.+.+.+.+.+.+.+.+.+.+.+.+.+.+.+.+.+.+.+.+.+.+.+.+.+.,.n.1.+.+.+.+.+.+.+.+.+.+.+.+.@.#.$ % % % & ",
"- % % % i _ & % % % % s ;.4.+.+.+.+.+.+.+.+.+.+.+.+.+.+.+.+.+.+.+.+.+.+.+.+.+.+.+.+.+.+.+.+.+.5.j % % % j : - % % % % ; !.}.Z Z Z Z Z Z Z Z Z Z Z Z Z Z Z Z Z Z Z Z Z Z Z Z Z Z Z Z Z Z ).^././././.U X %.+.+.+.+.+.+.+.+.+.+.+.+.+.+.+.+.+.+.+.+.Z +.+.+.+...c.1.+.+.+.+.+.+.+.+.+.+.+.+.@._.$ % % % 6 ",
"& % % % i _ $ % % % % q ;.4.+.+.+.+.+.+.+.+.+.+.+.+.+.+.+.+.+.+.+.+.+.Z +.+.+.+.Z +.+.+.+.+.+.5.j % % % j _ - % % % % ; !.}.Z Z Z Z Z Z Z Z Z Z Z Z Z Z Z Z Z Z Z Z Z Z Z Z Z Z Z Z Z Z ).^././././.U X %.+.+.+.+.+.+.+.+.+.+.+.+.+.+.+.+.+.+.+.+.+.+.+.+.+...c.1.+.+.+.+.+.+.+.+.+.+.+.+.@._.$ % % % & ",
"& % % % i _ & % % % % q ;.4.+.+.+.+.+.+.+.+.+.+.+.+.+.+.+.+.+.+.+.+.+.+.+.+.+.+.+.+.+.+.+.+.+.5.j % % % j : - % % % % ; !.}.Z Z Z Z Z Z Z Z Z Z Z Z Z Z Z Z Z Z Z Z Z Z Z Z Z Z Z Z Z Z ).^./.(././.U X %.+.+.+.+.+.+.+.+.+.+.+.+.+.+.+.+.+.+.+.+.+.+.+.+.+...n.1.+.+.+.+.+.` ` +.+.+.+.+.@._.$ % % % & ",
"& % % % i _ & % % % % q ;.4.+.+.+.+.+.+.+.+.+.+.+.+.+.+.+.+.+.+.+.+.+.+.+.+.+.+.+.+.+.+.+.+.+.5.j % % % j _ j % % % % ; !.}.Z Z Z Z Z Z Z Z Z Z Z Z Z Z Z Z Z Z Z Z Z Z Z Z Z Z Z Z Z Z ).^././././.U X %.+.+.+.+.+.+.+.+.+.+.+.+.+.+.+.+.+.+.+.+.+.+.+.+.+.,.c.1.+.+.+.+.+.w.x.y.+.+.+.+.@._.$ % % % & ",
"- % % % i _ $ % % % % q ;.4.+.+.+.+.+.+.+.+.+.+.+.+.+.+.+.+.+.+.+.+.+.+.+.+.+.+.+.+.+.+.+.+.+.5.j % % % j : j % % % % ; !.}.Z Z Z Z Z Z Z Z Z Z Z Z Z Z Z Z Z Z Z Z Z Z Z Z Z Z Z Z Z Z ).^././././.U X %.+.+.+.+.+.+.+.+.+.+.+.+.+.+.+.+.+.+.@.1.1.1.1.1.1.k.i.,.+.+.+.+.B.C.D.E.+.+.+.+.@._.% % % % & ",
"& % % % i _ & % % % % q ;.4.+.+.+.+.+.+.+.+.+.+.+.+.+.+.+.+.+.+.+.+.+.+.+.+.+.+.+.+.+.+.+.+.+.5.j % % % j _ j % % % % ; 6.}.Z Z Z Z Z Z Z Z Z Z Z Z Z Z Z Z Z Z Z Z Z Z Z Z Z Z Z Z Z Z ).^.U /././.U X %.+.+.+.+.+.+.+.+.+.+.+.+.+.+.+.+.+.` e.p.j.S j.j.p.p.a.+.+.+.+.I.J.D.J.I.+.+.+.+.K.#.% % % % $ ",
"- % % % i _ & % % % % q ;.4.+.+.+.+.+.+.+.+.+.+.+.+.+.+.+.+.+.+.+.+.+.+.+.+.+.+.+.+.+.+.+.+.+.5.j % % % j _ j % % % % ; !.}.Z Z Z Z Z Z Z Z Z Z Z Z Z Z Z Z Z Z Z Z Z Z Z Z Z Z Z Z Z Z ).^././././.U X %.+.+.+.+.+.+.+.+.+.+.+.+.+.+.+.+.+.+.1.}.|.b.b.|.b.@.` +.+.+.I.H.D.N.O.+.+.+.+.+.@._.% % % % & ",
"& % % % i _ 6 % % % % q ;.4.+.+.+.+.+.+.+.+.+.+.+.+.+.+.+.+.+.+.+.+.+.+.+.+.+.+.+.+.+.+.+.+.+.5.j % % % j _ j % % % % ; !.}.Z Z Z Z Z Z Z Z Z Z Z Z Z Z Z Z Z Z Z Z Z Z Z Z Z Z Z Z Z Z ).^./././.(.U X 9.+.+.+.+.+.+.+.+.+.+.+.+.+.+.+.+.+.+...+.+.+.+.+.+.+. .Z +.Q.H.D.D.D.z.+.+.+.+.+.@._.% % % % & ",
"& % % % i _ & % % % % q ;.4.+.+.+.+.+.+.+.+.+.+.+.+.+.+.+.+.+.+.+.+.+.+.+.+.+.+.+.+.+.+.+.+.+.5.j % % % j _ j % % % % ; 6.}.Z Z Z Z Z Z Z Z Z Z Z Z Z Z Z Z Z Z Z Z Z Z Z Z Z Z Z Z Z Z ).^./././.U U X %.+.+.+.+.+.+.+.+.+.+.+.+.+.+.+.+.+. .h.|.+...g...+...s.].S.H.D.D.G.J.I.+.+.+.+.+.@._.% % % % & ",
"& % % % i = & % % % % q ;.4.+.+.+.+.+.+.+.+.+.+.+.+.+.+.+.+.+.+.+.+.+.+.+.+.+.+.+.+.+.+.+.+.+.5.j % % % j : j % % % % > !.}.Z Z Z Z Z Z Z Z Z Z Z Z Z Z Z Z Z Z Z Z Z Z Z Z Z Z Z Z Z Z ).^.U /././.U X %.+.+.+.+.+.+.+.Z +.+.+.+.+.+.+.+.+. .c.b.+.1.c.,.+...c.t.V.D.J.J.D.W.` +.+.+.+.+.@._.$ % % % & ",
"- % % % i _ & % % % % q ;.4.+.+.+.+.+.+.+.+.+.+.+.+.+.+.+.+.+.+.+.+.+.+.+.+.+.+.+.+.+.+.+.+.+.5.j % % % | _ j % % % % ; !.}.Z Z Z Z Z Z Z Z Z Z Z Z Z Z Z Z Z Z Z Z Z Z Z Z Z Z Z Z Z Z ).^.U /././.(.X %.+.+.+.+.+.+.+.+.+.+.+.+.+.+.+.+.+.` e.b.+.@.c...+.).3.Y.M.H.B.U.D.P.+.+.+.+.+.+.@._.$ % % % $ ",
"& % % % | _ & % % % % * ;.4.+.+.+.Z +.+.+.+.+.+.+.+.+.+.+.+.+.+.+.+.+.+.Z +.+.+.+.+.+.+.+.+.Z 5.j % % % j _ j % % % % ; !.}.Z Z Z Z Z Z Z Z Z Z Z Z Z Z Z Z Z Z Z Z Z Z Z Z Z Z Z Z Z Z ).^.U /./.U U X %.+.+.+.+.+.+.+.+.+.+.+.+.+.+.+.+.+. .e.b.+.1.c...I. +R Y.A.I.` H.D..++.+.+.+.+.+.@._.$ % % % & ",
"- % % % i _ & % % % % q ;.4.+.+.+.+.+.+.+.+.+.+.+.+.+.+.+.Z +.+.+.+.+.+.+.+.+.+.+.+.+.+.+.+.+.5.j % % % j _ j % % % % ; !.}.Z Z Z Z Z Z Z Z Z Z Z Z Z Z Z Z Z Z Z Z Z Z Z Z Z Z Z Z Z Z ).0././././.U X 9.+.+.+.+.+.+.+.+.+.+.+.+.+.+.+.+.+. .e.b.+.@.i.@+x.#+R t.` +.Q.C.C.K.+.+.+.+.+.+.@._.$ % % % 6 ",
"& % % % i = & % % % % q ;.4.+.+.+.+.+.+.+.+.+.+.+.+.+.+.+.+.+.+.+.+.+.+.+.+.+.+.+.+.+.+.+.+.+.5.- % % % j _ j % % % % ; !.}.Z Z Z Z Z Z Z Z Z Z Z Z Z Z Z Z Z Z Z Z Z Z Z Z Z Z Z Z Z Z ).^./.(././.U X %.+.+.+.+.+.+.+.+.+.+.+.+.+.+.+.+.+.` c.b.+.@.O 0.M.%+O 1.+.+.K.T.J.I.+.+.+.+.+.` @._.$ % % % & ",
"& % % % i _ $ % % % % q ;.4.+.+.+.+.+.+.+.+.+.+.+.+.+.+.+.+.+.+.+.+.+.+.+.+.+.+.+.+.+.+.+.+.+.5.j % % % j : j % % % % ; !.}.Z Z Z Z Z Z Z Z Z Z Z Z Z Z Z Z Z Z Z Z Z Z Z Z Z Z Z Z Z Z ).^././././.U X %.+.+.+.+.+.+.+.+.+.+.+.+.+.+.+.+.+...d.b..+*+R #+O.=+3.1.+.+.`.M.x.` +.+.+.+.+.+.@._.% % % % & ",
"& % % % i _ & % % % % q ;.4.+.+.+.+.+.+.+.+.+.+.+.+.+.+.+.+.+.+.+.+.+.+.+.+.+.+.+.+.+.+.+.+.+.5.j % % % j _ j % % % % ; !.}.Z Z Z Z Z Z Z Z Z Z Z Z Z Z Z Z Z Z Z Z Z Z Z Z Z Z Z Z Z Z ).^././././.U X %.+.+.+.+.+.+.+.+.+.+.+.+.+.+.+.+.+.` c.3.^.;+Q >.|.b.i.1.+.+.++M.A.+.+.+.+.+.+.+.@._.$ % % % & ",
"& % % % i _ & % % % % * ;.4.+.+.+.+.+.+.+.+.Z +.+.+.+.+.+.+.+.+.+.+.+.+.+.+.+.+.+.+.+.+.+.+.+.5.j % % % j _ j % % % % ; !.}.Z Z Z Z Z Z Z ).Z Z Z Z Z Z Z Z Z Z Z Z Z Z Z Z Z Z Z Z Z Z ).^.U /././.U X %.+.+.+.+.+.+.+.+.+.Z +.+.+.+.+.+...@+O Q Q p.Q p.p.p.p.1.+.+.O.M.O.+.+.+.+.+.+.+.@._.% % % % & ",
"- % % % i _ & % % % % q ;.4.+.+.+.+.+.+.+.+.+.+.+.+.+.+.+.+.+.+.+.+.+.+.+.+.+.+.+.+.+.+.+.+.+.5.j % % % | _ j % % % % ; 6.}.Z Z Z Z Z Z Z Z Z Z Z Z Z Z Z Z Z Z Z Z Z Z Z Z Z Z Z Z Z Z ).^.U /././.U X %.+.+.+.+.+.+.+.+.+.+.+.+.+.+.` B.W.L.Y.>.k.a.g.g.b.~.b...+.+.A.M.+++.+.+.+.+.+.+.@._.% % % % & ",
"& % % % i _ & % % % % q ;.4.+.+.+.+.+.+.+.+.+.+.+.+.+.+.+.+.+.+.+.+.+.+.+.+.+.Z +.+.+.+.+.+.+.5.j % % % j _ j % % % % ; !.}.Z Z Z Z Z Z Z Z Z Z Z Z Z Z Z Z Z Z Z Z Z Z Z Z Z Z Z Z Z Z ).^.U /././.U X %.+.+.+.+.+.+.+.+.+.+.+.+.+.B.U.C.G.C.Z.I.Z  . .+. .+.+.+.+.` W.M.`.+.+.+.+.+.+.+.@._.% % % % $ ",
"& % % % i _ $ % % % % q ;.4.+.+.+.+.+.+.+.+.+.+.+.+.+.+.+.+.+.+.+.+.+.+.+.+.+.+.+.+.+.+.+.+.+.5.j % % % j _ 6 % % % % ; !.}.Z Z Z Z Z Z Z Z Z Z Z Z Z ).Z Z Z Z Z Z Z Z Z Z Z Z Z Z Z Z ).^.U (././.U X %.+.+.+.+.+.+.+.+.+.+.` S.U.C.G.L.A.y...k.e.e.n.e.e.s.@.+.+.` H.M.E.+.+.+.+.+.+.+.@._.% % % % & ",
"- % % % i _ & % % % % q ;.4.+.+.+.+.+.+.+.+.+.+.+.+.+.+.+.+.+.+.+.+.+.+.+.+.+.+.+.+.+.+.+.+.+.5.j % % % j _ j % % % % ; 6.}.Z Z Z Z Z Z Z Z Z Z Z Z Z Z Z Z Z Z Z Z Z Z Z Z Z Z Z Z Z Z ).^././././.U X %.+.+.+.+.+.+.+.+.` y.U.C.G.D.W..+` +.g.p.e.e.e.v.d.i.s...+.` J.N.y.+.+.+.+.+.+.+.@._.% % % % & ",
"& % % % i = & % % % % q ;.4.+.+.+.+.+.+.+.+.+.+.+.+.+.+.+.+.+.+.+.+.+.+.+.+.+.+.+.+.+.+.+.+.+.5.j % % % | : j % % % % > !.}.Z Z Z Z Z Z Z Z Z Z Z Z Z Z Z Z Z Z Z Z Z Z Z Z Z Z Z Z Z Z ).^././././.U X %.+.+.+.+.+.+.m..+W.L.M.L.H.E.` +.+.+.v.h...+.` ..` |.i.@.+.I.V.T.y.+.+.+.+.+.+.+.@._.$ % % % & ",
"& % % % i _ & % % % % q ;.4.+.+.+.+.+.+.+.+.+.+.+.+.+.+.+.+.+.+.+.+.+.+.+.+.+.+.+.+.+.+.+.+.+.5.j % % % j _ j % % % % ; !.}.Z Z Z Z Z Z Z Z Z Z Z Z Z Z Z Z Z Z Z Z Z Z Z Z Z Z Z Z Z Z ).^.U /././.U X %.+.+.+.` S.P.V.D.G.L.W..+` +.+.+.+. .n.b.+.+.+.+.+.).c.1.+.I.V.T.y.+.+.+.+.+.+.+.@._.$ % % % $ ",
"- % % % i _ $ % % % % q ;.4.+.+.+.+.+.+.+.+.+.+.+.+.+.+.+.+.+.+.+.+.+.+.+.+.+.+.+.+.+.+.+.+.+.5.j % % % j _ - % % % % ; !.}.Z Z Z Z Z Z Z Z Z Z Z Z Z Z Z Z Z Z Z Z Z Z Z Z Z Z Z Z Z Z ).^.U /././.V X %.` $+R.W.C.M.N.C.U.y.` +.+.+.+.+.+.` n.b.+.+.+.+.+...c.1.+.I.-+D.y.+.+.+.+.+.+.+.@._.$ % % % & ",
"& % % % i = & % % % % q ;.4.+.+.+.+.+.+.+.+.+.+.+.+.+.+.+.+.+.+.+.+.Z +.+.+.+.+.+.+.+.+.+.+.Z 5.j % % % j : - % % % % ; !.}.Z Z Z Z Z Z Z Z Z Z Z Z Z Z Z Z Z Z Z Z Z Z Z Z ).Z Z Z Z Z ).^.U /.(.V L.,+*+x.-+D.D.L.H.R.$++.+.+.+.+.+.+.+.+. .c.b.+.+.+.+.+...c.1.+.I.C.L.S.+.+.+.+.+.+.+.@._.% % % % 6 ",
"& % % % i _ & % % % % q ;.4.+.+.+.+.+.+.+.+.+.+.+.+.+.+.Z +.+.+.+.+.+.+.+.+.+.+.+.+.+.+.+.+.+.5.j % % % j _ - % % % % ; !.}.Z Z Z ).Z Z Z Z Z ).Z Z Z Z Z Z Z Z Z Z Z Z Z Z Z Z Z Z Z Z ).^.U /.T.L.D.M.G.M.M.L.U.y.` +.+.+.+.+.+.+.+.+.+.+. .e.g.+.+.+.+.+.).c.1.+.I.V.L.S.+.+.+.+.+.+.+.@.#.$ % % % & ",
"& % % % i _ $ % % % % q ;.4.+.+.+.+.+.+.+.+.+.+.+.+.+.+.+.+.+.+.+.+.+.+.+.+.+.+.+.+.+.+.+.+.+.5.j % % % j : - % % % % ; !.}.Z Z Z Z Z Z Z Z Z Z Z Z Z Z Z Z Z Z Z Z Z Z Z Z Z Z Z Z Z Z ).^././.(.C.L.L.D.D.M.N.&+R.'+` +.+.+.+.+.+.+.+.+.+. .c.b.+.+.+.+.+...c.1.+.Q.C.L.y.+.+.+.+.+.+.+.@._.$ % % % & ",
"- % % % i _ & % % % % q ;.4.+.+.+.+.+.+.+.+.+.+.+.+.+.+.+.+.+.+.+.+.+.+.+.+.+.+.+.+.+.+.+.+.+.5.j % % % j _ j % % % % ; !.}.Z Z Z Z Z Z Z Z Z Z Z Z Z Z Z Z Z Z Z Z Z Z Z Z Z Z Z Z Z Z ).^././.(.V V T  +++H.L.D.G.L.W.R.I.+.+.+.+.+.+.+.+. .e.b.+.+.+.+.+...c.1.+.I.C.L.y.+.+.+.+.+.+.+.@._.$ % % % & ",
"& % % % i _ & % % % % q ;.4.+.+.+.+.+.+.+.+.+.+.+.+.+.+.+.+.+.+.+.+.+.+.+.+.+.+.+.+.+.+.+.+.+.5.j % % % | _ j % % % % , !.~.Z Z Z Z Z Z Z Z Z Z Z Z Z Z Z Z Z Z Z Z Z Z Z Z Z Z Z Z Z Z '.^././././.U &.%.+.` '+R.H.L.G.D.V.P.Q.+.+.+.+.+.+. .e.b.+.+.` +.+.).c.1.+.I.V.N.y.+.+.+.+.+.+.+.@._.% % % % & ",
"- % % % i _ & % % % % q ;.4.+.+.Z +.+.+.+.+.+.+.+.+.+.+.+.+.+.+.+.+.+.+.+.+.+.+.+.+.+.+.+.+.+.5.j % % % j _ j % % % % ' A }.Z Z Z Z Z Z Z Z Z Z Z Z Z Z Z Z Z Z Z Z Z Z Z Z Z Z Z Z Z Z {.^.U /./.(.U X %.+.+.+.+.` y.U.V.D.G.C.U.S.` +.+.+...c.c.h.h.h.h.s.d.S 1.+.X.V.T.y.+.+.+.+.+.+.+.@._.% % % % $ ",
"- % % % i _ $ % % % % q ;.4.+.+.+.+.+.+.+.+.+.+.+.+.+.+.+.+.+.+.+.+.+.+.+.+.+.+.+.+.+.+.+.+.Z 5.j % % % j _ j % % % % ' !.b.Z Z Z Z Z Z Z Z Z Z Z Z Z Z Z Z Z Z Z Z Z Z Z Z Z Z Z Z Z Z {.^.V /././.U X %.+.+.+.+.+.+.+.Q.`.&+N.M.-+O.'++.+...s.i.3.i.i.i.i.i.c.].+.m.V.T.y.+.+.+.+.+.+.+.@._.% % % % & ",
"& % % % i _ & % % % % q ;.4.+.+.+.+.+.+.+.+.+.+.+.+.+.+.+.+.+.+.+.+.+.+.+.+.+.+.+.+.+.+.+.+.+.5.j % % % j _ j % % % % ' !.~.Z Z Z Z Z Z Z Z Z Z Z Z Z Z Z Z Z Z Z Z Z Z Z Z Z Z Z Z Z Z '.^.V /././.U X %.+.+.+.+.+.+.+.+.+.` E.x.T.M.-+Z.Q.+...,.....).....)...` +.m.J.D.z.+.+.+.+.+.+.+.@.#.% % % % & ",
"- % % % i _ & % % % % s ;.4.+.+.+.+.+.+.+.+.+.+.+.+.+.+.+.+.+.+.+.+.+.+.+.+.+.+.+.+.+.+.+.+.+.5.j % % % j _ j % % % % ; !.}.Z Z Z Z Z Z Z Z Z Z Z Z Z Z Z Z Z Z Z Z Z Z Z Z Z Z Z Z Z Z ).^./././.(.U X %.+.+.+.+.+.+.+.+.+.+.+.m.E.x.N.M.J.R.I.+.+.+.+.+.+.+.+.+.+.` H.D.E.+.+.+.+.+.+.+.@._.% % % % & ",
"& % % % i _ $ % % % % q ;.4.+.+.+.+.+.+.+.+.+.+.+.+.+.+.+.+.+.+.+.+.+.+.+.+.+.+.+.+.+.+.+.+.+.5.j % % % | _ j % % % % ; !.}.Z Z Z Z Z Z Z Z Z Z Z Z Z Z Z Z Z Z Z Z Z Z Z Z Z Z Z Z Z Z ).^././././.U X %.+.+.+.+.+.+.+.+.+.+.+.+.+.` )+&+D.D.H.z.` +.+.+.+.+.+.+.+.` W.M.R.+.+.+.+.+.+.` @._.$ % % % & ",
"& % % % i _ & % % % % q ;.4.+.+.+.+.+.+.+.+.+.+.+.+.+.+.+.+.+.+.+.+.+.+.+.+.+.+.+.+.+.+.+.+.+.5.j % % % j _ j % % % % ; !.}.Z Z Z Z Z Z Z Z ).Z Z Z Z Z Z ).Z Z Z Z Z Z Z Z Z Z Z Z Z Z ).^././././.U X %.+.+.+.+.+.+.+.+.+.+.+.+.+.+.+.I.++J.G.L.U.Q.+.+.+.+.+.+.+.+.O.M.Z.+.+.+.+.+.+.+.@._.$ % % % $ ",
"& % % % i _ & % % % % q ;.4.+.+.+.+.+.+.+.+.+.+.+.+.+.+.+.Z +.+.+.+.+.+.+.+.+.+.+.+.+.+.+.+.+.5.- % % % j _ j % % % % ; !.}.Z Z Z Z Z Z Z Z Z Z Z Z Z Z Z Z Z Z Z Z Z Z Z Z Z Z Z Z Z Z ).^././././.U X %.+.+.+.+.+.+.+.+.+.+.+.+.+.+.+.+.+.Q.U.L.G.J.)+` +.+.+.+.+.+.Z.M.A.+.+.+.+.+.+.+.@._.$ % % % & ",
"- % % % i _ $ % % % % q ;.4.+.+.+.+.+.+.+.+.+.+.+.+.+.+.+.+.+.+.+.+.+.+.+.+.+.+.+.+.+.+.+.+.+.5.j % % % j : j % % % % ; 6.}.Z Z Z Z Z Z Z Z ).Z Z Z Z Z Z Z Z Z Z Z Z Z Z Z Z Z Z Z Z Z ).^.U /././.U X %.+.+.+.+.+.Z +.+.+.+.Z +.+.+.+.+.+.+.` B.H.D.D.A.Q.+.+.+.+.+.`.M.x.` +.+.+.+.+.+.@._.$ % % % 6 ",
"& % % % i _ & % % % % q ;.4.+.+.+.+.+.+.+.+.+.+.+.+.+.+.+.+.+.+.+.+.+.+.+.+.Z +.+.+.+.+.+.+.+.5.j % % % j _ - % % % % > 6.}.Z Z Z Z Z Z Z Z Z Z Z Z Z Z Z Z Z Z Z Z Z Z Z Z Z Z Z Z Z Z ).^.U (././.U X %.+.+.+.+.+.+.+.+.+.+.+.+.+.+.+.+.+.+.+.+.I.P.C.D.C.w.` +.+.+..+N.&+` +.+.+.+.+.+.@._.$ % % % & ",
"- % % % i _ & % % % % q ;.4.+.+.+.+.+.+.+.+.+.+.+.+.+.+.+.+.+.+.+.+.+.+.+.+.+.+.+.+.+.+.+.Z +.5.j % % % j : j % % % % ; !.}.Z Z Z Z Z Z Z Z Z Z Z Z Z Z Z Z Z Z Z Z Z Z Z Z Z Z Z Z Z Z ).^././././.U X %.Z +.+.+.+.+.+.+.+.+.+.+.+.+.+.+.+.+.+.+.+.+.y.H.N.L.U.m.+.+.S.L.-+I.+.+.+.+.+.+.@._.% % % % & ",
"& % % % i _ 6 % % % % q ;.4.+.+.+.+.+.+.+.+.+.+.+.+.+.+.+.+.+.+.+.+.+.+.+.+.+.+.+.+.+.+.+.+.+.5.j % % % j _ j % % % % ; 6.}.Z Z Z Z Z Z Z Z Z Z Z Z Z Z Z Z Z Z Z Z Z Z Z Z Z Z Z Z Z Z ).^./././././.X %.+.+.+.+.+.+.+.+.+.+.+.+.+.+.+.+.+.+.+.+.+.+.+.I.P.D.D.H.S.+.I.V.T.y.+.+.+.+.+.+.@._.$ % % % & ",
"& % % % i _ & % % % % q ;.4.+.+.+.+.+.+.+.+.+.+.+.+.+.+.+.+.+.+.+.+.+.+.+.+.+.+.+.+.+.+.+.+.+.5.j % % % | _ j % % % % ; !.}.Z Z Z Z Z Z Z Z Z Z Z Z Z Z Z Z Z Z Z Z Z Z Z Z Z Z Z Z Z Z ).^./././.(.U X %.+.+.+.+.+.+.+.+.+.+.+.+.+.+.+.+.+.+.+.+.+.+.+.+.` )+J.D.J.z.` H.D.w.+.+.+.+.+.+.@.#.% % % % & ",
"& % % % i = & % % % % q ;.4.+.+.+.+.+.+.+.+.+.+.+.+.+.+.+.+.+.+.+.+.+.+.+.+.+.+.+.+.+.+.+.+.+.5.j % % % j _ j % % % % ; !.}.Z Z Z Z Z Z Z Z Z Z Z Z Z Z Z Z Z Z Z Z Z Z Z Z Z Z Z Z Z Z ).^.U /././.U X %.+.+.+.+.+.+.+.+.+.+.+.+.+.+.+.+.+.+.+.+.+.+.+.+.+.+.B.H.D.C.)+U.G.P.+.+.+.+.+.+.@._.% % % % & ",
"- % % % i _ & % % % % q ;.4.+.+.+.+.+.+.+.+.+.+.+.+.+.+.+.+.+.+.+.+.+.+.+.+.+.+.+.+.+.+.+.+.+.5.j % % % j _ j % % % % ; !.}.Z Z Z Z Z Z Z Z Z Z Z Z Z Z Z Z Z Z Z Z Z Z Z Z Z Z Z Z Z Z ).^.U /././.U X %.+.+.+.+.+.+.+.+.+.+.+.+.+.+.+.+.+.+.+.+.+.+.+.+.+.+.+.I.A.D.D.J.D.H.` +.+.+.+.+.@._.% % % % & ",
"& % % % | _ & % % % % * ;.4.+.+.+.+.+.+.+.+.+.+.+.+.+.+.+.+.+.+.+.+.+.+.+.+.+.+.+.Z +.+.+.+.+.5.j % % % j _ 6 % % % % ; !.}.Z Z Z Z Z Z Z Z Z Z Z Z Z Z Z Z Z Z Z Z Z Z Z Z Z Z Z Z Z Z ).^.U /././.U X %.+.+.+.+.+.+.+.+.+.+.+.+.+.+.+.+.+.+.+.+.+.+.+.+.+.+.+.+.m.U.T.M.M.L.Q.+.+.+.+.+.@.#.% % % % $ ",
"- % % % i _ & % % % % q ;.4.+.+.+.+.+.+.+.+.+.+.+.+.+.+.+.+.+.+.+.+.+.+.+.+.+.+.+.+.+.+.+.+.+.5.j % % % j _ j % % % % ; !.}.Z Z Z Z Z Z Z Z Z Z Z Z Z Z Z Z Z Z Z Z Z Z Z Z Z Z Z Z Z Z ).^././././.U X %.+.+.+.+.+.+.+.+.+.+.+.+.+.+.+.+.+.+.+.+.+.+.+.+.+.+.+.+.+.` P.D.N.L.E.+.+.+.+.+.@._.% % % % $ ",
"& % % % i = & % % % % q ;.4.+.+.+.+.+.+.+.+.+.+.+.+.+.+.+.+.+.+.+.+.+.+.+.+.+.+.+.+.+.+.+.+.+.5.j % % % | : j % % % % ; !.}.Z Z Z Z Z Z Z Z Z Z Z Z Z Z Z Z Z Z Z Z Z Z Z Z Z Z Z Z Z Z ).^./.(././.U &.%.+.+.+.+.+.+.+.+.+.+.+.+.+.+.+.+.+.+.+.+.Z +.+.+.+.+.+.+.+.+.` P.N.M.A.` +.+.+.+.@._.$ % % % & ",
"& % % % i _ $ % % % % q ;.4.+.+.+.+.+.+.+.+.+.+.+.+.+.+.+.+.+.+.+.+.+.+.+.+.+.+.+.+.+.+.+.+.+.5.j % % % j _ j % % % % ; !.}.Z Z Z Z Z Z Z Z Z Z Z Z Z Z Z Z Z Z Z Z Z Z Z Z Z Z Z Z Z Z ).^././././.U X %.+.+.+.+.+.+.+.+.+.+.+.+.+.+.+.+.+.+.+.+.+.+.+.+.+.+.+.+.+.+.+.m.O.D.-+Q.+.+.+.+.@._.$ % % % & ",
"& % % % i _ & % % % % q ;.4.+.+.+.+.+.+.+.+.+.+.Z +.+.+.+.+.+.+.+.+.+.+.+.+.+.+.+.+.+.+.+.+.+.5.j % % % j _ - % % % % > !.}.Z Z Z Z Z Z Z Z Z Z Z Z Z Z Z Z Z Z Z Z Z Z Z Z Z Z Z Z Z Z ).^././././.U X %.+.+.+.+.+.+.+.+.+.+.+.+.+.+.+.+.+.+.+.+.+.+.+.+.+.+.+.+.+.+.+.+.^+H.M.`.+.+.+.+.@._.$ % % % & ",
"- % % % i = & % % % % q ;.4.+.+.+.+.+.+.+.+.+.+.+.+.+.+.+.+.+.+.+.+.+.+.+.+.+.+.+.+.+.+.+.+.+.5.j % % % j : - % % % % ; !.}.Z Z Z Z Z Z Z Z Z Z Z Z Z Z Z Z Z Z Z Z Z Z Z Z Z Z Z Z Z Z ).^.U U /./.U X %.+.+.+.+.+.+.+.+.+.+.+.+.+.+.+.+.+.+.+.+.+.+.+.+.+.+.+.+.+.Z +.+.+.$+R.^++.+.+.+.@._.$ % % % 6 ",
"& % % % i _ & % % % % q ;.4.+.+.+.+.+.+.+.+.+.+.+.+.+.+.+.+.+.+.+.+.+.+.+.+.+.+.+.+.+.+.+.+.Z 5.j % % % j _ - % % % % ; !.}.Z Z Z Z Z Z Z Z Z Z Z Z Z Z Z Z Z Z Z Z Z Z Z Z Z Z Z Z Z Z ).^.U /././.U X %.+.+.+.+.+.+.+.+.+.+.+.+.+.+.+.+.+.+.+.+.+.+.+.+.+.+.+.+.+.+.+.+.+.+.+.+.+.+.+.+.@._.$ % % % & ",
"- % % % i _ $ % % % % q ;.4.+.+.+.+.+.+.+.+.+.+.+.+.+.+.+.+.+.+.+.+.+.+.+.+.+.+.+.+.+.+.+.+.+.5.j % % % j : - % % % % ; !.}.Z Z Z Z Z Z Z Z Z Z Z Z Z Z Z Z Z Z Z Z Z Z Z Z Z Z Z Z Z Z ).^././././.U X %.+.+.+.+.+.+.+.+.+.+.+.+.+.+.+.+.+.+.+.+.+.+.+.+.+.+.+.+.+.+.+.+.+.+.+.+.+.Z +.+.@._.$ % % % & ",
"& % % % i _ & % % % % q ;.4.+.+.+.+.+.+.+.+.+.+.+.+.+.+.+.+.+.+.+.+.+.+.+.+.+.+.+.+.+.+.+.+.+.5.j % % % j _ j % % % % ; !.}.Z Z Z Z Z Z Z Z Z Z Z Z Z Z Z Z Z Z Z Z Z Z Z Z Z Z Z Z Z Z ).^./././.(.U X %.+.+.+.+.+.+.+.+.+.+.+.+.+.+.+.+.+.+.+.+.+.+.+.+.+.+.+.+.+.+.+.+.+.+.+.+.+.+.+.+.@._.% % % % & ",
"& % % % i _ & % % % % q ;.4.+.+.+.+.+.+.+.+.+.+.+.+.+.+.+.+.+.Z +.+.+.+.+.+.+.+.+.+.+.+.+.+.+.5.j % % % j : j % % % % ; !.}.Z Z Z Z Z Z Z Z Z Z Z Z Z Z Z Z Z Z Z Z Z Z Z Z Z Z Z Z Z Z '.^.U /././.U X %.Z +.+.+.Z +.+.+.+.+.+.+.+.+.+.+.+.+.+.+.+.+.+.+.+.+.+.+.+.+.+.+.+.+.+.+.+.+.+.+.@._.% % % % & ",
"& % % % i _ & % % % % q ;.4.+.+.+.+.+.+.+.+.+.+.+.+.+.+.+.+.+.+.+.+.+.+.+.+.+.+.+.+.+.+.+.+.+.5.j % % % j _ j % % % % ; 6.}.Z Z Z Z Z Z Z Z Z Z Z Z Z Z Z Z Z Z Z Z Z Z Z Z Z Z Z Z Z Z {.^.U /./.(.U X %.+.+.+.+.+.+.+.+.+.+.+.+.+.+.+.+.+.+.+.+.+.+.+.+.+.+.+.+.+.+.+.+.+.+.+.+.+.+.+.+.@._.% % % % $ ",
"- % % % i _ $ % % % % q ;.4.+.+.+.+.+.+.+.+.+.+.Z +.+.+.+.+.+.+.+.+.+.+.+.+.+.+.+.+.+.+.+.+.+.5.j % % % j _ j % % % % ; !.}.Z Z Z Z Z Z Z Z Z Z Z Z Z Z Z Z Z Z Z Z Z Z Z Z Z Z Z Z Z Z ).^.U /./././.X %.+.+.+.+.+.+.+.+.+.+.+.+.+.+.+.+.+.+.+.+.+.+.+.+.+.+.+.+.+.+.+.+.+.+.+.+.+.+.+.+.@._.% % % % & ",
"& % % % i _ & % % % % q ;.4.+.+.+.+.+.+.+.+.+.+.+.+.+.+.+.+.+.+.+.+.+.+.+.+.+.+.+.+.+.+.+.+.Z 5.j % % % j _ j % % % % ; !.}.Z Z Z Z Z Z Z Z Z Z Z Z Z Z Z Z Z Z Z Z Z Z Z Z Z Z Z Z Z Z {.^.V /././.U X %.+.+.+.+.+.+.+.+.+.+.Z +.+.+.+.+.+.+.+.+.+.+.+.+.+.+.+.+.+.+.+.+.+.+.+.+.+.+.+.+.@._.% % % % & ",
"- % % % i _ & % % % % q ;.4.+.+.+.+.+.+.+.+.+.+.+.+.+.+.+.+.+.+.+.+.+.+.+.+.+.+.+.+.+.+.+.+.+.5.j % % % j _ j % % % % ; 6.}.Z Z Z Z Z Z Z Z Z Z Z Z Z Z Z Z Z Z Z Z Z Z Z Z Z Z Z Z Z Z ).^././././.U X %.+.+.+.+.+.+.+.+.+.+.+.+.+.+.+.+.+.+.+.+.+.+.+.+.+.+.+.+.+.+.+.+.+.+.+.+.+.+.+.+.@._.$ % % % 6 ",
"& % % % | _ & % % % % q ;.4.+.+.+.+.+.+.+.+.+.+.+.+.+.+.+.+.+.+.+.+.+.+.+.+.+.+.+.+.+.+.+.+.+.5.j % % % j : j % % % % > !.}.Z Z Z Z Z Z Z Z Z Z Z Z Z Z Z Z Z Z Z Z Z Z Z Z Z Z Z Z Z Z ).^././.(./.U X %.+.+.+.+.+.+.+.+.+.+.+.+.+.+.+.+.+.+.+.+.+.+.+.+.+.+.+.+.+.+.+.+.+.+.+.+.+.+.+.+.@._.$ % % % & ",
"& % % % i _ & % % % % q ;.4.+.+.+.+.+.Z +.+.+.+.+.+.+.+.+.+.+.+.+.+.+.+.+.+.+.+.+.+.+.+.+.+.+.5.j % % % | _ j % % % % ; !.}.Z Z Z Z Z Z Z Z Z Z Z Z Z Z Z Z Z Z Z Z Z Z Z Z Z Z Z Z Z Z ).^././././.U X %.+.+.+.+.+.+.+.+.+.+.+.+.+.+.+.+.+.+.+.+.+.+.+.+.+.+.+.+.+.+.+.+.+.+.+.+.+.+.+.+.@._.$ % % % & ",
"& % % % i _ $ % % % % * ;.4.+.+.+.+.+.+.+.+.+.+.+.+.+.+.+.Z +.+.+.+.+.+.+.+.+.+.+.+.+.+.+.+.+.5.j % % % j _ j % % % % ; !.}.Z Z Z Z Z Z Z Z Z Z Z Z Z Z Z Z Z Z Z Z Z Z Z Z Z Z Z Z Z Z ).^././././.U X %.+.+.+.+.+.+.+.+.+.+.+.+.+.+.+.+.+.+.+.+.+.+.+.+.+.+.+.+.+.+.+.+.+.+.+.+.+.+.+.` @._.% % % % & ",
"- % % % i _ & % % % % q ;.4.+.+.+.+.+.+.+.+.+.+.+.+.+.+.+.+.+.+.+.+.+.+.+.+.+.+.+.+.+.+.+.+.+.5.j % % % j _ j % % % % ; !.}.Z Z Z Z Z Z Z Z Z Z Z Z Z Z Z Z Z Z Z Z Z Z Z Z Z Z Z Z Z Z ).^././.(./.U X %.+.+.+.+.+.+.+.+.+.+.+.+.+.+.+.+.+.+.+.+.+.+.+.+.+.+.+.+.+.+.+.+.+.+.+.+.+.+.+.+.@._.% % % % & ",
"& % % % i = & % % % % q ;.4.+.+.+.+.+.+.+.+.+.+.+.+.+.+.+.+.+.+.+.+.+.+.+.+.+.+.+.Z +.+.+.+.+.5.- % % % j _ j % % % % ; !.}.Z Z Z Z Z Z Z Z Z Z Z Z Z Z Z Z Z Z Z Z Z Z Z Z Z Z Z Z Z Z ).^.U /././.U X %.+.+.+.+.+.+.+.+.+.+.+.+.+.+.+.+.+.+.+.+.+.+.+.Z +.+.+.+.+.+.+.+.+.+.+.+.+.+.+.+.@._.% % % % $ ",
"- % % % i _ & % % % % q ;.4.+.+.+.+.+.+.+.+.+.+.+.+.+.+.+.+.+.+.+.+.+.+.+.+.+.+.+.+.+.+.+.+.+.5.j % % % j : j % % % % ; !.}.Z Z Z Z Z Z Z Z Z Z Z Z Z Z Z Z Z Z Z Z Z Z Z Z Z Z Z Z Z Z ).^././././.U X 9.+.+.+.+.+.+.+.+.+.+.+.+.+.+.+.+.+.+.+.+.+.+.+.+.+.+.+.+.+.+.+.+.+.+.+.+.+.+.+.+.@._.% % % % & ",
"& % % % i _ & % % % % q ;.4.+.+.+.+.+.+.+.+.+.+.+.+.+.+.+.+.+.+.+.+.+.+.+.+.+.+.+.+.+.+.+.+.+.5.j % % % j _ j % % % % ; !.}.Z Z Z Z Z Z Z Z Z Z Z Z Z Z Z Z Z Z Z Z Z Z Z Z Z Z Z Z Z Z ).^././././.U X %.+.+.+.+.+.+.+.+.+.+.+.+.+.+.+.+.+.+.+.+.+.+.+.+.+.+.+.+.+.+.+.+.+.+.+.+.+.+.+.+.@._.% % % % & ",
"& % % % i = & % % % % q ;.4.+.+.+.+.+.+.+.+.+.+.+.+.+.+.+.+.+.+.+.+.+.+.+.+.+.+.+.+.+.+.+.+.+.5.j % % % j _ j % % % % ; !.}.Z Z Z Z Z Z Z Z Z Z Z Z Z Z Z Z Z Z Z Z Z Z Z Z Z Z Z Z Z Z ).^.U /./.U U X %.+.+.+.+.+.+.+.+.+.+.+.+.+.+.+.+.+.+.+.+.+.+.+.+.+.+.+.+.+.+.+.+.+.+.+.+.+.+.+.+.@._.$ % % % 6 ",
"& % % % i _ & % % % % q ;.4.+.+.+.+.Z +.+.+.+.+.+.+.+.+.+.+.+.+.+.+.+.+.+.+.+.+.+.+.+.+.+.+.+.5.j % % % | _ j % % % % ; 6.}.Z Z Z Z Z Z Z Z Z Z Z Z Z Z Z Z Z Z Z Z Z Z Z Z Z Z Z Z Z Z ).^.U /./.U U X %.+.+.+.+.+.+.+.+.+.+.+.+.+.+.+.+.+.+.+.+.+.+.+.Z +.+.+.+.+.+.+.+.+.+.+.+.+.+.+.+.@._.$ % % % & ",
"& % % % i _ $ % % % % q ;.4.+.+.+.+.+.+.+.+.+.+.+.+.+.+.+.+.+.+.+.+.+.+.+.+.+.+.+.+.+.+.+.+.+.5.j % % % j _ j % % % % ; !.}.Z Z Z Z Z Z Z Z Z Z Z Z Z Z Z Z Z Z Z Z Z Z Z Z Z Z Z Z Z Z ).^././././.(.X %.+.+.+.+.+.+.+.+.+.+.+.+.+.+.+.+.+.+.+.+.+.+.+.+.+.+.+.+.+.+.+.+.+.+.+.+.+.+.+.+.@._.$ % % % & ",
"- % % % i _ & % % % % q ;.4.+.+.+.+.+.+.+.+.+.+.+.+.+.+.+.+.+.+.+.+.+.+.+.+.+.+.+.+.+.+.+.+.+.5.j % % % j _ 6 % % % % ; !.}.Z Z Z Z Z Z Z Z Z Z Z Z Z Z Z Z Z Z Z Z Z Z Z Z Z Z Z Z Z Z ).^./././.U U X %.+.+.+.+.+.+.+.+.+.+.+.+.+.+.+.+.+.+.+.+.+.+.+.+.+.+.+.+.+.+.+.+.+.+.+.+.+.+.+.+.@._.% % % % & ",
"& % % % i _ & % % % % q ;.4.+.+.+.+.+.+.+.+.+.+.+.+.+.+.+.+.+.+.+.+.+.+.+.+.+.+.+.+.+.+.Z +.+.5.j % % % j _ j % % % % ; 6.}.Z Z Z Z Z Z Z Z Z Z Z Z Z Z Z Z Z Z Z Z Z Z Z Z Z Z Z Z Z Z '.^.U /././.U X %.+.+.+.+.+.+.+.+.+.+.+.+.+.+.+.+.+.+.+.+.+.+.+.+.+.+.+.+.+.+.+.+.+.+.+.+.+.+.+.+.@._.% % % % & ",
"- % % % i _ & % % % % q ;.4.+.+.+.+.+.+.+.+.+.+.+.+.+.+.+.+.+.+.+.+.+.+.+.+.+.+.+.+.+.+.+.+.+.5.j % % % | : j % % % % > !.}.Z Z Z Z Z Z Z Z Z Z Z Z Z Z ).Z Z Z Z Z Z Z Z Z Z Z Z Z Z Z {.^.U (././.U X %.+.+.+.+.+.+.+.+.+.+.+.+.+.+.+.+.+.+.+.+.+.+.+.+.+.+.+.+.+.+.+.+.+.+.+.+.+.+.+.+.@._.% % % % $ ",
"- % % % i _ $ % % % % q ;.4.+.+.+.+.+.+.+.+.+.+.+.+.+.+.+.+.+.+.+.+.+.+.+.+.+.+.+.+.+.+.+.+.+.5.j % % % j _ j % % % % ; !.}.Z Z Z Z Z Z Z Z ).Z Z Z Z Z Z Z Z Z Z Z Z Z Z Z Z Z Z Z Z Z ).^.U /././.U X 9.+.+.+.+.+.+.+.+.+.+.+.+.+.+.+.+.+.+.+.+.+.+.+.+.+.+.+.+.+.+.+.+.+.+.+.+.+.+.+.+.@.#.% % % % & ",
"& % % % i _ & % % % % q ;.4.+.+.+.+.+.+.+.+.+.+.+.+.+.+.+.+.+.+.+.+.+.+.Z +.+.+.+.+.+.+.+.+.+.5.j % % % j _ - % % % % ; !.}.Z Z Z Z Z Z Z Z Z Z Z Z Z Z Z Z Z Z Z Z Z Z Z Z Z Z Z Z Z Z {.^.V /././.U X %.+.+.+.+.+.+.+.+.+.+.+.+.Z +.+.+.+.+.+.+.+.+.+.+.+.+.+.+.+.+.+.+.+.+.+.+.+.+.+.+.@._.% % % % & ",
"- % % % i _ & % % % % q ;.4.+.+.+.+.+.+.+.+.+.+.+.+.+.+.+.+.+.+.+.+.+.+.+.+.+.+.+.+.+.+.+.+.+.5.j % % % j : - % % % % ; !.}.Z Z Z Z Z Z Z Z Z Z Z Z Z Z Z Z Z Z Z Z Z Z Z Z Z Z Z Z Z Z ).^./.(./.(.U X %.+.+.+.Z +.+.+.+.+.+.+.+.+.+.+.+.+.+.+.+.+.+.+.+.+.+.+.+.+.+.+.+.+.+.+.+.+.+.+.+.@._.$ % % % 6 ",
"& % % % | _ & % % % % q ;.4.+.+.+.+.+.+.+.+.+.+.+.+.+.+.+.+.+.+.+.+.+.+.+.+.+.+.+.+.+.+.+.+.+.5.j % % % j _ - % % % % ; !.}.Z Z Z Z Z Z Z Z Z Z Z Z Z Z Z Z Z Z Z Z Z Z Z Z Z Z Z Z Z Z ).^././././.U X %.+.+.+.+.+.+.+.+.+.+.+.+.+.+.+.+.+.+.+.+.+.+.+.+.+.+.+.+.+.+.+.+.+.+.+.+.+.+.+.+.@._.$ % % % & ",
"& % % % i _ & % % % % q ;.4.+.+.+.+.+.+.+.+.+.+.+.+.+.+.+.+.+.+.+.+.+.+.+.+.+.+.+.+.+.+.+.+.+.5.j % % % j : - % % % % ; !.}.Z Z Z Z Z Z Z Z Z Z Z Z Z Z Z ).Z Z Z Z Z Z Z Z Z Z Z Z Z Z ).^././././.U X %.+.+.+.+.+.+.+.+.+.+.+.+.+.+.+.+.+.+.+.+.+.+.+.+.+.+.+.+.+.+.+.+.+.+.+.+.+.+.+.+.@._.% % % % & ",
"& % % % i _ $ % % % % * ;.4.+.+.+.+.+.+.+.+.+.+.+.+.+.+.+.+.+.+.+.+.+.+.+.+.+.+.+.+.+.+.+.+.+.5.j % % % j _ j % % % % ; !.}.Z Z Z Z Z Z Z Z Z Z Z Z Z Z Z Z Z Z Z Z Z Z Z Z Z Z Z Z Z Z ).^./././././.X %.+.+.+.+.+.+.+.+.+.+.+.+.+.+.+.+.+.+.+.+.+.+.+.+.+.+.+.+.+.+.+.+.+.+.+.+.+.+.+.+.@._.$ % % % & ",
"- % % % i _ & % % % % q ;.4.+.+.+.+.+.+.+.+.+.+.+.+.+.+.+.+.+.+.+.+.+.+.+.+.+.+.+.+.+.+.+.+.+.5.j % % % | _ j % % % % , !.~.Z Z Z Z Z Z Z Z ).Z Z Z Z Z Z Z Z Z Z Z Z Z Z Z Z Z Z Z Z Z ).^././././.U X %.+.+.+.+.+.+.+.+.+.+.+.+.+.+.+.+.+.+.+.+.+.+.+.+.+.+.+.+.+.+.+.+.+.+.+.+.+.+.+.+.@.#.% % % % & ",
"& % % % i = & % % % % q ;.4.+.+.+.+.+.Z +.+.+.+.+.+.+.+.+.+.+.+.+.+.+.+.+.+.+.+.+.+.+.+.+.+.+.5.j % % % j _ j % % % % ' A }.Z Z Z Z Z Z Z Z Z Z Z Z Z Z Z Z Z Z Z Z Z Z Z Z Z Z Z Z Z Z ).^./.(././.U X %.+.+.+.+.+.+.+.+.+.+.+.+.+.+.+.+.+.+.+.+.+.+.+.+.+.+.+.+.+.+.+.+.+.+.+.+.+.+.+.+.@._.% % % % & ",
"- % % % i _ & % % % % q ;.4.+.+.+.+.+.+.+.+.+.+.+.+.+.+.+.+.+.+.+.+.+.+.+.Z +.+.+.+.Z +.+.+.+.5.j % % % j _ j % % % % ' !.b.Z Z Z Z Z Z Z Z Z Z Z Z Z Z Z Z Z Z Z Z Z Z Z Z Z Z Z Z Z Z ).0./././.U U X %.+.+.+.+.+.+.+.+.+.+.+.+.+.+.+.+.+.+.+.+.+.+.+.+.+.+.+.+.+.+.+.+.+.+.+.+.+.+.+.+.@._.% % % % & ",
"& % % % i _ & % % % % q ;.4.+.+.+.+.+.+.+.+.+.+.+.+.+.+.+.+.+.+.+.+.+.+.+.+.+.+.+.+.+.+.+.+.+.5.j % % % j _ j % % % % ' !.~.Z Z Z Z Z Z Z Z Z Z Z Z Z Z Z Z Z Z Z Z Z Z Z Z Z Z Z Z Z Z ).^./././.U U X %.+.+.+.+.+.+.+.+.+.+.+.+.+.+.+.+.+.+.+.+.+.+.+.+.+.+.+.+.+.+.+.+.+.+.+.+.+.+.+.+.@._.% % % % $ ",
"& % % % i _ & % % % % q ;.4.+.+.+.+.+.+.+.+.+.+.+.+.+.+.+.+.+.+.+.+.+.+.+.+.+.+.+.+.+.+.+.+.+.5.j % % % j _ j % % % % ; !.}.Z Z Z Z Z Z Z Z Z Z Z Z Z Z Z Z Z Z Z Z Z Z Z ).Z Z Z Z Z Z {.^.W /././.U X %.+.+.+.+.+.+.+.+.+.+.+.+.+.+.+.+.+.+.+.+.+.+.+.+.+.+.+.+.+.+.+.+.+.+.+.+.+.+.+.+.@._.% % % % & ",
"& % % % i = & % % % % q ;.4.+.+.+.+.+.+.+.+.+.+.+.+.+.+.+.+.+.+.+.+.+.+.+.+.+.+.+.+.+.+.+.+.+.5.j % % % | _ j % % % % ; !.}.Z Z Z Z Z Z Z Z Z Z Z Z Z Z Z Z Z Z Z Z ).Z Z Z Z Z Z Z Z Z '.^.V (././.U X %.+.+.+.+.+.+.+.+.+.+.+.+.+.+.+.+.+.+.+.+.+.+.+.+.+.+.+.+.+.+.+.+.+.+.+.+.+.+.+.+.@._.% % % % & ",
"& % % % i _ & % % % % q ;.4.+.+.+.+.+.+.+.+.+.+.+.+.+.+.+.+.+.+.+.+.+.+.+.+.+.+.+.+.+.+.+.+.+.5.j % % % j _ j % % % % ; !.}.Z Z Z Z Z Z Z Z Z Z Z Z Z Z Z Z Z Z Z Z Z Z Z Z Z Z Z Z Z Z ).^.U /././.U X %.+.+.+.+.+.+.+.+.+.+.+.+.+.+.+.+.+.+.+.+.+.+.+.+.+.+.+.+.+.+.+.+.+.+.+.+.+.+.+.+.@._.$ % % % $ ",
"- % % % i _ & % % % % q ;.4.+.+.+.+.+.+.+.+.+.+.+.+.+.+.+.+.+.+.+.+.+.+.+.+.+.+.+.+.+.+.+.+.+.5.- % % % j _ j % % % % ; !.}.Z Z Z Z Z Z Z Z Z ).Z Z Z Z Z Z Z Z Z Z Z Z Z Z Z Z Z Z Z Z ).^.U /././.U X %.+.+.+.+.+.+.+.+.+.+.+.+.+.+.+.+.+.+.+.+.+.+.+.+.+.+.+.+.+.+.+.+.+.+.+.+.+.+.+.` @._.$ % % % & ",
"& % % % i _ $ % % % % q ;.4.+.+.+.+.+.+.+.+.+.+.+.+.+.+.Z +.+.+.+.+.+.+.+.+.+.+.+.+.+.+.+.+.+.5.j % % % j : j % % % % ; 6.}.Z Z Z Z Z Z Z Z Z Z Z Z Z Z Z Z Z Z Z Z Z Z Z Z Z Z Z Z Z Z ).^.U (././.U X %.+.+.+.+.+.+.+.+.+.+.+.+.Z +.+.+.+.+.+.+.+.+.+.+.+.+.+.+.+.+.+.+.+.+.+.+.+.+.+.+.@._.$ % % % 6 ",
"- % % % i _ & % % % % q ;.4.+.+.+.+.+.+.+.+.+.+.+.+.+.+.+.+.+.+.+.Z +.+.+.+.+.+.+.+.+.+.+.+.Z 5.j % % % j _ - % % % % > 6.}.Z Z ).Z Z Z Z Z Z Z Z Z Z Z Z Z Z Z Z Z Z Z Z Z Z Z Z Z Z Z ).^.U /././.U X %.+.+.+.+.+.+.+.+.+.+.+.+.+.+.+.+.+.+.+.+.+.+.+.+.+.+.+.+.+.+.+.+.+.+.+.+.+.+.+.+.@._.$ % % % & ",
"& % % % i _ & % % % % q ;.4.+.+.+.+.+.+.+.+.+.+.+.+.+.+.+.+.+.+.+.+.+.+.+.+.+.+.+.+.+.+.+.+.+.5.j % % % j : j % % % % ; !.}.Z Z Z Z Z Z Z Z Z Z Z Z Z Z Z Z Z Z Z Z Z Z Z Z Z Z Z Z Z Z ).^.U /././.U X %.+.+.+.+.+.+.+.+.+.+.+.+.+.+.+.+.+.+.+.+.+.+.+.+.+.+.+.+.+.+.+.+.+.+.+.+.+.+.+.+.@._.$ % % % & ",
"& % % % i _ $ % % % % q ;.4.+.+.+.+.+.+.+.+.+.+.+.+.+.+.+.+.+.+.+.+.+.+.+.+.+.+.+.+.+.+.+.+.+.5.j % % % j _ j % % % % ; 6.}.Z Z Z Z Z Z Z Z Z Z Z Z Z Z Z Z Z Z Z Z Z Z Z Z Z Z Z Z Z Z ).^.U /././.U X %.+.+.+.+.+.+.+.+.+.+.+.+.+.+.+.+.+.+.+.+.+.+.+.+.+.+.+.+.+.+.+.+.+.+.+.+.+.+.+.+.@._.$ % % % & ",
"& % % % i = & % % % % s ;.4.+.+.+.+.+.+.+.+.+.+.+.+.+.+.+.+.+.+.+.+.+.+.+.+.+.+.+.+.+.+.+.+.+.5.j % % % | _ j % % % % ; !.}.Z Z Z Z Z Z Z Z Z Z Z Z Z Z Z Z Z Z Z Z Z Z Z Z Z Z Z Z Z Z ).^.U /././.U X %.+.+.+.+.+.+.+.+.+.+.+.+.+.+.+.+.+.+.+.Z +.+.+.+.+.+.+.+.+.+.+.+.+.+.+.+.+.+.+.+.@._.% % % % & ",
"& % % % i _ & % % % % q ;.4.+.+.+.+.+.+.+.+.+.+.+.+.+.+.+.+.+.+.+.+.+.+.+.+.+.+.+.+.+.+.+.+.+.5.j % % % j _ j % % % % ; !.}.Z Z Z Z Z Z Z Z Z ).Z Z Z Z Z Z Z Z Z Z Z Z Z Z Z Z Z Z Z Z ).^.U /./.(.U X %.+.+.+.+.+.+.+.+.+.+.+.+.+.Z +.+.+.+.+.+.+.+.+.+.+.+.+.+.+.+.+.+.+.+.+.+.+.+.+.+.@._.% % % % & ",
"& % % % i _ & % % % % q ;.4.+.+.+.+.+.+.+.+.+.+.+.+.+.+.+.+.+.+.+.+.+.+.+.+.+.+.+.+.+.+.+.+.+.5.j % % % j _ j % % % % ; !.}.Z Z Z ).Z Z Z Z Z Z Z Z Z Z Z Z Z Z Z Z Z Z Z Z Z Z Z Z Z Z ).^./././.(.U X 9.+.+.+.+.+.+.+.+.+.+.+.+.+.+.+.+.+.+.+.+.+.+.+.+.+.+.+.+.+.+.+.+.+.+.+.+.+.+.+.+.@.#.% % % % & ",
"- % % % i _ & % % % % q ;.4.+.+.+.+.+.+.+.+.+.+.+.+.+.+.+.+.+.+.+.+.+.+.+.+.+.+.+.+.+.+.+.+.+.5.j % % % j _ 6 % % % % ; !.}.Z Z Z Z Z Z Z Z Z Z Z Z Z Z Z Z Z Z Z Z Z Z Z Z Z Z Z Z Z Z ).^././././.U X %.+.+.+.+.+.+.+.+.+.+.+.+.+.+.+.+.+.+.+.+.+.+.+.+.+.+.+.+.+.+.+.+.+.+.+.+.+.+.+.+.@._.% % % % $ ",
"& % % % i _ $ % % % % q ;.4.+.+.+.+.+.+.+.+.+.+.+.+.+.+.+.+.+.+.+.+.+.+.+.+.+.+.+.+.+.+.+.+.+.5.j % % % j _ j % % % % ; !.}.Z Z Z Z Z Z Z Z Z Z Z Z Z Z Z Z Z Z Z Z Z Z Z Z Z Z Z Z Z Z ).^.U /././.U X %.+.+.+.+.+.+.+.+.+.+.+.+.+.+.+.+.+.+.+.+.+.+.+.+.+.+.+.+.+.+.+.+.+.+.+.+.+.+.+.+.@._.% % % % $ ",
"- % % % i _ & % % % % q ;.4.+.+.+.+.+.+.+.+.+.+.+.+.+.+.+.+.+.+.+.+.+.+.+.+.+.+.+.+.+.+.+.+.+.5.j % % % | : j % % % % ; !.}.Z Z Z Z Z Z Z Z Z Z Z Z Z Z Z Z Z Z Z Z Z Z Z Z Z Z Z Z Z Z ).^.U /././.U X %.+.+.+.+.+.+.+.+.+.+.+.+.+.+.+.+.+.+.+.+.+.+.+.+.+.+.+.+.+.+.+.+.+.+.+.+.+.+.+.+.@._.% % % % & ",
"& % % % i _ & % % % % q ;.4.+.+.+.+.+.+.Z +.+.+.+.+.+.+.+.+.+.+.+.+.+.+.+.+.+.+.+.+.+.+.+.+.Z 5.j % % % j _ j % % % % ; !.}.Z Z Z Z Z Z Z Z Z Z Z Z Z Z Z Z Z Z Z Z Z Z Z Z Z Z Z Z Z Z ).^././././.U X %.+.+.+.+.+.+.+.+.+.+.+.+.+.+.+.+.+.+.+.+.+.+.+.+.+.+.+.+.+.+.+.+.+.+.+.+.+.+.+.+.@._.$ % % % & ",
"& % % % i _ 6 % % % % q ;.4.+.+.+.+.+.+.+.+.+.+.+.+.+.+.+.+.+.+.+.+.+.+.+.+.+.+.+.+.Z +.+.+.+.5.j % % % j _ - % % % % > !.}.Z Z Z Z Z Z Z Z Z Z Z Z Z Z Z Z Z Z Z Z Z Z Z Z Z Z Z Z Z Z ).^./././.(.U X %.+.+.+.+.Z +.+.+.+.+.+.+.+.+.+.+.+.+.+.+.+.+.+.+.+.+.+.+.+.+.+.+.+.+.+.+.+.+.+.+.@._.$ % % % & ",
"& % % % i _ & % % % % * ;.4.+.+.+.+.+.+.+.+.+.+.+.+.+.Z +.+.+.+.+.+.+.+.+.+.+.+.+.+.+.+.+.+.+.5.j % % % j : - % % % % ; !.}.Z Z Z Z Z Z Z Z Z Z Z Z Z Z Z Z Z Z Z Z Z Z Z Z Z Z Z Z Z Z ).^.U /./.(.U X %.+.+.+.+.+.+.+.+.+.+.+.+.+.+.+.+.+.+.+.+.+.+.+.+.+.+.+.+.Z +.+.+.+.+.+.+.+.+.+.+.@._.$ % % % 6 ",
"& % % % i = & % % % % q ;.4.+.+.+.+.+.+.+.+.+.+.+.+.+.+.+.+.+.+.+.+.+.+.+.+.+.+.+.+.+.+.+.+.+.5.j % % % j _ - % % % % ; !.}.Z Z Z Z Z Z Z Z Z Z Z Z Z Z Z Z Z Z Z Z Z Z Z Z Z Z Z Z Z Z ).^.U /././.U X %.+.+.+.+.+.+.+.+.+.+.+.+.+.+.+.+.+.+.+.+.+.+.+.+.+.+.+.+.+.+.+.+.+.+.+.+.+.+.+.+.@._.$ % % % & ",
"- % % % i _ & % % % % q ;.4.+.+.+.+.+.+.+.+.+.+.+.+.+.+.+.+.+.+.+.+.+.+.+.+.+.+.+.+.+.+.+.+.+.5.j % % % j : - % % % % ; !.}.Z Z Z Z Z Z Z Z Z Z Z Z Z Z Z Z Z Z Z Z Z Z Z Z Z Z Z Z Z Z ).^.U /././.U X %.+.+.+.+.+.+.+.+.+.+.+.+.+.+.+.+.+.+.+.+.+.+.+.+.+.+.+.+.+.+.+.+.+.+.+.+.+.+.+.+.@._.$ % % % & ",
"& % % % | _ & % % % % q ;.4.+.+.+.+.+.+.+.+.+.+.+.+.+.+.+.+.+.+.+.+.+.+.+.+.+.+.+.+.+.+.+.+.+.5.j % % % j _ j % % % % ; !.}.Z Z Z Z Z Z Z Z Z Z Z Z Z Z Z Z Z Z Z Z Z Z Z Z Z Z Z Z Z Z ).^.U /././.U X %.+.+.+.+.+.+.+.+.+.+.+.+.+.+.+.+.+.+.+.+.+.+.+.+.+.+.+.+.+.+.+.+.+.+.+.+.+.+.+.+.@._.% % % % & ",
"- % % % i _ & % % % % q ;.4.+.+.+.+.+.+.+.+.+.+.+.+.+.+.+.+.+.+.+.+.+.+.+.+.+.+.+.+.+.+.+.+.Z 5.j % % % j : j % % % % ; !.}.Z Z Z Z Z Z Z Z Z Z Z Z Z Z Z Z Z Z Z Z Z Z Z Z Z Z Z Z Z Z ).^././.(./.U X %.Z +.+.+.+.+.+.+.+.+.+.+.+.+.+.+.+.+.+.+.+.+.+.+.+.+.+.+.+.+.+.+.+.+.+.+.+.+.+.+.@._.% % % % & ",
"& % % % i = & % % % % q ;.4.+.+.+.+.+.+.+.+.+.+.+.+.+.+.+.+.+.+.+.+.+.+.+.+.+.+.+.+.+.+.+.+.+.5.j % % % j _ j % % % % ; 6.}.Z Z Z Z Z Z Z Z Z Z Z Z Z Z Z Z Z Z Z Z Z Z Z Z Z Z Z Z Z Z ).^././././.U X %.+.+.+.Z +.+.+.+.+.+.+.+.+.+.+.+.+.+.+.+.+.+.+.+.+.+.+.+.+.+.+.+.+.+.+.+.+.+.+.` @._.% % % % $ ",
"& % % % i _ $ % % % % q ;.4.+.+.+.+.+.+.+.+.+.+.+.+.+.+.+.+.+.+.+.+.+.+.+.+.+.+.+.+.+.+.+.+.+.5.j % % % j _ j % % % % ; !.}.Z Z Z Z Z Z Z Z Z Z Z Z Z Z Z Z Z Z Z Z Z Z Z Z Z Z Z Z Z Z ).^./././././.X %.+.+.+.+.+.+.+.+.+.+.+.+.+.+.+.+.+.+.+.+.+.+.+.+.+.+.+.+.+.+.+.+.+.+.+.+.+.+.+.+.@._.% % % % & ",
"& % % % i _ & % % % % q ;.4.+.+.+.+.+.+.+.+.Z +.+.+.+.+.+.+.+.+.+.+.+.+.+.+.+.+.+.+.+.+.+.+.+.5.j % % % j _ j % % % % ; !.}.Z Z Z Z Z Z Z Z Z Z Z Z Z Z Z Z Z Z Z Z Z Z Z Z Z Z Z Z Z Z ).^.U /././.U X %.+.+.+.+.+.+.+.+.+.+.+.+.+.+.+.+.+.+.+.+.+.+.+.+.+.+.+.+.+.+.+.+.+.+.+.+.+.+.+.+.@._.% % % % & ",
"- % % % i = & % % % % q ;.4.+.+.+.+.+.+.+.+.+.+.+.+.+.+.+.+.+.+.+.+.+.+.+.+.+.+.+.+.+.+.+.+.+.5.j % % % j _ j % % % % ; 6.}.Z Z Z Z Z Z Z Z Z Z Z Z Z Z Z Z Z Z Z Z Z Z Z Z Z Z Z Z Z Z ).^.U /./.(.U X %.+.+.+.+.+.+.+.+.+.+.+.+.+.+.+.+.+.+.+.+.+.+.+.+.+.+.+.+.+.+.+.+.+.+.+.+.+.+.+.+.@._.% % % % & ",
"& % % % i _ & % % % % q ;.4.+.+.+.+.+.+.+.+.+.+.+.+.+.+.+.+.+.+.+.+.+.+.+.+.+.+.+.+.+.+.+.+.+.5.j % % % j : j % % % % > !.}.Z Z Z Z Z Z Z Z Z Z Z Z Z Z Z Z Z Z Z Z Z Z Z Z Z Z Z Z Z Z ).^.U /././.U X %.+.+.+.+.+.+.+.+.+.+.+.+.+.+.+.+.+.+.+.+.+.+.+.+.+.+.+.+.+.+.+.+.+.+.+.+.+.+.+.+.@._.$ % % % & ",
"- % % % i _ $ % % % % q ;.4.+.+.+.+.+.+.+.+.+.+.Z +.+.+.+.+.+.+.+.+.+.+.+.+.+.+.+.+.+.+.+.+.+.5.j % % % | _ j % % % % ; !.}.Z Z Z Z Z Z Z Z Z Z Z Z Z Z Z Z Z Z Z Z Z Z Z Z Z Z Z Z Z Z ).^././././.U X %.+.+.+.+.+.+.+.+.+.+.+.+.Z +.+.+.+.+.+.+.+.+.+.+.+.+.+.+.+.+.+.+.+.Z +.+.+.+.+.+.@._.$ % % % $ ",
"& % % % i _ & % % % % q ;.4.+.+.+.+.+.+.+.+.+.+.+.+.+.+.+.+.+.+.+.+.+.+.+.+.+.+.+.+.+.+.+.+.+.5.j % % % j _ j % % % % ; !.}.Z Z Z Z Z Z Z Z Z Z Z Z Z Z Z Z Z Z Z Z Z Z Z Z Z Z Z Z Z Z ).^././././.U X %.+.+.+.+.+.+.+.+.+.+.+.+.+.+.+.+.+.+.+.+.+.+.+.+.+.+.+.+.+.+.+.+.+.+.+.+.+.+.+.+.@._.$ % % % & ",
"& % % % i _ & % % % % q ;.4.+.+.+.+.+.+.+.+.+.+.+.+.+.+.+.+.+.+.+.+.+.+.+.+.+.+.+.+.+.+.+.+.+.5.j % % % j _ j % % % % ; !.}.Z Z Z Z Z Z Z Z Z Z Z Z Z Z Z Z Z Z Z Z Z Z Z Z Z Z Z Z Z Z '.^././././.U X %.+.+.+.+.+.+.+.+.+.+.+.+.+.+.+.+.+.+.+.+.+.+.+.+.+.+.+.+.+.+.+.+.+.+.+.+.+.+.+.+.@._.$ % % % 6 ",
"& % % % i _ & % % % % q ;.4.+.+.+.+.+.+.+.+.+.+.+.+.+.+.+.+.+.Z +.+.+.+.+.+.+.+.+.+.+.+.+.+.+.5.- % % % j _ j % % % % ; !.}.Z Z Z Z Z Z Z Z Z Z Z Z Z Z Z Z Z Z Z Z Z Z Z Z Z Z Z Z Z Z {.^./.(././.U X %.+.+.+.+.+.+.+.+.+.+.+.+.+.+.+.+.+.+.+.+.+.+.+.+.+.+.+.+.+.+.+.+.+.+.+.+.+.+.+.+.@._.$ % % % & ",
"- % % % i _ $ % % % % q ;.4.+.+.+.+.+.+.+.+.+.+.+.+.+.+.+.+.+.+.+.+.+.+.+.+.+.+.+.+.+.+.+.+.+.5.j % % % j : j % % % % ; !.}.Z Z Z Z Z Z Z Z Z Z Z Z Z Z Z Z Z Z Z Z Z Z Z Z Z Z Z Z Z Z {.^.V /././.U X 9.+.+.+.+.+.+.+.+.+.+.+.+.+.+.+.+.+.+.+.+.+.+.+.+.+.Z +.+.+.+.+.+.+.+.+.+.+.+.+.+.@._.% % % % & ",
"& % % % i _ & % % % % q ;.4.+.+.+.+.+.+.+.+.+.+.+.+.+.+.+.+.+.+.+.+.+.+.+.+.+.+.+.+.+.+.+.+.Z 5.j % % % j _ j % % % % ; !.}.Z Z Z Z Z Z Z Z Z Z Z Z Z Z Z Z Z Z Z Z Z Z Z Z Z Z Z Z Z Z {.^.V /././.U X %.+.+.+.+.+.+.+.+.+.+.+.+.+.+.+.+.+.+.+.+.+.+.+.+.+.+.+.+.+.+.+.+.+.+.+.+.+.+.+.+.@._.$ % % % & ",
"- % % % i _ & % % % % s ;.4.+.+.+.+.+.+.+.+.+.+.+.+.+.+.+.+.+.+.+.+.+.+.+.+.Z +.+.+.+.+.+.+.+.5.j % % % j _ j % % % % ; !.}.Z Z Z Z Z Z Z Z Z Z Z Z Z Z Z Z Z Z Z Z Z Z Z Z Z Z Z Z Z Z ).^./././.(.U X %.+.+.+.+.+.+.+.+.+.+.+.+.+.+.+.+.+.+.+.+.+.+.+.+.+.+.+.+.+.+.+.+.+.+.+.+.+.+.+.+.@._.% % % % & ",
"& % % % i _ $ % % % % q ;.4.+.+.+.+.+.+.+.+.+.+.+.+.+.Z +.+.+.+.+.+.+.+.+.+.+.+.+.+.+.+.+.+.+.5.j % % % | _ j % % % % ; !.}.Z Z Z Z Z Z Z Z Z Z Z Z Z Z Z Z Z Z Z Z Z Z Z Z Z Z Z Z Z Z ).^././././.U X %.+.+.+.+.+.+.+.+.+.+.+.+.+.+.+.+.+.+.+.+.+.+.+.+.+.+.+.+.+.+.+.+.+.+.+.+.+.+.+.+.@._.% % % % & ",
"& % % % i _ & % % % % q ;.4.+.+.+.+.+.+.+.+.+.+.+.+.+.+.+.+.+.+.+.+.+.+.+.+.+.+.+.+.+.+.+.+.+.5.j % % % j _ j % % % % ; !.}.Z Z Z Z Z Z Z Z Z Z Z Z Z Z Z Z Z Z Z Z Z Z Z Z Z Z Z Z Z Z ).^./././.U U X %.+.+.+.+.+.+.+.+.+.+.+.+.+.+.+.+.+.+.+.+.+.+.+.+.+.+.+.+.+.+.+.+.+.+.+.+.+.+.+.+.@.#.% % % % & ",
"& % % % i _ & % % % % q ;.4.+.+.+.+.+.+.+.+.+.+.+.+.+.+.+.+.+.+.+.+.+.+.+.+.+.+.+.+.+.+.+.+.+.5.j % % % j _ j % % % % > !.}.Z Z Z Z Z Z Z Z Z Z Z Z Z Z Z ).Z Z Z Z Z Z Z Z Z Z Z Z Z Z ).^./././.U U X %.+.+.+.+.+.+.+.+.+.+.+.Z +.+.+.+.+.+.+.+.+.+.+.+.+.+.+.+.+.+.+.+.+.+.+.+.+.+.+.+.K._.% % % % $ ",
"- % % % i _ $ % % % % q ;.4.+.+.+.+.+.+.+.+.+.+.+.+.+.+.+.+.+.+.+.+.+.+.+.+.+.+.+.+.+.+.+.+.+.5.j % % % j : j % % % % ; !.}.Z Z Z Z Z Z Z Z Z Z Z Z Z Z Z Z Z Z Z Z Z Z Z Z Z Z Z Z Z Z ).^././././.U X %.+.+.+.+.+.+.+.+.+.+.+.+.+.+.+.+.+.+.+.+.+.+.+.Z +.+.+.+.+.+.+.+.+.+.+.+.+.+.+.+.@._.$ % % % $ ",
"& % % % i _ & % % % % q ;.4.+.+.+.+.+.+.+.+.+.+.+.+.+.+.+.+.+.+.+.+.+.+.+.+.+.+.+.+.+.+.+.+.Z 5.j % % % j _ j % % % % ; !.}.Z Z Z Z Z Z ).Z Z Z Z Z Z Z Z Z Z Z Z Z Z Z Z Z Z Z Z Z Z Z ).^.U (././.U X 9.+.+.+.+.+.+.+.+.+.+.+.+.+.+.+.+.+.+.+.+.+.+.+.+.+.+.+.+.+.+.+.+.+.+.+.+.+.+.+.+.@._.$ % % % & ",
"- % % % i _ & % % % % q ;.4.+.Z +.+.+.+.+.+.+.+.+.+.+.+.+.+.+.+.+.+.+.+.+.+.+.+.+.+.+.+.+.+.+.5.j % % % j _ - % % % % ; !.}.Z Z Z Z Z Z Z Z Z Z Z Z Z Z Z Z Z Z Z Z Z Z Z Z Z Z Z Z Z Z ).^././././.U X %.+.+.+.+.+.+.+.+.+.+.+.+.+.+.+.+.+.+.+.+.+.+.+.+.+.+.+.+.+.+.+.+.+.+.+.+.+.+.+.+.@._.$ % % % & ",
"& % % % i _ 6 % % % % q ;.4.+.+.+.+.+.+.+.+.+.+.+.+.+.+.+.+.+.+.+.+.+.+.+.+.+.+.+.+.+.+.+.+.+.5.j % % % j : - % % % % ; 6.}.Z ).Z Z Z Z Z Z Z Z Z Z Z Z Z Z Z Z Z Z Z Z Z Z Z Z Z Z Z Z ).^././././.U X %.+.+.+.+.+.+.+.+.+.+.+.+.+.+.+.+.+.+.+.+.+.+.+.+.+.+.+.+.+.+.+.+.+.+.+.+.+.+.+.+.@._.$ % % % & ",
"& % % % i _ & % % % % * ;.4.+.+.+.+.+.+.+.+.+.+.+.+.+.+.+.+.+.+.+.+.+.+.+.+.+.+.+.+.+.+.+.+.+.5.j % % % j : - % % % % ; !.}.Z Z Z Z Z Z Z Z Z Z Z Z Z Z Z Z Z Z Z Z Z Z Z Z Z Z Z Z Z Z ).^./.(./.(.U X %.+.+.+.+.+.+.+.+.+.+.+.+.+.+.+.+.+.+.+.+.+.+.+.+.+.+.+.+.+.+.+.+.+.+.+.+.+.+.+.+.@._.% % % % 6 ",
"& % % % i = & % % % % q ;.4.+.+.+.+.+.+.+.+.+.+.+.+.+.+.+.+.+.+.+.+.+.+.+.+.+.+.+.+.+.+.+.+.+.5.j % % % j _ - % % % % ; !.}.Z Z Z Z Z Z Z Z Z Z Z Z Z Z Z Z Z Z Z Z Z Z Z Z Z Z Z Z Z Z ).^.U /././.U X %.+.+.+.+.+.+.Z +.+.+.+.+.+.+.+.+.+.+.+.+.+.+.+.+.+.+.+.+.+.+.+.+.+.+.+.+.+.+.+.+.@._.$ % % % & ",
"- % % % i _ & % % % % q ;.4.+.+.+.+.+.+.+.+.+.+.+.+.+.+.+.+.+.+.+.+.+.+.+.+.+.+.+.+.Z +.+.+.+.5.j % % % j : j % % % % ; !.}.Z Z Z Z Z Z Z Z Z Z Z Z Z Z Z Z Z Z Z Z Z Z Z Z Z Z Z Z Z Z ).^.U /././.U X %.+.+.+.+.+.+.+.+.+.+.+.+.+.+.+.+.+.+.+.+.+.+.+.+.+.+.+.+.+.+.+.+.+.+.+.+.+.+.+.+.@._.$ % % % & ",
"& % % % | _ & % % % % q ;.4.+.+.+.+.+.+.+.+.+.+.+.+.+.+.+.+.+.+.+.+.+.+.+.+.+.+.+.+.+.+.+.+.+.5.j % % % j _ - % % % % ' !.}.Z Z Z Z Z Z Z Z Z Z Z Z Z Z Z Z Z Z Z Z Z Z Z Z Z Z Z Z Z Z ).^.U /././.U X %.+.+.+.+.+.+.+.+.+.+.+.+.+.+.+.+.+.+.+.+.+.+.+.+.+.+.+.+.+.+.+.+.+.+.+.+.+.+.+.+.@._.$ % % % & ",
"- % % % i _ & % % % % q ;.4.+.+.+.+.+.+.+.+.+.+.+.+.+.+.+.+.+.+.+.+.+.+.+.+.+.+.+.+.+.+.+.+.+.5.j % % % | _ j % % % % , !.b.Z Z Z Z ).Z Z Z Z Z ).Z Z Z Z Z Z Z Z Z Z Z Z Z Z Z Z Z Z Z ).0././././.U X %.+.+.+.+.+.+.+.+.+.+.+.+.+.+.+.+.+.+.+.+.+.+.+.+.+.+.+.+.+.+.+.+.+.+.+.+.+.+.+.+.@._.% % % % & ",
"& % % % i = & % % % % q ;.4.+.+.+.+.+.+.+.+.+.+.+.+.+.+.+.+.+.+.Z +.+.+.+.+.+.+.+.+.+.+.+.+.+.5.j % % % j _ j % % % % ' A b.Z Z Z Z Z Z Z Z Z Z Z Z Z Z Z Z Z Z Z Z Z Z Z Z Z Z Z Z Z Z ).^./.(././.U X %.+.+.+.+.+.+.+.+.+.+.+.+.+.+.+.+.+.+.+.+.+.+.+.+.+.+.+.+.+.+.+.+.+.+.+.+.+.+.+.` @._.% % % % $ ",
"& % % % i _ $ % % % % q ;.4.+.+.+.+.+.+.+.+.+.+.+.+.+.+.+.+.+.+.+.+.+.+.+.+.+.+.+.+.+.+.+.+.+.5.j % % % j _ j % % % % ' !.b.Z Z Z Z Z Z Z Z Z Z Z Z Z Z Z Z Z Z Z Z Z Z Z Z Z Z Z Z Z Z ).^.U /././.U X %.+.+.+.+.+.+.+.+.+.+.+.+.+.+.+.+.+.+.+.+.+.+.+.+.+.+.+.+.+.+.+.+.Z +.+.+.+.+.+.+.@._.% % % % & ",
"& % % % i _ & % % % % q ;.4.+.+.+.+.+.+.+.+.+.+.+.+.+.+.+.+.+.+.+.+.+.+.+.+.+.+.+.+.+.+.+.+.+.5.j % % % j _ j % % % % ; !.~.Z Z Z Z Z Z Z Z Z Z Z Z Z Z Z Z Z Z Z Z Z Z Z Z Z Z Z Z Z Z ).0./././.U U X %.+.+.+.+.+.+.+.+.+.+.+.+.+.+.+.+.+.+.+.+.+.+.+.+.+.+.+.+.+.+.+.+.+.+.+.+.+.+.+.+.@._.% % % % & ",
"& % % % i _ & % % % % q ;.4.+.+.+.+.+.+.+.+.+.+.+.+.+.+.+.+.+.+.+.+.+.+.+.+.+.+.+.+.+.+.+.+.+.5.j % % % j : j % % % % ; !.}.Z Z Z Z Z Z Z Z Z Z Z Z Z Z Z Z Z Z Z Z Z Z Z Z Z Z Z Z Z Z {.^.W /././.U X %.+.+.+.+.+.+.+.+.+.+.+.+.+.+.+.+.+.+.+.+.+.+.+.+.+.+.+.+.+.+.+.+.+.+.+.+.+.+.+.+.@._.% % % % & ",
"& % % % i = & % % % % q ;.4.+.+.+.+.+.+.+.+.+.+.+.+.+.+.+.+.+.+.+.Z +.+.+.+.+.+.+.+.+.+.+.+.+.5.j % % $ j _ j % % % % ; !.}.Z Z Z Z Z Z Z Z Z Z Z Z Z Z Z Z Z Z Z Z Z Z Z Z Z Z Z Z Z Z '.^.V /././.U X %.+.+.+.+.+.+.+.+.+.+.+.+.+.+.+.+.+.+.+.+.+.+.+.+.+.+.+.+.+.+.+.+.+.+.+.+.+.+.+.+.@._.$ % % % & ",
"& % % % i _ & % % % % q ;.4.+.+.+.+.+.+.+.+.+.+.+.+.+.+.+.+.+.+.+.+.+.+.+.+.+.+.+.+.+.+.+.+.+.5.j % % % j _ j % % % % ; !.}.Z Z Z Z Z Z Z Z Z Z Z Z Z Z Z Z Z Z Z Z Z Z Z Z Z Z Z Z Z Z ).^.U /.(./.U X %.+.+.+.+.+.+.+.+.+.+.+.+.+.+.+.+.+.+.+.+.+.+.+.+.+.+.+.+.+.+.+.+.+.+.+.+.+.+.+.+.@._.$ % % % $ ",
"- % % % i _ & % % % % q ;.4.+.+.+.+.+.+.+.+.+.+.+.+.+.+.+.+.+.+.+.+.+.+.+.+.+.+.+.+.+.+.+.+.+.5.- % % % j _ j % % % % ; !.}.Z Z Z Z Z Z Z Z Z Z Z Z Z Z Z Z Z Z Z Z Z Z Z Z Z Z Z Z Z Z ).^././././.U X %.+.+.+.+.+.+.+.+.+.+.+.+.+.+.+.+.+.+.+.+.+.+.+.+.+.+.+.+.+.+.+.+.+.+.+.+.+.+.+.+.@._.$ % % % & ",
"& % % % i _ $ % % % % q ;.4.+.+.+.+.+.+.Z +.+.+.+.+.+.+.+.+.+.+.+.+.+.+.+.+.+.+.+.+.+.+.+.+.Z 5.j % % % j _ j % % % % ; !.}.Z Z Z Z Z Z Z Z Z Z Z Z Z Z Z Z Z Z Z Z Z Z Z Z Z Z Z Z Z Z {.^.V /././.U X %.+.+.+.+.+.+.+.+.+.+.+.Z +.+.+.+.+.+.+.+.+.+.+.+.+.+.+.+.+.+.+.+.+.+.+.+.+.+.+.+.@.#.$ % % % 6 ",
"- % % % i _ & % % % % q ;.4.+.+.+.+.+.+.+.+.+.+.+.+.+.+.+.+.+.+.+.+.+.+.+.+.+.+.+.+.+.+.+.+.+.5.j % % % j _ j % % % % ; !.}.Z Z Z Z Z Z Z Z Z Z Z Z Z Z Z Z Z Z Z Z Z Z Z Z Z Z Z Z Z Z ).^.U /.(./.U X %.+.+.+.+.+.+.+.+.+.+.+.+.+.+.+.+.+.+.+.+.+.Z +.+.+.+.+.+.+.+.+.+.+.+.+.+.+.+.+.+.@._.$ % % % & ",
"& % % % i _ & % % % % q ;.4.+.+.+.+.+.+.+.+.+.+.+.+.+.+.+.+.+.+.+.+.+.+.+.+.+.+.+.+.+.+.+.+.+.5.j % % % j : j % % % % ; !.}.Z Z Z Z Z Z Z Z Z Z Z Z Z ).Z Z Z Z Z Z Z Z Z Z Z Z Z Z Z Z ).^./././.U U X %.+.+.+.+.+.+.+.+.+.+.+.+.+.+.+.+.+.+.+.+.+.+.+.+.+.+.+.+.+.+.+.+.+.+.+.+.+.Z +.+.@._.% % % % & ",
"& % % % i _ $ % % % % q ;.4.+.+.+.+.+.+.+.+.+.+.+.+.+.+.+.+.+.+.+.+.+.+.+.+.+.+.+.+.+.+.+.+.+.5.j % % % j _ j % % % % > !.}.Z Z Z Z Z Z Z Z Z Z Z Z Z Z Z Z Z Z Z Z Z Z Z Z Z Z Z Z Z Z ).^././././.U X %.+.+.+.+.+.+.+.+.+.+.+.+.+.+.+.+.+.+.+.+.+.+.+.+.+.+.+.+.+.+.+.+.+.+.+.+.+.+.+.+.@._.$ % % % & ",
"& % % % i _ & % % % % q ;.4.+.+.+.+.+.+.+.+.+.+.+.+.+.+.+.+.+.+.+.+.+.+.+.+.+.+.+.+.+.+.+.+.+.5.j % % % | _ j % % % % ; !.}.Z Z Z Z Z Z Z Z Z Z Z Z Z Z Z Z Z Z Z Z Z Z Z Z Z Z Z Z Z Z ).^.U /././.U X %.+.+.+.+.+.+.+.+.+.+.+.+.+.+.+.+.+.+.+.+.+.+.+.+.+.+.+.+.+.+.+.+.+.+.+.+.+.+.+.+.@._.% % % % & ",
"& % % % i = & % % % % q ;.4.+.+.+.Z +.+.+.+.+.+.+.+.+.+.+.+.+.+.+.+.+.+.+.+.+.+.+.+.+.+.+.+.+.5.j % % % j _ j % % % % ; !.}.Z Z Z Z Z Z Z Z Z Z Z Z Z Z Z Z Z Z Z Z Z Z Z Z Z Z Z Z Z Z ).^.U /./.(.U X %.+.+.+.+.+.+.+.+.+.+.+.+.+.+.+.+.Z +.+.+.+.+.+.+.+.+.+.+.+.+.+.+.+.+.+.+.+.+.+.+.@._.% % % % & ",
"& % % % i _ & % % % % q ;.4.+.+.+.+.+.+.+.+.+.Z +.+.+.+.+.+.+.+.+.+.+.+.+.+.+.+.+.+.+.+.+.+.+.5.j % % % j _ j % % % % ; !.}.Z Z Z Z Z Z Z Z Z Z Z Z Z Z Z Z Z Z Z Z Z Z Z Z Z Z Z Z Z Z ).^./././.(.U X %.+.+.+.+.+.+.+.+.+.+.+.+.+.+.+.+.+.+.+.+.+.+.+.+.+.+.+.+.+.+.+.+.+.+.+.+.+.+.+.+.@._.% % % % & ",
"- % % % i _ & % % % % q ;.4.+.+.+.+.+.+.+.+.+.+.+.+.+.+.+.+.+.+.+.+.+.+.+.+.+.+.+.+.+.+.+.+.+.5.j % % % j _ 6 % % % % ; !.}.Z Z Z Z Z Z Z Z Z Z Z Z Z Z Z Z Z Z Z Z Z Z Z Z Z Z Z Z Z Z ).^././././.U X %.+.+.+.+.+.+.+.+.+.+.+.+.+.+.+.+.+.+.+.+.+.+.+.+.+.+.+.+.+.+.+.+.+.+.+.+.+.+.+.+.@._.% % % % $ ",
"& % % % i d & % % % % q ;.4.+.+.+.+.+.+.+.+.+.+.+.+.+.+.+.+.+.+.+.+.+.Z +.+.+.+.+.+.+.+.+.+.+.5.j % % % j _ j % % % % ; !.}.Z Z Z Z Z Z Z Z Z Z Z Z Z Z Z Z Z Z Z Z Z Z Z Z Z Z Z Z Z Z ).^.U /././.U X %.+.+.+.+.+.+.+.+.+.+.+.+.+.+.+.+.+.+.+.+.+.+.+.+.+.+.+.+.+.+.+.+.+.+.+.+.+.+.+.+.@._.% % % % $ ",
"- % % % i _ & % % % % q ;.4.+.+.+.+.+.+.+.+.+.+.+.+.+.+.+.+.+.+.+.+.+.+.+.+.+.+.+.+.+.+.+.+.Z 5.j % % % | : j % % % % ; !.}.Z Z Z Z Z Z Z Z Z Z Z Z Z Z Z Z Z Z Z Z Z Z Z Z Z Z Z Z Z Z ).^.U /././.U X %.+.+.+.+.+.+.+.+.+.+.+.+.+.+.+.+.+.+.+.+.+.+.+.+.+.+.+.+.+.+.+.+.+.+.+.+.+.+.+.+.@.#.$ % % % & ",
"& % % % i _ & % % % % q ;.4.+.+.+.+.+.+.+.+.+.+.+.+.+.+.+.+.+.+.+.+.+.+.+.+.+.+.+.+.+.+.+.+.+.5.j % % % j _ j % % % % ; !.}.Z Z Z Z Z Z Z Z Z Z Z Z Z Z Z Z Z Z Z Z Z Z Z Z Z Z Z Z Z Z ).^././././.U X %.+.+.+.+.+.+.+.+.+.+.+.+.+.+.+.+.+.+.+.+.+.+.+.+.+.+.+.+.+.+.+.+.+.+.+.+.+.+.+.+.@._.$ % % % & ",
"& % % % i _ & % % % % q ;.4.+.+.+.+.+.+.+.+.+.+.+.+.+.+.+.+.+.+.+.+.+.+.+.+.+.+.+.+.+.+.+.+.+.5.j % % % j _ - % % % % > !.}.Z Z Z Z Z Z Z Z Z Z Z Z Z Z Z Z Z Z Z Z Z Z Z Z Z Z Z Z Z Z ).^./././.(.U X %.+.+.+.+.+.+.+.+.+.+.+.+.+.+.+.+.+.+.+.+.+.+.+.+.+.+.+.+.+.+.+.+.+.+.+.+.+.+.+.+.@._.$ % % % & ",
"- % % % i = & % % % % q ;.4.+.+.+.+.+.+.+.+.+.+.+.+.+.+.+.+.+.+.+.+.+.+.+.+.+.+.+.+.+.+.+.+.+.5.j % % % j : - % % % % ; A }.Z Z Z Z Z Z Z Z Z Z Z Z Z Z Z Z Z Z Z Z Z Z Z Z Z Z Z Z Z Z ).^././././.U X %.+.Z +.+.+.+.+.+.+.+.+.+.+.+.+.+.+.+.+.+.+.+.+.+.+.+.+.+.+.+.+.+.+.+.+.+.+.+.+.+.@._.% % % % & ",
"& % % % i _ & % % % % q ;.4.+.+.+.+.+.+.+.+.+.+.+.+.+.+.+.+.+.+.+.+.+.+.+.+.+.+.+.+.+.+.+.+.+.5.j % % % j _ - % % % % ; !.}.Z Z Z Z Z Z Z Z Z Z Z Z Z Z Z Z Z Z Z Z Z Z Z Z Z Z Z Z Z Z ).^././././.U X %.+.+.+.+.+.+.+.+.+.+.+.+.+.+.+.+.+.+.+.+.+.+.+.+.+.+.+.+.+.+.+.+.+.+.+.+.+.+.+.+.@._.% % % % & ",
"- % % % i _ $ % % % % q ;.4.+.+.+.+.+.+.+.+.+.+.+.+.+.+.+.+.+.+.+.+.+.+.+.+.+.+.+.+.+.+.+.+.+.5.j % % % j : - % % % % ; !.}.Z Z Z Z Z Z Z Z Z Z Z Z Z Z Z Z Z Z Z Z Z Z Z Z Z Z Z Z Z Z ).^.U /././.U X %.+.+.+.+.+.+.+.+.+.+.+.+.+.+.+.+.+.+.+.+.+.+.+.+.+.+.+.+.+.+.+.+.+.+.+.+.+.+.+.+.@.#.% % % % & ",
"& % % % i _ & % % % % q ;.4.+.+.+.+.+.+.+.+.+.+.+.+.+.+.+.+.+.+.+.+.+.+.+.+.+.+.+.+.+.+.+.+.+.5.j % % % j _ j % % % % ; !.}.Z Z Z Z Z Z Z Z Z Z Z Z Z Z Z Z Z Z Z Z Z Z Z Z Z Z Z Z Z Z ,.^.U /././.U X %.+.+.+.+.+.+.+.+.+.+.+.+.+.+.+.+.+.+.+.+.+.+.+.+.+.+.+.+.+.+.+.+.+.+.+.+.+.+.+.+.@._.% % % % $ ",
"& % % % i _ & % % % % q ;.4.+.+.+.+.+.+.+.+.+.+.+.+.+.+.+.+.+.+.+.+.+.+.+.+.+.+.+.+.+.+.+.+.+.5.j % % % j : j % % % % ; !./+ .Z Z Z Z Z Z Z Z Z Z Z Z Z Z Z Z Z Z Z Z Z Z Z  .Z Z Z Z Z ).^.U /././.U X %.+.+.+.+.+.+.+.+.+.+.+.+.+.+.+.+.+.+.+.+.+.+.+.+.+.+.+.+.+.+.+.+.+.+.+.+.+.+.+.+.@._.% % % % & ",
"& % % % i _ & % % % % q ;.!+Y Y Y ]+Y Y Y Y Y ]+%.Y Y %.]+Y ]+]+%.]+]+Y Y %.]+Y Y ]+%.Y Y Y 9.(+j % % % j _ j % % % % ; !.k.|.<.<.<.<.<.<.<.<.<.<.<.].<.<.<.<.<.<.].1.<.<.<.|.<.<.<.<.<.}.^.U /././.(.X %.+.+.+.+.+.+.+.+.+.+.+.+.+.` +.+.+.+.+.+.+.+.+.+.+.+.+.+.+.+.+.+.+.+.+.+.+.+.+.+.@._.% % % % $ ",
"- % % % i _ $ % % % % q _+=.=.=.=.=.=.=.=.=.=.=.=.=.=.=.=.=.=.=.=.=.=.=.=.=.=.=.=.=.=.=.=.=.=._+& % % % j _ j % % % % > ;.:+<+[+[+[+[+[+[+[+[+[+[+[+[+[+[+[+[+[+[+[+[+[+[+<+<+[+[+[+[+[+}+T U W W W W &.]+..).......m.....................).).......` .... . ...` ......` ................:._.% % % % & ",
"& % % % i _ & % % % % | h h h h h h h h h h + h h h h h h h h h h h h h h h h h h h h h @ h 5 , - % % % j _ j % % % % ; y z *.z A z z z J z z z J J z z z J z z z z z z J z z z J z z J z B I C D C I C G F G F G G F G G G G G G F F G G F G F G G F G G G G G G G F G G G F G G F G G G G H % % % % & ",
"- % % % i _ $ % % % % % % % % % % % % % % % % % % % % % % % % % % % % % % % % % % % % % % % % 5 j % % % j : j % % % % + # # = # d x # # d x # * # = # # x # # x d # x * d # # # # d x # = = x # # = # x d d # # x d # = # x d * # # # = # x d d # # x # # = # # # = # d x # = * * # # = # = u % % % % & ",
"& % % % i _ & % % % % % % % % % % % % % % % % % % % % % % % % $ % % % % % % % % % % % % % % $ 5 j % % % j _ j % % % % $ $ % $ $ $ $ $ $ $ $ $ % % $ $ % % $ $ $ $ $ $ $ $ $ $ $ $ $ $ % % % % % $ $ % $ $ $ $ $ $ $ $ $ $ $ $ % % $ % $ $ $ $ $ $ $ $ $ $ $ $ $ $ $ $ $ $ $ $ $ $ $ $ % $ $ $ % % % % & ",
"& % % % i = & % % $ & % % % % % % % % % % % % % % % % % % % % % % % % % % $ % % % % % % % % % u j % % % j _ - % % % % % % % % % % % % $ % % % % % % % % % $ % % % % % $ $ % % % % % % % % % % % % % % % % % % % % $ $ % % % % % % % % % % % % % % $ $ % % % % $ $ % % $ $ % % % % % % % % % % % % % % & ",
"& % % % i c 7 7 4 7 . u % % % % % % % % % % % % % % % % % % % % % % % % % % % % % % % % % % $ 5 j % % % j _ - % % % % % % % % % $ % % % % % % % % % % % % % % % % % % $ $ % % % % % % % % % % % % % % % % % $ % % % $ % % % $ % % % % % % % % % $ $ $ % % % % % % $ % % % % % % % % % % % % % % % % % & ",
"- % % % | 0 [ ^ ^ [ ^ = % % % % % % % % % % % % % % % % % % % % % % % % $ % % % % % % % % % % 5 j % % % j 7 ' 5 5 5 5 ) % % % % % % % $ % % % % % $ % % % % % % % % % % $ % % % % % $ % % % % % % % % % % % % % % % % % % % % % % % % % % % % % % % % $ % % % % % % % $ % % % % % $ % % % % % % % % % & ",
"& % % % i ! ^ ^ ^ ^ ^ = % % % % % % % % % % % % % % % % % % % % % % % % % % % % % % % % % % % 5 j % % % j c ] 1 1 1 } 8 % % % % % $ % % % % % % % % % % $ % % % % $ % % % % % % % % % % % % % % % % $ % % % % % $ % $ % % % % % % % % $ % $ % % % % % % % % % % $ % % % % % % % % % % % $ % % % % % % & ",
"- % % % | 0 ^ ^ ^ ^ ^ = % % % % % % % % % % % % % % % % % % % % % % % % % % % % % % % % % % $ 5 j % % % - b t ^ ^ ^ ^ 7 % % % % % % % % % % % % % % % % % % % % % % % % % % % % % % % % % % % % % % % % % % % % % % % % % % % % % % % % % % % % % % % % % % % % % % % % % % % % % % % % % % % % % % % & ",
"j % % % i ! ^ ^ ^ ^ { = % % % $ $ $ % $ $ $ % $ $ $ $ % $ $ % $ % $ % $ % $ % % $ % $ $ $ % $ 5 j % % % j b t ^ ^ ^ ^ 7 % % % % % % % % % % $ % % % % % $ % % % % $ % % % % % $ % % % % % % % % % % % % $ % % % % % % % $ % % % % $ % % % % % % $ % % % % % $ % $ % % % % % $ % % % % % $ % % % % % % $ ",
"p > , > 3 1 g g g g g _+, , , , , , , , , , , , , , , , , , , , , , , , , , , , , , , , , , , # j % % % j b [ ^ ^ ^ [ _+% % % % % % % % % % % % % % % % % % % % % % % % % % % % % % % % % % % % % % % % % % % % % % % % % % % % % % % % % % % % % % % % % % % % % % % % % % % % % % % % % % % % % % % & "};
