/* XPM */
static char * south_xpm[] = {
"350 350 24554 3",
"   	c #404041",
".  	c #434241",
"+  	c #464341",
"@  	c #474342",
"#  	c #454242",
"$  	c #474242",
"%  	c #484343",
"&  	c #464241",
"*  	c #454241",
"=  	c #464342",
"-  	c #474343",
";  	c #464343",
">  	c #454544",
",  	c #444544",
"'  	c #444342",
")  	c #434141",
"!  	c #424140",
"~  	c #454342",
"{  	c #454442",
"]  	c #464543",
"^  	c #474644",
"/  	c #484545",
"(  	c #484446",
"_  	c #464444",
":  	c #474645",
"<  	c #474646",
"[  	c #474544",
"}  	c #454443",
"|  	c #444242",
"1  	c #464443",
"2  	c #464544",
"3  	c #454444",
"4  	c #474545",
"5  	c #444343",
"6  	c #464545",
"7  	c #444443",
"8  	c #424242",
"9  	c #444344",
"0  	c #454545",
"a  	c #454646",
"b  	c #444543",
"c  	c #464644",
"d  	c #454445",
"e  	c #474647",
"f  	c #464645",
"g  	c #464646",
"h  	c #474444",
"i  	c #474745",
"j  	c #474747",
"k  	c #444546",
"l  	c #424243",
"m  	c #464445",
"n  	c #444444",
"o  	c #474445",
"p  	c #454645",
"q  	c #454543",
"r  	c #474543",
"s  	c #464745",
"t  	c #444747",
"u  	c #454748",
"v  	c #464647",
"w  	c #464546",
"x  	c #454343",
"y  	c #454344",
"z  	c #454647",
"A  	c #454546",
"B  	c #444545",
"C  	c #464746",
"D  	c #444647",
"E  	c #484646",
"F  	c #484645",
"G  	c #474746",
"H  	c #484746",
"I  	c #484847",
"J  	c #484848",
"K  	c #484747",
"L  	c #464747",
"M  	c #474847",
"N  	c #474648",
"O  	c #474748",
"P  	c #484748",
"Q  	c #454643",
"R  	c #474546",
"S  	c #424040",
"T  	c #444241",
"U  	c #484544",
"V  	c #434140",
"W  	c #584845",
"X  	c #664E4B",
"Y  	c #6C504F",
"Z  	c #664C4A",
"`  	c #6B4E4D",
" . 	c #6D4F4E",
".. 	c #6E514F",
"+. 	c #6C4E4D",
"@. 	c #684B47",
"#. 	c #634A43",
"$. 	c #674F49",
"%. 	c #6E5650",
"&. 	c #6B554D",
"*. 	c #6B534B",
"=. 	c #6F544F",
"-. 	c #66514F",
";. 	c #616360",
">. 	c #686E6C",
",. 	c #615F59",
"'. 	c #574C46",
"). 	c #534642",
"!. 	c #655852",
"~. 	c #685D56",
"{. 	c #6C6157",
"]. 	c #71655C",
"^. 	c #756762",
"/. 	c #756564",
"(. 	c #706360",
"_. 	c #756966",
":. 	c #796D6A",
"<. 	c #786C68",
"[. 	c #746763",
"}. 	c #6E615D",
"|. 	c #655955",
"1. 	c #645755",
"2. 	c #6F615F",
"3. 	c #766865",
"4. 	c #706362",
"5. 	c #665C5A",
"6. 	c #746867",
"7. 	c #6F6361",
"8. 	c #615856",
"9. 	c #5A5352",
"0. 	c #675F5D",
"a. 	c #6A615F",
"b. 	c #6A5F5E",
"c. 	c #6C605F",
"d. 	c #6F6563",
"e. 	c #706665",
"f. 	c #766E6A",
"g. 	c #736B66",
"h. 	c #6C635D",
"i. 	c #625A54",
"j. 	c #695F5B",
"k. 	c #716560",
"l. 	c #6B605C",
"m. 	c #645A57",
"n. 	c #6F655F",
"o. 	c #73665C",
"p. 	c #76695C",
"q. 	c #6B6A67",
"r. 	c #656B69",
"s. 	c #69665A",
"t. 	c #6F6656",
"u. 	c #696258",
"v. 	c #6B625B",
"w. 	c #726660",
"x. 	c #746A63",
"y. 	c #726860",
"z. 	c #6F655E",
"A. 	c #6F665F",
"B. 	c #796F67",
"C. 	c #706861",
"D. 	c #6C635E",
"E. 	c #706664",
"F. 	c #6F6666",
"G. 	c #706767",
"H. 	c #706666",
"I. 	c #6F6767",
"J. 	c #777070",
"K. 	c #736B6B",
"L. 	c #6E6662",
"M. 	c #756C65",
"N. 	c #726963",
"O. 	c #6D645E",
"P. 	c #726A64",
"Q. 	c #736C67",
"R. 	c #6F6863",
"S. 	c #706964",
"T. 	c #726D67",
"U. 	c #76706A",
"V. 	c #75706A",
"W. 	c #716D66",
"X. 	c #6F6A64",
"Y. 	c #74706A",
"Z. 	c #79746E",
"`. 	c #756F69",
" + 	c #766B66",
".+ 	c #776964",
"++ 	c #757167",
"@+ 	c #797969",
"#+ 	c #7B796D",
"$+ 	c #7B7A77",
"%+ 	c #707176",
"&+ 	c #606062",
"*+ 	c #706A63",
"=+ 	c #766E6B",
"-+ 	c #716765",
";+ 	c #6E6462",
">+ 	c #706764",
",+ 	c #6F6764",
"'+ 	c #716A67",
")+ 	c #736D69",
"!+ 	c #6C6661",
"~+ 	c #6A625D",
"{+ 	c #706863",
"]+ 	c #746D68",
"^+ 	c #746864",
"/+ 	c #776966",
"(+ 	c #7A7270",
"_+ 	c #706967",
":+ 	c #706D6B",
"<+ 	c #747270",
"[+ 	c #746E6D",
"}+ 	c #756D6B",
"|+ 	c #736D67",
"1+ 	c #706D65",
"2+ 	c #727068",
"3+ 	c #73716A",
"4+ 	c #73726C",
"5+ 	c #73746E",
"6+ 	c #72726D",
"7+ 	c #706F6A",
"8+ 	c #727169",
"9+ 	c #737168",
"0+ 	c #77716D",
"a+ 	c #76706C",
"b+ 	c #767065",
"c+ 	c #796F61",
"d+ 	c #73746A",
"e+ 	c #657877",
"f+ 	c #6D797B",
"g+ 	c #797471",
"h+ 	c #79756A",
"i+ 	c #767770",
"j+ 	c #777877",
"k+ 	c #767471",
"l+ 	c #73706A",
"m+ 	c #72716F",
"n+ 	c #726E6D",
"o+ 	c #746D6D",
"p+ 	c #75706F",
"q+ 	c #787573",
"r+ 	c #777371",
"s+ 	c #746C6C",
"t+ 	c #726768",
"u+ 	c #736868",
"v+ 	c #756A69",
"w+ 	c #776C6B",
"x+ 	c #736968",
"y+ 	c #6F6464",
"z+ 	c #6B6261",
"A+ 	c #6F6967",
"B+ 	c #77726F",
"C+ 	c #75706C",
"D+ 	c #6D6762",
"E+ 	c #675E5B",
"F+ 	c #625955",
"G+ 	c #6A5E59",
"H+ 	c #6F605C",
"I+ 	c #675A56",
"J+ 	c #6A5E5B",
"K+ 	c #6E6360",
"L+ 	c #746866",
"M+ 	c #716564",
"N+ 	c #6D5F5E",
"O+ 	c #6C5E5C",
"P+ 	c #6D5D57",
"Q+ 	c #71635A",
"R+ 	c #636160",
"S+ 	c #61666A",
"T+ 	c #686865",
"U+ 	c #6C695F",
"V+ 	c #717069",
"W+ 	c #707170",
"X+ 	c #6D6E6E",
"Y+ 	c #717371",
"Z+ 	c #757872",
"`+ 	c #72726C",
" @ 	c #726F68",
".@ 	c #726E67",
"+@ 	c #76746D",
"@@ 	c #74756E",
"#@ 	c #70726A",
"$@ 	c #73746C",
"%@ 	c #717169",
"&@ 	c #6E6E67",
"*@ 	c #71726A",
"=@ 	c #767771",
"-@ 	c #787973",
";@ 	c #777871",
">@ 	c #787772",
",@ 	c #777170",
"'@ 	c #74706F",
")@ 	c #73716E",
"!@ 	c #6F6E6C",
"~@ 	c #6E6A68",
"{@ 	c #716C6B",
"]@ 	c #777071",
"^@ 	c #746E6F",
"/@ 	c #6F6A68",
"(@ 	c #6C6461",
"_@ 	c #6B6260",
":@ 	c #786E6D",
"<@ 	c #7B7374",
"[@ 	c #776F6C",
"}@ 	c #787065",
"|@ 	c #797065",
"1@ 	c #766F62",
"2@ 	c #6E6F65",
"3@ 	c #6B7675",
"4@ 	c #6E6C70",
"5@ 	c #6D635F",
"6@ 	c #6F675E",
"7@ 	c #726763",
"8@ 	c #736667",
"9@ 	c #756C6B",
"0@ 	c #796E6D",
"a@ 	c #796C6D",
"b@ 	c #756969",
"c@ 	c #6F6364",
"d@ 	c #726566",
"e@ 	c #6E6465",
"f@ 	c #6C6262",
"g@ 	c #736869",
"h@ 	c #786E6E",
"i@ 	c #786E6F",
"j@ 	c #716B6A",
"k@ 	c #787271",
"l@ 	c #6E6867",
"m@ 	c #6D6563",
"n@ 	c #746C6A",
"o@ 	c #786F6B",
"p@ 	c #756C69",
"q@ 	c #736865",
"r@ 	c #786A68",
"s@ 	c #796A68",
"t@ 	c #766968",
"u@ 	c #7A706C",
"v@ 	c #7A6F6B",
"w@ 	c #786F6C",
"x@ 	c #746A67",
"y@ 	c #726B69",
"z@ 	c #736C6B",
"A@ 	c #766E6E",
"B@ 	c #77716F",
"C@ 	c #786B67",
"D@ 	c #726563",
"E@ 	c #6B6E6E",
"F@ 	c #747878",
"G@ 	c #7A7B7A",
"H@ 	c #797B77",
"I@ 	c #787876",
"J@ 	c #797875",
"K@ 	c #7A7772",
"L@ 	c #797570",
"M@ 	c #76716A",
"N@ 	c #75716B",
"O@ 	c #72716A",
"P@ 	c #72726A",
"Q@ 	c #706E67",
"R@ 	c #706D66",
"S@ 	c #6D6861",
"T@ 	c #716C63",
"U@ 	c #726C65",
"V@ 	c #726D65",
"W@ 	c #6E6A62",
"X@ 	c #6C675F",
"Y@ 	c #706B64",
"Z@ 	c #78746D",
"`@ 	c #77736C",
" # 	c #77726C",
".# 	c #726C67",
"+# 	c #726968",
"@# 	c #776C6C",
"## 	c #706364",
"$# 	c #746669",
"%# 	c #776C6F",
"&# 	c #7A7275",
"*# 	c #787273",
"=# 	c #786F71",
"-# 	c #746869",
";# 	c #746565",
"># 	c #746A6A",
",# 	c #736B6A",
"'# 	c #776E6D",
")# 	c #796F6F",
"!# 	c #776E6B",
"~# 	c #786F6F",
"{# 	c #6D6F70",
"]# 	c #66645D",
"^# 	c #766B62",
"/# 	c #6F6862",
"(# 	c #6D6B5D",
"_# 	c #6E6C5B",
":# 	c #726A5E",
"<# 	c #786E6A",
"[# 	c #766C6A",
"}# 	c #736969",
"|# 	c #68605F",
"1# 	c #605958",
"2# 	c #685F5D",
"3# 	c #635956",
"4# 	c #645956",
"5# 	c #6D6261",
"6# 	c #6B5F5C",
"7# 	c #655957",
"8# 	c #5E5453",
"9# 	c #665A58",
"0# 	c #605350",
"a# 	c #4D413E",
"b# 	c #5B4A46",
"c# 	c #67544E",
"d# 	c #705E56",
"e# 	c #423F3F",
"f# 	c #4F3B39",
"g# 	c #583936",
"h# 	c #5D3C39",
"i# 	c #5C3935",
"j# 	c #603B38",
"k# 	c #643D3A",
"l# 	c #5F3A37",
"m# 	c #5E3833",
"n# 	c #5E3932",
"o# 	c #5F3B36",
"p# 	c #64403B",
"q# 	c #5E3E38",
"r# 	c #5F3C36",
"s# 	c #653D39",
"t# 	c #5F3F3D",
"u# 	c #625857",
"v# 	c #797374",
"w# 	c #645753",
"x# 	c #563E37",
"y# 	c #513631",
"z# 	c #604541",
"A# 	c #654C47",
"B# 	c #644C44",
"C# 	c #694F47",
"D# 	c #70534D",
"E# 	c #765551",
"F# 	c #745450",
"G# 	c #775753",
"H# 	c #7B5C57",
"I# 	c #7C5C57",
"J# 	c #7B5A55",
"K# 	c #795651",
"L# 	c #71514B",
"M# 	c #674C46",
"N# 	c #6D524D",
"O# 	c #795D58",
"P# 	c #735855",
"Q# 	c #624A46",
"R# 	c #715854",
"S# 	c #755955",
"T# 	c #6C504D",
"U# 	c #5C4441",
"V# 	c #634B48",
"W# 	c #6C514D",
"X# 	c #715450",
"Y# 	c #785856",
"Z# 	c #795B57",
"`# 	c #785E59",
" $ 	c #7B5E57",
".$ 	c #775A53",
"+$ 	c #755850",
"@$ 	c #775953",
"#$ 	c #745751",
"$$ 	c #6A4C48",
"%$ 	c #755953",
"&$ 	c #785C51",
"*$ 	c #7F6255",
"=$ 	c #7A6968",
"-$ 	c #5F5B5B",
";$ 	c #65584B",
">$ 	c #705849",
",$ 	c #634E45",
"'$ 	c #6A524D",
")$ 	c #755B56",
"!$ 	c #725953",
"~$ 	c #735B55",
"{$ 	c #745C54",
"]$ 	c #725B52",
"^$ 	c #7C665D",
"/$ 	c #715B53",
"($ 	c #6E5651",
"_$ 	c #795F5B",
":$ 	c #715957",
"<$ 	c #725B58",
"[$ 	c #745C59",
"}$ 	c #6D5956",
"|$ 	c #776160",
"1$ 	c #76605E",
"2$ 	c #725C56",
"3$ 	c #776058",
"4$ 	c #786059",
"5$ 	c #6F5953",
"6$ 	c #6F5B54",
"7$ 	c #756059",
"8$ 	c #755F59",
"9$ 	c #725D57",
"0$ 	c #715E58",
"a$ 	c #78655F",
"b$ 	c #7B6962",
"c$ 	c #75625B",
"d$ 	c #725F58",
"e$ 	c #7B6961",
"f$ 	c #7F6D65",
"g$ 	c #7C6761",
"h$ 	c #7B615C",
"i$ 	c #7A5F5A",
"j$ 	c #73645A",
"k$ 	c #756D5C",
"l$ 	c #7E7366",
"m$ 	c #867D7D",
"n$ 	c #88828A",
"o$ 	c #7D7477",
"p$ 	c #7C6B64",
"q$ 	c #8A7570",
"r$ 	c #8E7773",
"s$ 	c #89706C",
"t$ 	c #876E69",
"u$ 	c #846B66",
"v$ 	c #856E69",
"w$ 	c #89746F",
"x$ 	c #816E6A",
"y$ 	c #826E67",
"z$ 	c #857069",
"A$ 	c #826C65",
"B$ 	c #7A645C",
"C$ 	c #836C64",
"D$ 	c #88716A",
"E$ 	c #856D66",
"F$ 	c #7D635E",
"G$ 	c #7E625E",
"H$ 	c #886E69",
"I$ 	c #816C69",
"J$ 	c #877773",
"K$ 	c #8C7B78",
"L$ 	c #826E6B",
"M$ 	c #7F6A66",
"N$ 	c #7F6A63",
"O$ 	c #7F6A61",
"P$ 	c #846F66",
"Q$ 	c #86726A",
"R$ 	c #87746D",
"S$ 	c #86746E",
"T$ 	c #83736C",
"U$ 	c #81716A",
"V$ 	c #816E68",
"W$ 	c #816F67",
"X$ 	c #827067",
"Y$ 	c #826E6A",
"Z$ 	c #826D6A",
"`$ 	c #836E62",
" % 	c #846A5B",
".% 	c #7E7066",
"+% 	c #747D7D",
"@% 	c #7A7E80",
"#% 	c #8D7C76",
"$% 	c #8D7C6D",
"%% 	c #7D736B",
"&% 	c #7D7170",
"*% 	c #7D6F6A",
"=% 	c #776960",
"-% 	c #786760",
";% 	c #776762",
">% 	c #796B65",
",% 	c #7F6A65",
"'% 	c #78635F",
")% 	c #715F5C",
"!% 	c #776461",
"~% 	c #836F6B",
"{% 	c #85706B",
"]% 	c #7C6461",
"^% 	c #775C5A",
"/% 	c #785D5C",
"(% 	c #795F5C",
"_% 	c #785E5C",
":% 	c #715755",
"<% 	c #6A5251",
"[% 	c #6D5854",
"}% 	c #79635F",
"|% 	c #7B645E",
"1% 	c #705852",
"2% 	c #664E48",
"3% 	c #634843",
"4% 	c #6A4D47",
"5% 	c #6D4F49",
"6% 	c #684A45",
"7% 	c #6B504A",
"8% 	c #6B524D",
"9% 	c #755A57",
"0% 	c #755957",
"a% 	c #6D514E",
"b% 	c #6E504D",
"c% 	c #6E4E4B",
"d% 	c #6C4E46",
"e% 	c #6C554B",
"f% 	c #685D5D",
"g% 	c #605C62",
"h% 	c #59524F",
"i% 	c #5F5349",
"j% 	c #756961",
"k% 	c #867976",
"l% 	c #8A7A7A",
"m% 	c #8E7F7B",
"n% 	c #8C7C77",
"o% 	c #84726B",
"p% 	c #7B685F",
"q% 	c #79655C",
"r% 	c #7F6E66",
"s% 	c #7E6F69",
"t% 	c #80716B",
"u% 	c #7F6F66",
"v% 	c #837168",
"w% 	c #7D6C64",
"x% 	c #796961",
"y% 	c #7C6D67",
"z% 	c #857570",
"A% 	c #887770",
"B% 	c #8A7873",
"C% 	c #83716E",
"D% 	c #8F7E78",
"E% 	c #8C7C76",
"F% 	c #8F8680",
"G% 	c #897975",
"H% 	c #806D6B",
"I% 	c #7B6866",
"J% 	c #7D6662",
"K% 	c #7D6560",
"L% 	c #735C56",
"M% 	c #6D5551",
"N% 	c #77605C",
"O% 	c #806867",
"P% 	c #7E6662",
"Q% 	c #846A5F",
"R% 	c #856A5F",
"S% 	c #80695A",
"T% 	c #7E7168",
"U% 	c #888686",
"V% 	c #76686F",
"W% 	c #6D5651",
"X% 	c #796157",
"Y% 	c #795C55",
"Z% 	c #775754",
"`% 	c #755854",
" & 	c #7A5C57",
".& 	c #805F5B",
"+& 	c #7C5B57",
"@& 	c #7A5955",
"#& 	c #6F5350",
"$& 	c #735652",
"%& 	c #82615C",
"&& 	c #7D5E5A",
"*& 	c #735553",
"=& 	c #715553",
"-& 	c #7B5E5B",
";& 	c #7C5F5C",
">& 	c #775D5A",
",& 	c #755D5A",
"'& 	c #796260",
")& 	c #6C5654",
"!& 	c #6A5450",
"~& 	c #745B57",
"{& 	c #7E625D",
"]& 	c #80625C",
"^& 	c #795B56",
"/& 	c #785A56",
"(& 	c #765854",
"_& 	c #745753",
":& 	c #7E5F5B",
"<& 	c #7C5E59",
"[& 	c #7A5D58",
"}& 	c #725651",
"|& 	c #68514E",
"1& 	c #685250",
"2& 	c #715756",
"3& 	c #715954",
"4& 	c #735954",
"5& 	c #65615E",
"6& 	c #767373",
"7& 	c #89807E",
"8& 	c #877D77",
"9& 	c #877B76",
"0& 	c #867874",
"a& 	c #80726C",
"b& 	c #81716B",
"c& 	c #85756C",
"d& 	c #817068",
"e& 	c #7F6F67",
"f& 	c #806C65",
"g& 	c #846D65",
"h& 	c #7D665D",
"i& 	c #826A60",
"j& 	c #816A61",
"k& 	c #816C63",
"l& 	c #7C675E",
"m& 	c #766158",
"n& 	c #76615A",
"o& 	c #806C64",
"p& 	c #7F6C64",
"q& 	c #7A665E",
"r& 	c #735E57",
"s& 	c #785C57",
"t& 	c #81625D",
"u& 	c #7E5C59",
"v& 	c #7C5A59",
"w& 	c #7E5F5E",
"x& 	c #7F6362",
"y& 	c #7A605F",
"z& 	c #775E5C",
"A& 	c #6C5250",
"B& 	c #6E504F",
"C& 	c #715452",
"D& 	c #6B524F",
"E& 	c #6A514F",
"F& 	c #725654",
"G& 	c #785B57",
"H& 	c #775A55",
"I& 	c #87716F",
"J& 	c #837E7E",
"K& 	c #635852",
"L& 	c #785F57",
"M& 	c #715B55",
"N& 	c #726051",
"O& 	c #736150",
"P& 	c #745D51",
"Q& 	c #795E56",
"R& 	c #775B56",
"S& 	c #765A56",
"T& 	c #765A57",
"U& 	c #664E4C",
"V& 	c #574340",
"W& 	c #5E4845",
"X& 	c #674D4A",
"Y& 	c #604641",
"Z& 	c #5C433F",
"`& 	c #5C423F",
" * 	c #674B48",
".* 	c #6A4C49",
"+* 	c #604543",
"@* 	c #583E3C",
"#* 	c #614442",
"$* 	c #5E413D",
"%* 	c #50332F",
"&* 	c #543832",
"** 	c #5A3D37",
"=* 	c #684740",
"-* 	c #433E3F",
";* 	c #523532",
">* 	c #592C27",
",* 	c #5B2C27",
"'* 	c #5D2D27",
")* 	c #5A2C25",
"!* 	c #5E2D29",
"~* 	c #5C2D27",
"{* 	c #5A2C27",
"]* 	c #602C27",
"^* 	c #602C28",
"/* 	c #5C2B28",
"(* 	c #612C28",
"_* 	c #5D312F",
":* 	c #634746",
"<* 	c #564344",
"[* 	c #482F2F",
"}* 	c #562D2A",
"|* 	c #5A2C29",
"1* 	c #552D29",
"2* 	c #532C2A",
"3* 	c #542B28",
"4* 	c #5B2D28",
"5* 	c #5F2E28",
"6* 	c #612E29",
"7* 	c #63302A",
"8* 	c #63302B",
"9* 	c #64302A",
"0* 	c #68312C",
"a* 	c #6A332C",
"b* 	c #68322C",
"c* 	c #5F2F29",
"d* 	c #5C2E28",
"e* 	c #5F302A",
"f* 	c #5E2F2A",
"g* 	c #5D2F2A",
"h* 	c #5E302B",
"i* 	c #5B2E29",
"j* 	c #5C2C28",
"k* 	c #5D2D28",
"l* 	c #62302B",
"m* 	c #64312C",
"n* 	c #66332D",
"o* 	c #5B2D29",
"p* 	c #64322D",
"q* 	c #63312C",
"r* 	c #64332D",
"s* 	c #61312C",
"t* 	c #5F302B",
"u* 	c #62302C",
"v* 	c #5F312C",
"w* 	c #5C322C",
"x* 	c #683D38",
"y* 	c #815E60",
"z* 	c #5A4448",
"A* 	c #472D29",
"B* 	c #5A312B",
"C* 	c #582E2A",
"D* 	c #582E2B",
"E* 	c #5B302C",
"F* 	c #59302C",
"G* 	c #592F2C",
"H* 	c #58302D",
"I* 	c #59312D",
"J* 	c #58302B",
"K* 	c #59322C",
"L* 	c #59302B",
"M* 	c #5E312B",
"N* 	c #61332C",
"O* 	c #5E322B",
"P* 	c #592F29",
"Q* 	c #5B312C",
"R* 	c #562F2C",
"S* 	c #572F2C",
"T* 	c #582F2B",
"U* 	c #5A302C",
"V* 	c #5C322D",
"W* 	c #5E322D",
"X* 	c #60322E",
"Y* 	c #623530",
"Z* 	c #5C332F",
"`* 	c #5A322E",
" = 	c #5E342F",
".= 	c #5B332F",
"+= 	c #5C3430",
"@= 	c #59322E",
"#= 	c #59302E",
"$= 	c #592F2E",
"%= 	c #52302D",
"&= 	c #4F322C",
"*= 	c #543A33",
"== 	c #7A6366",
"-= 	c #796871",
";= 	c #655559",
">= 	c #533935",
",= 	c #64413B",
"'= 	c #68433D",
")= 	c #66413B",
"!= 	c #623D37",
"~= 	c #644039",
"{= 	c #65403A",
"]= 	c #5C3833",
"^= 	c #593732",
"/= 	c #5E3B35",
"(= 	c #603B35",
"_= 	c #5F3933",
":= 	c #613B34",
"<= 	c #643C36",
"[= 	c #643B35",
"}= 	c #5F3631",
"|= 	c #5F3530",
"1= 	c #673C36",
"2= 	c #643D37",
"3= 	c #5E3D39",
"4= 	c #634540",
"5= 	c #664540",
"6= 	c #5F3C38",
"7= 	c #5C3834",
"8= 	c #5E3632",
"9= 	c #623632",
"0= 	c #633833",
"a= 	c #643934",
"b= 	c #653A36",
"c= 	c #633936",
"d= 	c #613833",
"e= 	c #603733",
"f= 	c #5E3734",
"g= 	c #5B3732",
"h= 	c #5D3434",
"i= 	c #5D3634",
"j= 	c #5C3631",
"k= 	c #5F3730",
"l= 	c #6C5C5C",
"m= 	c #54494A",
"n= 	c #62443F",
"o= 	c #6A463C",
"p= 	c #593A34",
"q= 	c #573534",
"r= 	c #5A3531",
"s= 	c #56332E",
"t= 	c #5A342F",
"u= 	c #59342E",
"v= 	c #5E3730",
"w= 	c #5D342D",
"x= 	c #562F2A",
"y= 	c #58312C",
"z= 	c #5E3630",
"A= 	c #603732",
"B= 	c #60342E",
"C= 	c #60322C",
"D= 	c #5A2F2C",
"E= 	c #582F2A",
"F= 	c #5B302A",
"G= 	c #5A302B",
"H= 	c #582E29",
"I= 	c #5B2F2B",
"J= 	c #5E312C",
"K= 	c #5F312B",
"L= 	c #5C2F29",
"M= 	c #5D2D29",
"N= 	c #632E28",
"O= 	c #652F29",
"P= 	c #642F28",
"Q= 	c #5A2D28",
"R= 	c #572D28",
"S= 	c #592F2A",
"T= 	c #5A302A",
"U= 	c #5E2F29",
"V= 	c #5B3631",
"W= 	c #785E62",
"X= 	c #745D62",
"Y= 	c #493432",
"Z= 	c #4E322C",
"`= 	c #5B3D38",
" - 	c #6C4B48",
".- 	c #795151",
"+- 	c #7C514E",
"@- 	c #734743",
"#- 	c #683C38",
"$- 	c #5F3531",
"%- 	c #613530",
"&- 	c #5B3430",
"*- 	c #633934",
"=- 	c #6B3C36",
"-- 	c #6A3C35",
";- 	c #613732",
">- 	c #5A3430",
",- 	c #663B37",
"'- 	c #593934",
")- 	c #65433D",
"!- 	c #734F48",
"~- 	c #724E46",
"{- 	c #7C5A53",
"]- 	c #75514A",
"^- 	c #603C38",
"/- 	c #593530",
"(- 	c #603830",
"_- 	c #633831",
":- 	c #65372F",
"<- 	c #62352D",
"[- 	c #5E312A",
"}- 	c #5F322C",
"|- 	c #63342F",
"1- 	c #673832",
"2- 	c #653732",
"3- 	c #5C352E",
"4- 	c #624541",
"5- 	c #866E70",
"6- 	c #6A4D52",
"7- 	c #55302D",
"8- 	c #60352F",
"9- 	c #61312B",
"0- 	c #66302A",
"a- 	c #643029",
"b- 	c #673129",
"c- 	c #6B332B",
"d- 	c #65302A",
"e- 	c #68332B",
"f- 	c #67322B",
"g- 	c #653129",
"h- 	c #6C342A",
"i- 	c #763B30",
"j- 	c #70372D",
"k- 	c #6C342C",
"l- 	c #66322A",
"m- 	c #64322A",
"n- 	c #62312A",
"o- 	c #5C302B",
"p- 	c #5B302B",
"q- 	c #572C28",
"r- 	c #592D28",
"s- 	c #65332C",
"t- 	c #6F3730",
"u- 	c #6A332D",
"v- 	c #65322C",
"w- 	c #602F29",
"x- 	c #5D2F29",
"y- 	c #66332C",
"z- 	c #67332D",
"A- 	c #68332E",
"B- 	c #5F2D29",
"C- 	c #65302C",
"D- 	c #60302C",
"E- 	c #64362F",
"F- 	c #623C34",
"G- 	c #6D584D",
"H- 	c #69544E",
"I- 	c #5E4744",
"J- 	c #61453F",
"K- 	c #5F403C",
"L- 	c #543833",
"M- 	c #573834",
"N- 	c #5D3B36",
"O- 	c #5F3E38",
"P- 	c #5C3A34",
"Q- 	c #5D3933",
"R- 	c #5A3733",
"S- 	c #603834",
"T- 	c #673C37",
"U- 	c #623933",
"V- 	c #5E3531",
"W- 	c #5D3430",
"X- 	c #5B332E",
"Y- 	c #5A332E",
"Z- 	c #5C3431",
"`- 	c #60332D",
" ; 	c #68362C",
".; 	c #6D372D",
"+; 	c #6A352C",
"@; 	c #65322A",
"#; 	c #67332C",
"$; 	c #65332B",
"%; 	c #60312B",
"&; 	c #5F322B",
"*; 	c #592E29",
"=; 	c #5A2F2A",
"-; 	c #63352E",
";; 	c #82615E",
">; 	c #807072",
",; 	c #483432",
"'; 	c #532F2C",
"); 	c #562F2E",
"!; 	c #5E352F",
"~; 	c #5C332C",
"{; 	c #5B2F2C",
"]; 	c #5F2F2A",
"^; 	c #62302A",
"/; 	c #60302A",
"(; 	c #62322C",
"_; 	c #592C28",
":; 	c #5C2E29",
"<; 	c #5D2C27",
"[; 	c #5E2C26",
"}; 	c #68302A",
"|; 	c #5F2C28",
"1; 	c #612D29",
"2; 	c #642F29",
"3; 	c #622E29",
"4; 	c #5E2D28",
"5; 	c #5D2C26",
"6; 	c #612E28",
"7; 	c #643128",
"8; 	c #443E3E",
"9; 	c #5B3632",
"0; 	c #672D26",
"a; 	c #6B2F26",
"b; 	c #6D2E26",
"c; 	c #682D25",
"d; 	c #672E26",
"e; 	c #632C25",
"f; 	c #642C25",
"g; 	c #6C2F27",
"h; 	c #692F28",
"i; 	c #622C26",
"j; 	c #622C28",
"k; 	c #5E2D27",
"l; 	c #5F2D26",
"m; 	c #5F2C25",
"n; 	c #7B5F59",
"o; 	c #55423F",
"p; 	c #432825",
"q; 	c #582D28",
"r; 	c #5F2D28",
"s; 	c #5C2B27",
"t; 	c #602B26",
"u; 	c #652C26",
"v; 	c #6A3026",
"w; 	c #693026",
"x; 	c #672E25",
"y; 	c #692F26",
"z; 	c #662E25",
"A; 	c #6A2E26",
"B; 	c #6B2D25",
"C; 	c #6C2E26",
"D; 	c #6C2E25",
"E; 	c #6B2E26",
"F; 	c #682E27",
"G; 	c #662D27",
"H; 	c #642D26",
"I; 	c #662D25",
"J; 	c #692F27",
"K; 	c #602B25",
"L; 	c #5E2B26",
"M; 	c #632E27",
"N; 	c #5C2B25",
"O; 	c #5D2B25",
"P; 	c #5B2C26",
"Q; 	c #5A2C26",
"R; 	c #613630",
"S; 	c #846161",
"T; 	c #624A4D",
"U; 	c #4D2C29",
"V; 	c #5F2E29",
"W; 	c #5D2B26",
"X; 	c #602D26",
"Y; 	c #5F2D27",
"Z; 	c #612E27",
"`; 	c #602E27",
" > 	c #622F26",
".> 	c #643028",
"+> 	c #6A3027",
"@> 	c #6D3027",
"#> 	c #6A2F26",
"$> 	c #6C3127",
"%> 	c #6D3127",
"&> 	c #683026",
"*> 	c #662E26",
"=> 	c #612D26",
"-> 	c #5F2C27",
";> 	c #612D27",
">> 	c #642D27",
",> 	c #682F28",
"'> 	c #6B3028",
")> 	c #6D3128",
"!> 	c #713229",
"~> 	c #74342C",
"{> 	c #76362E",
"]> 	c #6C312A",
"^> 	c #652E28",
"/> 	c #652F28",
"(> 	c #5F2B27",
"_> 	c #602A27",
":> 	c #5E2B27",
"<> 	c #5A2B26",
"[> 	c #522E28",
"}> 	c #7D625F",
"|> 	c #6A5A5B",
"1> 	c #423131",
"2> 	c #512E29",
"3> 	c #592E28",
"4> 	c #5A2D26",
"5> 	c #5F2F27",
"6> 	c #602F28",
"7> 	c #603028",
"8> 	c #613028",
"9> 	c #5F2E27",
"0> 	c #6A3029",
"a> 	c #682E28",
"b> 	c #672E28",
"c> 	c #682F29",
"d> 	c #6E3229",
"e> 	c #663027",
"f> 	c #5B2D27",
"g> 	c #582C27",
"h> 	c #572C27",
"i> 	c #5D2E28",
"j> 	c #662E28",
"k> 	c #632D27",
"l> 	c #652D27",
"m> 	c #622D27",
"n> 	c #602D27",
"o> 	c #5C2E27",
"p> 	c #602E2A",
"q> 	c #592C26",
"r> 	c #5C3A36",
"s> 	c #6D5754",
"t> 	c #4A3B39",
"u> 	c #4E2C28",
"v> 	c #5E2E29",
"w> 	c #632C29",
"x> 	c #632B27",
"y> 	c #612B25",
"z> 	c #5E2E25",
"A> 	c #5D2C24",
"B> 	c #602C26",
"C> 	c #632E26",
"D> 	c #612F27",
"E> 	c #623027",
"F> 	c #613027",
"G> 	c #5D2E25",
"H> 	c #602F26",
"I> 	c #5C2D25",
"J> 	c #622E26",
"K> 	c #652F27",
"L> 	c #642E25",
"M> 	c #662F26",
"N> 	c #6B3026",
"O> 	c #6A2F25",
"P> 	c #672D25",
"Q> 	c #652E25",
"R> 	c #572B24",
"S> 	c #5A2E26",
"T> 	c #5A2D25",
"U> 	c #5E2D25",
"V> 	c #602E25",
"W> 	c #5F2D25",
"X> 	c #836160",
"Y> 	c #775B5D",
"Z> 	c #492B29",
"`> 	c #542E27",
" , 	c #5F322E",
"., 	c #64342F",
"+, 	c #61302A",
"@, 	c #64302B",
"#, 	c #642E27",
"$, 	c #612C27",
"%, 	c #682F2A",
"&, 	c #683029",
"*, 	c #6F332B",
"=, 	c #6F3129",
"-, 	c #6D3129",
";, 	c #632C26",
">, 	c #672F28",
",, 	c #5E2F28",
"', 	c #613129",
"), 	c #64332A",
"!, 	c #67342B",
"~, 	c #69352C",
"{, 	c #673026",
"], 	c #672F26",
"^, 	c #673025",
"/, 	c #662F25",
"(, 	c #662D26",
"_, 	c #5F2F28",
":, 	c #5C3B34",
"<, 	c #7B635E",
"[, 	c #5E4240",
"}, 	c #622F28",
"|, 	c #652D25",
"1, 	c #6C3027",
"2, 	c #652C25",
"3, 	c #6E3127",
"4, 	c #723329",
"5, 	c #723428",
"6, 	c #743429",
"7, 	c #703328",
"8, 	c #5E2C24",
"9, 	c #5C2B24",
"0, 	c #5E2D24",
"a, 	c #642F25",
"b, 	c #6C3227",
"c, 	c #6F3228",
"d, 	c #6B3127",
"e, 	c #663025",
"f, 	c #632D25",
"g, 	c #6A2D26",
"h, 	c #702E27",
"i, 	c #6B2E27",
"j, 	c #652E27",
"k, 	c #62382E",
"l, 	c #6A5446",
"m, 	c #57453C",
"n, 	c #472C27",
"o, 	c #552F2A",
"p, 	c #5A312A",
"q, 	c #5C302A",
"r, 	c #5D3029",
"s, 	c #61312A",
"t, 	c #5D2F28",
"u, 	c #5D2F27",
"v, 	c #683129",
"w, 	c #632F28",
"x, 	c #602E26",
"y, 	c #5B2B24",
"z, 	c #683028",
"A, 	c #6B3328",
"B, 	c #693126",
"C, 	c #683027",
"D, 	c #592C25",
"E, 	c #622E27",
"F, 	c #633026",
"G, 	c #5E2D26",
"H, 	c #602D25",
"I, 	c #5F3027",
"J, 	c #7F675E",
"K, 	c #807471",
"L, 	c #45312D",
"M, 	c #512925",
"N, 	c #5A2B28",
"O, 	c #612C26",
"P, 	c #622B26",
"Q, 	c #662F27",
"R, 	c #642D25",
"S, 	c #6B3027",
"T, 	c #6F3128",
"U, 	c #692E28",
"V, 	c #5B3531",
"W, 	c #6A2E27",
"X, 	c #6C2F28",
"Y, 	c #692D27",
"Z, 	c #652D26",
"`, 	c #632D26",
" ' 	c #643027",
".' 	c #5F2E25",
"+' 	c #582E25",
"@' 	c #5A2E25",
"#' 	c #5A3B2F",
"$' 	c #7A685A",
"%' 	c #534841",
"&' 	c #402926",
"*' 	c #582F28",
"=' 	c #5E2E27",
"-' 	c #5E2C27",
";' 	c #693027",
">' 	c #652E24",
",' 	c #682F26",
"'' 	c #682E26",
")' 	c #6B2F27",
"!' 	c #682D26",
"~' 	c #692E25",
"{' 	c #692D26",
"]' 	c #692E26",
"^' 	c #672E27",
"/' 	c #5F2C26",
"(' 	c #5C2B26",
"_' 	c #542824",
":' 	c #5B2D25",
"<' 	c #603A31",
"[' 	c #826761",
"}' 	c #5C4C4A",
"|' 	c #472B27",
"1' 	c #5B2E27",
"2' 	c #642F26",
"3' 	c #612F26",
"4' 	c #663126",
"5' 	c #653025",
"6' 	c #673027",
"7' 	c #6E3228",
"8' 	c #713228",
"9' 	c #723328",
"0' 	c #6C3026",
"a' 	c #602F25",
"b' 	c #612F25",
"c' 	c #632E25",
"d' 	c #683025",
"e' 	c #6D3226",
"f' 	c #703227",
"g' 	c #723227",
"h' 	c #653027",
"i' 	c #652F26",
"j' 	c #683127",
"k' 	c #5E2C25",
"l' 	c #632A25",
"m' 	c #593028",
"n' 	c #7E6960",
"o' 	c #78706B",
"p' 	c #3D2E2C",
"q' 	c #572F2A",
"r' 	c #5E2E26",
"s' 	c #6B3229",
"t' 	c #653026",
"u' 	c #6D3026",
"v' 	c #713128",
"w' 	c #733127",
"x' 	c #6E3026",
"y' 	c #723128",
"z' 	c #753328",
"A' 	c #6F3127",
"B' 	c #632D24",
"C' 	c #642E26",
"D' 	c #602E29",
"E' 	c #5B2E26",
"F' 	c #5E3F38",
"G' 	c #76635C",
"H' 	c #544540",
"I' 	c #502D27",
"J' 	c #652B27",
"K' 	c #632924",
"L' 	c #642C24",
"M' 	c #5D2D25",
"N' 	c #692F29",
"O' 	c #6B3128",
"P' 	c #6A3328",
"Q' 	c #632F25",
"R' 	c #673127",
"S' 	c #612E26",
"T' 	c #703127",
"U' 	c #6F3026",
"V' 	c #6C2F26",
"W' 	c #592B24",
"X' 	c #5B2C25",
"Y' 	c #5D2D26",
"Z' 	c #5D2C25",
"`' 	c #61372F",
" ) 	c #866E68",
".) 	c #725E5B",
"+) 	c #482C26",
"@) 	c #5C2C26",
"#) 	c #652F25",
"$) 	c #672F25",
"%) 	c #723228",
"&) 	c #6D2F27",
"*) 	c #622C25",
"=) 	c #622D25",
"-) 	c #693127",
";) 	c #663026",
">) 	c #662E27",
",) 	c #5E3026",
"') 	c #604134",
")) 	c #6B5A4D",
"!) 	c #4D3933",
"~) 	c #542C25",
"{) 	c #632B25",
"]) 	c #682D27",
"^) 	c #6B2F29",
"/) 	c #652C27",
"() 	c #692E27",
"_) 	c #703128",
":) 	c #73332A",
"<) 	c #73322A",
"[) 	c #75332B",
"}) 	c #703029",
"|) 	c #6A2F27",
"1) 	c #682E25",
"2) 	c #6F3227",
"3) 	c #6C3126",
"4) 	c #713227",
"5) 	c #713327",
"6) 	c #682F27",
"7) 	c #6E3227",
"8) 	c #652E26",
"9) 	c #722F28",
"0) 	c #6E2F28",
"a) 	c #623028",
"b) 	c #5E392F",
"c) 	c #6B5B4D",
"d) 	c #4E4238",
"e) 	c #4B2E26",
"f) 	c #562E27",
"g) 	c #5E3028",
"h) 	c #633229",
"i) 	c #623127",
"j) 	c #693329",
"k) 	c #683228",
"l) 	c #643127",
"m) 	c #603027",
"n) 	c #5E3027",
"o) 	c #5D2E26",
"p) 	c #633128",
"q) 	c #663227",
"r) 	c #693227",
"s) 	c #632F26",
"t) 	c #622E25",
"u) 	c #693128",
"v) 	c #6D342B",
"w) 	c #6D322A",
"x) 	c #693029",
"y) 	c #6A3028",
"z) 	c #67312B",
"A) 	c #572B25",
"B) 	c #5C2E26",
"C) 	c #602F27",
"D) 	c #633228",
"E) 	c #5C3228",
"F) 	c #7B6A5D",
"G) 	c #7B776B",
"H) 	c #45332C",
"I) 	c #512B25",
"J) 	c #642F27",
"K) 	c #703228",
"L) 	c #6A3128",
"M) 	c #672F27",
"N) 	c #6C3228",
"O) 	c #662F28",
"P) 	c #6E332A",
"Q) 	c #6D3228",
"R) 	c #73362B",
"S) 	c #593631",
"T) 	c #662D28",
"U) 	c #652E29",
"V) 	c #632D28",
"W) 	c #6A3127",
"X) 	c #613127",
"Y) 	c #592D24",
"Z) 	c #5E3D32",
"`) 	c #79695B",
" ! 	c #564C45",
".! 	c #552E27",
"+! 	c #6D2F28",
"@! 	c #6D2E28",
"#! 	c #672D27",
"$! 	c #682C27",
"%! 	c #6E3027",
"&! 	c #6F2F29",
"*! 	c #6B2E28",
"=! 	c #6B2D27",
"-! 	c #6A2C28",
";! 	c #6B2C27",
">! 	c #6F2F28",
",! 	c #692B27",
"'! 	c #6C2E28",
")! 	c #632A26",
"!! 	c #662C26",
"~! 	c #5C2A25",
"{! 	c #572925",
"]! 	c #613025",
"^! 	c #623E33",
"/! 	c #836E68",
"(! 	c #5B4F4D",
"_! 	c #432A26",
":! 	c #76332A",
"<! 	c #733229",
"[! 	c #713129",
"}! 	c #78352B",
"|! 	c #77352B",
"1! 	c #6F3229",
"2! 	c #663127",
"3! 	c #6F3327",
"4! 	c #713126",
"5! 	c #612D25",
"6! 	c #693028",
"7! 	c #5F2E24",
"8! 	c #633126",
"9! 	c #622C24",
"0! 	c #642C26",
"a! 	c #593128",
"b! 	c #7B6C62",
"c! 	c #7E7C75",
"d! 	c #3F322F",
"e! 	c #582D29",
"f! 	c #622D26",
"g! 	c #6B3228",
"h! 	c #6C3226",
"i! 	c #6D3227",
"j! 	c #6B3025",
"k! 	c #6F3027",
"l! 	c #733328",
"m! 	c #703027",
"n! 	c #6F3126",
"o! 	c #5C2D26",
"p! 	c #5C2E25",
"q! 	c #64433D",
"r! 	c #7A6963",
"s! 	c #524540",
"t! 	c #512D28",
"u! 	c #642B27",
"v! 	c #622B24",
"w! 	c #612D28",
"x! 	c #652D28",
"y! 	c #6E302B",
"z! 	c #6C2F29",
"A! 	c #6B312A",
"B! 	c #662C27",
"C! 	c #6D2D27",
"D! 	c #6D2C26",
"E! 	c #79322B",
"F! 	c #79322A",
"G! 	c #743028",
"H! 	c #732F28",
"I! 	c #712F27",
"J! 	c #6D2E27",
"K! 	c #6A2D27",
"L! 	c #612A24",
"M! 	c #612B26",
"N! 	c #632C28",
"O! 	c #632C27",
"P! 	c #612C25",
"Q! 	c #57352C",
"R! 	c #817169",
"S! 	c #6C5F5A",
"T! 	c #472D26",
"U! 	c #6A3228",
"V! 	c #622F24",
"W! 	c #622D24",
"X! 	c #662E24",
"Y! 	c #6E2F26",
"Z! 	c #713027",
"`! 	c #743128",
" ~ 	c #733027",
".~ 	c #773329",
"+~ 	c #723127",
"@~ 	c #702F26",
"#~ 	c #733128",
"$~ 	c #6E3128",
"%~ 	c #5E2B25",
"&~ 	c #632F27",
"*~ 	c #6B2E25",
"=~ 	c #6F3028",
"-~ 	c #653228",
";~ 	c #644536",
">~ 	c #6B5D4D",
",~ 	c #4A3630",
"'~ 	c #592E26",
")~ 	c #672B27",
"!~ 	c #6D2D28",
"~~ 	c #692C27",
"{~ 	c #6C2D27",
"]~ 	c #6E2E27",
"^~ 	c #6C2E27",
"/~ 	c #6C2D26",
"(~ 	c #733129",
"_~ 	c #78322B",
":~ 	c #75312A",
"<~ 	c #79332C",
"[~ 	c #78312A",
"}~ 	c #723029",
"|~ 	c #743129",
"1~ 	c #77322A",
"2~ 	c #702F27",
"3~ 	c #79332A",
"4~ 	c #733028",
"5~ 	c #6C2D28",
"6~ 	c #712F29",
"7~ 	c #702F29",
"8~ 	c #682D28",
"9~ 	c #6C2E29",
"0~ 	c #683D37",
"a~ 	c #786259",
"b~ 	c #50403B",
"c~ 	c #513129",
"d~ 	c #582F26",
"e~ 	c #613229",
"f~ 	c #603127",
"g~ 	c #5E2E24",
"h~ 	c #653227",
"i~ 	c #683428",
"j~ 	c #6E322B",
"k~ 	c #692F2A",
"l~ 	c #6A2F29",
"m~ 	c #6E312A",
"n~ 	c #6A312A",
"o~ 	c #572A25",
"p~ 	c #5C2D28",
"q~ 	c #66322B",
"r~ 	c #68322B",
"s~ 	c #5E2E28",
"t~ 	c #593129",
"u~ 	c #7A675B",
"v~ 	c #746F65",
"w~ 	c #442F28",
"x~ 	c #572C26",
"y~ 	c #5E2C28",
"z~ 	c #6E3129",
"A~ 	c #672F29",
"B~ 	c #642E29",
"C~ 	c #642E28",
"D~ 	c #69312A",
"E~ 	c #6F312A",
"F~ 	c #672E29",
"G~ 	c #6A2F28",
"H~ 	c #70322A",
"I~ 	c #652E2A",
"J~ 	c #6A302A",
"K~ 	c #6F342B",
"L~ 	c #443F3D",
"M~ 	c #5A3632",
"N~ 	c #673028",
"O~ 	c #5C3931",
"P~ 	c #7D6760",
"Q~ 	c #594A47",
"R~ 	c #422927",
"S~ 	c #542C27",
"T~ 	c #5C2925",
"U~ 	c #602A26",
"V~ 	c #692C25",
"W~ 	c #632B26",
"X~ 	c #713028",
"Y~ 	c #692D28",
"Z~ 	c #672C27",
"`~ 	c #6A2F2A",
" { 	c #662C28",
".{ 	c #662B27",
"+{ 	c #682B27",
"@{ 	c #6E2E29",
"#{ 	c #652A25",
"${ 	c #622A26",
"%{ 	c #653F37",
"&{ 	c #867370",
"*{ 	c #5D5151",
"={ 	c #4C2C29",
"-{ 	c #662B25",
";{ 	c #672C25",
">{ 	c #753028",
",{ 	c #712E26",
"'{ 	c #7A332A",
"){ 	c #773129",
"!{ 	c #76322A",
"~{ 	c #75322A",
"{{ 	c #733228",
"]{ 	c #763128",
"^{ 	c #603026",
"/{ 	c #573028",
"({ 	c #7D6E67",
"_{ 	c #827D7B",
":{ 	c #463432",
"<{ 	c #5C2D29",
"[{ 	c #6C3128",
"}{ 	c #6E3028",
"|{ 	c #6F2F26",
"1{ 	c #6B2C25",
"2{ 	c #6C4841",
"3{ 	c #816D69",
"4{ 	c #514442",
"5{ 	c #642C27",
"6{ 	c #5D2F25",
"7{ 	c #5B2B25",
"8{ 	c #6A2E28",
"9{ 	c #6E2E28",
"0{ 	c #6F2E27",
"a{ 	c #692C26",
"b{ 	c #642A26",
"c{ 	c #712E28",
"d{ 	c #722E27",
"e{ 	c #7A312A",
"f{ 	c #783029",
"g{ 	c #712E27",
"h{ 	c #6E2D28",
"i{ 	c #652926",
"j{ 	c #632A27",
"k{ 	c #56332D",
"l{ 	c #7F736C",
"m{ 	c #6A615E",
"n{ 	c #432B26",
"o{ 	c #6B2D26",
"p{ 	c #702E26",
"q{ 	c #742E27",
"r{ 	c #752F28",
"s{ 	c #752F27",
"t{ 	c #6E2D26",
"u{ 	c #783229",
"v{ 	c #6D2D26",
"w{ 	c #702F28",
"x{ 	c #712F28",
"y{ 	c #6B2D28",
"z{ 	c #602C25",
"A{ 	c #742F28",
"B{ 	c #6E473B",
"C{ 	c #756155",
"D{ 	c #4B342F",
"E{ 	c #582D25",
"F{ 	c #662C25",
"G{ 	c #6F2F27",
"H{ 	c #743228",
"I{ 	c #763229",
"J{ 	c #753129",
"K{ 	c #763129",
"L{ 	c #722F27",
"M{ 	c #733029",
"N{ 	c #6E2D27",
"O{ 	c #6F2E28",
"P{ 	c #6F3D37",
"Q{ 	c #7C5E57",
"R{ 	c #4F3A37",
"S{ 	c #532F29",
"T{ 	c #592E27",
"U{ 	c #6A3129",
"V{ 	c #5F2A26",
"W{ 	c #6A312C",
"X{ 	c #6C322B",
"Y{ 	c #5A2A26",
"Z{ 	c #836963",
"`{ 	c #7B6F6D",
" ] 	c #492D28",
".] 	c #642E2A",
"+] 	c #672D29",
"@] 	c #662F29",
"#] 	c #622D29",
"$] 	c #5F2B26",
"%] 	c #69302A",
"&] 	c #6B2F2A",
"*] 	c #443F3E",
"=] 	c #672B26",
"-] 	c #6A2B26",
";] 	c #5E2A25",
">] 	c #5A3834",
",] 	c #85736F",
"'] 	c #615152",
")] 	c #412827",
"!] 	c #542B26",
"~] 	c #5E2A26",
"{] 	c #5D2926",
"]] 	c #602A25",
"^] 	c #5F2C24",
"/] 	c #5F2B25",
"(] 	c #6A443C",
"_] 	c #897874",
":] 	c #5B5050",
"<] 	c #4D2C2A",
"[] 	c #652B26",
"}] 	c #672C26",
"|] 	c #702E28",
"1] 	c #762F29",
"2] 	c #773029",
"3] 	c #763228",
"4] 	c #783228",
"5] 	c #6D2E25",
"6] 	c #672D28",
"7] 	c #6D3028",
"8] 	c #6E2F27",
"9] 	c #6D2F29",
"0] 	c #5D322B",
"a] 	c #83706C",
"b] 	c #82797A",
"c] 	c #483130",
"d] 	c #5D2C29",
"e] 	c #642B26",
"f] 	c #6F3029",
"g] 	c #723028",
"h] 	c #6B2F28",
"i] 	c #6E4E49",
"j] 	c #857573",
"k] 	c #544445",
"l] 	c #552C28",
"m] 	c #5B2926",
"n] 	c #5C2A26",
"o] 	c #5E2F27",
"p] 	c #5B2D26",
"q] 	c #612B24",
"r] 	c #6D2F25",
"s] 	c #602B24",
"t] 	c #5A332D",
"u] 	c #80716E",
"v] 	c #6A6160",
"w] 	c #412927",
"x] 	c #582B27",
"y] 	c #622A25",
"z] 	c #742F29",
"A] 	c #692B26",
"B] 	c #712E29",
"C] 	c #702D27",
"D] 	c #6E2C26",
"E] 	c #702D28",
"F] 	c #71473F",
"G] 	c #493330",
"H] 	c #5A2D27",
"I] 	c #713328",
"J] 	c #713329",
"K] 	c #734039",
"L] 	c #80655A",
"M] 	c #4F3D37",
"N] 	c #532E29",
"O] 	c #602D28",
"P] 	c #72322A",
"Q] 	c #6D312A",
"R] 	c #73312A",
"S] 	c #7B332D",
"T] 	c #732F2A",
"U] 	c #703129",
"V] 	c #6B3029",
"W] 	c #642C28",
"X] 	c #653128",
"Y] 	c #5F2E26",
"Z] 	c #622E28",
"`] 	c #5D2E27",
" ^ 	c #6B322A",
".^ 	c #66342D",
"+^ 	c #876765",
"@^ 	c #7F6E71",
"#^ 	c #4C2F2C",
"$^ 	c #652C29",
"%^ 	c #683128",
"&^ 	c #6B342A",
"*^ 	c #592D26",
"=^ 	c #633027",
"-^ 	c #582B26",
";^ 	c #662C24",
">^ 	c #5B2B26",
",^ 	c #5F403A",
"'^ 	c #897D76",
")^ 	c #675B5A",
"!^ 	c #422A29",
"~^ 	c #562D27",
"{^ 	c #5D2B27",
"]^ 	c #592A26",
"^^ 	c #572924",
"/^ 	c #612C24",
"(^ 	c #642D24",
"_^ 	c #5D2A24",
":^ 	c #692D25",
"<^ 	c #652B24",
"[^ 	c #5D2A25",
"}^ 	c #68453C",
"|^ 	c #877871",
"1^ 	c #574E4C",
"2^ 	c #4B2C28",
"3^ 	c #653028",
"4^ 	c #703028",
"5^ 	c #753229",
"6^ 	c #743328",
"7^ 	c #682C26",
"8^ 	c #5B312B",
"9^ 	c #84716E",
"0^ 	c #827978",
"a^ 	c #48312F",
"b^ 	c #6B2E29",
"c^ 	c #77302A",
"d^ 	c #78322A",
"e^ 	c #6E2E26",
"f^ 	c #722E29",
"g^ 	c #6C3028",
"h^ 	c #6B514B",
"i^ 	c #847A77",
"j^ 	c #514343",
"k^ 	c #532B27",
"l^ 	c #5A2825",
"m^ 	c #592825",
"n^ 	c #692F25",
"o^ 	c #682D24",
"p^ 	c #6A2D25",
"q^ 	c #692E24",
"r^ 	c #6A2E24",
"s^ 	c #703026",
"t^ 	c #713025",
"u^ 	c #713026",
"v^ 	c #6E2E25",
"w^ 	c #6C2D25",
"x^ 	c #5B2924",
"y^ 	c #5C2924",
"z^ 	c #5D332D",
"A^ 	c #81716E",
"B^ 	c #6E6464",
"C^ 	c #622D28",
"D^ 	c #732E27",
"E^ 	c #722D26",
"F^ 	c #722D27",
"G^ 	c #712D26",
"H^ 	c #6F4841",
"I^ 	c #74625B",
"J^ 	c #42322E",
"K^ 	c #532C26",
"L^ 	c #592A25",
"M^ 	c #75332A",
"N^ 	c #6A2E25",
"O^ 	c #6D2F26",
"P^ 	c #6F463C",
"Q^ 	c #816E60",
"R^ 	c #4D4139",
"S^ 	c #4F2C27",
"T^ 	c #6E3029",
"U^ 	c #673029",
"V^ 	c #72342B",
"W^ 	c #6D3029",
"X^ 	c #6F322A",
"Y^ 	c #6A312B",
"Z^ 	c #663029",
"`^ 	c #642D28",
" / 	c #643329",
"./ 	c #5F322A",
"+/ 	c #82645F",
"@/ 	c #7B6A6B",
"#/ 	c #4B302C",
"$/ 	c #572D27",
"%/ 	c #663128",
"&/ 	c #663028",
"*/ 	c #643026",
"=/ 	c #433F3E",
"-/ 	c #563532",
";/ 	c #62433C",
">/ 	c #8A7971",
",/ 	c #655754",
"'/ 	c #422A27",
")/ 	c #552C27",
"!/ 	c #592B25",
"~/ 	c #582A26",
"{/ 	c #622C27",
"]/ 	c #5D2925",
"^/ 	c #69453B",
"// 	c #887970",
"(/ 	c #5B514D",
"_/ 	c #492A26",
":/ 	c #713127",
"</ 	c #533029",
"[/ 	c #82736E",
"}/ 	c #827C7A",
"|/ 	c #453330",
"1/ 	c #552D26",
"2/ 	c #77312A",
"3/ 	c #622B25",
"4/ 	c #684D46",
"5/ 	c #837671",
"6/ 	c #534543",
"7/ 	c #502C27",
"8/ 	c #5A2C24",
"9/ 	c #723026",
"0/ 	c #743027",
"a/ 	c #702D26",
"b/ 	c #5E2A24",
"c/ 	c #58322C",
"d/ 	c #7F706C",
"e/ 	c #6D6463",
"f/ 	c #3F2A26",
"g/ 	c #652D24",
"h/ 	c #722F26",
"i/ 	c #572A24",
"j/ 	c #6B4843",
"k/ 	c #7B6D67",
"l/ 	c #483834",
"m/ 	c #512C25",
"n/ 	c #622A24",
"o/ 	c #6D473E",
"p/ 	c #7C6C60",
"q/ 	c #473E39",
"r/ 	c #492B27",
"s/ 	c #5A2E28",
"t/ 	c #622F27",
"u/ 	c #582B25",
"v/ 	c #693229",
"w/ 	c #72352B",
"x/ 	c #652D29",
"y/ 	c #5F3028",
"z/ 	c #623128",
"A/ 	c #5B2F28",
"B/ 	c #806660",
"C/ 	c #786C6B",
"D/ 	c #482F29",
"E/ 	c #572E28",
"F/ 	c #622F29",
"G/ 	c #6D3229",
"H/ 	c #553531",
"I/ 	c #5D4039",
"J/ 	c #887A73",
"K/ 	c #635654",
"L/ 	c #462A27",
"M/ 	c #562B26",
"N/ 	c #5D2B24",
"O/ 	c #572B26",
"P/ 	c #612A25",
"Q/ 	c #622B27",
"R/ 	c #69453D",
"S/ 	c #897870",
"T/ 	c #60524E",
"U/ 	c #4D2B26",
"V/ 	c #6F2D27",
"W/ 	c #513028",
"X/ 	c #80736D",
"Y/ 	c #7F7A78",
"Z/ 	c #42332E",
"`/ 	c #542D25",
" ( 	c #602D24",
".( 	c #622E24",
"+( 	c #5F2B24",
"@( 	c #63483E",
"#( 	c #7C7065",
"$( 	c #4E433E",
"%( 	c #4E2C25",
"&( 	c #582C25",
"*( 	c #572C24",
"=( 	c #6B2C26",
"-( 	c #753128",
";( 	c #6D2D25",
">( 	c #5E372F",
",( 	c #84756D",
"'( 	c #69635F",
")( 	c #3D2A27",
"!( 	c #632C24",
"~( 	c #622E23",
"{( 	c #652C24",
"]( 	c #744C46",
"^( 	c #7D6D68",
"/( 	c #483734",
"(( 	c #522B26",
"_( 	c #68443C",
":( 	c #7B6D62",
"<( 	c #4C433E",
"[( 	c #442A26",
"}( 	c #4F2B26",
"|( 	c #4F2A25",
"1( 	c #633028",
"2( 	c #5A2B25",
"3( 	c #75352B",
"4( 	c #5C2C27",
"5( 	c #5A2C28",
"6( 	c #7F6361",
"7( 	c #796E6E",
"8( 	c #452C27",
"9( 	c #572E27",
"0( 	c #682E29",
"a( 	c #572A26",
"b( 	c #6C322A",
"c( 	c #5B2A26",
"d( 	c #583631",
"e( 	c #5D453F",
"f( 	c #8A7E7A",
"g( 	c #695C5D",
"h( 	c #492B2A",
"i( 	c #562B25",
"j( 	c #542A25",
"k( 	c #642B25",
"l( 	c #66453F",
"m( 	c #897572",
"n( 	c #60504E",
"o( 	c #4F2B27",
"p( 	c #743229",
"q( 	c #562C26",
"r( 	c #53302B",
"s( 	c #837371",
"t( 	c #7E7979",
"u( 	c #45312F",
"v( 	c #642B24",
"w( 	c #614A40",
"x( 	c #7E7768",
"y( 	c #4E463E",
"z( 	c #512C26",
"A( 	c #5B2C24",
"B( 	c #5A2B24",
"C( 	c #692D24",
"D( 	c #682C25",
"E( 	c #6F2E26",
"F( 	c #5C2A24",
"G( 	c #5F332B",
"H( 	c #807068",
"I( 	c #69635D",
"J( 	c #6A2C26",
"K( 	c #652B25",
"L( 	c #612D24",
"M( 	c #5F2A25",
"N( 	c #714B43",
"O( 	c #796B66",
"P( 	c #483735",
"Q( 	c #723027",
"R( 	c #712F26",
"S( 	c #592924",
"T( 	c #68463C",
"U( 	c #7F7264",
"V( 	c #514640",
"W( 	c #4A2D27",
"X( 	c #502B25",
"Y( 	c #502925",
"Z( 	c #66312A",
"`( 	c #663229",
" _ 	c #603129",
"._ 	c #713C30",
"+_ 	c #723229",
"@_ 	c #5D2C28",
"#_ 	c #5B2B27",
"$_ 	c #7B6060",
"%_ 	c #7E7371",
"&_ 	c #48302C",
"*_ 	c #542C26",
"=_ 	c #582925",
"-_ 	c #5C2A27",
";_ 	c #5A2A25",
">_ 	c #70332B",
",_ 	c #593532",
"'_ 	c #5A413E",
")_ 	c #887C7B",
"!_ 	c #6A5E62",
"~_ 	c #482B2C",
"{_ 	c #532925",
"]_ 	c #522A25",
"^_ 	c #692D29",
"/_ 	c #5B2A25",
"(_ 	c #604241",
"__ 	c #847475",
":_ 	c #5B4D4E",
"<_ 	c #512D29",
"[_ 	c #612B27",
"}_ 	c #5A302D",
"|_ 	c #82666B",
"1_ 	c #81757B",
"2_ 	c #4A3333",
"3_ 	c #602D2A",
"4_ 	c #602B27",
"5_ 	c #6A2D28",
"6_ 	c #642C29",
"7_ 	c #632D29",
"8_ 	c #6B514C",
"9_ 	c #867D77",
"0_ 	c #524844",
"a_ 	c #512A27",
"b_ 	c #622A27",
"c_ 	c #5F2927",
"d_ 	c #662B26",
"e_ 	c #722E28",
"f_ 	c #76312A",
"g_ 	c #7C6866",
"h_ 	c #695F5F",
"i_ 	c #452A28",
"j_ 	c #672B25",
"k_ 	c #612925",
"l_ 	c #682D29",
"m_ 	c #622B28",
"n_ 	c #744944",
"o_ 	c #796664",
"p_ 	c #4D3838",
"q_ 	c #6F4A43",
"r_ 	c #817167",
"s_ 	c #4C413D",
"t_ 	c #4E2E28",
"u_ 	c #592F26",
"v_ 	c #663329",
"w_ 	c #694F4B",
"x_ 	c #766B64",
"y_ 	c #4E322D",
"z_ 	c #582B24",
"A_ 	c #5B2D24",
"B_ 	c #602D29",
"C_ 	c #443E3F",
"D_ 	c #552B26",
"E_ 	c #552A24",
"F_ 	c #59423D",
"G_ 	c #837776",
"H_ 	c #665D5F",
"I_ 	c #472D2C",
"J_ 	c #572927",
"K_ 	c #542A26",
"L_ 	c #582A25",
"M_ 	c #604646",
"N_ 	c #877E7E",
"O_ 	c #5F5755",
"P_ 	c #4B2D29",
"Q_ 	c #5F3129",
"R_ 	c #6B3129",
"S_ 	c #682F25",
"T_ 	c #633029",
"U_ 	c #806869",
"V_ 	c #7F7377",
"W_ 	c #463131",
"X_ 	c #5A2D29",
"Y_ 	c #6C3129",
"Z_ 	c #6A2D29",
"`_ 	c #672C28",
" : 	c #6A2E29",
".: 	c #652C28",
"+: 	c #662C29",
"@: 	c #642E2C",
"#: 	c #705553",
"$: 	c #887F7E",
"%: 	c #544A49",
"&: 	c #512A29",
"*: 	c #6F2D26",
"=: 	c #732F27",
"-: 	c #766462",
";: 	c #645B5A",
">: 	c #432927",
",: 	c #592A24",
"': 	c #652A26",
"): 	c #602E28",
"!: 	c #784F48",
"~: 	c #7A6764",
"{: 	c #4A3534",
"]: 	c #632E2A",
"^: 	c #67443F",
"/: 	c #7C6A63",
"(: 	c #4A3E3B",
"_: 	c #512D27",
":: 	c #592D27",
"<: 	c #582C24",
"[: 	c #5B312A",
"}: 	c #634A45",
"|: 	c #6A625C",
"1: 	c #4C322D",
"2: 	c #542D26",
"3: 	c #592B26",
"4: 	c #5D3632",
"5: 	c #542B25",
"6: 	c #532B25",
"7: 	c #562C25",
"8: 	c #674D45",
"9: 	c #867B73",
"0: 	c #665E5A",
"a: 	c #452D2B",
"b: 	c #592B29",
"c: 	c #604742",
"d: 	c #89817D",
"e: 	c #716661",
"f: 	c #51322C",
"g: 	c #5E3128",
"h: 	c #553029",
"i: 	c #826E69",
"j: 	c #7F7471",
"k: 	c #602F2B",
"l: 	c #6B4F4A",
"m: 	c #857771",
"n: 	c #554946",
"o: 	c #552D2B",
"p: 	c #743127",
"q: 	c #56312A",
"r: 	c #76665F",
"s: 	c #635A55",
"t: 	c #562A23",
"u: 	c #5F2D24",
"v: 	c #5C2C25",
"w: 	c #6B4D41",
"x: 	c #7A6C64",
"y: 	c #4A3734",
"z: 	c #602F2A",
"A: 	c #6D4941",
"B: 	c #837165",
"C: 	c #4D403C",
"D: 	c #5A2E27",
"E: 	c #5C322B",
"F: 	c #79625C",
"G: 	c #766E69",
"H: 	c #462F2B",
"I: 	c #632F29",
"J: 	c #5D2F26",
"K: 	c #453F3C",
"L: 	c #70332A",
"M: 	c #6A3229",
"N: 	c #69322A",
"O: 	c #693129",
"P: 	c #582C26",
"Q: 	c #592F27",
"R: 	c #522B27",
"S: 	c #664E45",
"T: 	c #8E847C",
"U: 	c #746B65",
"V: 	c #472E2A",
"W: 	c #694843",
"X: 	c #8F817B",
"Y: 	c #7A6A63",
"Z: 	c #5D382F",
"`: 	c #633129",
" < 	c #6C3025",
".< 	c #6C2F25",
"+< 	c #582D26",
"@< 	c #553229",
"#< 	c #826D61",
"$< 	c #82766E",
"%< 	c #43322D",
"&< 	c #65473F",
"*< 	c #817065",
"=< 	c #52453F",
"-< 	c #532D28",
";< 	c #632B24",
">< 	c #773228",
",< 	c #773227",
"'< 	c #6B3126",
")< 	c #7A3228",
"!< 	c #793128",
"~< 	c #57332B",
"{< 	c #7C6962",
"]< 	c #665A54",
"^< 	c #412A24",
"/< 	c #592F28",
"(< 	c #683126",
"_< 	c #6A3126",
":< 	c #6E5141",
"<< 	c #817465",
"[< 	c #4E3E37",
"}< 	c #693025",
"|< 	c #673228",
"1< 	c #6B332A",
"2< 	c #6E463C",
"3< 	c #836D61",
"4< 	c #51413B",
"5< 	c #4B2A26",
"6< 	c #6F2F25",
"7< 	c #6D2E24",
"8< 	c #763329",
"9< 	c #5A3029",
"0< 	c #7F6861",
"a< 	c #7A716C",
"b< 	c #482D2A",
"c< 	c #65312A",
"d< 	c #682E2A",
"e< 	c #653127",
"f< 	c #6F322B",
"g< 	c #5F2F26",
"h< 	c #623227",
"i< 	c #643226",
"j< 	c #623026",
"k< 	c #6C3328",
"l< 	c #433F3D",
"m< 	c #523633",
"n< 	c #5A2E29",
"o< 	c #542C28",
"p< 	c #4E2A26",
"q< 	c #4D2A26",
"r< 	c #562F29",
"s< 	c #522C27",
"t< 	c #472B26",
"u< 	c #472A26",
"v< 	c #442926",
"w< 	c #493633",
"x< 	c #706761",
"y< 	c #716762",
"z< 	c #43302C",
"A< 	c #4E2A28",
"B< 	c #572A27",
"C< 	c #592B27",
"D< 	c #582E28",
"E< 	c #562C27",
"F< 	c #5A2F28",
"G< 	c #5C2F28",
"H< 	c #6C332B",
"I< 	c #612F28",
"J< 	c #572B27",
"K< 	c #5B2E2A",
"L< 	c #60403D",
"M< 	c #877873",
"N< 	c #806D67",
"O< 	c #5C3933",
"P< 	c #71342C",
"Q< 	c #6F332A",
"R< 	c #72362C",
"S< 	c #70342A",
"T< 	c #6C3329",
"U< 	c #6F302A",
"V< 	c #68312A",
"W< 	c #67302A",
"X< 	c #5B2F29",
"Y< 	c #572F29",
"Z< 	c #56362E",
"`< 	c #826A61",
" [ 	c #837470",
".[ 	c #443432",
"+[ 	c #72352C",
"@[ 	c #6E342B",
"#[ 	c #68322A",
"$[ 	c #643129",
"%[ 	c #69332A",
"&[ 	c #6A342A",
"*[ 	c #6A332A",
"=[ 	c #634640",
"-[ 	c #84736A",
";[ 	c #554944",
">[ 	c #4B2926",
",[ 	c #613029",
"'[ 	c #6C3029",
")[ 	c #73332B",
"![ 	c #75342C",
"~[ 	c #76352D",
"{[ 	c #71332B",
"][ 	c #67312A",
"^[ 	c #6F352D",
"/[ 	c #73322C",
"([ 	c #71322B",
"_[ 	c #72332C",
":[ 	c #6A322B",
"<[ 	c #53322C",
"[[ 	c #796360",
"}[ 	c #695756",
"|[ 	c #3C2824",
"1[ 	c #70332C",
"2[ 	c #63312A",
"3[ 	c #6E322A",
"4[ 	c #6E5548",
"5[ 	c #847A6F",
"6[ 	c #4F433E",
"7[ 	c #4D2B27",
"8[ 	c #67322A",
"9[ 	c #622F2A",
"0[ 	c #66302B",
"a[ 	c #69322B",
"b[ 	c #6F332D",
"c[ 	c #6E342D",
"d[ 	c #6D332B",
"e[ 	c #653029",
"f[ 	c #5D3028",
"g[ 	c #60312A",
"h[ 	c #62413A",
"i[ 	c #816E65",
"j[ 	c #564844",
"k[ 	c #442A24",
"l[ 	c #552F25",
"m[ 	c #5D3127",
"n[ 	c #643228",
"o[ 	c #643328",
"p[ 	c #653429",
"q[ 	c #653329",
"r[ 	c #713429",
"s[ 	c #74362D",
"t[ 	c #673128",
"u[ 	c #5F3029",
"v[ 	c #572E26",
"w[ 	c #5C3029",
"x[ 	c #5B3028",
"y[ 	c #532D26",
"z[ 	c #4D2A24",
"A[ 	c #4D2C26",
"B[ 	c #4E2F28",
"C[ 	c #735E56",
"D[ 	c #726760",
"E[ 	c #69362E",
"F[ 	c #65322B",
"G[ 	c #613329",
"H[ 	c #582E27",
"I[ 	c #5B2E28",
"J[ 	c #67332B",
"K[ 	c #5E3029",
"L[ 	c #5D322A",
"M[ 	c #63362C",
"N[ 	c #5C3128",
"O[ 	c #64322B",
"P[ 	c #5C3129",
"Q[ 	c #5E332B",
"R[ 	c #573029",
"S[ 	c #404040",
"T[ 	c #47403E",
"U[ 	c #4D433F",
"V[ 	c #4C423E",
"W[ 	c #463C39",
"X[ 	c #493B38",
"Y[ 	c #4E4542",
"Z[ 	c #433C3B",
"`[ 	c #3D3735",
" } 	c #3A3533",
".} 	c #3B3432",
"+} 	c #382F2D",
"@} 	c #393331",
"#} 	c #393834",
"$} 	c #332F2E",
"%} 	c #302A2B",
"&} 	c #323232",
"*} 	c #3F4341",
"=} 	c #3F403D",
"-} 	c #2F2927",
";} 	c #312525",
">} 	c #352523",
",} 	c #3A2624",
"'} 	c #3A2724",
")} 	c #382724",
"!} 	c #3B2824",
"~} 	c #402C27",
"{} 	c #3B2825",
"]} 	c #3C2825",
"^} 	c #3B2925",
"/} 	c #3D2A26",
"(} 	c #3D2926",
"_} 	c #3D2725",
":} 	c #3E2724",
"<} 	c #442925",
"[} 	c #452A27",
"}} 	c #3F2825",
"|} 	c #412A27",
"1} 	c #392724",
"2} 	c #402824",
"3} 	c #412825",
"4} 	c #452B27",
"5} 	c #422A26",
"6} 	c #3F2926",
"7} 	c #3A2723",
"8} 	c #412925",
"9} 	c #422826",
"0} 	c #422825",
"a} 	c #402825",
"b} 	c #3A2623",
"c} 	c #3C2725",
"d} 	c #3B2725",
"e} 	c #382524",
"f} 	c #372523",
"g} 	c #3F2F2E",
"h} 	c #574F4C",
"i} 	c #554B49",
"j} 	c #3B2B2A",
"k} 	c #3E2927",
"l} 	c #3E2825",
"m} 	c #472926",
"n} 	c #4A2C28",
"o} 	c #452824",
"p} 	c #462926",
"q} 	c #442825",
"r} 	c #412724",
"s} 	c #452B25",
"t} 	c #482A25",
"u} 	c #492A24",
"v} 	c #4D2E27",
"w} 	c #4E2D26",
"x} 	c #4B2D26",
"y} 	c #482B25",
"z} 	c #4B2D27",
"A} 	c #4A2C27",
"B} 	c #4B2D28",
"C} 	c #472B28",
"D} 	c #4B2E2C",
"E} 	c #482926",
"F} 	c #4D2B28",
"G} 	c #4E2B28",
"H} 	c #4B2A27",
"I} 	c #462B28",
"J} 	c #3E2725",
"K} 	c #412926",
"L} 	c #452A26",
"M} 	c #412826",
"N} 	c #42302B",
"O} 	c #635652",
"P} 	c #6E6565",
"Q} 	c #373031",
"R} 	c #372725",
"S} 	c #422925",
"T} 	c #442826",
"U} 	c #412725",
"V} 	c #492A27",
"W} 	c #4A2B27",
"X} 	c #472A27",
"Y} 	c #482B27",
"Z} 	c #502F2A",
"`} 	c #542F2A",
" | 	c #532F28",
".| 	c #532F2A",
"+| 	c #4E2D29",
"@| 	c #4D2E29",
"#| 	c #4B2B27",
"$| 	c #4F2E28",
"%| 	c #4E2D28",
"&| 	c #492B25",
"*| 	c #492B26",
"=| 	c #492C27",
"-| 	c #462927",
";| 	c #462C28",
">| 	c #4E3B39",
",| 	c #494240",
"'| 	c #3D2828",
")| 	c #482B26",
"!| 	c #4E2C27",
"~| 	c #462824",
"{| 	c #462A28",
"]| 	c #482A26",
"^| 	c #472826",
"/| 	c #452825",
"(| 	c #492926",
"_| 	c #4B2B28",
":| 	c #522D2A",
"<| 	c #512C28",
"[| 	c #4C2B29",
"}| 	c #452826",
"|| 	c #482B28",
"1| 	c #4A2C29",
"2| 	c #462826",
"3| 	c #462A26",
"4| 	c #412723",
"5| 	c #452925",
"6| 	c #392623",
"7| 	c #382523",
"8| 	c #3B2624",
"9| 	c #3C2624",
"0| 	c #372826",
"a| 	c #5B4C50",
"b| 	c #594B51",
"c| 	c #312625",
"d| 	c #372724",
"e| 	c #3F2826",
"f| 	c #492C28",
"g| 	c #482C28",
"h| 	c #412726",
"i| 	c #4D2D28",
"j| 	c #4A2B26",
"k| 	c #4D2C28",
"l| 	c #522F2B",
"m| 	c #502E2B",
"n| 	c #4A2A27",
"o| 	c #4E2C29",
"p| 	c #3C2625",
"q| 	c #452927",
"r| 	c #482A27",
"s| 	c #442725",
"t| 	c #422726",
"u| 	c #422926",
"v| 	c #463B34",
"w| 	c #5B5651",
"x| 	c #3D3635",
"y| 	c #392725",
"z| 	c #3C2724",
"A| 	c #402826",
"B| 	c #412A26",
"C| 	c #382623",
"D| 	c #432A27",
"E| 	c #402724",
"F| 	c #402927",
"G| 	c #392523",
"H| 	c #3D2C28",
"I| 	c #3A2A27",
"J| 	c #392824",
"K| 	c #362523",
"L| 	c #3A2725",
"M| 	c #332624",
"N| 	c #322422",
"O| 	c #423733",
"P| 	c #68645F",
"Q| 	c #544F4D",
"R| 	c #3D2A28",
"S| 	c #4E2F29",
"T| 	c #4F2E27",
"U| 	c #542F29",
"V| 	c #5B332C",
"W| 	c #5A342B",
"X| 	c #553129",
"Y| 	c #532E28",
"Z| 	c #57312A",
"`| 	c #502E28",
" 1 	c #53312A",
".1 	c #502F28",
"+1 	c #4B2C26",
"@1 	c #4C2D26",
"#1 	c #57322A",
"$1 	c #522E27",
"%1 	c #482D29",
"&1 	c #432B27",
"*1 	c #432A24",
"=1 	c #432A25",
"-1 	c #3F2924",
";1 	c #3E2923",
">1 	c #382622",
",1 	c #382824",
"'1 	c #392723",
")1 	c #3B2823",
"!1 	c #332522",
"~1 	c #322622",
"{1 	c #382B28",
"]1 	c #4F4745",
"^1 	c #4C4D4A",
"/1 	c #322A29",
"(1 	c #452D28",
"_1 	c #442B28",
":1 	c #462E2A",
"<1 	c #442E27",
"[1 	c #3A2825",
"}1 	c #3D2925",
"|1 	c #482E2B",
"11 	c #49302B",
"21 	c #4B332F",
"31 	c #44302B",
"41 	c #402D29",
"51 	c #442F2B",
"61 	c #4B3632",
"71 	c #4B3937",
"81 	c #463635",
"91 	c #402F2C",
"01 	c #422F2C",
"a1 	c #44322C",
"b1 	c #41312D",
"c1 	c #433431",
"d1 	c #433432",
"e1 	c #493A39",
"f1 	c #4F413F",
"g1 	c #4C3C39",
"h1 	c #51413D",
"i1 	c #574743",
"j1 	c #6E6D6A",
"k1 	c #83837D",
"l1 	c #83827E",
"m1 	c #7C7C78",
"n1 	c #73746F",
"o1 	c #82807E",
"p1 	c #7F7E7B",
"q1 	c #747672",
"r1 	c #6C6E6A",
"s1 	c #727270",
"t1 	c #6D6B67",
"u1 	c #70736C",
"v1 	c #717972",
"w1 	c #6B6F6B",
"x1 	c #686969",
"y1 	c #676F6F",
"z1 	c #6B7976",
"A1 	c #606C68",
"B1 	c #565E5A",
"C1 	c #585957",
"D1 	c #575753",
"E1 	c #53534B",
"F1 	c #4F4F47",
"G1 	c #55534D",
"H1 	c #514F49",
"I1 	c #54534D",
"J1 	c #585853",
"K1 	c #5A5B55",
"L1 	c #5A5A53",
"M1 	c #575751",
"N1 	c #5B5B56",
"O1 	c #5F5F59",
"P1 	c #5A5952",
"Q1 	c #5A5854",
"R1 	c #57544F",
"S1 	c #56534C",
"T1 	c #56554D",
"U1 	c #484B45",
"V1 	c #444A47",
"W1 	c #444B49",
"X1 	c #484A45",
"Y1 	c #4E4B45",
"Z1 	c #4D4743",
"`1 	c #504C46",
" 2 	c #524F48",
".2 	c #4E4B46",
"+2 	c #44423E",
"@2 	c #42403C",
"#2 	c #44433F",
"$2 	c #423F3C",
"%2 	c #42403D",
"&2 	c #484541",
"*2 	c #45423E",
"=2 	c #44423F",
"-2 	c #44423D",
";2 	c #43403B",
">2 	c #42413C",
",2 	c #464744",
"'2 	c #49504E",
")2 	c #464C4B",
"!2 	c #3D3B3B",
"~2 	c #373532",
"{2 	c #3E3C37",
"]2 	c #44403B",
"^2 	c #504A45",
"/2 	c #554F4A",
"(2 	c #534D48",
"_2 	c #534D49",
":2 	c #57524C",
"<2 	c #5C5851",
"[2 	c #5A5650",
"}2 	c #5C5955",
"|2 	c #5E5A59",
"12 	c #595555",
"22 	c #514D4C",
"32 	c #55504E",
"42 	c #575150",
"52 	c #595453",
"62 	c #5C5756",
"72 	c #5D5857",
"82 	c #595856",
"92 	c #555857",
"02 	c #555653",
"a2 	c #565753",
"b2 	c #545451",
"c2 	c #55534F",
"d2 	c #5B5654",
"e2 	c #5E5A57",
"f2 	c #5B5955",
"g2 	c #595A56",
"h2 	c #5C5D59",
"i2 	c #5E5E5A",
"j2 	c #5D5D59",
"k2 	c #5C5C59",
"l2 	c #5A5B57",
"m2 	c #51534F",
"n2 	c #514F4A",
"o2 	c #57514E",
"p2 	c #584E51",
"q2 	c #534A4C",
"r2 	c #4D4B49",
"s2 	c #515453",
"t2 	c #575A5E",
"u2 	c #424146",
"v2 	c #403E3B",
"w2 	c #3F3C39",
"x2 	c #3C3836",
"y2 	c #3B3936",
"z2 	c #383532",
"A2 	c #353230",
"B2 	c #373332",
"C2 	c #373231",
"D2 	c #393634",
"E2 	c #413E3B",
"F2 	c #413F3B",
"G2 	c #3B3935",
"H2 	c #3C3935",
"I2 	c #403C39",
"J2 	c #46423F",
"K2 	c #42413D",
"L2 	c #3F3D39",
"M2 	c #453D38",
"N2 	c #443936",
"O2 	c #413936",
"P2 	c #423C39",
"Q2 	c #433E3B",
"R2 	c #443F3C",
"S2 	c #3A3531",
"T2 	c #3F3732",
"U2 	c #443B37",
"V2 	c #453E3B",
"W2 	c #3D3633",
"X2 	c #3E3633",
"Y2 	c #3A3431",
"Z2 	c #37312F",
"`2 	c #37312E",
" 3 	c #35302D",
".3 	c #312D2B",
"+3 	c #312A2A",
"@3 	c #302B29",
"#3 	c #302B28",
"$3 	c #2F2928",
"%3 	c #353332",
"&3 	c #3E4240",
"*3 	c #313433",
"=3 	c #2E2828",
"-3 	c #302928",
";3 	c #312C2A",
">3 	c #352F2C",
",3 	c #38302D",
"'3 	c #36302E",
")3 	c #373431",
"!3 	c #383431",
"~3 	c #373330",
"{3 	c #3B3835",
"]3 	c #45433F",
"^3 	c #454441",
"/3 	c #484643",
"(3 	c #484644",
"_3 	c #534C4A",
":3 	c #544B49",
"<3 	c #564E4B",
"[3 	c #4F4A47",
"}3 	c #4F4B49",
"|3 	c #41403F",
"13 	c #434443",
"23 	c #4A4B47",
"33 	c #4F514D",
"43 	c #50514D",
"53 	c #52534E",
"63 	c #50504B",
"73 	c #52524D",
"83 	c #53524E",
"93 	c #52524E",
"03 	c #585A56",
"a3 	c #595B56",
"b3 	c #585B56",
"c3 	c #50534E",
"d3 	c #51544F",
"e3 	c #525550",
"f3 	c #525551",
"g3 	c #4E4D4B",
"h3 	c #545258",
"i3 	c #59585D",
"j3 	c #3A3B37",
"k3 	c #373233",
"l3 	c #3A3233",
"m3 	c #38302E",
"n3 	c #3A3634",
"o3 	c #3E3C38",
"p3 	c #3F3D3A",
"q3 	c #3A3937",
"r3 	c #3E3C39",
"s3 	c #443F3B",
"t3 	c #524A46",
"u3 	c #49443F",
"v3 	c #3F3936",
"w3 	c #3A3532",
"x3 	c #3D3935",
"y3 	c #393431",
"z3 	c #37322F",
"A3 	c #332E2C",
"B3 	c #322C2B",
"C3 	c #383130",
"D3 	c #3E3635",
"E3 	c #3D3535",
"F3 	c #443C3C",
"G3 	c #474140",
"H3 	c #3E3938",
"I3 	c #353331",
"J3 	c #393735",
"K3 	c #353330",
"L3 	c #363332",
"M3 	c #33312F",
"N3 	c #363431",
"O3 	c #3C3A37",
"P3 	c #393633",
"Q3 	c #483A3A",
"R3 	c #504443",
"S3 	c #51504E",
"T3 	c #4C5152",
"U3 	c #434143",
"V3 	c #3B3634",
"W3 	c #3A3733",
"X3 	c #3A3835",
"Y3 	c #383734",
"Z3 	c #3D3E3A",
"`3 	c #44453F",
" 4 	c #4B4C46",
".4 	c #494944",
"+4 	c #4A4944",
"@4 	c #4D4C48",
"#4 	c #444441",
"$4 	c #4A4A46",
"%4 	c #4C4C48",
"&4 	c #474844",
"*4 	c #42433F",
"=4 	c #434541",
"-4 	c #434642",
";4 	c #424943",
">4 	c #3D4440",
",4 	c #373B38",
"'4 	c #454844",
")4 	c #4C4F4A",
"!4 	c #484A46",
"~4 	c #4E4F4B",
"{4 	c #535450",
"]4 	c #50544F",
"^4 	c #575B56",
"/4 	c #585854",
"(4 	c #555551",
"_4 	c #4F4F4B",
":4 	c #4B4A46",
"<4 	c #484945",
"[4 	c #454742",
"}4 	c #494A44",
"|4 	c #484845",
"14 	c #4A4D49",
"24 	c #4E544E",
"34 	c #504F49",
"44 	c #4D4C46",
"54 	c #49554D",
"64 	c #434946",
"74 	c #403A38",
"84 	c #453B38",
"94 	c #473A39",
"04 	c #483937",
"a4 	c #483836",
"b4 	c #4E3D3B",
"c4 	c #53413F",
"d4 	c #5C4A48",
"e4 	c #5E4F4D",
"f4 	c #564948",
"g4 	c #524846",
"h4 	c #59514F",
"i4 	c #5A5351",
"j4 	c #5E5754",
"k4 	c #58504E",
"l4 	c #5B524E",
"m4 	c #5E5851",
"n4 	c #534F49",
"o4 	c #4D4E4A",
"p4 	c #4A4D4B",
"q4 	c #3B3D3C",
"r4 	c #383836",
"s4 	c #383835",
"t4 	c #43413E",
"u4 	c #494845",
"v4 	c #4C4847",
"w4 	c #4B4747",
"x4 	c #585656",
"y4 	c #555354",
"z4 	c #4B4A4B",
"A4 	c #515151",
"B4 	c #555355",
"C4 	c #565456",
"D4 	c #5C5A5A",
"E4 	c #555353",
"F4 	c #555252",
"G4 	c #5B5856",
"H4 	c #565352",
"I4 	c #5C5857",
"J4 	c #6A6C6E",
"K4 	c #687273",
"L4 	c #555A5A",
"M4 	c #5C5554",
"N4 	c #5C5456",
"O4 	c #5B5857",
"P4 	c #5C5852",
"Q4 	c #615D5D",
"R4 	c #5F595A",
"S4 	c #5C5556",
"T4 	c #645D5F",
"U4 	c #5E585B",
"V4 	c #605B5D",
"W4 	c #666163",
"X4 	c #706B6A",
"Y4 	c #736F6A",
"Z4 	c #6B6760",
"`4 	c #68615A",
" 5 	c #6B645E",
".5 	c #6C6A65",
"+5 	c #666A66",
"@5 	c #5B6361",
"#5 	c #5B5D5D",
"$5 	c #7C7879",
"%5 	c #7B7474",
"&5 	c #857E7D",
"*5 	c #787572",
"=5 	c #92908B",
"-5 	c #938F8C",
";5 	c #918D89",
">5 	c #8D8883",
",5 	c #88807B",
"'5 	c #908884",
")5 	c #8D8480",
"!5 	c #817874",
"~5 	c #898380",
"{5 	c #8F8783",
"]5 	c #8E8A84",
"^5 	c #8F8B86",
"/5 	c #8E8985",
"(5 	c #8F8887",
"_5 	c #8B8783",
":5 	c #898883",
"<5 	c #8D8C88",
"[5 	c #8B8987",
"}5 	c #8B8887",
"|5 	c #8D8A85",
"15 	c #888377",
"25 	c #7D756A",
"35 	c #867B75",
"45 	c #8A827D",
"55 	c #8D8985",
"65 	c #8E8A85",
"75 	c #8D867F",
"85 	c #8D8781",
"95 	c #8B8580",
"05 	c #8C8580",
"a5 	c #8A827B",
"b5 	c #8B8278",
"c5 	c #847B71",
"d5 	c #79766E",
"e5 	c #7B7D7B",
"f5 	c #7B8080",
"g5 	c #7C7774",
"h5 	c #867972",
"i5 	c #85756F",
"j5 	c #847770",
"k5 	c #8A8079",
"l5 	c #877F78",
"m5 	c #81746F",
"n5 	c #7C6E69",
"o5 	c #7D726E",
"p5 	c #827A75",
"q5 	c #807773",
"r5 	c #827972",
"s5 	c #807670",
"t5 	c #837B75",
"u5 	c #847C74",
"v5 	c #827971",
"w5 	c #81776D",
"x5 	c #858079",
"y5 	c #868884",
"z5 	c #84807E",
"A5 	c #7F6F6F",
"B5 	c #6E5E5A",
"C5 	c #6F685D",
"D5 	c #7A6E65",
"E5 	c #7C6F68",
"F5 	c #81746E",
"G5 	c #847771",
"H5 	c #897E76",
"I5 	c #8C847C",
"J5 	c #8E877F",
"K5 	c #8D857C",
"L5 	c #8F8A87",
"M5 	c #8E8686",
"N5 	c #897D7C",
"O5 	c #877B79",
"P5 	c #8B7E7D",
"Q5 	c #8C8381",
"R5 	c #8E8987",
"S5 	c #8A8B89",
"T5 	c #838985",
"U5 	c #7C817D",
"V5 	c #858783",
"W5 	c #8A8B88",
"X5 	c #8B8A86",
"Y5 	c #8B8985",
"Z5 	c #8E8C8A",
"`5 	c #8D8D8A",
" 6 	c #8C8C87",
".6 	c #8D8D89",
"+6 	c #8E8F8C",
"@6 	c #8E8E8B",
"#6 	c #8E8E8C",
"$6 	c #898985",
"%6 	c #87857D",
"&6 	c #8B837E",
"*6 	c #8D8488",
"=6 	c #8A8082",
"-6 	c #87827D",
";6 	c #888A87",
">6 	c #8A8B8C",
",6 	c #827F80",
"'6 	c #817D76",
")6 	c #7F7B75",
"!6 	c #7E7874",
"~6 	c #77716C",
"{6 	c #756D68",
"]6 	c #756F6B",
"^6 	c #7B7571",
"/6 	c #7C7670",
"(6 	c #7A746D",
"_6 	c #7A746C",
":6 	c #7C766F",
"<6 	c #7D766F",
"[6 	c #7B706A",
"}6 	c #756A64",
"|6 	c #7D776F",
"16 	c #7F7A72",
"26 	c #7F766D",
"36 	c #7C7169",
"46 	c #7A736C",
"56 	c #7A7873",
"66 	c #706F6B",
"76 	c #797772",
"86 	c #756F67",
"96 	c #7E7971",
"06 	c #7E7771",
"a6 	c #746C66",
"b6 	c #766E68",
"c6 	c #79736D",
"d6 	c #7B7671",
"e6 	c #7A746F",
"f6 	c #77706A",
"g6 	c #6E6863",
"h6 	c #716363",
"i6 	c #756968",
"j6 	c #77736A",
"k6 	c #776E69",
"l6 	c #797674",
"m6 	c #797D7C",
"n6 	c #767875",
"o6 	c #767070",
"p6 	c #776F70",
"q6 	c #76716B",
"r6 	c #7A726B",
"s6 	c #78726C",
"t6 	c #7C7A76",
"u6 	c #797771",
"v6 	c #7A7570",
"w6 	c #807F7B",
"x6 	c #81807B",
"y6 	c #807F7A",
"z6 	c #80807C",
"A6 	c #7B7A76",
"B6 	c #857E7A",
"C6 	c #867E78",
"D6 	c #88857E",
"E6 	c #868681",
"F6 	c #888987",
"G6 	c #7E807F",
"H6 	c #7C7E7C",
"I6 	c #7C7E7E",
"J6 	c #7A7C78",
"K6 	c #808179",
"L6 	c #84857C",
"M6 	c #828179",
"N6 	c #848079",
"O6 	c #85807A",
"P6 	c #8A8580",
"Q6 	c #8B8983",
"R6 	c #8C8D88",
"S6 	c #8B8D88",
"T6 	c #8C8D89",
"U6 	c #8A8A87",
"V6 	c #8B8B88",
"W6 	c #898A86",
"X6 	c #888886",
"Y6 	c #8A8A8B",
"Z6 	c #8B8B8D",
"`6 	c #838581",
" 7 	c #7D7F7B",
".7 	c #7A7879",
"+7 	c #7D7777",
"@7 	c #7A726C",
"#7 	c #79716B",
"$7 	c #7D7974",
"%7 	c #7F7F7A",
"&7 	c #80807B",
"*7 	c #7B7973",
"=7 	c #7B7871",
"-7 	c #7D7973",
";7 	c #7D7872",
">7 	c #827B75",
",7 	c #827D78",
"'7 	c #7D7975",
")7 	c #7E7973",
"!7 	c #7B7872",
"~7 	c #78756E",
"{7 	c #696760",
"]7 	c #615E59",
"^7 	c #6C6761",
"/7 	c #79726F",
"(7 	c #7D7473",
"_7 	c #7C7471",
":7 	c #817D7A",
"<7 	c #7E7D7A",
"[7 	c #7A7974",
"}7 	c #7B7974",
"|7 	c #7E7D78",
"17 	c #7B7B76",
"27 	c #7A746E",
"37 	c #7A756D",
"47 	c #787469",
"57 	c #7A736B",
"67 	c #847576",
"77 	c #897B79",
"87 	c #8B8780",
"97 	c #898888",
"07 	c #837D7B",
"a7 	c #7C7369",
"b7 	c #7F7870",
"c7 	c #7E7871",
"d7 	c #79706B",
"e7 	c #7B746D",
"f7 	c #817B74",
"g7 	c #84807A",
"h7 	c #898781",
"i7 	c #86837D",
"j7 	c #86817A",
"k7 	c #88837D",
"l7 	c #827C78",
"m7 	c #7E7772",
"n7 	c #817A74",
"o7 	c #83807A",
"p7 	c #82827C",
"q7 	c #82837C",
"r7 	c #81837B",
"s7 	c #828680",
"t7 	c #7F8582",
"u7 	c #7B807D",
"v7 	c #767773",
"w7 	c #7B7A75",
"x7 	c #83817D",
"y7 	c #898784",
"z7 	c #8C8C8A",
"A7 	c #898A88",
"B7 	c #878986",
"C7 	c #8D8C8C",
"D7 	c #8B8A88",
"E7 	c #837C79",
"F7 	c #7F7773",
"G7 	c #7E7975",
"H7 	c #85847E",
"I7 	c #878682",
"J7 	c #878582",
"K7 	c #85807D",
"L7 	c #83847A",
"M7 	c #897F74",
"N7 	c #887E74",
"O7 	c #726862",
"P7 	c #7C6F6A",
"Q7 	c #7E6E69",
"R7 	c #7F706A",
"S7 	c #7B6863",
"T7 	c #846F6A",
"U7 	c #88756F",
"V7 	c #8D7F7C",
"W7 	c #8A817F",
"X7 	c #8A817E",
"Y7 	c #8A827E",
"Z7 	c #8C8481",
"`7 	c #8C817E",
" 8 	c #8E8684",
".8 	c #8D8685",
"+8 	c #8E8883",
"@8 	c #8E8980",
"#8 	c #8A867E",
"$8 	c #888884",
"%8 	c #878887",
"&8 	c #7D7C7B",
"*8 	c #787472",
"=8 	c #837B77",
"-8 	c #867C7A",
";8 	c #867B79",
">8 	c #8D8887",
",8 	c #8B8584",
"'8 	c #877F7E",
")8 	c #877C7B",
"!8 	c #8A807F",
"~8 	c #8C8483",
"{8 	c #887A79",
"]8 	c #867674",
"^8 	c #827370",
"/8 	c #7E6E6B",
"(8 	c #8E8483",
"_8 	c #898684",
":8 	c #7C7875",
"<8 	c #867672",
"[8 	c #8C7F7F",
"}8 	c #8B837F",
"|8 	c #8B7F77",
"18 	c #8D807D",
"28 	c #8D8180",
"38 	c #8D817F",
"48 	c #8D8281",
"58 	c #8D8384",
"68 	c #8D8284",
"78 	c #8B8282",
"88 	c #8C8484",
"98 	c #8C8585",
"08 	c #8E8683",
"a8 	c #8F8781",
"b8 	c #8F867F",
"c8 	c #8F8178",
"d8 	c #908179",
"e8 	c #8C837D",
"f8 	c #878581",
"g8 	c #757B79",
"h8 	c #545454",
"i8 	c #756A6A",
"j8 	c #867676",
"k8 	c #857271",
"l8 	c #8B7976",
"m8 	c #43403F",
"n8 	c #5A4744",
"o8 	c #795851",
"p8 	c #7F5D55",
"q8 	c #7A5750",
"r8 	c #6B4B44",
"s8 	c #6D4A46",
"t8 	c #60413E",
"u8 	c #674744",
"v8 	c #744D48",
"w8 	c #704D46",
"x8 	c #6F4B46",
"y8 	c #774D4A",
"z8 	c #724D47",
"A8 	c #6A4B44",
"B8 	c #7B5D57",
"C8 	c #765C57",
"D8 	c #6F5753",
"E8 	c #7D645D",
"F8 	c #71574E",
"G8 	c #674B45",
"H8 	c #664744",
"I8 	c #714F4D",
"J8 	c #735350",
"K8 	c #7F635E",
"L8 	c #7D5C57",
"M8 	c #7A5956",
"N8 	c #7C5D58",
"O8 	c #7A5854",
"P8 	c #73524F",
"Q8 	c #72514D",
"R8 	c #73534D",
"S8 	c #76564F",
"T8 	c #6E504C",
"U8 	c #725956",
"V8 	c #857272",
"W8 	c #7D6D6F",
"X8 	c #624C4B",
"Y8 	c #6B4C48",
"Z8 	c #734F4C",
"`8 	c #6D4B48",
" 9 	c #795854",
".9 	c #795753",
"+9 	c #745350",
"@9 	c #72504E",
"#9 	c #775855",
"$9 	c #846966",
"%9 	c #816562",
"&9 	c #725652",
"*9 	c #775B55",
"=9 	c #7B5D56",
"-9 	c #74564E",
";9 	c #74554C",
">9 	c #7F5F59",
",9 	c #876F6D",
"'9 	c #815B5B",
")9 	c #714D4A",
"!9 	c #6F554C",
"~9 	c #6C4F47",
"{9 	c #71534D",
"]9 	c #735551",
"^9 	c #6A4D4A",
"/9 	c #775C55",
"(9 	c #81655E",
"_9 	c #81635D",
":9 	c #82645D",
"<9 	c #7F625D",
"[9 	c #806762",
"}9 	c #826862",
"|9 	c #7D5E59",
"19 	c #775954",
"29 	c #7B625C",
"39 	c #816D67",
"49 	c #857873",
"59 	c #8B817D",
"69 	c #827774",
"79 	c #837370",
"89 	c #8A7B76",
"99 	c #84736F",
"09 	c #847673",
"a9 	c #857875",
"b9 	c #877570",
"c9 	c #887873",
"d9 	c #8B7D78",
"e9 	c #887A75",
"f9 	c #837672",
"g9 	c #847470",
"h9 	c #81706C",
"i9 	c #7D6A64",
"j9 	c #7F6763",
"k9 	c #846A6D",
"l9 	c #836A6A",
"m9 	c #827068",
"n9 	c #837772",
"o9 	c #887C7A",
"p9 	c #857574",
"q9 	c #84736B",
"r9 	c #85726B",
"s9 	c #775E5A",
"t9 	c #7B635F",
"u9 	c #816964",
"v9 	c #826B65",
"w9 	c #826964",
"x9 	c #7E645F",
"y9 	c #826864",
"z9 	c #816560",
"A9 	c #7D605C",
"B9 	c #816963",
"C9 	c #816D65",
"D9 	c #7F6B63",
"E9 	c #7F6F69",
"F9 	c #857B77",
"G9 	c #69615E",
"H9 	c #7C726F",
"I9 	c #897C77",
"J9 	c #84776F",
"K9 	c #8A7E78",
"L9 	c #7F6D67",
"M9 	c #7F6C66",
"N9 	c #847571",
"O9 	c #867975",
"P9 	c #86756F",
"Q9 	c #806D68",
"R9 	c #886E6F",
"S9 	c #887070",
"T9 	c #83746D",
"U9 	c #85776D",
"V9 	c #88736D",
"W9 	c #8C7C78",
"X9 	c #8D8380",
"Y9 	c #8B817E",
"Z9 	c #897A7A",
"`9 	c #877878",
" 0 	c #857A76",
".0 	c #84746F",
"+0 	c #86776F",
"@0 	c #85766F",
"#0 	c #857770",
"$0 	c #867671",
"%0 	c #86726D",
"&0 	c #8C7E7A",
"*0 	c #8B7C7A",
"=0 	c #8B7D7A",
"-0 	c #877C79",
";0 	c #837572",
">0 	c #81706A",
",0 	c #806E66",
"'0 	c #847872",
")0 	c #88807A",
"!0 	c #89817C",
"~0 	c #827C79",
"{0 	c #898584",
"]0 	c #88807E",
"^0 	c #887B75",
"/0 	c #897972",
"(0 	c #85756E",
"_0 	c #816D66",
":0 	c #816762",
"<0 	c #816863",
"[0 	c #84706B",
"}0 	c #867571",
"|0 	c #877672",
"10 	c #887975",
"20 	c #847874",
"30 	c #847471",
"40 	c #83736F",
"50 	c #83736E",
"60 	c #826D69",
"70 	c #836A67",
"80 	c #847672",
"90 	c #877D79",
"00 	c #8D827F",
"a0 	c #8A7E7D",
"b0 	c #837A74",
"c0 	c #847C75",
"d0 	c #857B79",
"e0 	c #847875",
"f0 	c #82736A",
"g0 	c #816E67",
"h0 	c #82736D",
"i0 	c #847873",
"j0 	c #84766F",
"k0 	c #83736D",
"l0 	c #836C68",
"m0 	c #816F6B",
"n0 	c #857B76",
"o0 	c #8A7B75",
"p0 	c #8F7F78",
"q0 	c #877872",
"r0 	c #83766F",
"s0 	c #786D68",
"t0 	c #6D5E56",
"u0 	c #837069",
"v0 	c #85736E",
"w0 	c #847975",
"x0 	c #8A7F79",
"y0 	c #857670",
"z0 	c #8C7D79",
"A0 	c #8A7C78",
"B0 	c #85736C",
"C0 	c #7F6761",
"D0 	c #806961",
"E0 	c #7B655C",
"F0 	c #80605F",
"G0 	c #7D5C59",
"H0 	c #806963",
"I0 	c #82706C",
"J0 	c #7D6460",
"K0 	c #785F55",
"L0 	c #826963",
"M0 	c #7F605C",
"N0 	c #7E645E",
"O0 	c #7F645F",
"P0 	c #876D68",
"Q0 	c #8C7771",
"R0 	c #826B67",
"S0 	c #7A5E59",
"T0 	c #7B5D5A",
"U0 	c #7E6461",
"V0 	c #775E59",
"W0 	c #765D59",
"X0 	c #7E6B64",
"Y0 	c #7E6C66",
"Z0 	c #80706A",
"`0 	c #857974",
" a 	c #8E8785",
".a 	c #918B89",
"+a 	c #807371",
"@a 	c #85706D",
"#a 	c #897673",
"$a 	c #877674",
"%a 	c #8D7D7B",
"&a 	c #8A7A79",
"*a 	c #8A7676",
"=a 	c #7B5D5C",
"-a 	c #7A5E5C",
";a 	c #6D5451",
">a 	c #836B66",
",a 	c #846E69",
"'a 	c #86736F",
")a 	c #7D6564",
"!a 	c #715853",
"~a 	c #7B5750",
"{a 	c #815D54",
"]a 	c #7E675B",
"^a 	c #7E6359",
"/a 	c #6B5048",
"(a 	c #6E5249",
"_a 	c #72534A",
":a 	c #78564D",
"<a 	c #79534B",
"[a 	c #7A544C",
"}a 	c #7C554C",
"|a 	c #7D584E",
"1a 	c #7F5C54",
"2a 	c #806059",
"3a 	c #866861",
"4a 	c #856A61",
"5a 	c #836A60",
"6a 	c #7C5E56",
"7a 	c #7D5F59",
"8a 	c #856961",
"9a 	c #83665E",
"0a 	c #806861",
"aa 	c #887978",
"ba 	c #938B8B",
"ca 	c #857677",
"da 	c #755F5D",
"ea 	c #80625F",
"fa 	c #7A5954",
"ga 	c #7F5C58",
"ha 	c #805C57",
"ia 	c #7D5B55",
"ja 	c #81615A",
"ka 	c #805F59",
"la 	c #74534E",
"ma 	c #75534E",
"na 	c #73504A",
"oa 	c #744E48",
"pa 	c #6E4943",
"qa 	c #6D4841",
"ra 	c #6C463E",
"sa 	c #754B43",
"ta 	c #794E48",
"ua 	c #6F4E49",
"va 	c #674941",
"wa 	c #67423A",
"xa 	c #724C45",
"ya 	c #6E4E46",
"za 	c #6F493F",
"Aa 	c #754B45",
"Ba 	c #835D55",
"Ca 	c #7D5751",
"Da 	c #7B554F",
"Ea 	c #79544F",
"Fa 	c #7A5550",
"Ga 	c #7E5954",
"Ha 	c #7C5A55",
"Ia 	c #795A53",
"Ja 	c #72504A",
"Ka 	c #744C47",
"La 	c #794B46",
"Ma 	c #7B4D49",
"Na 	c #6C4944",
"Oa 	c #77625D",
"Pa 	c #7E6F6C",
"Qa 	c #483B3B",
"Ra 	c #4E332E",
"Sa 	c #643F39",
"Ta 	c #69403A",
"Ua 	c #653D37",
"Va 	c #433E3E",
"Wa 	c #533534",
"Xa 	c #5C2F2A",
"Ya 	c #582C29",
"Za 	c #5C2E2A",
"`a 	c #532C28",
" b 	c #532B28",
".b 	c #562D29",
"+b 	c #5A2E2B",
"@b 	c #592D29",
"#b 	c #542B27",
"$b 	c #562E28",
"%b 	c #552E29",
"&b 	c #7E6761",
"*b 	c #482F2D",
"=b 	c #5B2F2A",
"-b 	c #542D29",
";b 	c #572D29",
">b 	c #5C312B",
",b 	c #61342F",
"'b 	c #5F332E",
")b 	c #603029",
"!b 	c #60342F",
"~b 	c #5A2E2A",
"{b 	c #5D312B",
"]b 	c #59302A",
"^b 	c #60322B",
"/b 	c #5A2F29",
"(b 	c #542D27",
"_b 	c #57302A",
":b 	c #5A342D",
"<b 	c #694E45",
"[b 	c #594442",
"}b 	c #593A35",
"|b 	c #5B3630",
"1b 	c #5D3530",
"2b 	c #613832",
"3b 	c #613933",
"4b 	c #603B33",
"5b 	c #5A342E",
"6b 	c #5B3530",
"7b 	c #58322D",
"8b 	c #57322C",
"9b 	c #59332D",
"0b 	c #5D352F",
"ab 	c #58342E",
"bb 	c #5E3834",
"cb 	c #5F332D",
"db 	c #5D342E",
"eb 	c #59312B",
"fb 	c #5A312C",
"gb 	c #5D332E",
"hb 	c #5C332D",
"ib 	c #5E342E",
"jb 	c #5B342E",
"kb 	c #5B332D",
"lb 	c #57312B",
"mb 	c #5C312C",
"nb 	c #53312C",
"ob 	c #553D38",
"pb 	c #74635D",
"qb 	c #534643",
"rb 	c #553B37",
"sb 	c #623F37",
"tb 	c #5E3830",
"ub 	c #673D36",
"vb 	c #694038",
"wb 	c #5C3530",
"xb 	c #59342F",
"yb 	c #5E3831",
"zb 	c #5F3832",
"Ab 	c #633A34",
"Bb 	c #633B35",
"Cb 	c #603A34",
"Db 	c #6A403B",
"Eb 	c #693E39",
"Fb 	c #603A33",
"Gb 	c #633C33",
"Hb 	c #653B34",
"Ib 	c #6C423B",
"Jb 	c #6C463D",
"Kb 	c #69433A",
"Lb 	c #603935",
"Mb 	c #5E3B36",
"Nb 	c #5B3833",
"Ob 	c #5B3932",
"Pb 	c #5D3630",
"Qb 	c #623A34",
"Rb 	c #67403A",
"Sb 	c #663E39",
"Tb 	c #663E3A",
"Ub 	c #5D3934",
"Vb 	c #583531",
"Wb 	c #54332E",
"Xb 	c #59362E",
"Yb 	c #5A3A31",
"Zb 	c #5E3F37",
"`b 	c #664A41",
" c 	c #6A5852",
".c 	c #5C5451",
"+c 	c #5A4944",
"@c 	c #62423A",
"#c 	c #653D35",
"$c 	c #5D372F",
"%c 	c #5F352F",
"&c 	c #5E332E",
"*c 	c #5B322C",
"=c 	c #5D322D",
"-c 	c #61352F",
";c 	c #60352E",
">c 	c #643A32",
",c 	c #6F433D",
"'c 	c #643D36",
")c 	c #59362F",
"!c 	c #5C3A32",
"~c 	c #5E3A33",
"{c 	c #5E3733",
"]c 	c #5D352E",
"^c 	c #59342D",
"/c 	c #613932",
"(c 	c #5F3630",
"_c 	c #5B342F",
":c 	c #5D3932",
"<c 	c #603A32",
"[c 	c #663E38",
"}c 	c #6F4B44",
"|c 	c #63423C",
"1c 	c #573A35",
"2c 	c #715D58",
"3c 	c #695E59",
"4c 	c #483733",
"5c 	c #55352E",
"6c 	c #613C35",
"7c 	c #633D37",
"8c 	c #603932",
"9c 	c #593731",
"0c 	c #63403A",
"ac 	c #5F3732",
"bc 	c #683F39",
"cc 	c #623A35",
"dc 	c #5B352F",
"ec 	c #58332C",
"fc 	c #5C342E",
"gc 	c #5F362E",
"hc 	c #55302B",
"ic 	c #54302A",
"jc 	c #61332D",
"kc 	c #63312D",
"lc 	c #572E2A",
"mc 	c #623631",
"nc 	c #663833",
"oc 	c #572E29",
"pc 	c #5A2F2B",
"qc 	c #592F2B",
"rc 	c #522C28",
"sc 	c #522F2A",
"tc 	c #4D2C27",
"uc 	c #51302B",
"vc 	c #5A3730",
"wc 	c #7A6562",
"xc 	c #5B4544",
"yc 	c #52332E",
"zc 	c #623833",
"Ac 	c #673833",
"Bc 	c #633732",
"Cc 	c #633731",
"Dc 	c #713F39",
"Ec 	c #693833",
"Fc 	c #693731",
"Gc 	c #653430",
"Hc 	c #5E2F2B",
"Ic 	c #64352F",
"Jc 	c #61332F",
"Kc 	c #593029",
"Lc 	c #61322A",
"Mc 	c #582D27",
"Nc 	c #63342C",
"Oc 	c #5B3029",
"Pc 	c #552D27",
"Qc 	c #5C322A",
"Rc 	c #542E2A",
"Sc 	c #5F3F39",
"Tc 	c #8B7371",
"Uc 	c #7C6869",
"Vc 	c #50322E",
"Wc 	c #59302D",
"Xc 	c #61312D",
"Yc 	c #6C4E49",
"Zc 	c #81706D",
"`c 	c #523F3F",
" d 	c #433F3C",
".d 	c #543533",
"+d 	c #663B32",
"@d 	c #836B60",
"#d 	c #472D2A",
"$d 	c #5B3127",
"%d 	c #694C41",
"&d 	c #7C6B63",
"*d 	c #42312F",
"=d 	c #583933",
"-d 	c #726059",
";d 	c #4E433F",
">d 	c #472925",
",d 	c #623D36",
"'d 	c #4B4442",
")d 	c #612E25",
"!d 	c #532A25",
"~d 	c #4E2B26",
"{d 	c #6F5A56",
"]d 	c #685E5B",
"^d 	c #432E2C",
"/d 	c #704F49",
"(d 	c #6E5956",
"_d 	c #412F2D",
":d 	c #562925",
"<d 	c #542A24",
"[d 	c #55312A",
"}d 	c #816561",
"|d 	c #77605F",
"1d 	c #512E28",
"2d 	c #532923",
"3d 	c #6A322C",
"4d 	c #75564F",
"5d 	c #80736E",
"6d 	c #4D3C3B",
"7d 	c #543431",
"8d 	c #633931",
"9d 	c #806A5E",
"0d 	c #6F6059",
"ad 	c #703229",
"bd 	c #64473E",
"cd 	c #402F2F",
"dd 	c #502C26",
"ed 	c #623029",
"fd 	c #603C35",
"gd 	c #745F59",
"hd 	c #4C403D",
"id 	c #4A2A25",
"jd 	c #575250",
"kd 	c #422924",
"ld 	c #552A25",
"md 	c #755E5A",
"nd 	c #6E4D47",
"od 	c #796460",
"pd 	c #473634",
"qd 	c #582A24",
"rd 	c #5D352D",
"sd 	c #80635E",
"td 	c #6E5757",
"ud 	c #562A24",
"vd 	c #773328",
"wd 	c #6C352E",
"xd 	c #7F625B",
"yd 	c #7D756F",
"zd 	c #563531",
"Ad 	c #5C342F",
"Bd 	c #796459",
"Cd 	c #695B55",
"Dd 	c #462D29",
"Ed 	c #74332A",
"Fd 	c #552C25",
"Gd 	c #674A41",
"Hd 	c #7E6C64",
"Id 	c #413130",
"Jd 	c #512C27",
"Kd 	c #5D3B33",
"Ld 	c #725F57",
"Md 	c #4F2D27",
"Nd 	c #613A33",
"Od 	c #846E6B",
"Pd 	c #5C5351",
"Qd 	c #432925",
"Rd 	c #753329",
"Sd 	c #755D58",
"Td 	c #746663",
"Ud 	c #45312E",
"Vd 	c #572C25",
"Wd 	c #552B25",
"Xd 	c #7B6663",
"Yd 	c #4A3836",
"Zd 	c #7F615D",
"`d 	c #462825",
" e 	c #816761",
".e 	c #7D7874",
"+e 	c #473835",
"@e 	c #573531",
"#e 	c #7A6459",
"$e 	c #442B26",
"%e 	c #753228",
"&e 	c #6E4E44",
"*e 	c #7C6A61",
"=e 	c #423230",
"-e 	c #512B27",
";e 	c #6A2C27",
">e 	c #773229",
",e 	c #563630",
"'e 	c #6C5952",
")e 	c #5D3027",
"!e 	c #806764",
"~e 	c #615554",
"{e 	c #72302A",
"]e 	c #753029",
"^e 	c #532B26",
"/e 	c #755B55",
"(e 	c #756664",
"_e 	c #4A3331",
":e 	c #743329",
"<e 	c #5B2A24",
"[e 	c #6A4C45",
"}e 	c #74615C",
"|e 	c #483634",
"1e 	c #60362E",
"2e 	c #7E5F5C",
"3e 	c #675050",
"4e 	c #773128",
"5e 	c #63332C",
"6e 	c #7E665F",
"7e 	c #7B7772",
"8e 	c #433633",
"9e 	c #553431",
"0e 	c #662D24",
"ae 	c #5E2B24",
"be 	c #5D3731",
"ce 	c #7B655A",
"de 	c #665751",
"ee 	c #6E4F45",
"fe 	c #4A3735",
"ge 	c #583832",
"he 	c #735D55",
"ie 	c #4B3F3B",
"je 	c #472924",
"ke 	c #723126",
"le 	c #793328",
"me 	c #703025",
"ne 	c #753127",
"oe 	c #806865",
"pe 	c #615454",
"qe 	c #562A26",
"re 	c #763028",
"se 	c #773028",
"te 	c #742F27",
"ue 	c #512A24",
"ve 	c #6F5650",
"we 	c #716260",
"xe 	c #4A3230",
"ye 	c #733329",
"ze 	c #6D5048",
"Ae 	c #4A3935",
"Be 	c #542F28",
"Ce 	c #81615D",
"De 	c #664F4F",
"Ee 	c #4B2B25",
"Fe 	c #7B665F",
"Ge 	c #797671",
"He 	c #3E3231",
"Ie 	c #533431",
"Je 	c #5B362F",
"Ke 	c #7C665A",
"Le 	c #6A5D55",
"Me 	c #65493F",
"Ne 	c #7B6B62",
"Oe 	c #493532",
"Pe 	c #5D2E29",
"Qe 	c #642F2A",
"Re 	c #633D36",
"Se 	c #7A635A",
"Te 	c #51453F",
"Ue 	c #763328",
"Ve 	c #753227",
"We 	c #672C24",
"Xe 	c #5A322D",
"Ye 	c #605251",
"Ze 	c #5A2923",
"`e 	c #753027",
" f 	c #725A55",
".f 	c #766763",
"+f 	c #644842",
"@f 	c #705E58",
"#f 	c #473531",
"$f 	c #522D27",
"%f 	c #692E29",
"&f 	c #5E372E",
"*f 	c #836560",
"=f 	c #634C4B",
"-f 	c #4F2D28",
";f 	c #79645C",
">f 	c #77746E",
",f 	c #403230",
"'f 	c #58342D",
")f 	c #7B675B",
"!f 	c #645750",
"~f 	c #6E4F44",
"{f 	c #43302E",
"]f 	c #5F3932",
"^f 	c #705A52",
"/f 	c #4E403C",
"(f 	c #4C2A26",
"_f 	c #6A2C25",
":f 	c #7A615D",
"<f 	c #5A4D4C",
"[f 	c #552A26",
"}f 	c #542B24",
"|f 	c #562E29",
"1f 	c #775F59",
"2f 	c #776B66",
"3f 	c #48322E",
"4f 	c #5C453F",
"5f 	c #705F59",
"6f 	c #483632",
"7f 	c #562B24",
"8f 	c #826661",
"9f 	c #5B4746",
"0f 	c #4C2A27",
"af 	c #785F56",
"bf 	c #726C64",
"cf 	c #5B352E",
"df 	c #7F6B60",
"ef 	c #635850",
"ff 	c #452C28",
"gf 	c #65483D",
"hf 	c #78665E",
"if 	c #463331",
"jf 	c #77332A",
"kf 	c #5C3731",
"lf 	c #705A54",
"mf 	c #50423F",
"nf 	c #6E2F25",
"of 	c #59322D",
"pf 	c #5E5150",
"qf 	c #3D2824",
"rf 	c #6D3126",
"sf 	c #6B2F25",
"tf 	c #662E29",
"uf 	c #502B26",
"vf 	c #776C66",
"wf 	c #463330",
"xf 	c #72332A",
"yf 	c #723129",
"zf 	c #684C44",
"Af 	c #77645E",
"Bf 	c #4C3734",
"Cf 	c #5A332C",
"Df 	c #574443",
"Ef 	c #482924",
"Ff 	c #562A25",
"Gf 	c #785C54",
"Hf 	c #6F655D",
"If 	c #3D2B2A",
"Jf 	c #553532",
"Kf 	c #603831",
"Lf 	c #826B60",
"Mf 	c #5F544C",
"Nf 	c #6C4C42",
"Of 	c #76645B",
"Pf 	c #433130",
"Qf 	c #524541",
"Rf 	c #4B2A25",
"Sf 	c #806763",
"Tf 	c #625554",
"Uf 	c #6F3226",
"Vf 	c #5F2F25",
"Wf 	c #612E24",
"Xf 	c #725D55",
"Yf 	c #7A6F68",
"Zf 	c #6D4F46",
"`f 	c #7B6860",
" g 	c #562924",
".g 	c #56312B",
"+g 	c #55403F",
"@g 	c #482925",
"#g 	c #6A332B",
"$g 	c #795A52",
"%g 	c #73675F",
"&g 	c #3C2C2B",
"*g 	c #573532",
"=g 	c #3E2826",
"-g 	c #4F2924",
";g 	c #5C2C24",
">g 	c #6C4B43",
",g 	c #7D685F",
"'g 	c #473330",
")g 	c #554743",
"!g 	c #806664",
"~g 	c #5F5151",
"{g 	c #452926",
"]g 	c #753428",
"^g 	c #6E3226",
"/g 	c #672D24",
"(g 	c #725F54",
"_g 	c #787066",
":g 	c #4A3530",
"<g 	c #694B44",
"[g 	c #786560",
"}g 	c #493835",
"|g 	c #502A25",
"1g 	c #552924",
"2g 	c #56302A",
"3g 	c #6E5952",
"4g 	c #4C3D3A",
"5g 	c #5A2925",
"6g 	c #6C342B",
"7g 	c #73514B",
"8g 	c #74635E",
"9g 	c #3E2E2E",
"0g 	c #522A26",
"ag 	c #563431",
"bg 	c #6C5B59",
"cg 	c #63443E",
"dg 	c #7E635D",
"eg 	c #4B3330",
"fg 	c #562D28",
"gg 	c #722E26",
"hg 	c #725E56",
"ig 	c #5E3631",
"jg 	c #7C615F",
"kg 	c #594A49",
"lg 	c #692C24",
"mg 	c #6F5E53",
"ng 	c #736C60",
"og 	c #50352F",
"pg 	c #6E302A",
"qg 	c #6A4B48",
"rg 	c #786668",
"sg 	c #4A3A3A",
"tg 	c #706257",
"ug 	c #49423C",
"vg 	c #4C2927",
"wg 	c #662B24",
"xg 	c #6D2E29",
"yg 	c #672E24",
"zg 	c #6B3429",
"Ag 	c #76514A",
"Bg 	c #76615E",
"Cg 	c #403030",
"Dg 	c #433E3D",
"Eg 	c #543531",
"Fg 	c #5E3C34",
"Gg 	c #857068",
"Hg 	c #6A5D5A",
"Ig 	c #492C26",
"Jg 	c #826861",
"Kg 	c #4E3531",
"Lg 	c #542D28",
"Mg 	c #7A3129",
"Ng 	c #772F28",
"Og 	c #59372D",
"Pg 	c #6F5E52",
"Qg 	c #534941",
"Rg 	c #653024",
"Sg 	c #572E25",
"Tg 	c #77635C",
"Ug 	c #554A45",
"Vg 	c #662A26",
"Wg 	c #572A2A",
"Xg 	c #6A574F",
"Yg 	c #6F665D",
"Zg 	c #642E24",
"`g 	c #614948",
" h 	c #6C6266",
".h 	c #463A3A",
"+h 	c #562926",
"@h 	c #5E312D",
"#h 	c #4C4641",
"$h 	c #4E2928",
"%h 	c #715246",
"&h 	c #726057",
"*h 	c #3B2F2C",
"=h 	c #502C25",
"-h 	c #433F3F",
";h 	c #533531",
">h 	c #6E3328",
",h 	c #70322B",
"'h 	c #5C3B33",
")h 	c #847168",
"!h 	c #695E58",
"~h 	c #5F3227",
"{h 	c #673328",
"]h 	c #673227",
"^h 	c #6E3428",
"/h 	c #6E3329",
"(h 	c #6F2F2A",
"_h 	c #70302A",
":h 	c #713029",
"<h 	c #632E29",
"[h 	c #5B403B",
"}h 	c #775F58",
"|h 	c #49332F",
"1h 	c #79332B",
"2h 	c #70312B",
"3h 	c #56352B",
"4h 	c #6C594C",
"5h 	c #53463E",
"6h 	c #4C2D27",
"7h 	c #552B24",
"8h 	c #59372E",
"9h 	c #7F6B5F",
"0h 	c #5C5249",
"ah 	c #6F2D28",
"bh 	c #4F2B23",
"ch 	c #705B50",
"dh 	c #6D6458",
"eh 	c #4D342F",
"fh 	c #772E2B",
"gh 	c #76342B",
"hh 	c #6C3229",
"ih 	c #6C302A",
"jh 	c #572F28",
"kh 	c #624D47",
"lh 	c #6C6562",
"mh 	c #443A37",
"nh 	c #532E26",
"oh 	c #5E322A",
"ph 	c #7A665A",
"qh 	c #514840",
"rh 	c #4F2A28",
"sh 	c #74342B",
"th 	c #6F3328",
"uh 	c #643227",
"vh 	c #5C2D24",
"wh 	c #6B3329",
"xh 	c #623025",
"yh 	c #5F3429",
"zh 	c #684C40",
"Ah 	c #6C5F54",
"Bh 	c #3D3430",
"Ch 	c #562F28",
"Dh 	c #5D3128",
"Eh 	c #5B2F27",
"Fh 	c #4B3532",
"Gh 	c #542E29",
"Hh 	c #4F2B28",
"Ih 	c #64342B",
"Jh 	c #5F312A",
"Kh 	c #64312B",
"Lh 	c #61322D",
"Mh 	c #63322C",
"Nh 	c #4D2D27",
"Oh 	c #533832",
"Ph 	c #766661",
"Qh 	c #655B58",
"Rh 	c #3E2B28",
"Sh 	c #4E2F27",
"Th 	c #522F28",
"Uh 	c #543029",
"Vh 	c #62342D",
"Wh 	c #64322C",
"Xh 	c #62312B",
"Yh 	c #60322D",
"Zh 	c #5D2F2B",
"`h 	c #64312A",
" i 	c #6B342C",
".i 	c #5B2D2A",
"+i 	c #5A2D2A",
"@i 	c #592D2A",
"#i 	c #592E2B",
"$i 	c #56302C",
"%i 	c #4F3935",
"&i 	c #61514C",
"*i 	c #3F302E",
"=i 	c #612F2A",
"-i 	c #5E3129",
";i 	c #582E26",
">i 	c #5D3228",
",i 	c #5E3228",
"'i 	c #633429",
")i 	c #66342A",
"!i 	c #78362D",
"~i 	c #71342A",
"{i 	c #6D3529",
"]i 	c #663429",
"^i 	c #5E3127",
"/i 	c #532D25",
"(i 	c #66302C",
"_i 	c #68332D",
":i 	c #69352F",
"<i 	c #69342F",
"[i 	c #632F2C",
"}i 	c #622F2C",
"|i 	c #5F2F2B",
"1i 	c #5E302A",
"2i 	c #53342C",
"3i 	c #69544D",
"4i 	c #52433F",
"5i 	c #673229",
"6i 	c #683229",
"7i 	c #68332A",
"8i 	c #6E362C",
"9i 	c #6A3428",
"0i 	c #70352A",
"ai 	c #6A3329",
"bi 	c #693228",
"ci 	c #56352E",
"di 	c #79645B",
"ei 	c #5C5049",
"fi 	c #3E2925",
"gi 	c #683328",
"hi 	c #5C2F27",
"ii 	c #603229",
"ji 	c #5A3028",
"ki 	c #572F26",
"li 	c #5F3228",
"mi 	c #552F27",
"ni 	c #4C2D24",
"oi 	c #553027",
"pi 	c #52322A",
"qi 	c #705C4F",
"ri 	c #686053",
"si 	c #42302C",
"ti 	c #542C29",
"ui 	c #5D3129",
"vi 	c #65312C",
"wi 	c #6D302E",
"xi 	c #6A302B",
"yi 	c #613228",
"zi 	c #603327",
"Ai 	c #603128",
"Bi 	c #6D372C",
"Ci 	c #69362B",
"Di 	c #6F342E",
"Ei 	c #74342E",
"Fi 	c #73352F",
"Gi 	c #69332C",
"Hi 	c #653229",
"Ii 	c #643229",
"Ji 	c #66332A",
"Ki 	c #532C27",
"Li 	c #5D302B",
"Mi 	c #5C4840",
"Ni 	c #6A615A",
"Oi 	c #463A35",
"Pi 	c #512F27",
"Qi 	c #522B24",
"Ri 	c #592D25",
"Si 	c #582D2A",
"Ti 	c #69342C",
"Ui 	c #6B332D",
"Vi 	c #5F3127",
"Wi 	c #613128",
"Xi 	c #5E2F26",
"Yi 	c #5A3027",
"Zi 	c #572D26",
"`i 	c #593027",
" j 	c #552F26",
".j 	c #513026",
"+j 	c #6E6050",
"@j 	c #4A4338",
"#j 	c #552B28",
"$j 	c #61302B",
"%j 	c #582C28",
"&j 	c #4E2A25",
"*j 	c #552F28",
"=j 	c #552D28",
"-j 	c #4D2925",
";j 	c #522C26",
">j 	c #552E2B",
",j 	c #4F2C26",
"'j 	c #502F29",
")j 	c #59443E",
"!j 	c #635854",
"~j 	c #393332",
"{j 	c #372926",
"]j 	c #442C27",
"^j 	c #403F40",
"/j 	c #3B3331",
"(j 	c #3A2A28",
"_j 	c #3F2B2A",
":j 	c #3A2928",
"<j 	c #3A292A",
"[j 	c #352827",
"}j 	c #382827",
"|j 	c #3C2A28",
"1j 	c #3B2926",
"2j 	c #3F2A27",
"3j 	c #3E2C28",
"4j 	c #412C28",
"5j 	c #462E29",
"6j 	c #47302D",
"7j 	c #4A3531",
"8j 	c #48342E",
"9j 	c #43312B",
"0j 	c #45312C",
"aj 	c #4A352E",
"bj 	c #4A332E",
"cj 	c #503531",
"dj 	c #4A322E",
"ej 	c #4A312D",
"fj 	c #4B3530",
"gj 	c #47332F",
"hj 	c #45332F",
"ij 	c #3F2D2B",
"jj 	c #3D2B28",
"kj 	c #3D2B27",
"lj 	c #3F2B27",
"mj 	c #382825",
"nj 	c #362825",
"oj 	c #3B302B",
"pj 	c #4B4340",
"qj 	c #44413F",
"rj 	c #2E2928",
"sj 	c #332826",
"tj 	c #352927",
"uj 	c #362928",
"vj 	c #362A28",
"wj 	c #342826",
"xj 	c #362725",
"yj 	c #3D2928",
"zj 	c #382626",
"Aj 	c #3B2827",
"Bj 	c #3C2827",
"Cj 	c #3C2927",
"Dj 	c #3B2826",
"Ej 	c #412D2A",
"Fj 	c #392927",
"Gj 	c #3C2A26",
"Hj 	c #392826",
"Ij 	c #402B26",
"Jj 	c #3E2924",
"Kj 	c #452B26",
"Lj 	c #372625",
"Mj 	c #362524",
"Nj 	c #3A2726",
"Oj 	c #382725",
"Pj 	c #382826",
"Qj 	c #3C2C29",
"Rj 	c #3F3835",
"Sj 	c #474440",
"Tj 	c #2F2C2B",
"Uj 	c #2E2524",
"Vj 	c #412B26",
"Wj 	c #3D2825",
"Xj 	c #412A25",
"Yj 	c #3D2924",
"Zj 	c #452A25",
"`j 	c #502D28",
" k 	c #4C2B25",
".k 	c #4A2D26",
"+k 	c #442C26",
"@k 	c #3A2626",
"#k 	c #452C29",
"$k 	c #422C28",
"%k 	c #3C2826",
"&k 	c #422B28",
"*k 	c #372624",
"=k 	c #392625",
"-k 	c #3B2724",
";k 	c #3B2C28",
">k 	c #4E4441",
",k 	c #3D3736",
"'k 	c #332625",
")k 	c #462B26",
"!k 	c #4B2B26",
"~k 	c #4C2C27",
"{k 	c #492A25",
"]k 	c #492925",
"^k 	c #522D28",
"/k 	c #4C2B26",
"(k 	c #472A24",
"_k 	c #4B2C25",
":k 	c #512F28",
"<k 	c #472A25",
"[k 	c #3F2725",
"}k 	c #402D2B",
"|k 	c #574B48",
"1k 	c #47413E",
"2k 	c #302624",
"3k 	c #402925",
"4k 	c #442B25",
"5k 	c #462C27",
"6k 	c #462E27",
"7k 	c #432C25",
"8k 	c #442D26",
"9k 	c #452E26",
"0k 	c #462D27",
"ak 	c #472E27",
"bk 	c #4A2F27",
"ck 	c #4A2F26",
"dk 	c #4C2E2A",
"ek 	c #4A2F28",
"fk 	c #492D26",
"gk 	c #4D2D26",
"hk 	c #4F2C25",
"ik 	c #4D2B25",
"jk 	c #432924",
"kk 	c #442A25",
"lk 	c #402924",
"mk 	c #4C2C28",
"nk 	c #472D27",
"ok 	c #412C26",
"pk 	c #482E27",
"qk 	c #47312C",
"rk 	c #5E524B",
"sk 	c #5E5B54",
"tk 	c #3D3936",
"uk 	c #3D2D2A",
"vk 	c #402F28",
"wk 	c #422D28",
"xk 	c #472B29",
"yk 	c #432F29",
"zk 	c #412E27",
"Ak 	c #422F29",
"Bk 	c #4A332B",
"Ck 	c #4A342C",
"Dk 	c #45322A",
"Ek 	c #46332B",
"Fk 	c #46312B",
"Gk 	c #54322E",
"Hk 	c #51322E",
"Ik 	c #49302C",
"Jk 	c #4C342E",
"Kk 	c #47312A",
"Lk 	c #4A332D",
"Mk 	c #47322C",
"Nk 	c #47342E",
"Ok 	c #473630",
"Pk 	c #41342F",
"Qk 	c #392E2B",
"Rk 	c #3E2F2A",
"Sk 	c #43322E",
"Tk 	c #40302D",
"Uk 	c #3F2F2C",
"Vk 	c #43322F",
"Wk 	c #433430",
"Xk 	c #443732",
"Yk 	c #453632",
"Zk 	c #473632",
"`k 	c #594C48",
" l 	c #655E5C",
".l 	c #48403E",
"+l 	c #432F2B",
"@l 	c #4C302B",
"#l 	c #4E342F",
"$l 	c #47302B",
"%l 	c #402A25",
"&l 	c #452E29",
"*l 	c #46312A",
"=l 	c #422E27",
"-l 	c #3F2C27",
";l 	c #402E2A",
">l 	c #412E2B",
",l 	c #3F2F2A",
"'l 	c #3C2D2A",
")l 	c #432E28",
"!l 	c #472F29",
"~l 	c #4F3632",
"{l 	c #554138",
"]l 	c #553F36",
"^l 	c #553B33",
"/l 	c #573A33",
"(l 	c #563D34",
"_l 	c #5C4439",
":l 	c #5B433B",
"<l 	c #523E36",
"[l 	c #4A3730",
"}l 	c #4D3832",
"|l 	c #523B33",
"1l 	c #4F3B34",
"2l 	c #4C3932",
"3l 	c #45332D",
"4l 	c #46342E",
"5l 	c #48352D",
"6l 	c #44332B",
"7l 	c #44302A",
"8l 	c #40322C",
"9l 	c #57574B",
"0l 	c #464A41",
"al 	c #3D3330",
"bl 	c #43312C",
"cl 	c #3F302A",
"dl 	c #3F2E2A",
"el 	c #3E2C29",
"fl 	c #402C29",
"gl 	c #402E2B",
"hl 	c #3D2C29",
"il 	c #3C2E2A",
"jl 	c #3B2E2A",
"kl 	c #3A2D2A",
"ll 	c #382C29",
"ml 	c #392C29",
"nl 	c #382B29",
"ol 	c #362927",
"pl 	c #352926",
"ql 	c #372A28",
"rl 	c #3B2E2D",
"sl 	c #3E3030",
"tl 	c #443132",
"ul 	c #3F3131",
"vl 	c #352E2B",
"wl 	c #3E3230",
"xl 	c #483537",
"yl 	c #463434",
"zl 	c #413330",
"Al 	c #40322F",
"Bl 	c #423431",
"Cl 	c #41312F",
"Dl 	c #43302F",
"El 	c #41302E",
"Fl 	c #3D302E",
"Gl 	c #3E3130",
"Hl 	c #403231",
"Il 	c #443331",
"Jl 	c #473633",
"Kl 	c #574C4B",
"Ll 	c #605B5E",
"Ml 	c #4B4C4E",
"Nl 	c #4D4B47",
"Ol 	c #504C48",
"Pl 	c #534C48",
"Ql 	c #414141",
"Rl 	c #4E4948",
"Sl 	c #534B49",
"Tl 	c #58504D",
"Ul 	c #554E4C",
"Vl 	c #5E5654",
"Wl 	c #5B5352",
"Xl 	c #56514E",
"Yl 	c #584E4E",
"Zl 	c #564B4E",
"`l 	c #5B5357",
" m 	c #595254",
".m 	c #5E5452",
"+m 	c #665855",
"@m 	c #6A5C5B",
"#m 	c #6B6063",
"$m 	c #6A6768",
"%m 	c #6B6B66",
"&m 	c #75716A",
"*m 	c #7B736B",
"=m 	c #706A5C",
"-m 	c #797061",
";m 	c #7C6F64",
">m 	c #746860",
",m 	c #716660",
"'m 	c #766D66",
")m 	c #797069",
"!m 	c #7C726A",
"~m 	c #706660",
"{m 	c #675D56",
"]m 	c #625A52",
"^m 	c #5B564D",
"/m 	c #55534A",
"(m 	c #5A5750",
"_m 	c #5A554E",
":m 	c #5D544E",
"<m 	c #675F58",
"[m 	c #716E6A",
"}m 	c #6A6B6B",
"|m 	c #585855",
"1m 	c #59574F",
"2m 	c #5D5B52",
"3m 	c #5F5B53",
"4m 	c #605C54",
"5m 	c #5F5B52",
"6m 	c #5F5A52",
"7m 	c #59554D",
"8m 	c #5A564F",
"9m 	c #595551",
"0m 	c #585551",
"am 	c #575350",
"bm 	c #534F4C",
"cm 	c #56514F",
"dm 	c #53504D",
"em 	c #57534F",
"fm 	c #5D5754",
"gm 	c #625D59",
"hm 	c #5E5D57",
"im 	c #5B5D57",
"jm 	c #52514C",
"km 	c #58524D",
"lm 	c #5F5451",
"mm 	c #5A514C",
"nm 	c #5B524C",
"om 	c #57504B",
"pm 	c #564E4A",
"qm 	c #5B534E",
"rm 	c #5C5550",
"sm 	c #554D4A",
"tm 	c #544C49",
"um 	c #514A47",
"vm 	c #544D49",
"wm 	c #564F4B",
"xm 	c #544E49",
"ym 	c #56504B",
"zm 	c #544F4A",
"Am 	c #5D5953",
"Bm 	c #666762",
"Cm 	c #656864",
"Dm 	c #545152",
"Em 	c #494544",
"Fm 	c #4B443F",
"Gm 	c #4A433C",
"Hm 	c #4A453D",
"Im 	c #4D4842",
"Jm 	c #433D3D",
"Km 	c #453F3F",
"Lm 	c #453E3F",
"Mm 	c #484142",
"Nm 	c #433C3D",
"Om 	c #423C3D",
"Pm 	c #464041",
"Qm 	c #443F3F",
"Rm 	c #443E3D",
"Sm 	c #483E3F",
"Tm 	c #463B3B",
"Um 	c #433939",
"Vm 	c #453F40",
"Wm 	c #514C4C",
"Xm 	c #524A4E",
"Ym 	c #4C4346",
"Zm 	c #4B4240",
"`m 	c #514944",
" n 	c #514A44",
".n 	c #4E4942",
"+n 	c #4F4B44",
"@n 	c #4B4841",
"#n 	c #4A4841",
"$n 	c #4B4A43",
"%n 	c #4E4C46",
"&n 	c #4E4D45",
"*n 	c #47453F",
"=n 	c #413F3A",
"-n 	c #3B3A35",
";n 	c #3E3A35",
">n 	c #474641",
",n 	c #545757",
"'n 	c #44484B",
")n 	c #393738",
"!n 	c #3D3632",
"~n 	c #423836",
"{n 	c #423838",
"]n 	c #3F3635",
"^n 	c #3D3534",
"/n 	c #403A37",
"(n 	c #413A39",
"_n 	c #3C3634",
":n 	c #463E3B",
"<n 	c #4D4440",
"[n 	c #504642",
"}n 	c #4D4441",
"|n 	c #4C433F",
"1n 	c #4B433E",
"2n 	c #4E4644",
"3n 	c #494243",
"4n 	c #463F3E",
"5n 	c #413B37",
"6n 	c #413A37",
"7n 	c #49413E",
"8n 	c #493F3F",
"9n 	c #4C4041",
"0n 	c #4A4140",
"an 	c #4D4543",
"bn 	c #4B4140",
"cn 	c #493F3D",
"dn 	c #4E4342",
"en 	c #493F3E",
"fn 	c #4A413F",
"gn 	c #46403C",
"hn 	c #46403B",
"in 	c #49413F",
"jn 	c #4D4847",
"kn 	c #565853",
"ln 	c #4F524E",
"mn 	c #4E4949",
"nn 	c #4F474A",
"on 	c #4B4548",
"pn 	c #4C4748",
"qn 	c #504A48",
"rn 	c #4F4946",
"sn 	c #524C48",
"tn 	c #58504C",
"un 	c #574D4B",
"vn 	c #574E4B",
"wn 	c #59504D",
"xn 	c #5B524F",
"yn 	c #5D5350",
"zn 	c #5C5350",
"An 	c #5A504E",
"Bn 	c #5D534F",
"Cn 	c #5E544D",
"Dn 	c #5C5655",
"En 	c #585558",
"Fn 	c #615A5F",
"Gn 	c #5E5355",
"Hn 	c #5C4E4E",
"In 	c #5F5653",
"Jn 	c #5B5451",
"Kn 	c #5D504D",
"Ln 	c #5D4F4B",
"Mn 	c #5C4F4C",
"Nn 	c #594E4A",
"On 	c #594F4C",
"Pn 	c #564D4B",
"Qn 	c #564F4C",
"Rn 	c #564A49",
"Sn 	c #5C4B4D",
"Tn 	c #584C4C",
"Un 	c #564D49",
"Vn 	c #5A4F4B",
"Wn 	c #5B5150",
"Xn 	c #716F72",
"Yn 	c #747979",
"Zn 	c #6C6C67",
"`n 	c #675E57",
" o 	c #6F665B",
".o 	c #666255",
"+o 	c #5E5B50",
"@o 	c #5C564D",
"#o 	c #5A594D",
"$o 	c #5C5C52",
"%o 	c #625D57",
"&o 	c #5D5752",
"*o 	c #5C5551",
"=o 	c #5F5955",
"-o 	c #69625C",
";o 	c #6B645F",
">o 	c #665F5A",
",o 	c #67615B",
"'o 	c #656056",
")o 	c #695B50",
"!o 	c #6F5C53",
"~o 	c #6A5C55",
"{o 	c #64615C",
"]o 	c #666863",
"^o 	c #6F6A61",
"/o 	c #766B5F",
"(o 	c #70665B",
"_o 	c #72675C",
":o 	c #71675B",
"<o 	c #726D61",
"[o 	c #737065",
"}o 	c #72736A",
"|o 	c #676964",
"1o 	c #66645C",
"2o 	c #6F6C62",
"3o 	c #726E64",
"4o 	c #68655D",
"5o 	c #6B6960",
"6o 	c #75736B",
"7o 	c #77766E",
"8o 	c #75726B",
"9o 	c #756A68",
"0o 	c #7F7278",
"ao 	c #7E7782",
"bo 	c #766D74",
"co 	c #6C5E5D",
"do 	c #665656",
"eo 	c #695D5E",
"fo 	c #5E5454",
"go 	c #665B5B",
"ho 	c #675D5D",
"io 	c #635B5A",
"jo 	c #5D5756",
"ko 	c #54504F",
"lo 	c #5E5854",
"mo 	c #615C55",
"no 	c #5F5D55",
"oo 	c #52544B",
"po 	c #55554C",
"qo 	c #5E5A50",
"ro 	c #615D54",
"so 	c #626360",
"to 	c #706E69",
"uo 	c #7C726D",
"vo 	c #7E6A68",
"wo 	c #806A68",
"xo 	c #7D6B68",
"yo 	c #847772",
"zo 	c #867A77",
"Ao 	c #827575",
"Bo 	c #7D7372",
"Co 	c #807774",
"Do 	c #7D716F",
"Eo 	c #746967",
"Fo 	c #736965",
"Go 	c #6C625C",
"Ho 	c #6B5D5A",
"Io 	c #685F5C",
"Jo 	c #6E7672",
"Ko 	c #6E7A77",
"Lo 	c #706C6D",
"Mo 	c #716464",
"No 	c #6D635E",
"Oo 	c #645E56",
"Po 	c #635D54",
"Qo 	c #605C53",
"Ro 	c #625F56",
"So 	c #605E55",
"To 	c #646258",
"Uo 	c #67635A",
"Vo 	c #676059",
"Wo 	c #5E5953",
"Xo 	c #605C57",
"Yo 	c #555451",
"Zo 	c #575651",
"`o 	c #5F5E59",
" p 	c #575854",
".p 	c #5C615E",
"+p 	c #565759",
"@p 	c #655A5D",
"#p 	c #6E6563",
"$p 	c #5C5D56",
"%p 	c #64625E",
"&p 	c #79696F",
"*p 	c #7A6C6D",
"=p 	c #716861",
"-p 	c #6E645E",
";p 	c #796E68",
">p 	c #71655F",
",p 	c #6D615B",
"'p 	c #71635D",
")p 	c #69645D",
"!p 	c #6E6660",
"~p 	c #6D615C",
"{p 	c #6E5F58",
"]p 	c #70605A",
"^p 	c #817572",
"/p 	c #827C7F",
"(p 	c #797776",
"_p 	c #726D68",
":p 	c #716964",
"<p 	c #786D69",
"[p 	c #817471",
"}p 	c #434342",
"|p 	c #675C57",
"1p 	c #766560",
"2p 	c #806C66",
"3p 	c #806E68",
"4p 	c #7D6C67",
"5p 	c #84736E",
"6p 	c #836D6B",
"7p 	c #7F6868",
"8p 	c #816F70",
"9p 	c #7C6B6B",
"0p 	c #846D6A",
"ap 	c #89716C",
"bp 	c #857D7D",
"cp 	c #808182",
"dp 	c #717574",
"ep 	c #827E7C",
"fp 	c #8D8481",
"gp 	c #8C827A",
"hp 	c #867B6E",
"ip 	c #827468",
"jp 	c #897A71",
"kp 	c #8B7A74",
"lp 	c #8A7A74",
"mp 	c #8B7E78",
"np 	c #897B75",
"op 	c #8B817A",
"pp 	c #897C75",
"qp 	c #877B72",
"rp 	c #83776C",
"sp 	c #82796E",
"tp 	c #857B73",
"up 	c #8B7A72",
"vp 	c #8D7A74",
"wp 	c #8C8382",
"xp 	c #867C77",
"yp 	c #877D71",
"zp 	c #877D73",
"Ap 	c #857870",
"Bp 	c #897E74",
"Cp 	c #8B7F75",
"Dp 	c #8C7E75",
"Ep 	c #8A8077",
"Fp 	c #8C8378",
"Gp 	c #8A8076",
"Hp 	c #897F75",
"Ip 	c #8A7E75",
"Jp 	c #887B73",
"Kp 	c #8A7E76",
"Lp 	c #847A71",
"Mp 	c #877C74",
"Np 	c #8C7F7A",
"Op 	c #8E827E",
"Pp 	c #8C8783",
"Qp 	c #8C8D8A",
"Rp 	c #757573",
"Sp 	c #746968",
"Tp 	c #877472",
"Up 	c #897771",
"Vp 	c #89756D",
"Wp 	c #897671",
"Xp 	c #887772",
"Yp 	c #8B7C77",
"Zp 	c #8D7F7A",
"`p 	c #897872",
" q 	c #86746F",
".q 	c #826F6A",
"+q 	c #887570",
"@q 	c #816F69",
"#q 	c #87756D",
"$q 	c #84736C",
"%q 	c #7D6E68",
"&q 	c #80726B",
"*q 	c #8A7E79",
"=q 	c #8E817F",
"-q 	c #877577",
";q 	c #806D6D",
">q 	c #816D68",
",q 	c #7F6D62",
"'q 	c #807064",
")q 	c #84746C",
"!q 	c #766866",
"~q 	c #7E6E6E",
"{q 	c #7E6D6E",
"]q 	c #7E6E6F",
"^q 	c #7C6C6E",
"/q 	c #776A6B",
"(q 	c #786C6D",
"_q 	c #7B7271",
":q 	c #796E6C",
"<q 	c #816E6E",
"[q 	c #816A6A",
"}q 	c #7D6A6B",
"|q 	c #7D7576",
"1q 	c #827F81",
"2q 	c #7B767C",
"3q 	c #786B70",
"4q 	c #7E6B68",
"5q 	c #87736C",
"6q 	c #836F68",
"7q 	c #7D6A63",
"8q 	c #86756D",
"9q 	c #84746B",
"0q 	c #827269",
"aq 	c #83746C",
"bq 	c #80746A",
"cq 	c #82776E",
"dq 	c #80756C",
"eq 	c #847A70",
"fq 	c #7F756B",
"gq 	c #766C62",
"hq 	c #6F645D",
"iq 	c #6C605D",
"jq 	c #685D57",
"kq 	c #766D68",
"lq 	c #838181",
"mq 	c #7E7D81",
"nq 	c #776A63",
"oq 	c #746461",
"pq 	c #746764",
"qq 	c #756B66",
"rq 	c #746A66",
"sq 	c #706661",
"tq 	c #706762",
"uq 	c #6E6661",
"vq 	c #6F6962",
"wq 	c #7C766E",
"xq 	c #817A72",
"yq 	c #7D756E",
"zq 	c #827A72",
"Aq 	c #807971",
"Bq 	c #827E79",
"Cq 	c #77797B",
"Dq 	c #706F72",
"Eq 	c #776E6C",
"Fq 	c #756963",
"Gq 	c #766B63",
"Hq 	c #7D726C",
"Iq 	c #7D6F6D",
"Jq 	c #817172",
"Kq 	c #7E706F",
"Lq 	c #817470",
"Mq 	c #817370",
"Nq 	c #80726E",
"Oq 	c #857673",
"Pq 	c #80706F",
"Qq 	c #7E6F6D",
"Rq 	c #7D6E6D",
"Sq 	c #7A6E6C",
"Tq 	c #786F68",
"Uq 	c #786E65",
"Vq 	c #7C6E6B",
"Wq 	c #817473",
"Xq 	c #868079",
"Yq 	c #887A7D",
"Zq 	c #87747B",
"`q 	c #817175",
" r 	c #807273",
".r 	c #837474",
"+r 	c #847472",
"@r 	c #7B6D69",
"#r 	c #7C6D6A",
"$r 	c #7E706C",
"%r 	c #806F6C",
"&r 	c #836F6D",
"*r 	c #867270",
"=r 	c #816E6C",
"-r 	c #857371",
";r 	c #897776",
">r 	c #857372",
",r 	c #867373",
"'r 	c #8A7874",
")r 	c #857B7D",
"!r 	c #7B7881",
"~r 	c #7F7A84",
"{r 	c #897C82",
"]r 	c #8E7D7E",
"^r 	c #918987",
"/r 	c #8E8685",
"(r 	c #8F8582",
"_r 	c #8D847E",
":r 	c #8E8782",
"<r 	c #8D8580",
"[r 	c #8E857E",
"}r 	c #8A8179",
"|r 	c #857F77",
"1r 	c #857B75",
"2r 	c #847573",
"3r 	c #8B7B7B",
"4r 	c #8B7E7C",
"5r 	c #8A827A",
"6r 	c #8A8178",
"7r 	c #867C78",
"8r 	c #8A8385",
"9r 	c #898283",
"0r 	c #8D7D7A",
"ar 	c #8E7A75",
"br 	c #908077",
"cr 	c #8C7E72",
"dr 	c #8E8175",
"er 	c #8B7E73",
"fr 	c #867E71",
"gr 	c #857D72",
"hr 	c #877974",
"ir 	c #867572",
"jr 	c #857472",
"kr 	c #81706E",
"lr 	c #867573",
"mr 	c #897876",
"nr 	c #88786F",
"or 	c #876E64",
"pr 	c #896E65",
"qr 	c #84726C",
"rr 	c #767371",
"sr 	c #777A78",
"tr 	c #83706A",
"ur 	c #85736B",
"vr 	c #89786F",
"wr 	c #81726A",
"xr 	c #80746E",
"yr 	c #7C7673",
"zr 	c #7A716B",
"Ar 	c #7E746B",
"Br 	c #887C74",
"Cr 	c #82776F",
"Dr 	c #7B716A",
"Er 	c #877E78",
"Fr 	c #887E77",
"Gr 	c #877676",
"Hr 	c #8D7880",
"Ir 	c #8C7883",
"Jr 	c #87747A",
"Kr 	c #867172",
"Lr 	c #8A7677",
"Mr 	c #8A7B7B",
"Nr 	c #887877",
"Or 	c #827170",
"Pr 	c #837072",
"Qr 	c #877476",
"Rr 	c #897778",
"Sr 	c #8B7A7B",
"Tr 	c #8A7C7C",
"Ur 	c #807272",
"Vr 	c #7C6F69",
"Wr 	c #7C746D",
"Xr 	c #776F66",
"Yr 	c #86786E",
"Zr 	c #867B72",
"`r 	c #7A7A77",
" s 	c #727879",
".s 	c #747476",
"+s 	c #7F7072",
"@s 	c #896D70",
"#s 	c #8D6F71",
"$s 	c #846C6B",
"%s 	c #837271",
"&s 	c #8C7C7C",
"*s 	c #8D797D",
"=s 	c #867377",
"-s 	c #8D7E7E",
";s 	c #8C8081",
">s 	c #8C7E7E",
",s 	c #8C7A7C",
"'s 	c #877678",
")s 	c #8B7C7C",
"!s 	c #8A7A78",
"~s 	c #8A7673",
"{s 	c #8A7272",
"]s 	c #856F70",
"^s 	c #7F7575",
"/s 	c #827C7B",
"(s 	c #88777A",
"_s 	c #8C7476",
":s 	c #887371",
"<s 	c #7F6E68",
"[s 	c #877770",
"}s 	c #83756D",
"|s 	c #7D7169",
"1s 	c #80746C",
"2s 	c #776D65",
"3s 	c #7A6E67",
"4s 	c #756B64",
"5s 	c #79736E",
"6s 	c #76716D",
"7s 	c #7A7771",
"8s 	c #86827B",
"9s 	c #847E77",
"0s 	c #827D75",
"as 	c #757B75",
"bs 	c #565E5B",
"cs 	c #5A4F50",
"ds 	c #796863",
"es 	c #746A5E",
"fs 	c #73695F",
"gs 	c #7C6767",
"hs 	c #806A66",
"is 	c #79685D",
"js 	c #685950",
"ks 	c #6B5B53",
"ls 	c #77645B",
"ms 	c #6F5C54",
"ns 	c #705D55",
"os 	c #6C5D53",
"ps 	c #675C50",
"qs 	c #6F6056",
"rs 	c #6F5D52",
"ss 	c #70584E",
"ts 	c #6E564D",
"us 	c #765F59",
"vs 	c #7C6763",
"ws 	c #745F5A",
"xs 	c #6A544D",
"ys 	c #69514C",
"zs 	c #68504B",
"As 	c #69504D",
"Bs 	c #4F3D39",
"Cs 	c #563934",
"Ds 	c #66423B",
"Es 	c #68423A",
"Fs 	c #613D36",
"Gs 	c #5F3D37",
"Hs 	c #62423D",
"Is 	c #664741",
"Js 	c #64423C",
"Ks 	c #63413A",
"Ls 	c #60423C",
"Ms 	c #5E403A",
"Ns 	c #69443D",
"Os 	c #6D463F",
"Ps 	c #644741",
"Qs 	c #6C5E56",
"Rs 	c #726C66",
"Ss 	c #4E3F40",
"Ts 	c #644847",
"Us 	c #6A4A46",
"Vs 	c #573C37",
"Ws 	c #5D403D",
"Xs 	c #62403E",
"Ys 	c #664542",
"Zs 	c #654643",
"`s 	c #614542",
" t 	c #60403E",
".t 	c #624442",
"+t 	c #624643",
"@t 	c #644644",
"#t 	c #634744",
"$t 	c #5F443F",
"%t 	c #624944",
"&t 	c #654A47",
"*t 	c #6D4E4B",
"=t 	c #734D49",
"-t 	c #734A47",
";t 	c #6C4848",
">t 	c #6C4C4C",
",t 	c #684C47",
"'t 	c #674B44",
")t 	c #6D4D47",
"!t 	c #75534D",
"~t 	c #70504A",
"{t 	c #6C5049",
"]t 	c #71544C",
"^t 	c #6E5148",
"/t 	c #6D5149",
"(t 	c #6E524A",
"_t 	c #6F544C",
":t 	c #6E534A",
"<t 	c #72564E",
"[t 	c #70524E",
"}t 	c #735554",
"|t 	c #746260",
"1t 	c #8A8382",
"2t 	c #786E70",
"3t 	c #524041",
"4t 	c #654646",
"5t 	c #6E4A43",
"6t 	c #6D4C46",
"7t 	c #6F4E48",
"8t 	c #76534D",
"9t 	c #734E47",
"0t 	c #714E48",
"at 	c #694842",
"bt 	c #75504C",
"ct 	c #744D49",
"dt 	c #714B47",
"et 	c #79524D",
"ft 	c #74504B",
"gt 	c #6F4C48",
"ht 	c #694844",
"it 	c #684843",
"jt 	c #775653",
"kt 	c #735051",
"lt 	c #6D4B4C",
"mt 	c #6C4B49",
"nt 	c #704F48",
"ot 	c #735249",
"pt 	c #76554F",
"qt 	c #72524C",
"rt 	c #70514D",
"st 	c #795552",
"tt 	c #7A5755",
"ut 	c #795856",
"vt 	c #735653",
"wt 	c #725C57",
"xt 	c #705A53",
"yt 	c #7E5A57",
"zt 	c #7B5D59",
"At 	c #766561",
"Bt 	c #857A75",
"Ct 	c #685455",
"Dt 	c #6F504D",
"Et 	c #76534E",
"Ft 	c #75524D",
"Gt 	c #704F4B",
"Ht 	c #775752",
"It 	c #7A5853",
"Jt 	c #795953",
"Kt 	c #7B5B55",
"Lt 	c #7D5F58",
"Mt 	c #775B54",
"Nt 	c #755852",
"Ot 	c #795C57",
"Pt 	c #735650",
"Qt 	c #785955",
"Rt 	c #745853",
"St 	c #6E5351",
"Tt 	c #69504B",
"Ut 	c #715A54",
"Vt 	c #7A6464",
"Wt 	c #7E686B",
"Xt 	c #796462",
"Yt 	c #766057",
"Zt 	c #775C58",
"`t 	c #7A5F5B",
" u 	c #7B6059",
".u 	c #755C55",
"+u 	c #755E55",
"@u 	c #786158",
"#u 	c #735D54",
"$u 	c #735D56",
"%u 	c #76625A",
"&u 	c #7F6963",
"*u 	c #7E6A64",
"=u 	c #826B66",
"-u 	c #826B64",
";u 	c #87706A",
">u 	c #83746E",
",u 	c #73706E",
"'u 	c #67615F",
")u 	c #75615B",
"!u 	c #7C625A",
"~u 	c #7D655B",
"{u 	c #7F675C",
"]u 	c #7E655D",
"^u 	c #7F6460",
"/u 	c #7C635E",
"(u 	c #7F655E",
"_u 	c #7B615B",
":u 	c #785D57",
"<u 	c #7B5E59",
"[u 	c #6F5754",
"}u 	c #715951",
"|u 	c #725854",
"1u 	c #7B635C",
"2u 	c #79625A",
"3u 	c #765B5B",
"4u 	c #775759",
"5u 	c #725353",
"6u 	c #705250",
"7u 	c #755552",
"8u 	c #785853",
"9u 	c #6F504B",
"0u 	c #6C4F49",
"au 	c #6D4D48",
"bu 	c #704C47",
"cu 	c #76514D",
"du 	c #6D4B46",
"eu 	c #6F4F4C",
"fu 	c #704F4D",
"gu 	c #70504D",
"hu 	c #70504B",
"iu 	c #6D5E63",
"ju 	c #63565B",
"ku 	c #715B5C",
"lu 	c #82635E",
"mu 	c #896D67",
"nu 	c #7E675F",
"ou 	c #7D6960",
"pu 	c #80685E",
"qu 	c #7E665C",
"ru 	c #796359",
"su 	c #766056",
"tu 	c #7C6159",
"uu 	c #7A5D56",
"vu 	c #7B5E5A",
"wu 	c #786258",
"xu 	c #7C675B",
"yu 	c #7F685F",
"zu 	c #816763",
"Au 	c #82605E",
"Bu 	c #7F5C5A",
"Cu 	c #7D5A58",
"Du 	c #815D59",
"Eu 	c #7C5B55",
"Fu 	c #815F56",
"Gu 	c #805F57",
"Hu 	c #7A5E54",
"Iu 	c #795C54",
"Ju 	c #795853",
"Ku 	c #7B5853",
"Lu 	c #805A55",
"Mu 	c #7D5752",
"Nu 	c #77534F",
"Ou 	c #7A5752",
"Pu 	c #845F59",
"Qu 	c #7F5D57",
"Ru 	c #7F5954",
"Su 	c #82574F",
"Tu 	c #855952",
"Uu 	c #785A55",
"Vu 	c #6C5B5B",
"Wu 	c #64575A",
"Xu 	c #6B5554",
"Yu 	c #74504D",
"Zu 	c #734E4B",
"`u 	c #734D4B",
" v 	c #775450",
".v 	c #73504E",
"+v 	c #735250",
"@v 	c #725452",
"#v 	c #6B504F",
"$v 	c #674B49",
"%v 	c #664A45",
"&v 	c #73534F",
"*v 	c #775652",
"=v 	c #6C4E4A",
"-v 	c #725551",
";v 	c #775955",
">v 	c #735654",
",v 	c #705152",
"'v 	c #765656",
")v 	c #70504E",
"!v 	c #6F5450",
"~v 	c #715753",
"{v 	c #725650",
"]v 	c #70524C",
"^v 	c #6D4C49",
"/v 	c #6C4B4A",
"(v 	c #725150",
"_v 	c #735452",
":v 	c #785755",
"<v 	c #7F5E5B",
"[v 	c #7C5B56",
"}v 	c #765652",
"|v 	c #785855",
"1v 	c #705653",
"2v 	c #6B524E",
"3v 	c #6E504B",
"4v 	c #77554F",
"5v 	c #755855",
"6v 	c #6F5F5F",
"7v 	c #625E60",
"8v 	c #5B5251",
"9v 	c #5B4241",
"0v 	c #6E4646",
"av 	c #704544",
"bv 	c #65413D",
"cv 	c #60423E",
"dv 	c #694846",
"ev 	c #6E4A4A",
"fv 	c #664545",
"gv 	c #6C4E4C",
"hv 	c #674B4A",
"iv 	c #694B4A",
"jv 	c #6E4F4E",
"kv 	c #674A49",
"lv 	c #6E504E",
"mv 	c #694B47",
"nv 	c #714B48",
"ov 	c #714A49",
"pv 	c #6D4B49",
"qv 	c #6E4F4B",
"rv 	c #6E4D4B",
"sv 	c #704C4B",
"tv 	c #6D4847",
"uv 	c #6A4845",
"vv 	c #72524D",
"wv 	c #684B48",
"xv 	c #6B4F4B",
"yv 	c #6E514D",
"zv 	c #5F4440",
"Av 	c #634743",
"Bv 	c #684C48",
"Cv 	c #674E49",
"Dv 	c #6E5653",
"Ev 	c #6C5652",
"Fv 	c #6A5651",
"Gv 	c #6E5A54",
"Hv 	c #6D5752",
"Iv 	c #78635C",
"Jv 	c #847D72",
"Kv 	c #5B5C54",
"Lv 	c #5C3C38",
"Mv 	c #604337",
"Nv 	c #604338",
"Ov 	c #5C3B36",
"Pv 	c #5F3A35",
"Qv 	c #5D3B32",
"Rv 	c #53332D",
"Sv 	c #57352E",
"Tv 	c #5B3931",
"Uv 	c #56362F",
"Vv 	c #54352D",
"Wv 	c #5C3930",
"Xv 	c #5D362F",
"Yv 	c #58322B",
"Zv 	c #5E362F",
"`v 	c #56332C",
" w 	c #512F2A",
".w 	c #6C5B4F",
"+w 	c #7A6F65",
"@w 	c #463D3B",
"#w 	c #3F2928",
"$w 	c #592C29",
"%w 	c #5E2E2A",
"&w 	c #5B2C29",
"*w 	c #562B27",
"=w 	c #5A2C2A",
"-w 	c #5C2D2A",
";w 	c #5D2E2C",
">w 	c #5D2F2C",
",w 	c #5B2B28",
"'w 	c #552E28",
")w 	c #522E2A",
"!w 	c #502B29",
"~w 	c #4E2D2B",
"{w 	c #543E3A",
"]w 	c #82736F",
"^w 	c #6C5D5C",
"/w 	c #412B2B",
"(w 	c #532D2A",
"_w 	c #663129",
":w 	c #67322C",
"<w 	c #66322D",
"[w 	c #5D2F2D",
"}w 	c #592D2B",
"|w 	c #62322D",
"1w 	c #61322C",
"2w 	c #6D3630",
"3w 	c #6E3730",
"4w 	c #683631",
"5w 	c #543028",
"6w 	c #58322A",
"7w 	c #62332E",
"8w 	c #593E34",
"9w 	c #7E6A5D",
"0w 	c #6A5A51",
"aw 	c #47322D",
"bw 	c #56312C",
"cw 	c #5D312D",
"dw 	c #5D312C",
"ew 	c #5C302C",
"fw 	c #5F312E",
"gw 	c #59312E",
"hw 	c #593330",
"iw 	c #5A3534",
"jw 	c #51332D",
"kw 	c #54332F",
"lw 	c #61342D",
"mw 	c #5F3935",
"nw 	c #603936",
"ow 	c #66564D",
"pw 	c #483933",
"qw 	c #563832",
"rw 	c #5A362E",
"sw 	c #60392F",
"tw 	c #5D3631",
"uw 	c #5D362E",
"vw 	c #5F342E",
"ww 	c #643730",
"xw 	c #633630",
"yw 	c #58312D",
"zw 	c #57302C",
"Aw 	c #5D332C",
"Bw 	c #5B322D",
"Cw 	c #5B3330",
"Dw 	c #5B342D",
"Ew 	c #5B342C",
"Fw 	c #59312C",
"Gw 	c #59312A",
"Hw 	c #62413C",
"Iw 	c #4C332E",
"Jw 	c #5D3730",
"Kw 	c #653932",
"Lw 	c #61362F",
"Mw 	c #5D342F",
"Nw 	c #5C332E",
"Ow 	c #5F352E",
"Pw 	c #643630",
"Qw 	c #66362F",
"Rw 	c #66362E",
"Sw 	c #60332B",
"Tw 	c #68372F",
"Uw 	c #69372F",
"Vw 	c #65342E",
"Ww 	c #5E342A",
"Xw 	c #5F342B",
"Yw 	c #65312E",
"Zw 	c #60302E",
"`w 	c #5C302D",
" x 	c #623430",
".x 	c #60312D",
"+x 	c #683630",
"@x 	c #65352F",
"#x 	c #60332E",
"$x 	c #65352E",
"%x 	c #63332D",
"&x 	c #65342F",
"*x 	c #5D3832",
"=x 	c #735651",
"-x 	c #674F4D",
";x 	c #513231",
">x 	c #613430",
",x 	c #61322E",
"'x 	c #62312F",
")x 	c #5C2F2C",
"!x 	c #5D302D",
"~x 	c #5E302C",
"{x 	c #58302C",
"]x 	c #582F2C",
"^x 	c #5F342F",
"/x 	c #5B312D",
"(x 	c #552F29",
"_x 	c #61342E",
":x 	c #62352F",
"<x 	c #58322E",
"[x 	c #53312D",
"}x 	c #56322E",
"|x 	c #5D322E",
"1x 	c #5E4846",
"2x 	c #524544",
"3x 	c #4F2F2A",
"4x 	c #5C3028",
"5x 	c #572F2B",
"6x 	c #57302B",
"7x 	c #58302A",
"8x 	c #5A312E",
"9x 	c #542F2C",
"0x 	c #552F2C",
"ax 	c #827367",
"bx 	c #544E47",
"cx 	c #592926",
"dx 	c #757067",
"ex 	c #413B38",
"fx 	c #562B28",
"gx 	c #573F36",
"hx 	c #817467",
"ix 	c #5F554F",
"jx 	c #602C24",
"kx 	c #6D3328",
"lx 	c #683329",
"mx 	c #54352C",
"nx 	c #786355",
"ox 	c #67574D",
"px 	c #572F27",
"qx 	c #532C25",
"rx 	c #512B26",
"sx 	c #552C26",
"tx 	c #6A4A40",
"ux 	c #6B574C",
"vx 	c #532D29",
"wx 	c #633025",
"xx 	c #61403B",
"yx 	c #755C58",
"zx 	c #423330",
"Ax 	c #4C302A",
"Bx 	c #573129",
"Cx 	c #612F29",
"Dx 	c #70342B",
"Ex 	c #653125",
"Fx 	c #5B372D",
"Gx 	c #795F53",
"Hx 	c #6A554E",
"Ix 	c #50302D",
"Jx 	c #65312B",
"Kx 	c #623129",
"Lx 	c #59463F",
"Mx 	c #544D45",
"Nx 	c #362A26",
"Ox 	c #66312B",
"Px 	c #562D25",
"Qx 	c #633127",
"Rx 	c #6A3025",
"Sx 	c #5A3832",
"Tx 	c #7F7065",
"Ux 	c #4E4B42",
"Vx 	c #77332B",
"Wx 	c #5A3631",
"Xx 	c #512A25",
"Yx 	c #695952",
"Zx 	c #413A38",
"`x 	c #624137",
" y 	c #84766C",
".y 	c #5F5751",
"+y 	c #422B27",
"@y 	c #642A25",
"#y 	c #6B3227",
"$y 	c #773B2F",
"%y 	c #7B4033",
"&y 	c #6D352A",
"*y 	c #50312A",
"=y 	c #77635A",
"-y 	c #695B54",
";y 	c #6A4940",
">y 	c #6B574D",
",y 	c #442C29",
"'y 	c #65433B",
")y 	c #77615B",
"!y 	c #463531",
"~y 	c #64352C",
"{y 	c #796259",
"]y 	c #6A5954",
"^y 	c #5F4942",
"/y 	c #655953",
"(y 	c #392C28",
"_y 	c #5A3831",
":y 	c #7D6E66",
"<y 	c #4B4540",
"[y 	c #453E3D",
"}y 	c #6E5850",
"|y 	c #7B736E",
"1y 	c #433A39",
"2y 	c #4E2B24",
"3y 	c #663E35",
"4y 	c #5C514E",
"5y 	c #682B25",
"6y 	c #743D32",
"7y 	c #8C5040",
"8y 	c #7E4033",
"9y 	c #53332B",
"0y 	c #79645E",
"ay 	c #6A5B59",
"by 	c #432926",
"cy 	c #6A473E",
"dy 	c #665049",
"ey 	c #442B29",
"fy 	c #64433B",
"gy 	c #7B6761",
"hy 	c #5F2C23",
"iy 	c #79615D",
"jy 	c #685756",
"ky 	c #4C2D29",
"ly 	c #654942",
"my 	c #6C5B57",
"ny 	c #7C6A65",
"oy 	c #4D4241",
"py 	c #4B2925",
"qy 	c #453E3E",
"ry 	c #725850",
"sy 	c #7B716B",
"ty 	c #463B3A",
"uy 	c #542924",
"vy 	c #5F3A31",
"wy 	c #584B4B",
"xy 	c #834237",
"yy 	c #8A4438",
"zy 	c #54342B",
"Ay 	c #77635D",
"By 	c #695956",
"Cy 	c #552925",
"Dy 	c #69483F",
"Ey 	c #65514A",
"Fy 	c #402A27",
"Gy 	c #66473E",
"Hy 	c #7E6A65",
"Iy 	c #4C3835",
"Jy 	c #56322B",
"Ky 	c #755C59",
"Ly 	c #645252",
"My 	c #71544D",
"Ny 	c #74625E",
"Oy 	c #3D2E2B",
"Py 	c #6A342B",
"Qy 	c #593832",
"Ry 	c #7F6F6B",
"Sy 	c #4B4241",
"Ty 	c #5D3633",
"Uy 	c #5D2A26",
"Vy 	c #775A52",
"Wy 	c #7F716A",
"Xy 	c #453837",
"Yy 	c #4E2A24",
"Zy 	c #5A3833",
"`y 	c #77615F",
" z 	c #5A4B4C",
".z 	c #79352E",
"+z 	c #79362D",
"@z 	c #582824",
"#z 	c #55342C",
"$z 	c #78645E",
"%z 	c #4F2A24",
"&z 	c #542925",
"*z 	c #6B4D45",
"=z 	c #69564F",
"-z 	c #674840",
";z 	c #796663",
">z 	c #473432",
",z 	c #57332C",
"'z 	c #77605B",
")z 	c #645352",
"!z 	c #662D29",
"~z 	c #70554F",
"{z 	c #766662",
"]z 	c #5B3A34",
"^z 	c #80706D",
"/z 	c #4D4242",
"(z 	c #432724",
"_z 	c #765A50",
":z 	c #4A3D3B",
"<z 	c #5C3C37",
"[z 	c #7D6667",
"}z 	c #5C4B4E",
"|z 	c #5F2A24",
"1z 	c #562823",
"2z 	c #58362D",
"3z 	c #79635D",
"4z 	c #665553",
"5z 	c #532824",
"6z 	c #552B27",
"7z 	c #532B24",
"8z 	c #674D44",
"9z 	c #62514A",
"0z 	c #63443C",
"az 	c #766463",
"bz 	c #483434",
"cz 	c #532924",
"dz 	c #645554",
"ez 	c #6C514A",
"fz 	c #73645F",
"gz 	c #44312E",
"hz 	c #71362C",
"iz 	c #603F38",
"jz 	c #4C4343",
"kz 	c #422725",
"lz 	c #745A51",
"mz 	c #4F4341",
"nz 	c #502A24",
"oz 	c #773F35",
"pz 	c #754338",
"qz 	c #7C6666",
"rz 	c #56474A",
"sz 	c #582924",
"tz 	c #6E2F29",
"uz 	c #5F2A23",
"vz 	c #532A24",
"wz 	c #593830",
"xz 	c #7F6B65",
"yz 	c #6A5C5A",
"zz 	c #76352B",
"Az 	c #532A27",
"Bz 	c #502B27",
"Cz 	c #634A42",
"Dz 	c #5C4C45",
"Ez 	c #5B2925",
"Fz 	c #64463E",
"Gz 	c #7C6A69",
"Hz 	c #493737",
"Iz 	c #71352C",
"Jz 	c #6F342A",
"Kz 	c #55332D",
"Lz 	c #715D5A",
"Mz 	c #625353",
"Nz 	c #6F534B",
"Oz 	c #72625D",
"Pz 	c #44302C",
"Qz 	c #70312A",
"Rz 	c #64423B",
"Sz 	c #504949",
"Tz 	c #3F2623",
"Uz 	c #6F5950",
"Vz 	c #564845",
"Wz 	c #6F2E29",
"Xz 	c #7D4539",
"Yz 	c #804B3D",
"Zz 	c #69443B",
"`z 	c #584A4D",
" A 	c #712D27",
".A 	c #502924",
"+A 	c #55362F",
"@A 	c #7C6862",
"#A 	c #675956",
"$A 	c #69342D",
"%A 	c #654B42",
"&A 	c #61514A",
"*A 	c #4F2A26",
"=A 	c #5A2A24",
"-A 	c #62453E",
";A 	c #806F6D",
">A 	c #49393A",
",A 	c #4F322D",
"'A 	c #725E5E",
")A 	c #625354",
"!A 	c #4D2E2A",
"~A 	c #765B52",
"{A 	c #766660",
"]A 	c #422E2B",
"^A 	c #5C3A35",
"/A 	c #807270",
"(A 	c #534B4A",
"_A 	c #6E5A52",
":A 	c #78716A",
"<A 	c #4C3F3C",
"[A 	c #552D25",
"}A 	c #68352C",
"|A 	c #64372D",
"1A 	c #654038",
"2A 	c #816866",
"3A 	c #5B4C4D",
"4A 	c #52332D",
"5A 	c #725F5A",
"6A 	c #462924",
"7A 	c #6F342C",
"8A 	c #6F342D",
"9A 	c #654B44",
"0A 	c #67564F",
"aA 	c #412C29",
"bA 	c #502A26",
"cA 	c #61423A",
"dA 	c #7A6866",
"eA 	c #483938",
"fA 	c #4E2823",
"gA 	c #4F332E",
"hA 	c #796766",
"iA 	c #645758",
"jA 	c #4E2F2B",
"kA 	c #7B6258",
"lA 	c #786A63",
"mA 	c #7D6D6B",
"nA 	c #4E4645",
"oA 	c #573431",
"pA 	c #512D26",
"qA 	c #55322C",
"rA 	c #715F59",
"sA 	c #483E3B",
"tA 	c #763B31",
"uA 	c #6D362E",
"vA 	c #623D35",
"wA 	c #806965",
"xA 	c #594B4B",
"yA 	c #786561",
"zA 	c #635554",
"AA 	c #62473F",
"BA 	c #615048",
"CA 	c #482E2A",
"DA 	c #63433B",
"EA 	c #756461",
"FA 	c #63352D",
"GA 	c #533630",
"HA 	c #7C6B68",
"IA 	c #645959",
"JA 	c #4A2E2A",
"KA 	c #5B3129",
"LA 	c #7A6055",
"MA 	c #786A62",
"NA 	c #796864",
"OA 	c #4A4340",
"PA 	c #593431",
"QA 	c #522B25",
"RA 	c #5D362D",
"SA 	c #5E3933",
"TA 	c #665752",
"UA 	c #6D6C69",
"VA 	c #443A38",
"WA 	c #70362D",
"XA 	c #733930",
"YA 	c #6B4138",
"ZA 	c #7E6660",
"`A 	c #554847",
" B 	c #422A25",
".B 	c #52342D",
"+B 	c #78645F",
"@B 	c #615352",
"#B 	c #5E4C44",
"$B 	c #492D29",
"%B 	c #6D322B",
"&B 	c #64413A",
"*B 	c #766361",
"=B 	c #493735",
"-B 	c #5A322A",
";B 	c #6A3B31",
">B 	c #66352D",
",B 	c #7E6E6C",
"'B 	c #675C5D",
")B 	c #4C2F2A",
"!B 	c #522924",
"~B 	c #522926",
"{B 	c #775E53",
"]B 	c #75655E",
"^B 	c #7D6D66",
"/B 	c #4D4541",
"(B 	c #673D34",
"_B 	c #613F37",
":B 	c #6B5E58",
"<B 	c #706C67",
"[B 	c #433835",
"}B 	c #753D32",
"|B 	c #7C5046",
"1B 	c #554948",
"2B 	c #732F26",
"3B 	c #67332A",
"4B 	c #54382E",
"5B 	c #78665C",
"6B 	c #5F544E",
"7B 	c #442927",
"8B 	c #552A27",
"9B 	c #592925",
"0B 	c #694A42",
"aB 	c #604D47",
"bB 	c #5F2922",
"cB 	c #5B241C",
"dB 	c #5A2219",
"eB 	c #64332F",
"fB 	c #68413C",
"gB 	c #7B5A56",
"hB 	c #846865",
"iB 	c #8A716F",
"jB 	c #8D7370",
"kB 	c #9B8380",
"lB 	c #9F8986",
"mB 	c #9D8986",
"nB 	c #9C8986",
"oB 	c #9A8986",
"pB 	c #9C8987",
"qB 	c #998886",
"rB 	c #978482",
"sB 	c #897270",
"tB 	c #8A726F",
"uB 	c #795C59",
"vB 	c #613C37",
"wB 	c #5F322D",
"xB 	c #582116",
"yB 	c #59251E",
"zB 	c #5A2822",
"AB 	c #5A2924",
"BB 	c #5F4039",
"CB 	c #78625F",
"DB 	c #543229",
"EB 	c #65382D",
"FB 	c #67352B",
"GB 	c #52342E",
"HB 	c #74615F",
"IB 	c #462C29",
"JB 	c #512E27",
"KB 	c #766157",
"LB 	c #71635C",
"MB 	c #46312D",
"NB 	c #633F34",
"OB 	c #837467",
"PB 	c #4F4842",
"QB 	c #6C332A",
"RB 	c #5E3931",
"SB 	c #5A4138",
"TB 	c #71655E",
"UB 	c #7D736D",
"VB 	c #6A3B30",
"WB 	c #6F504A",
"XB 	c #827070",
"YB 	c #564B4C",
"ZB 	c #422D27",
"`B 	c #583028",
" C 	c #763429",
".C 	c #5A2F26",
"+C 	c #573A30",
"@C 	c #66574A",
"#C 	c #4E463D",
"$C 	c #432A29",
"%C 	c #6B4C44",
"&C 	c #624E49",
"*C 	c #422C29",
"=C 	c #652822",
"-C 	c #622A21",
";C 	c #70423C",
">C 	c #7A534E",
",C 	c #876E6B",
"'C 	c #998986",
")C 	c #B1A7A4",
"!C 	c #C4BCB9",
"~C 	c #CBC5C1",
"{C 	c #D9D4D0",
"]C 	c #DAD5D3",
"^C 	c #E3DFDD",
"/C 	c #E9E6E4",
"(C 	c #EAE6E4",
"_C 	c #F1EEEC",
":C 	c #F4F1EF",
"<C 	c #F3F1EF",
"[C 	c #F1EFED",
"}C 	c #E7E3E1",
"|C 	c #DBD6D5",
"1C 	c #D5D0CD",
"2C 	c #C9C3BF",
"3C 	c #C3BBB8",
"4C 	c #A79B98",
"5C 	c #8E7D78",
"6C 	c #674642",
"7C 	c #64362D",
"8C 	c #5E2A20",
"9C 	c #592A23",
"0C 	c #522C25",
"aC 	c #61443E",
"bC 	c #7D6761",
"cC 	c #493935",
"dC 	c #4E3129",
"eC 	c #5C332A",
"fC 	c #53342D",
"gC 	c #645551",
"hC 	c #613227",
"iC 	c #69312C",
"jC 	c #532E27",
"kC 	c #715C53",
"lC 	c #7A6962",
"mC 	c #4A332F",
"nC 	c #5E342D",
"oC 	c #67352D",
"pC 	c #6C352B",
"qC 	c #72362B",
"rC 	c #703329",
"sC 	c #73342A",
"tC 	c #644134",
"uC 	c #847669",
"vC 	c #504B45",
"wC 	c #582F27",
"xC 	c #5B3027",
"yC 	c #6A322A",
"zC 	c #6C352C",
"AC 	c #6A362C",
"BC 	c #62322A",
"CC 	c #61332B",
"DC 	c #60322A",
"EC 	c #522F27",
"FC 	c #512F29",
"GC 	c #5C3E35",
"HC 	c #5D4640",
"IC 	c #6F635D",
"JC 	c #756863",
"KC 	c #532D27",
"LC 	c #4E2925",
"MC 	c #55312B",
"NC 	c #776868",
"OC 	c #534949",
"PC 	c #3B2B26",
"QC 	c #542E28",
"RC 	c #583029",
"SC 	c #562F27",
"TC 	c #6B352B",
"UC 	c #632F2B",
"VC 	c #62312C",
"WC 	c #583A35",
"XC 	c #614F48",
"YC 	c #3E3432",
"ZC 	c #372626",
"`C 	c #4F2C28",
" D 	c #6D504A",
".D 	c #655250",
"+D 	c #463533",
"@D 	c #60433F",
"#D 	c #7F6561",
"$D 	c #A29390",
"%D 	c #C3BBB9",
"&D 	c #D9D3D2",
"*D 	c #E5E1DF",
"=D 	c #ECEAE8",
"-D 	c #F2F1EF",
";D 	c #F7F7F5",
">D 	c #FBFAF7",
",D 	c #FBFBF9",
"'D 	c #FCFCFA",
")D 	c #FDFDFB",
"!D 	c #FEFDFC",
"~D 	c #FFFEFC",
"{D 	c #FEFDFB",
"]D 	c #FDFCFA",
"^D 	c #FAFBF9",
"/D 	c #FAF9F7",
"(D 	c #F4F4F1",
"_D 	c #F0EEEB",
":D 	c #E8E6E4",
"<D 	c #DCD9D6",
"[D 	c #CBC6C3",
"}D 	c #A99F9C",
"|D 	c #634845",
"1D 	c #614540",
"2D 	c #806662",
"3D 	c #4D3B38",
"4D 	c #4A2E28",
"5D 	c #5A3229",
"6D 	c #653328",
"7D 	c #673428",
"8D 	c #613026",
"9D 	c #673329",
"0D 	c #603228",
"aD 	c #5D3026",
"bD 	c #633327",
"cD 	c #5B2E25",
"dD 	c #53362F",
"eD 	c #6A584F",
"fD 	c #5D514B",
"gD 	c #3B2D29",
"hD 	c #582F29",
"iD 	c #65342C",
"jD 	c #4F2A27",
"kD 	c #4D2D29",
"lD 	c #66524B",
"mD 	c #7C6B65",
"nD 	c #4C2E29",
"oD 	c #5D312A",
"pD 	c #61332A",
"qD 	c #6C362C",
"rD 	c #67362B",
"sD 	c #63322A",
"tD 	c #62332A",
"uD 	c #63332A",
"vD 	c #65342B",
"wD 	c #5D3D37",
"xD 	c #82726D",
"yD 	c #504B4C",
"zD 	c #342725",
"AD 	c #4E2D27",
"BD 	c #482D27",
"CD 	c #492E29",
"DD 	c #442B27",
"ED 	c #432B28",
"FD 	c #413F3F",
"GD 	c #403938",
"HD 	c #483835",
"ID 	c #4B3A36",
"JD 	c #4A3A35",
"KD 	c #483A34",
"LD 	c #493934",
"MD 	c #463835",
"ND 	c #423532",
"OD 	c #433531",
"PD 	c #443633",
"QD 	c #483B3A",
"RD 	c #463C3E",
"SD 	c #4B4749",
"TD 	c #4D4B4F",
"UD 	c #3A3D3F",
"VD 	c #353232",
"WD 	c #392F2E",
"XD 	c #3D3130",
"YD 	c #3A322F",
"ZD 	c #3B3130",
"`D 	c #3F3231",
" E 	c #433532",
".E 	c #413635",
"+E 	c #3F3333",
"@E 	c #413633",
"#E 	c #3F3430",
"$E 	c #403330",
"%E 	c #45322F",
"&E 	c #3F312F",
"*E 	c #3B2F2D",
"=E 	c #392E2C",
"-E 	c #392E2D",
";E 	c #3C2E2C",
">E 	c #41312E",
",E 	c #41322F",
"'E 	c #46322F",
")E 	c #442F2C",
"!E 	c #442C2A",
"~E 	c #422D2A",
"{E 	c #442E2C",
"]E 	c #483332",
"^E 	c #3C2A29",
"/E 	c #432B29",
"(E 	c #45302E",
"_E 	c #4B3D3F",
":E 	c #5A5458",
"<E 	c #444144",
"[E 	c #312B29",
"}E 	c #362B28",
"|E 	c #3F322E",
"1E 	c #392E2A",
"2E 	c #372C29",
"3E 	c #3A2C29",
"4E 	c #3F2F2B",
"5E 	c #40312D",
"6E 	c #452F2C",
"7E 	c #4A3430",
"8E 	c #42312E",
"9E 	c #402C28",
"0E 	c #422D29",
"aE 	c #3B2927",
"bE 	c #3E2926",
"cE 	c #3D2826",
"dE 	c #422A28",
"eE 	c #412B27",
"fE 	c #402A26",
"gE 	c #4A302D",
"hE 	c #48302D",
"iE 	c #49302E",
"jE 	c #5B514F",
"kE 	c #3E3B3B",
"lE 	c #2E2A2B",
"mE 	c #2E2726",
"nE 	c #312826",
"oE 	c #342926",
"pE 	c #342726",
"qE 	c #362826",
"rE 	c #382927",
"sE 	c #3B2A27",
"tE 	c #3B2A26",
"uE 	c #3A2C28",
"vE 	c #3A2A26",
"wE 	c #402D28",
"xE 	c #432C27",
"yE 	c #4B2B29",
"zE 	c #4A2D28",
"AE 	c #462B27",
"BE 	c #453230",
"CE 	c #574A48",
"DE 	c #827876",
"EE 	c #A19D9C",
"FE 	c #B5B4B3",
"GE 	c #D6D3D2",
"HE 	c #F0EEED",
"IE 	c #F9F9F9",
"JE 	c #FDFCFB",
"KE 	c #FFFDFC",
"LE 	c #FFFEFD",
"ME 	c #FBFAF8",
"NE 	c #F5F3F1",
"OE 	c #E2DFDD",
"PE 	c #BDB9B7",
"QE 	c #999291",
"RE 	c #8F8384",
"SE 	c #605656",
"TE 	c #4C302C",
"UE 	c #492E2A",
"VE 	c #482E29",
"WE 	c #50322A",
"XE 	c #53352E",
"YE 	c #50342C",
"ZE 	c #4F332C",
"`E 	c #492F29",
" F 	c #4B2F29",
".F 	c #553731",
"+F 	c #4F332F",
"@F 	c #482E2C",
"#F 	c #432A28",
"$F 	c #482D28",
"%F 	c #492F2A",
"&F 	c #442D2A",
"*F 	c #432F2C",
"=F 	c #43312D",
"-F 	c #45322D",
";F 	c #4A302B",
">F 	c #4B322B",
",F 	c #4D352D",
"'F 	c #503931",
")F 	c #563C33",
"!F 	c #523730",
"~F 	c #4E332D",
"{F 	c #53372E",
"]F 	c #553931",
"^F 	c #543830",
"/F 	c #52362E",
"(F 	c #4F342D",
"_F 	c #50342D",
":F 	c #533831",
"<F 	c #513933",
"[F 	c #4E352F",
"}F 	c #4D3630",
"|F 	c #483A36",
"1F 	c #4F4C49",
"2F 	c #484948",
"3F 	c #383432",
"4F 	c #3D322F",
"5F 	c #41322E",
"6F 	c #443531",
"7F 	c #3F3330",
"8F 	c #413532",
"9F 	c #473A36",
"0F 	c #493C37",
"aF 	c #4C403B",
"bF 	c #463A36",
"cF 	c #473834",
"dF 	c #4F3E39",
"eF 	c #4F403B",
"fF 	c #4C3E38",
"gF 	c #443A36",
"hF 	c #3F3431",
"iF 	c #413333",
"jF 	c #433331",
"kF 	c #413432",
"lF 	c #413433",
"mF 	c #413533",
"nF 	c #453B36",
"oF 	c #473B36",
"pF 	c #483B36",
"qF 	c #423633",
"rF 	c #463936",
"sF 	c #453937",
"tF 	c #403533",
"uF 	c #3E3330",
"vF 	c #3B2E2B",
"wF 	c #40312E",
"xF 	c #473733",
"yF 	c #4A3A37",
"zF 	c #463B39",
"AF 	c #514D4B",
"BF 	c #646360",
"CF 	c #524F4D",
"DF 	c #494341",
"EF 	c #493E3B",
"FF 	c #4C3E39",
"GF 	c #52433D",
"HF 	c #4D3F3A",
"IF 	c #4C3F3A",
"JF 	c #4E403B",
"KF 	c #56453E",
"LF 	c #50403A",
"MF 	c #4A3D38",
"NF 	c #4D3E39",
"OF 	c #4B3C39",
"PF 	c #463937",
"QF 	c #42342F",
"RF 	c #453635",
"SF 	c #473431",
"TF 	c #4B3933",
"UF 	c #4A3832",
"VF 	c #4F3B37",
"WF 	c #4E3A37",
"XF 	c #4E3934",
"YF 	c #4C3732",
"ZF 	c #513935",
"`F 	c #4F3833",
" G 	c #4D3834",
".G 	c #4B3531",
"+G 	c #493430",
"@G 	c #463532",
"#G 	c #40312F",
"$G 	c #402E2C",
"%G 	c #42302D",
"&G 	c #3E2F2C",
"*G 	c #3C2C2A",
"=G 	c #3A2B2A",
"-G 	c #463634",
";G 	c #6C6667",
">G 	c #5D5F64",
",G 	c #403C3F",
"'G 	c #423736",
")G 	c #413A36",
"!G 	c #453B37",
"~G 	c #463D38",
"{G 	c #443D37",
"]G 	c #3F3933",
"^G 	c #433C37",
"/G 	c #443D38",
"(G 	c #473F38",
"_G 	c #473E37",
":G 	c #49403A",
"<G 	c #4B403A",
"[G 	c #4A3F3A",
"}G 	c #473F3B",
"|G 	c #45423F",
"1G 	c #3D3B39",
"2G 	c #3F3938",
"3G 	c #433B3A",
"4G 	c #453C3B",
"5G 	c #453C3C",
"6G 	c #443D3C",
"7G 	c #635B59",
"8G 	c #776C6A",
"9G 	c #7A706E",
"0G 	c #7B716F",
"aG 	c #7C7270",
"bG 	c #7C716E",
"cG 	c #7B6F6C",
"dG 	c #7A706D",
"eG 	c #78706E",
"fG 	c #736967",
"gG 	c #706563",
"hG 	c #716764",
"iG 	c #787072",
"jG 	c #746C73",
"kG 	c #736F78",
"lG 	c #777881",
"mG 	c #70757A",
"nG 	c #6D696B",
"oG 	c #6C615E",
"pG 	c #726461",
"qG 	c #6D6362",
"rG 	c #696162",
"sG 	c #6A5F62",
"tG 	c #766E6F",
"uG 	c #726C6D",
"vG 	c #726C6C",
"wG 	c #706A69",
"xG 	c #706766",
"yG 	c #746C69",
"zG 	c #706564",
"AG 	c #726463",
"BG 	c #716565",
"CG 	c #6F6463",
"DG 	c #6A6263",
"EG 	c #68686A",
"FG 	c #656668",
"GG 	c #646061",
"HG 	c #5F5959",
"IG 	c #615B5A",
"JG 	c #615A5A",
"KG 	c #6A6262",
"LG 	c #6F6867",
"MG 	c #6E6766",
"NG 	c #665E5D",
"OG 	c #655E5F",
"PG 	c #696262",
"QG 	c #665D5C",
"RG 	c #635A58",
"SG 	c #635A57",
"TG 	c #665B59",
"UG 	c #756866",
"VG 	c #675C5B",
"WG 	c #615655",
"XG 	c #685759",
"YG 	c #746B70",
"ZG 	c #7A787E",
"`G 	c #737376",
" H 	c #65605F",
".H 	c #605754",
"+H 	c #676060",
"@H 	c #605959",
"#H 	c #5B5554",
"$H 	c #5A5353",
"%H 	c #5E5657",
"&H 	c #5F5858",
"*H 	c #5F5758",
"=H 	c #5F5656",
"-H 	c #5A5151",
";H 	c #5F5454",
">H 	c #635959",
",H 	c #655D5D",
"'H 	c #64595A",
")H 	c #5F5251",
"!H 	c #5D504F",
"~H 	c #57585A",
"{H 	c #525655",
"]H 	c #4D4F4B",
"^H 	c #4A4842",
"/H 	c #49443D",
"(H 	c #534B44",
"_H 	c #534C44",
":H 	c #514942",
"<H 	c #574F47",
"[H 	c #544F49",
"}H 	c #504B48",
"|H 	c #4E4846",
"1H 	c #4E4845",
"2H 	c #4F4945",
"3H 	c #524D49",
"4H 	c #514B4A",
"5H 	c #474441",
"6H 	c #615B54",
"7H 	c #615851",
"8H 	c #605550",
"9H 	c #6F6963",
"0H 	c #797B74",
"aH 	c #717270",
"bH 	c #615F5D",
"cH 	c #55544E",
"dH 	c #53534A",
"eH 	c #58574E",
"fH 	c #58564D",
"gH 	c #56524A",
"hH 	c #56524B",
"iH 	c #514D45",
"jH 	c #544F4C",
"kH 	c #574F4E",
"lH 	c #5A5250",
"mH 	c #554E4E",
"nH 	c #525252",
"oH 	c #535556",
"pH 	c #505250",
"qH 	c #53514B",
"rH 	c #4F4A46",
"sH 	c #4C4644",
"tH 	c #554C49",
"uH 	c #4E4945",
"vH 	c #4C4844",
"wH 	c #4A4542",
"xH 	c #4D4544",
"yH 	c #4D4542",
"zH 	c #48423E",
"AH 	c #443E3A",
"BH 	c #5E5956",
"CH 	c #7F7D7B",
"DH 	c #A7A5A4",
"EH 	c #CAC9C9",
"FH 	c #E7E6E6",
"GH 	c #F8F8F8",
"HH 	c #FEFCFD",
"IH 	c #FEFDFE",
"JH 	c #FEFEFE",
"KH 	c #FEFEFD",
"LH 	c #FFFDFE",
"MH 	c #F8F7F5",
"NH 	c #EAE9E7",
"OH 	c #CAC8C8",
"PH 	c #A8A3A1",
"QH 	c #8E817D",
"RH 	c #705E59",
"SH 	c #60504B",
"TH 	c #60514F",
"UH 	c #5D504E",
"VH 	c #695A57",
"WH 	c #6A5B58",
"XH 	c #685A58",
"YH 	c #655856",
"ZH 	c #625553",
"`H 	c #6A5B57",
" I 	c #72635F",
".I 	c #5E534F",
"+I 	c #5F554E",
"@I 	c #5E564F",
"#I 	c #5D5954",
"$I 	c #636262",
"%I 	c #656463",
"&I 	c #6B6562",
"*I 	c #6A5E5D",
"=I 	c #685958",
"-I 	c #685D5A",
";I 	c #6B625D",
">I 	c #746C65",
",I 	c #7A6B66",
"'I 	c #73625F",
")I 	c #6F5F5B",
"!I 	c #776763",
"~I 	c #756661",
"{I 	c #6E605C",
"]I 	c #6F5D5A",
"^I 	c #74645F",
"/I 	c #736762",
"(I 	c #73625B",
"_I 	c #716562",
":I 	c #727274",
"<I 	c #6F7377",
"[I 	c #676564",
"}I 	c #6A605C",
"|I 	c #6B625F",
"1I 	c #6C6460",
"2I 	c #6B6461",
"3I 	c #716967",
"4I 	c #766F6E",
"5I 	c #766F6B",
"6I 	c #7A726F",
"7I 	c #726A67",
"8I 	c #6E6864",
"9I 	c #63605D",
"0I 	c #646365",
"aI 	c #69666A",
"bI 	c #6E6869",
"cI 	c #716866",
"dI 	c #6D6567",
"eI 	c #6C6767",
"fI 	c #716D6A",
"gI 	c #746F6B",
"hI 	c #6B6361",
"iI 	c #726967",
"jI 	c #77706F",
"kI 	c #655956",
"lI 	c #685B58",
"mI 	c #726663",
"nI 	c #7B6D6D",
"oI 	c #786F70",
"pI 	c #7B7A7B",
"qI 	c #7F8282",
"rI 	c #7E7D7E",
"sI 	c #787372",
"tI 	c #7A716E",
"uI 	c #7E726D",
"vI 	c #7F736D",
"wI 	c #7F746F",
"xI 	c #7C736E",
"yI 	c #7C7570",
"zI 	c #7C706C",
"AI 	c #7B6E6C",
"BI 	c #7B6F6E",
"CI 	c #796D6D",
"DI 	c #726765",
"EI 	c #726863",
"FI 	c #756A66",
"GI 	c #676568",
"HI 	c #616264",
"II 	c #6A6461",
"JI 	c #73635D",
"KI 	c #7F6C68",
"LI 	c #806E6E",
"MI 	c #7B6966",
"NI 	c #776460",
"OI 	c #7D6A67",
"PI 	c #7F6B68",
"QI 	c #7D6967",
"RI 	c #74625F",
"SI 	c #71625F",
"TI 	c #6D615E",
"UI 	c #665957",
"VI 	c #615553",
"WI 	c #645856",
"XI 	c #675A59",
"YI 	c #635655",
"ZI 	c #605351",
"`I 	c #5D4E4B",
" J 	c #665552",
".J 	c #716D6E",
"+J 	c #787D82",
"@J 	c #7D777B",
"#J 	c #7B6D6B",
"$J 	c #776F67",
"%J 	c #727168",
"&J 	c #786E66",
"*J 	c #756D64",
"=J 	c #726961",
"-J 	c #746B63",
";J 	c #786E64",
">J 	c #796E64",
",J 	c #776C61",
"'J 	c #796D62",
")J 	c #7E6E62",
"!J 	c #7B6864",
"~J 	c #817571",
"{J 	c #737271",
"]J 	c #5B5A5A",
"^J 	c #6C6160",
"/J 	c #7C6B66",
"(J 	c #7E6D69",
"_J 	c #7B6A66",
":J 	c #786864",
"<J 	c #635352",
"[J 	c #796362",
"}J 	c #7F6867",
"|J 	c #7E6868",
"1J 	c #877170",
"2J 	c #846C6C",
"3J 	c #7A6463",
"4J 	c #806A69",
"5J 	c #826C6A",
"6J 	c #836D6A",
"7J 	c #7E6964",
"8J 	c #7D6B66",
"9J 	c #80706C",
"0J 	c #847674",
"aJ 	c #817073",
"bJ 	c #77696E",
"cJ 	c #817479",
"dJ 	c #7B6F73",
"eJ 	c #736363",
"fJ 	c #785E5B",
"gJ 	c #836B6C",
"hJ 	c #7C6265",
"iJ 	c #7E6667",
"jJ 	c #7F6C6C",
"kJ 	c #867273",
"lJ 	c #8A7675",
"mJ 	c #897472",
"nJ 	c #876F6E",
"oJ 	c #867271",
"pJ 	c #856D6B",
"qJ 	c #856B6A",
"rJ 	c #856E6D",
"sJ 	c #897576",
"tJ 	c #898182",
"uJ 	c #767476",
"vJ 	c #7E7172",
"wJ 	c #826D6B",
"xJ 	c #8A7473",
"yJ 	c #8E7A78",
"zJ 	c #8C7978",
"AJ 	c #8B7776",
"BJ 	c #8C7C7B",
"CJ 	c #8A7B77",
"DJ 	c #857971",
"EJ 	c #81746C",
"FJ 	c #85776F",
"GJ 	c #8B7B74",
"HJ 	c #8A7C75",
"IJ 	c #8A7A77",
"JJ 	c #897372",
"KJ 	c #89797B",
"LJ 	c #8A7F7F",
"MJ 	c #8E8280",
"NJ 	c #8A736D",
"OJ 	c #85716F",
"PJ 	c #7D6B6C",
"QJ 	c #7B6967",
"RJ 	c #7C6966",
"SJ 	c #7F6C69",
"TJ 	c #806E6C",
"UJ 	c #826F6D",
"VJ 	c #7A6462",
"WJ 	c #806766",
"XJ 	c #8A7373",
"YJ 	c #8D7C7B",
"ZJ 	c #8B7372",
"`J 	c #8B6C6A",
" K 	c #896C69",
".K 	c #867475",
"+K 	c #868585",
"@K 	c #7B8482",
"#K 	c #787F78",
"$K 	c #716D63",
"%K 	c #73695C",
"&K 	c #7A6C60",
"*K 	c #786D60",
"=K 	c #776C5F",
"-K 	c #817568",
";K 	c #7B6E6A",
">K 	c #796C69",
",K 	c #776968",
"'K 	c #7F726F",
")K 	c #6D6765",
"!K 	c #726B65",
"~K 	c #847C73",
"{K 	c #897F77",
"]K 	c #887A71",
"^K 	c #8E8479",
"/K 	c #908B81",
"(K 	c #8E8982",
"_K 	c #8C827C",
":K 	c #837970",
"<K 	c #82756A",
"[K 	c #8A8074",
"}K 	c #8B7F73",
"|K 	c #847569",
"1K 	c #827266",
"2K 	c #837166",
"3K 	c #837066",
"4K 	c #86706A",
"5K 	c #866F6B",
"6K 	c #86716C",
"7K 	c #897570",
"8K 	c #88736F",
"9K 	c #8A736F",
"0K 	c #8B7773",
"aK 	c #887C78",
"bK 	c #868584",
"cK 	c #7C8180",
"dK 	c #7A7B76",
"eK 	c #80796E",
"fK 	c #84776C",
"gK 	c #847670",
"hK 	c #857675",
"iK 	c #887B79",
"jK 	c #867C79",
"kK 	c #837976",
"lK 	c #837674",
"mK 	c #827373",
"nK 	c #7E706D",
"oK 	c #7F736E",
"pK 	c #948B88",
"qK 	c #BCB9B7",
"rK 	c #DAD9D7",
"sK 	c #EAEAE9",
"tK 	c #F6F5F6",
"uK 	c #FFFEFE",
"vK 	c #FFFDFF",
"wK 	c #FFFDFD",
"xK 	c #F6F5F3",
"yK 	c #EBE9E6",
"zK 	c #D4CFCB",
"AK 	c #AEA5A0",
"BK 	c #8D7C79",
"CK 	c #846F6C",
"DK 	c #826E6C",
"EK 	c #806E6D",
"FK 	c #897676",
"GK 	c #867473",
"HK 	c #8C7973",
"IK 	c #8E7B74",
"JK 	c #8C7B73",
"KK 	c #8A7970",
"LK 	c #857368",
"MK 	c #7E7165",
"NK 	c #7D7770",
"OK 	c #7C7F7D",
"PK 	c #757877",
"QK 	c #7A7674",
"RK 	c #7E7271",
"SK 	c #887876",
"TK 	c #8B7E7B",
"UK 	c #887E7A",
"VK 	c #8B7F7A",
"WK 	c #8D7E7B",
"XK 	c #847170",
"YK 	c #847271",
"ZK 	c #867471",
"`K 	c #82706E",
" L 	c #7E6C6A",
".L 	c #7C6A67",
"+L 	c #7F7069",
"@L 	c #887168",
"#L 	c #8A6E66",
"$L 	c #886F6C",
"%L 	c #867877",
"&L 	c #817777",
"*L 	c #867067",
"=L 	c #897069",
"-L 	c #7B6460",
";L 	c #826B68",
">L 	c #856E6C",
",L 	c #8B7673",
"'L 	c #826966",
")L 	c #7C6562",
"!L 	c #87716E",
"~L 	c #8C7774",
"{L 	c #7F6C67",
"]L 	c #786965",
"^L 	c #7D7575",
"/L 	c #7B777A",
"(L 	c #827778",
"_L 	c #887370",
":L 	c #7F6A6B",
"<L 	c #7E6B6C",
"[L 	c #8B7874",
"}L 	c #8B7370",
"|L 	c #846C68",
"1L 	c #7F6966",
"2L 	c #856F6D",
"3L 	c #897271",
"4L 	c #866E6B",
"5L 	c #836A68",
"6L 	c #897070",
"7L 	c #8B7273",
"8L 	c #867071",
"9L 	c #8B7A78",
"0L 	c #84716F",
"aL 	c #7E6C6C",
"bL 	c #7F6A69",
"cL 	c #876F6B",
"dL 	c #8B706B",
"eL 	c #866A64",
"fL 	c #856D67",
"gL 	c #816C67",
"hL 	c #856C66",
"iL 	c #846863",
"jL 	c #886D6C",
"kL 	c #8A7070",
"lL 	c #7F6765",
"mL 	c #826965",
"nL 	c #826C66",
"oL 	c #83726E",
"pL 	c #787174",
"qL 	c #6C6A6F",
"rL 	c #736766",
"sL 	c #7C615B",
"tL 	c #826460",
"uL 	c #856967",
"vL 	c #866964",
"wL 	c #876863",
"xL 	c #876865",
"yL 	c #866663",
"zL 	c #886764",
"AL 	c #7C625E",
"BL 	c #7E6561",
"CL 	c #7A605D",
"DL 	c #7C605E",
"EL 	c #755B59",
"FL 	c #725957",
"GL 	c #7B615F",
"HL 	c #7B605E",
"IL 	c #765B59",
"JL 	c #745754",
"KL 	c #7A5D57",
"LL 	c #84736D",
"ML 	c #7E7774",
"NL 	c #877877",
"OL 	c #856D6A",
"PL 	c #7D6B62",
"QL 	c #786C61",
"RL 	c #7D635D",
"SL 	c #795F59",
"TL 	c #775D57",
"UL 	c #755954",
"VL 	c #785C55",
"WL 	c #775952",
"XL 	c #6E544C",
"YL 	c #6E534B",
"ZL 	c #77584F",
"`L 	c #795752",
" M 	c #775756",
".M 	c #7F615B",
"+M 	c #8A7270",
"@M 	c #817878",
"#M 	c #544C4D",
"$M 	c #664F4D",
"%M 	c #745850",
"&M 	c #775A51",
"*M 	c #634C45",
"=M 	c #4D3835",
"-M 	c #633B36",
";M 	c #583430",
">M 	c #5C3632",
",M 	c #613934",
"'M 	c #583731",
")M 	c #553832",
"!M 	c #543933",
"~M 	c #543934",
"{M 	c #503532",
"]M 	c #5E3E39",
"^M 	c #53322D",
"/M 	c #55302C",
"(M 	c #673E3B",
"_M 	c #633A36",
":M 	c #543632",
"<M 	c #67433E",
"[M 	c #68413B",
"}M 	c #633D38",
"|M 	c #5D3B34",
"1M 	c #623C35",
"2M 	c #603E37",
"3M 	c #826E64",
"4M 	c #5D524A",
"5M 	c #543E3B",
"6M 	c #65423A",
"7M 	c #724B44",
"8M 	c #6A453F",
"9M 	c #704842",
"0M 	c #774E47",
"aM 	c #734B44",
"bM 	c #6D4C43",
"cM 	c #62473D",
"dM 	c #61463B",
"eM 	c #6C4C41",
"fM 	c #69493E",
"gM 	c #67483E",
"hM 	c #68493F",
"iM 	c #6B4B42",
"jM 	c #674640",
"kM 	c #5E433E",
"lM 	c #634740",
"mM 	c #6C483F",
"nM 	c #6C4840",
"oM 	c #64423E",
"pM 	c #67453F",
"qM 	c #6F4941",
"rM 	c #704940",
"sM 	c #6A463E",
"tM 	c #6A473F",
"uM 	c #6E4941",
"vM 	c #714C44",
"wM 	c #724B43",
"xM 	c #6E4840",
"yM 	c #6B463F",
"zM 	c #6F4D46",
"AM 	c #73524B",
"BM 	c #774A43",
"CM 	c #764C45",
"DM 	c #7D5F57",
"EM 	c #8C7C74",
"FM 	c #77746F",
"GM 	c #716B66",
"HM 	c #745F56",
"IM 	c #74574B",
"JM 	c #75574C",
"KM 	c #6E5349",
"LM 	c #71564B",
"MM 	c #73584D",
"NM 	c #73554E",
"OM 	c #70514F",
"PM 	c #765553",
"QM 	c #735150",
"RM 	c #715251",
"SM 	c #785A5A",
"TM 	c #75595A",
"UM 	c #6D5653",
"VM 	c #6C5651",
"WM 	c #6A514B",
"XM 	c #6D514B",
"YM 	c #755950",
"ZM 	c #735A50",
"`M 	c #6F554E",
" N 	c #74544F",
".N 	c #6D4E46",
"+N 	c #684A42",
"@N 	c #76564D",
"#N 	c #805C52",
"$N 	c #735048",
"%N 	c #714E46",
"&N 	c #77524B",
"*N 	c #744D46",
"=N 	c #704941",
"-N 	c #714941",
";N 	c #704942",
">N 	c #714C43",
",N 	c #744F46",
"'N 	c #764E45",
")N 	c #7C5248",
"!N 	c #774F46",
"~N 	c #745247",
"{N 	c #745D55",
"]N 	c #7B7068",
"^N 	c #5A5954",
"/N 	c #61584F",
"(N 	c #705B4D",
"_N 	c #775C4E",
":N 	c #7B5F55",
"<N 	c #7E615B",
"[N 	c #7C5E5C",
"}N 	c #816461",
"|N 	c #806462",
"1N 	c #7D615F",
"2N 	c #785D5B",
"3N 	c #795E5C",
"4N 	c #806866",
"5N 	c #A49694",
"6N 	c #D1CCCA",
"7N 	c #ECEBEA",
"8N 	c #FBFAFA",
"9N 	c #FFFFFF",
"0N 	c #FFFFFE",
"aN 	c #FFFEFF",
"bN 	c #FEFFFE",
"cN 	c #FEFDFD",
"dN 	c #F6F5F4",
"eN 	c #DFDBDA",
"fN 	c #B6ACAB",
"gN 	c #877572",
"hN 	c #684842",
"iN 	c #714F49",
"jN 	c #6D4C47",
"kN 	c #6B4B46",
"lN 	c #75534A",
"mN 	c #705045",
"nN 	c #6F5247",
"oN 	c #705246",
"pN 	c #6A4C3F",
"qN 	c #664C3F",
"rN 	c #66554B",
"sN 	c #5D554F",
"tN 	c #4F4843",
"uN 	c #53433E",
"vN 	c #5B433E",
"wN 	c #5F423F",
"xN 	c #6F514B",
"yN 	c #735751",
"zN 	c #634B44",
"AN 	c #694D46",
"BN 	c #674944",
"CN 	c #5C3F3A",
"DN 	c #5F423C",
"EN 	c #644640",
"FN 	c #664842",
"GN 	c #61433C",
"HN 	c #5D3E3A",
"IN 	c #593C36",
"JN 	c #5A3D34",
"KN 	c #634036",
"LN 	c #673E36",
"MN 	c #633C37",
"NN 	c #63423D",
"ON 	c #60413B",
"PN 	c #5E3D37",
"QN 	c #674238",
"RN 	c #6E443B",
"SN 	c #6B4039",
"TN 	c #653D36",
"UN 	c #633E37",
"VN 	c #633E38",
"WN 	c #653F39",
"XN 	c #66413A",
"YN 	c #643B34",
"ZN 	c #6B403A",
"`N 	c #69413B",
" O 	c #674239",
".O 	c #62443B",
"+O 	c #7D6A61",
"@O 	c #564641",
"#O 	c #61453D",
"$O 	c #64403C",
"%O 	c #633F3B",
"&O 	c #6C443F",
"*O 	c #6B433D",
"=O 	c #70453D",
"-O 	c #72463E",
";O 	c #6B423A",
">O 	c #643E38",
",O 	c #633F39",
"'O 	c #6C453E",
")O 	c #67413B",
"!O 	c #633D35",
"~O 	c #643C34",
"{O 	c #603D39",
"]O 	c #65403C",
"^O 	c #633F38",
"/O 	c #5F3A33",
"(O 	c #583530",
"_O 	c #5C3732",
":O 	c #6D4139",
"<O 	c #6D4138",
"[O 	c #653E35",
"}O 	c #5E3B34",
"|O 	c #663D35",
"1O 	c #704137",
"2O 	c #6A3D36",
"3O 	c #673D38",
"4O 	c #633C39",
"5O 	c #5F3A36",
"6O 	c #69423C",
"7O 	c #64403A",
"8O 	c #634138",
"9O 	c #694C43",
"0O 	c #5B3830",
"aO 	c #5F3831",
"bO 	c #623B35",
"cO 	c #653D34",
"dO 	c #673B33",
"eO 	c #693C34",
"fO 	c #653A33",
"gO 	c #57352F",
"hO 	c #603832",
"iO 	c #643A34",
"jO 	c #57342E",
"kO 	c #57332E",
"lO 	c #57342F",
"mO 	c #5C3E37",
"nO 	c #5A3E38",
"oO 	c #5E3C39",
"pO 	c #623B37",
"qO 	c #613D35",
"rO 	c #643834",
"sO 	c #5E3431",
"tO 	c #5E332F",
"uO 	c #5C322E",
"vO 	c #5A3331",
"wO 	c #795652",
"xO 	c #86726F",
"yO 	c #4D3D3C",
"zO 	c #52322E",
"AO 	c #5B332B",
"BO 	c #513432",
"CO 	c #5F3128",
"DO 	c #562E26",
"EO 	c #56332B",
"FO 	c #705C4D",
"GO 	c #5B4F43",
"HO 	c #422A24",
"IO 	c #4F2D26",
"JO 	c #533028",
"KO 	c #64473A",
"LO 	c #7E6C5E",
"MO 	c #62554F",
"NO 	c #443433",
"OO 	c #523430",
"PO 	c #59332C",
"QO 	c #5E322C",
"RO 	c #62332D",
"SO 	c #61332E",
"TO 	c #653530",
"UO 	c #63322D",
"VO 	c #502F2B",
"WO 	c #552C29",
"XO 	c #62322E",
"YO 	c #5D302A",
"ZO 	c #542F27",
"`O 	c #62483F",
" P 	c #7E6E65",
".P 	c #443D39",
"+P 	c #3A2C27",
"@P 	c #4C3129",
"#P 	c #533128",
"$P 	c #52302A",
"%P 	c #6C5551",
"&P 	c #99908E",
"*P 	c #CBC8C7",
"=P 	c #F1F1EF",
"-P 	c #FCFDFD",
";P 	c #FBFAF9",
">P 	c #E6E3E2",
",P 	c #B5ACAC",
"'P 	c #693D39",
")P 	c #5A2A23",
"!P 	c #573229",
"~P 	c #563128",
"{P 	c #5B3329",
"]P 	c #553228",
"^P 	c #5D433C",
"/P 	c #66524D",
"(P 	c #3F2D28",
"_P 	c #5D3126",
":P 	c #5A3429",
"<P 	c #7F6C5E",
"[P 	c #766C60",
"}P 	c #40312B",
"|P 	c #4F3029",
"1P 	c #553028",
"2P 	c #5A2F27",
"3P 	c #5B2F26",
"4P 	c #573027",
"5P 	c #5D3E33",
"6P 	c #826E63",
"7P 	c #625550",
"8P 	c #3D2A24",
"9P 	c #652F2A",
"0P 	c #582B28",
"aP 	c #6C4339",
"bP 	c #836B62",
"cP 	c #503D39",
"dP 	c #5C5146",
"eP 	c #552E26",
"fP 	c #5C3F36",
"gP 	c #827368",
"hP 	c #6C605C",
"iP 	c #3B2A29",
"jP 	c #632F2A",
"kP 	c #634642",
"lP 	c #8A7775",
"mP 	c #534849",
"nP 	c #6D443D",
"oP 	c #9D8D89",
"pP 	c #D0CCCA",
"qP 	c #F1F1F0",
"rP 	c #FDFEFD",
"sP 	c #FEFFFF",
"tP 	c #FAF8F9",
"uP 	c #E7E2E3",
"vP 	c #C0B5B4",
"wP 	c #876D6B",
"xP 	c #613E3B",
"yP 	c #6A4F4E",
"zP 	c #71332A",
"AP 	c #62342A",
"BP 	c #806C61",
"CP 	c #483531",
"DP 	c #5B3D34",
"EP 	c #83716C",
"FP 	c #5D5353",
"GP 	c #412A28",
"HP 	c #5D2D24",
"IP 	c #773529",
"JP 	c #683227",
"KP 	c #5E2F25",
"LP 	c #683327",
"MP 	c #6A4135",
"NP 	c #837164",
"OP 	c #52423A",
"PP 	c #573432",
"QP 	c #682C28",
"RP 	c #5F312D",
"SP 	c #7F695F",
"TP 	c #594E47",
"UP 	c #4D2928",
"VP 	c #5D2B28",
"WP 	c #6C2C27",
"XP 	c #5E3E37",
"YP 	c #85766E",
"ZP 	c #6F6462",
"`P 	c #592824",
" Q 	c #6A4A48",
".Q 	c #8E8081",
"+Q 	c #595154",
"@Q 	c #402725",
"#Q 	c #6B302A",
"$Q 	c #6F3831",
"%Q 	c #8F7470",
"&Q 	c #CEC7C4",
"*Q 	c #F0F0EE",
"=Q 	c #FBFCFB",
"-Q 	c #FDFFFE",
";Q 	c #F9F8F8",
">Q 	c #E8E5E4",
",Q 	c #B6A9A8",
"'Q 	c #79524F",
")Q 	c #662F2B",
"!Q 	c #6B4040",
"~Q 	c #6E5051",
"{Q 	c #76332B",
"]Q 	c #73302A",
"^Q 	c #6A362D",
"/Q 	c #836C66",
"(Q 	c #807372",
"_Q 	c #4F3633",
":Q 	c #692E2A",
"<Q 	c #712F2A",
"[Q 	c #72302B",
"}Q 	c #613F39",
"|Q 	c #826F70",
"1Q 	c #564D51",
"2Q 	c #623D34",
"3Q 	c #7C6E64",
"4Q 	c #50433C",
"5Q 	c #7A2F28",
"6Q 	c #7F695D",
"7Q 	c #5A4E45",
"8Q 	c #6C2C26",
"9Q 	c #622A23",
"0Q 	c #63433A",
"aQ 	c #706865",
"bQ 	c #5F2B28",
"cQ 	c #614741",
"dQ 	c #89817B",
"eQ 	c #5A5655",
"fQ 	c #3D2723",
"gQ 	c #795A57",
"hQ 	c #AFA3A0",
"iQ 	c #E8E6E3",
"jQ 	c #FCFCFC",
"kQ 	c #FDFEFE",
"lQ 	c #FAF9F8",
"mQ 	c #DAD5D4",
"nQ 	c #9C8C8A",
"oQ 	c #694A45",
"pQ 	c #694540",
"qQ 	c #79615B",
"rQ 	c #702E25",
"sQ 	c #6F3529",
"tQ 	c #6E3A2E",
"uQ 	c #887067",
"vQ 	c #7E716E",
"wQ 	c #503433",
"xQ 	c #624037",
"yQ 	c #7F6D6A",
"zQ 	c #524A4C",
"AQ 	c #78362A",
"BQ 	c #642D2A",
"CQ 	c #6B5D57",
"DQ 	c #4C403C",
"EQ 	c #573631",
"FQ 	c #7E655E",
"GQ 	c #5D4D48",
"HQ 	c #614039",
"IQ 	c #877B73",
"JQ 	c #462C2B",
"KQ 	c #5B3831",
"LQ 	c #817267",
"MQ 	c #5F5A54",
"NQ 	c #683F3A",
"OQ 	c #9B8A89",
"PQ 	c #D4CFCE",
"QQ 	c #F8F8F7",
"RQ 	c #FDFFFD",
"SQ 	c #FEFFFD",
"TQ 	c #FDFDFD",
"UQ 	c #F2F0EF",
"VQ 	c #C4BFBD",
"WQ 	c #887270",
"XQ 	c #66493F",
"YQ 	c #796559",
"ZQ 	c #4C342D",
"`Q 	c #733126",
" R 	c #793228",
".R 	c #67362C",
"+R 	c #846E65",
"@R 	c #786E69",
"#R 	c #4C3231",
"$R 	c #60302B",
"%R 	c #654037",
"&R 	c #806E67",
"*R 	c #574C49",
"=R 	c #78362C",
"-R 	c #622C29",
";R 	c #524240",
">R 	c #4A2A24",
",R 	c #5C2B23",
"'R 	c #7D605D",
")R 	c #5C4847",
"!R 	c #452923",
"~R 	c #512924",
"{R 	c #6D605C",
"]R 	c #452A29",
"^R 	c #522A24",
"/R 	c #7F685D",
"(R 	c #61574F",
"_R 	c #422824",
":R 	c #B7AEAC",
"<R 	c #ECEBE9",
"[R 	c #FCFDFB",
"}R 	c #FAFAF9",
"|R 	c #E5E2E2",
"1R 	c #A79D9C",
"2R 	c #654541",
"3R 	c #6A4D41",
"4R 	c #786457",
"5R 	c #4B332A",
"6R 	c #783329",
"7R 	c #766A63",
"8R 	c #49322E",
"9R 	c #624139",
"0R 	c #847268",
"aR 	c #5A4D47",
"bR 	c #653931",
"cR 	c #564240",
"dR 	c #826A66",
"eR 	c #614F4D",
"fR 	c #492924",
"gR 	c #512A23",
"hR 	c #86716B",
"iR 	c #6F625E",
"jR 	c #482B29",
"kR 	c #6F332C",
"lR 	c #522824",
"mR 	c #5C352C",
"nR 	c #7D6458",
"oR 	c #665B54",
"pR 	c #797271",
"qR 	c #D2CECD",
"rR 	c #F4F3F2",
"sR 	c #C4C0BE",
"tR 	c #82716A",
"uR 	c #7B695D",
"vR 	c #4B342D",
"wR 	c #7C3429",
"xR 	c #6C392E",
"yR 	c #876C60",
"zR 	c #776B62",
"AR 	c #48312D",
"BR 	c #79362C",
"CR 	c #826B62",
"DR 	c #554642",
"ER 	c #53413E",
"FR 	c #513330",
"GR 	c #866F6A",
"HR 	c #62514E",
"IR 	c #67423C",
"JR 	c #8D7771",
"KR 	c #6D605D",
"LR 	c #836D63",
"MR 	c #A7A29F",
"NR 	c #E1E2E2",
"OR 	c #FAFAFA",
"PR 	c #D9D7D4",
"QR 	c #99918C",
"RR 	c #753327",
"SR 	c #7B3329",
"TR 	c #763227",
"UR 	c #68362A",
"VR 	c #81675C",
"WR 	c #73665F",
"XR 	c #472F2C",
"YR 	c #512A26",
"ZR 	c #5D2924",
"`R 	c #73352B",
" S 	c #552823",
".S 	c #80675F",
"+S 	c #554643",
"@S 	c #795B54",
"#S 	c #56423F",
"$S 	c #4F2B25",
"%S 	c #543430",
"&S 	c #62534F",
"*S 	c #472825",
"=S 	c #623D38",
"-S 	c #88726D",
";S 	c #482C29",
">S 	c #522A23",
",S 	c #624945",
"'S 	c #BAB3AF",
")S 	c #F0EFEE",
"!S 	c #FEFEFF",
"~S 	c #E8E6E6",
"{S 	c #9F9B98",
"]S 	c #573732",
"^S 	c #733226",
"/S 	c #6D3025",
"(S 	c #763027",
"_S 	c #7A3429",
":S 	c #80685D",
"<S 	c #73655D",
"[S 	c #482F2B",
"}S 	c #4F2925",
"|S 	c #72342C",
"1S 	c #5E3C35",
"2S 	c #7C675F",
"3S 	c #5B322B",
"4S 	c #765550",
"5S 	c #533C3B",
"6S 	c #553530",
"7S 	c #532A23",
"8S 	c #56342E",
"9S 	c #675954",
"0S 	c #6B5F5E",
"aS 	c #472C29",
"bS 	c #562824",
"cS 	c #4E2923",
"dS 	c #6A5552",
"eS 	c #C8C4C3",
"fS 	c #F3F4F3",
"gS 	c #EDEDEC",
"hS 	c #AFA7A5",
"iS 	c #6D4844",
"jS 	c #763127",
"kS 	c #793229",
"lS 	c #793429",
"mS 	c #61352C",
"nS 	c #866E62",
"oS 	c #72655D",
"pS 	c #5C3C35",
"qS 	c #7D6B63",
"rS 	c #564A46",
"sS 	c #724E4B",
"tS 	c #4E3636",
"uS 	c #552C24",
"vS 	c #563432",
"wS 	c #56322C",
"xS 	c #7B6762",
"yS 	c #5C2C29",
"zS 	c #84726E",
"AS 	c #685D5C",
"BS 	c #452B28",
"CS 	c #522923",
"DS 	c #D1CECD",
"ES 	c #F8F9F9",
"FS 	c #F5F5F4",
"GS 	c #B5ACAA",
"HS 	c #714844",
"IS 	c #733227",
"JS 	c #7D3429",
"KS 	c #783328",
"LS 	c #60352C",
"MS 	c #6E625C",
"NS 	c #5B3C35",
"OS 	c #534846",
"PS 	c #442A27",
"QS 	c #673730",
"RS 	c #815D5B",
"SS 	c #543C3E",
"TS 	c #502D26",
"US 	c #553432",
"VS 	c #7D6963",
"WS 	c #6D5E5A",
"XS 	c #5E3F3A",
"YS 	c #562923",
"ZS 	c #978685",
"`S 	c #DCDAD8",
" T 	c #FCFBFB",
".T 	c #FDFDFE",
"+T 	c #FDFFFF",
"@T 	c #BBB0AE",
"#T 	c #774C46",
"$T 	c #703327",
"%T 	c #693328",
"&T 	c #6F3329",
"*T 	c #7B342A",
"=T 	c #743227",
"-T 	c #62362D",
";T 	c #7E6860",
">T 	c #70645F",
",T 	c #472E2B",
"'T 	c #70342C",
")T 	c #4E2824",
"!T 	c #806F69",
"~T 	c #584F4D",
"{T 	c #623630",
"]T 	c #826362",
"^T 	c #574244",
"/T 	c #563533",
"(T 	c #7C6863",
"_T 	c #4A2F29",
":T 	c #5C3027",
"<T 	c #857774",
"[T 	c #665F5E",
"}T 	c #998B87",
"|T 	c #F5F3F2",
"1T 	c #C2B7B6",
"2T 	c #7C544D",
"3T 	c #6A382D",
"4T 	c #6A392F",
"5T 	c #6B362D",
"6T 	c #78332A",
"7T 	c #6E352A",
"8T 	c #6D302A",
"9T 	c #60362F",
"0T 	c #7E6762",
"aT 	c #706461",
"bT 	c #48302E",
"cT 	c #562D26",
"dT 	c #522925",
"eT 	c #5D5554",
"fT 	c #392827",
"gT 	c #5F3731",
"hT 	c #775C5B",
"iT 	c #4D3C3E",
"jT 	c #4A2C25",
"kT 	c #423E3F",
"lT 	c #4F312C",
"mT 	c #675752",
"nT 	c #67382E",
"oT 	c #654742",
"pT 	c #857A77",
"qT 	c #6D6766",
"rT 	c #472C2A",
"sT 	c #978885",
"tT 	c #E8E4E3",
"uT 	c #F4F4F4",
"vT 	c #7E584F",
"wT 	c #7F5045",
"xT 	c #714137",
"yT 	c #7A382D",
"zT 	c #7B362B",
"AT 	c #7C372C",
"BT 	c #74362B",
"CT 	c #6C3429",
"DT 	c #6D332A",
"ET 	c #6D342A",
"FT 	c #633933",
"GT 	c #6D615F",
"HT 	c #49312F",
"IT 	c #5E332C",
"JT 	c #7C7069",
"KT 	c #5C5553",
"LT 	c #392926",
"MT 	c #5D3A34",
"NT 	c #725D5B",
"OT 	c #443A3C",
"PT 	c #3F2A25",
"QT 	c #403F3F",
"RT 	c #413231",
"ST 	c #452725",
"TT 	c #4A2A26",
"UT 	c #4C2B27",
"VT 	c #4A2927",
"WT 	c #4E2B29",
"XT 	c #452723",
"YT 	c #4A2926",
"ZT 	c #492825",
"`T 	c #482825",
" U 	c #492827",
".U 	c #502C28",
"+U 	c #522C29",
"@U 	c #4E2A27",
"#U 	c #492826",
"$U 	c #462725",
"%U 	c #4F2C29",
"&U 	c #4A2925",
"*U 	c #442E29",
"=U 	c #4B423E",
"-U 	c #3F2B28",
";U 	c #4C2A25",
">U 	c #5C2E2B",
",U 	c #5B2E2B",
"'U 	c #4E2B27",
")U 	c #4C2C26",
"!U 	c #54322A",
"~U 	c #59423B",
"{U 	c #746966",
"]U 	c #675D5C",
"^U 	c #63362D",
"/U 	c #66382F",
"(U 	c #6F3D33",
"_U 	c #60352D",
":U 	c #63352F",
"<U 	c #918886",
"[U 	c #E5E3E1",
"}U 	c #BBB2B0",
"|U 	c #765A54",
"1U 	c #603F39",
"2U 	c #4C2926",
"3U 	c #58312A",
"4U 	c #442824",
"5U 	c #552E2A",
"6U 	c #482F2C",
"7U 	c #5D4D49",
"8U 	c #544C4A",
"9U 	c #3A2B29",
"0U 	c #552F2B",
"aU 	c #462925",
"bU 	c #4C2D28",
"cU 	c #4C2B28",
"dU 	c #4D2F2B",
"eU 	c #503B35",
"fU 	c #625854",
"gU 	c #4C4645",
"hU 	c #4D2F28",
"iU 	c #4E2D2A",
"jU 	c #492C2A",
"kU 	c #4A2B28",
"lU 	c #4C2D2A",
"mU 	c #472C28",
"nU 	c #482C2A",
"oU 	c #412B28",
"pU 	c #432E29",
"qU 	c #432F2A",
"rU 	c #533F39",
"sU 	c #6D5D5B",
"tU 	c #39302C",
"uU 	c #433631",
"vU 	c #473935",
"wU 	c #3F3230",
"xU 	c #3A2D2B",
"yU 	c #41413F",
"zU 	c #46413E",
"AU 	c #423B36",
"BU 	c #423A35",
"CU 	c #403833",
"DU 	c #3D3733",
"EU 	c #3C3532",
"FU 	c #3C3632",
"GU 	c #3F3934",
"HU 	c #453A37",
"IU 	c #483B38",
"JU 	c #3E3833",
"KU 	c #3B3631",
"LU 	c #3A342F",
"MU 	c #3A3933",
"NU 	c #403D37",
"OU 	c #463B38",
"PU 	c #423C37",
"QU 	c #3F3A35",
"RU 	c #3E3834",
"SU 	c #3B322F",
"TU 	c #3D3431",
"UU 	c #392F2C",
"VU 	c #382F2C",
"WU 	c #362F2D",
"XU 	c #342E2C",
"YU 	c #322D2A",
"ZU 	c #342F2D",
"`U 	c #453F3B",
" V 	c #2F2826",
".V 	c #372A29",
"+V 	c #332726",
"@V 	c #382A27",
"#V 	c #312623",
"$V 	c #362926",
"%V 	c #392B27",
"&V 	c #362A27",
"*V 	c #332825",
"=V 	c #312724",
"-V 	c #342825",
";V 	c #342624",
">V 	c #352724",
",V 	c #352625",
"'V 	c #302524",
")V 	c #342626",
"!V 	c #332725",
"~V 	c #372824",
"{V 	c #352725",
"]V 	c #332A27",
"^V 	c #342A28",
"/V 	c #382B26",
"(V 	c #3B312D",
"_V 	c #4D4746",
":V 	c #484140",
"<V 	c #332827",
"[V 	c #3A2926",
"}V 	c #3C2925",
"|V 	c #422B29",
"1V 	c #3E2A26",
"2V 	c #402A28",
"3V 	c #352723",
"4V 	c #392726",
"5V 	c #422E29",
"6V 	c #452F2B",
"7V 	c #4B332E",
"8V 	c #442D2B",
"9V 	c #8D8989",
"0V 	c #E6E5E4",
"aV 	c #F1F1F1",
"bV 	c #A2A09E",
"cV 	c #47413D",
"dV 	c #403832",
"eV 	c #493F38",
"fV 	c #453C36",
"gV 	c #3A332E",
"hV 	c #3F3631",
"iV 	c #443935",
"jV 	c #473C38",
"kV 	c #433937",
"lV 	c #403830",
"mV 	c #3E3730",
"nV 	c #393733",
"oV 	c #493C3B",
"pV 	c #614F4A",
"qV 	c #5C534C",
"rV 	c #47403C",
"sV 	c #433936",
"tV 	c #483D3A",
"uV 	c #473E3A",
"vV 	c #393230",
"wV 	c #36302D",
"xV 	c #352F2D",
"yV 	c #39332E",
"zV 	c #3C3530",
"AV 	c #403934",
"BV 	c #403A35",
"CV 	c #49433F",
"DV 	c #5B5650",
"EV 	c #54534A",
"FV 	c #3E3B35",
"GV 	c #3D3732",
"HV 	c #3B322D",
"IV 	c #40332F",
"JV 	c #3B312C",
"KV 	c #3B2F2B",
"LV 	c #3E322D",
"MV 	c #40322D",
"NV 	c #413631",
"OV 	c #3D342E",
"PV 	c #3E3631",
"QV 	c #3B342E",
"RV 	c #3C3630",
"SV 	c #3A332F",
"TV 	c #39322F",
"UV 	c #3B3630",
"VV 	c #393531",
"WV 	c #34302E",
"XV 	c #383232",
"YV 	c #3D3838",
"ZV 	c #4D413F",
"`V 	c #50413C",
" W 	c #50453C",
".W 	c #534B41",
"+W 	c #554740",
"@W 	c #53423C",
"#W 	c #4E423B",
"$W 	c #4F443E",
"%W 	c #524440",
"&W 	c #4E443E",
"*W 	c #514743",
"=W 	c #473D3A",
"-W 	c #483C38",
";W 	c #4E413B",
">W 	c #5C504A",
",W 	c #726A63",
"'W 	c #413D38",
")W 	c #45403B",
"!W 	c #544C47",
"~W 	c #5A504B",
"{W 	c #584E47",
"]W 	c #504741",
"^W 	c #4D433E",
"/W 	c #4E453F",
"(W 	c #524842",
"_W 	c #544A45",
":W 	c #4D4540",
"<W 	c #554E49",
"[W 	c #4E4844",
"}W 	c #4D4843",
"|W 	c #4A433E",
"1W 	c #49403B",
"2W 	c #48423B",
"3W 	c #4C4744",
"4W 	c #494C45",
"5W 	c #504E4A",
"6W 	c #584C49",
"7W 	c #5B5046",
"8W 	c #5E544A",
"9W 	c #5E534C",
"0W 	c #5A524E",
"aW 	c #534B45",
"bW 	c #5C524C",
"cW 	c #5C534E",
"dW 	c #625752",
"eW 	c #685C54",
"fW 	c #706359",
"gW 	c #776A61",
"hW 	c #7E736B",
"iW 	c #6B615B",
"jW 	c #685D55",
"kW 	c #796D64",
"lW 	c #7E746C",
"mW 	c #7A6F6A",
"nW 	c #6D685D",
"oW 	c #7D7969",
"pW 	c #7D7768",
"qW 	c #7E7C6D",
"rW 	c #7A7567",
"sW 	c #7C776A",
"tW 	c #7C796B",
"uW 	c #7F7669",
"vW 	c #83786A",
"wW 	c #837B6D",
"xW 	c #7C7465",
"yW 	c #7A7364",
"zW 	c #737062",
"AW 	c #717B6C",
"BW 	c #788073",
"CW 	c #81766B",
"DW 	c #7B7165",
"EW 	c #797063",
"FW 	c #7A6F64",
"GW 	c #7A6E63",
"HW 	c #7B6E63",
"IW 	c #7D6E64",
"JW 	c #796C61",
"KW 	c #6F675A",
"LW 	c #6F685B",
"MW 	c #6E695B",
"NW 	c #706B5E",
"OW 	c #6E6A5C",
"PW 	c #6C685B",
"QW 	c #666457",
"RW 	c #6C685C",
"SW 	c #6D675C",
"TW 	c #6A6559",
"UW 	c #6B685C",
"VW 	c #757467",
"WW 	c #7B796E",
"XW 	c #6E6B60",
"YW 	c #656057",
"ZW 	c #665F57",
"`W 	c #6C625B",
" X 	c #6C5E5A",
".X 	c #60534F",
"+X 	c #685957",
"@X 	c #625654",
"#X 	c #5F5753",
"$X 	c #665D59",
"%X 	c #645D58",
"&X 	c #645E58",
"*X 	c #605A54",
"=X 	c #625D56",
"-X 	c #5E5954",
";X 	c #5B5B58",
">X 	c #5E5F5F",
",X 	c #635E5C",
"'X 	c #625B56",
")X 	c #5E5856",
"!X 	c #645A5F",
"~X 	c #62585C",
"{X 	c #5D5955",
"]X 	c #635D58",
"^X 	c #665E5B",
"/X 	c #635B58",
"(X 	c #5D5451",
"_X 	c #615755",
":X 	c #66605D",
"<X 	c #65615D",
"[X 	c #645D5A",
"}X 	c #69605A",
"|X 	c #6A635D",
"1X 	c #6C6762",
"2X 	c #726F6C",
"3X 	c #716F70",
"4X 	c #717274",
"5X 	c #717473",
"6X 	c #61635F",
"7X 	c #595853",
"8X 	c #635853",
"9X 	c #615751",
"0X 	c #5E564E",
"aX 	c #605A52",
"bX 	c #5E5B53",
"cX 	c #605B54",
"dX 	c #5E5751",
"eX 	c #5A544F",
"fX 	c #615B55",
"gX 	c #64605A",
"hX 	c #605E57",
"iX 	c #5A574F",
"jX 	c #544E4A",
"kX 	c #544B4B",
"lX 	c #504C4B",
"mX 	c #46454A",
"nX 	c #404141",
"oX 	c #494641",
"pX 	c #544D4A",
"qX 	c #57514D",
"rX 	c #59524D",
"sX 	c #655F5A",
"tX 	c #6B6660",
"uX 	c #69645E",
"vX 	c #5F5953",
"wX 	c #59534E",
"xX 	c #615854",
"yX 	c #645C58",
"zX 	c #858381",
"AX 	c #E1E1E0",
"BX 	c #E9EAE8",
"CX 	c #9E9C94",
"DX 	c #787260",
"EX 	c #7E7866",
"FX 	c #7A7462",
"GX 	c #6F6A5A",
"HX 	c #6B6656",
"IX 	c #706B5B",
"JX 	c #726C5D",
"KX 	c #7A7164",
"LX 	c #796D63",
"MX 	c #7B6C64",
"NX 	c #7C725E",
"OX 	c #75705D",
"PX 	c #626A60",
"QX 	c #695F5C",
"RX 	c #7B6B60",
"SX 	c #7F7668",
"TX 	c #796C63",
"UX 	c #71605B",
"VX 	c #73625C",
"WX 	c #786961",
"XX 	c #776861",
"YX 	c #796A61",
"ZX 	c #766A61",
"`X 	c #786C62",
" Y 	c #73665D",
".Y 	c #726658",
"+Y 	c #736859",
"@Y 	c #756959",
"#Y 	c #766A5A",
"$Y 	c #736858",
"%Y 	c #6D6255",
"&Y 	c #74695D",
"*Y 	c #7F796A",
"=Y 	c #82806D",
"-Y 	c #7C7765",
";Y 	c #796E5F",
">Y 	c #716354",
",Y 	c #726354",
"'Y 	c #766658",
")Y 	c #746455",
"!Y 	c #736556",
"~Y 	c #706253",
"{Y 	c #6E6253",
"]Y 	c #766D5D",
"^Y 	c #756D5D",
"/Y 	c #716B5B",
"(Y 	c #656050",
"_Y 	c #6F6756",
":Y 	c #7B6F61",
"<Y 	c #7D6D62",
"[Y 	c #77695C",
"}Y 	c #78705E",
"|Y 	c #737162",
"1Y 	c #686860",
"2Y 	c #626260",
"3Y 	c #5C5A56",
"4Y 	c #7B6F67",
"5Y 	c #867465",
"6Y 	c #7F705B",
"7Y 	c #7E745E",
"8Y 	c #7A6859",
"9Y 	c #796155",
"0Y 	c #7F6C5C",
"aY 	c #847165",
"bY 	c #77675F",
"cY 	c #6C5D56",
"dY 	c #776760",
"eY 	c #7F6C65",
"fY 	c #735F58",
"gY 	c #6C5A51",
"hY 	c #716255",
"iY 	c #756A5B",
"jY 	c #837868",
"kY 	c #7F7566",
"lY 	c #635C4E",
"mY 	c #655D50",
"nY 	c #776B5E",
"oY 	c #776A5D",
"pY 	c #7E7062",
"qY 	c #7D6E5F",
"rY 	c #7D6D5E",
"sY 	c #7A6B5D",
"tY 	c #76685B",
"uY 	c #75675B",
"vY 	c #7B6F62",
"wY 	c #7F7365",
"xY 	c #7A7062",
"yY 	c #746C5E",
"zY 	c #746D5E",
"AY 	c #756C5E",
"BY 	c #74695C",
"CY 	c #74665B",
"DY 	c #716256",
"EY 	c #716859",
"FY 	c #6B6B62",
"GY 	c #625F5C",
"HY 	c #7A7C6C",
"IY 	c #7E776C",
"JY 	c #857168",
"KY 	c #7D6E5C",
"LY 	c #796B58",
"MY 	c #756859",
"NY 	c #827566",
"OY 	c #857A6B",
"PY 	c #877C6D",
"QY 	c #807365",
"RY 	c #726659",
"SY 	c #786A5C",
"TY 	c #827164",
"UY 	c #867267",
"VY 	c #826C62",
"WY 	c #816B5F",
"XY 	c #7D695C",
"YY 	c #7E695D",
"ZY 	c #816C61",
"`Y 	c #776458",
" Z 	c #766055",
".Z 	c #78625B",
"+Z 	c #7E6862",
"@Z 	c #454141",
"#Z 	c #605149",
"$Z 	c #6F5A4D",
"%Z 	c #775F52",
"&Z 	c #796255",
"*Z 	c #776254",
"=Z 	c #7B6255",
"-Z 	c #7D6659",
";Z 	c #786256",
">Z 	c #766154",
",Z 	c #796455",
"'Z 	c #7F695A",
")Z 	c #7C6658",
"!Z 	c #7F695B",
"~Z 	c #79695C",
"{Z 	c #777A6B",
"]Z 	c #72776B",
"^Z 	c #6C5A54",
"/Z 	c #70554C",
"(Z 	c #765A52",
"_Z 	c #7A5C53",
":Z 	c #7A5B53",
"<Z 	c #75574E",
"[Z 	c #71564C",
"}Z 	c #6D564C",
"|Z 	c #69544A",
"1Z 	c #6A564C",
"2Z 	c #6F5B4F",
"3Z 	c #796256",
"4Z 	c #826A5E",
"5Z 	c #7C6559",
"6Z 	c #7F675B",
"7Z 	c #7E685B",
"8Z 	c #726155",
"9Z 	c #7B6B5C",
"0Z 	c #74675A",
"aZ 	c #73685B",
"bZ 	c #817368",
"cZ 	c #7E6F63",
"dZ 	c #816D64",
"eZ 	c #7F6962",
"fZ 	c #816862",
"gZ 	c #7B625E",
"hZ 	c #78605C",
"iZ 	c #806663",
"jZ 	c #7D6462",
"kZ 	c #7D6561",
"lZ 	c #816B68",
"mZ 	c #82706B",
"nZ 	c #897B74",
"oZ 	c #868383",
"pZ 	c #898A8B",
"qZ 	c #8A8482",
"rZ 	c #887C75",
"sZ 	c #8C7A82",
"tZ 	c #8B787D",
"uZ 	c #8B807A",
"vZ 	c #8B847E",
"wZ 	c #897B78",
"xZ 	c #897974",
"yZ 	c #897873",
"zZ 	c #897A76",
"AZ 	c #897F7B",
"BZ 	c #887672",
"CZ 	c #897773",
"DZ 	c #897A73",
"EZ 	c #8C817A",
"FZ 	c #8C837E",
"GZ 	c #8E8380",
"HZ 	c #8A8685",
"IZ 	c #87837F",
"JZ 	c #857E78",
"KZ 	c #8A807B",
"LZ 	c #8B7E77",
"MZ 	c #8B7B73",
"NZ 	c #8B7C74",
"OZ 	c #887C72",
"PZ 	c #877C72",
"QZ 	c #887F75",
"RZ 	c #8B837A",
"SZ 	c #8C8179",
"TZ 	c #877972",
"UZ 	c #8C857E",
"VZ 	c #89857C",
"WZ 	c #888076",
"XZ 	c #7E6A6A",
"YZ 	c #7E7675",
"ZZ 	c #6A696F",
"`Z 	c #5A5A5A",
" ` 	c #746B64",
".` 	c #82726F",
"+` 	c #857671",
"@` 	c #8D817C",
"#` 	c #8D8581",
"$` 	c #8B7E79",
"%` 	c #9B9591",
"&` 	c #DDDCDB",
"*` 	c #FBFBFB",
"=` 	c #FEFEFC",
"-` 	c #E0DEDB",
";` 	c #8D7F77",
">` 	c #6F5A4A",
",` 	c #765F4E",
"'` 	c #765E4F",
")` 	c #6B5548",
"!` 	c #655144",
"~` 	c #685246",
"{` 	c #715249",
"]` 	c #72514A",
"^` 	c #75594C",
"/` 	c #7B6658",
"(` 	c #6E675F",
"_` 	c #5E4B4A",
":` 	c #654941",
"<` 	c #6C5246",
"[` 	c #6C4E44",
"}` 	c #6A4740",
"|` 	c #67463F",
"1` 	c #694942",
"2` 	c #6E4C44",
"3` 	c #745148",
"4` 	c #74524A",
"5` 	c #7A584F",
"6` 	c #735348",
"7` 	c #6F4F44",
"8` 	c #735346",
"9` 	c #725245",
"0` 	c #715143",
"a` 	c #6A4B3E",
"b` 	c #604339",
"c` 	c #63463D",
"d` 	c #6B5346",
"e` 	c #6F594C",
"f` 	c #70584B",
"g` 	c #6E5247",
"h` 	c #684B40",
"i` 	c #684A40",
"j` 	c #6D4E42",
"k` 	c #715044",
"l` 	c #745346",
"m` 	c #745347",
"n` 	c #6E4F43",
"o` 	c #664C41",
"p` 	c #73584A",
"q` 	c #775E4F",
"r` 	c #745C4D",
"s` 	c #654E42",
"t` 	c #644D42",
"u` 	c #7A5B51",
"v` 	c #7E5B52",
"w` 	c #75554A",
"x` 	c #6C5B4E",
"y` 	c #71645F",
"z` 	c #726667",
"A` 	c #524442",
"B` 	c #6A4E46",
"C` 	c #775347",
"D` 	c #715041",
"E` 	c #735546",
"F` 	c #6C4A3F",
"G` 	c #633F37",
"H` 	c #69473C",
"I` 	c #714D43",
"J` 	c #6E4B44",
"K` 	c #62443D",
"L` 	c #573C36",
"M` 	c #5F423B",
"N` 	c #694941",
"O` 	c #714D46",
"P` 	c #6C453F",
"Q` 	c #644139",
"R` 	c #5F4137",
"S` 	c #5C3F35",
"T` 	c #61473C",
"U` 	c #583F35",
"V` 	c #563D35",
"W` 	c #5E443B",
"X` 	c #573E36",
"Y` 	c #5F4238",
"Z` 	c #6A483E",
"`` 	c #704C42",
"  .	c #67473C",
". .	c #62443A",
"+ .	c #61453B",
"@ .	c #65473E",
"# .	c #6A4C41",
"$ .	c #705044",
"% .	c #73564A",
"& .	c #684F44",
"* .	c #674E41",
"= .	c #6D4F43",
"- .	c #66463D",
"; .	c #66453B",
"> .	c #654A3F",
", .	c #6F5E55",
"' .	c #594C49",
") .	c #56463E",
"! .	c #6B5649",
"~ .	c #735349",
"{ .	c #81554D",
"] .	c #724E41",
"^ .	c #604436",
"/ .	c #5B3F35",
"( .	c #6D4E43",
"_ .	c #715147",
": .	c #77564B",
"< .	c #735247",
"[ .	c #614339",
"} .	c #614238",
"| .	c #6E4B42",
"1 .	c #775047",
"2 .	c #6A453D",
"3 .	c #603C34",
"4 .	c #5B3930",
"5 .	c #5F3C33",
"6 .	c #5F3D34",
"7 .	c #5C3A31",
"8 .	c #5B382F",
"9 .	c #5E332D",
"0 .	c #643732",
"a .	c #56342C",
"b .	c #5A352E",
"c .	c #62534D",
"d .	c #5B514C",
"e .	c #452E2D",
"f .	c #502D29",
"g .	c #562E2A",
"h .	c #562E2B",
"i .	c #512B28",
"j .	c #5F3C34",
"k .	c #5B3933",
"l .	c #6E473F",
"m .	c #603C37",
"n .	c #5D3833",
"o .	c #573634",
"p .	c #583836",
"q .	c #553936",
"r .	c #5D413C",
"s .	c #674742",
"t .	c #624540",
"u .	c #634641",
"v .	c #654842",
"w .	c #674A44",
"x .	c #6A514D",
"y .	c #716664",
"z .	c #756E6F",
"A .	c #625655",
"B .	c #5E4640",
"C .	c #694C45",
"D .	c #6D4949",
"E .	c #6C4747",
"F .	c #674B43",
"G .	c #624942",
"H .	c #654741",
"I .	c #5E413C",
"J .	c #6A4741",
"K .	c #684641",
"L .	c #674743",
"M .	c #614644",
"N .	c #624847",
"O .	c #624A48",
"P .	c #5B4541",
"Q .	c #5D433F",
"R .	c #6A4742",
"S .	c #6F4943",
"T .	c #6E4B43",
"U .	c #644540",
"V .	c #5F443E",
"W .	c #61463F",
"X .	c #6C4D46",
"Y .	c #674842",
"Z .	c #674D49",
"` .	c #614944",
" ..	c #644942",
"...	c #684944",
"+..	c #5E413E",
"@..	c #5D4440",
"#..	c #645451",
"$..	c #625A5B",
"%..	c #403837",
"&..	c #584540",
"*..	c #674A47",
"=..	c #654743",
"-..	c #694A46",
";..	c #70524D",
">..	c #644843",
",..	c #735854",
"'..	c #C1BCBA",
")..	c #C3BDBB",
"!..	c #66433E",
"~..	c #522B28",
"{..	c #6E4C46",
"]..	c #523737",
"^..	c #65332A",
"/..	c #662F2A",
"(..	c #6E332D",
"_..	c #70372F",
":..	c #6B342E",
"<..	c #63312B",
"[..	c #63322B",
"}..	c #64342D",
"|..	c #63342E",
"1..	c #663630",
"2..	c #542C2A",
"3..	c #5F342D",
"4..	c #563831",
"5..	c #725C5B",
"6..	c #725D60",
"7..	c #432E2E",
"8..	c #5E2D2A",
"9..	c #62362F",
"0..	c #785952",
"a..	c #69534F",
"b..	c #6E322E",
"c..	c #5A2A28",
"d..	c #58302E",
"e..	c #755E58",
"f..	c #70605B",
"g..	c #492E2C",
"h..	c #713831",
"i..	c #84443C",
"j..	c #793E36",
"k..	c #66342E",
"l..	c #53403A",
"m..	c #4E3B37",
"n..	c #5E332A",
"o..	c #67342C",
"p..	c #5A2B27",
"q..	c #58413A",
"r..	c #6B5D59",
"s..	c #3A2E2B",
"t..	c #A19694",
"u..	c #F1F0EF",
"v..	c #F2F0F0",
"w..	c #A59391",
"x..	c #684A43",
"y..	c #4E3634",
"z..	c #78332B",
"A..	c #402D2C",
"B..	c #795E55",
"C..	c #65554E",
"D..	c #4B302A",
"E..	c #7B665D",
"F..	c #72372D",
"G..	c #6F352C",
"H..	c #682E24",
"I..	c #624B41",
"J..	c #6F6258",
"K..	c #4F3C35",
"L..	c #653126",
"M..	c #75342A",
"N..	c #5F463B",
"O..	c #655A52",
"P..	c #86706C",
"Q..	c #E5E3E2",
"R..	c #E3DEDD",
"S..	c #846763",
"T..	c #602A24",
"U..	c #786860",
"V..	c #4E3935",
"W..	c #663328",
"X..	c #78342A",
"Y..	c #766962",
"Z..	c #3E2F2B",
"`..	c #5C352D",
" +.	c #746257",
".+.	c #5C544C",
"++.	c #472E29",
"@+.	c #71322A",
"#+.	c #766456",
"$+.	c #4D312D",
"%+.	c #753226",
"&+.	c #73574F",
"*+.	c #55413D",
"=+.	c #6D3329",
"-+.	c #6F544E",
";+.	c #6A5F5C",
">+.	c #362A29",
",+.	c #75524F",
"'+.	c #D0CAC8",
")+.	c #FAF9F9",
"!+.	c #C5BDBC",
"~+.	c #6C4743",
"{+.	c #6D4A41",
"]+.	c #7D675F",
"^+.	c #533835",
"/+.	c #5B322A",
"(+.	c #76625C",
"_+.	c #776A67",
":+.	c #432F2D",
"<+.	c #6F2F2B",
"[+.	c #6B2D2A",
"}+.	c #5F524D",
"|+.	c #743029",
"1+.	c #6D2B26",
"2+.	c #782F29",
"3+.	c #792F29",
"4+.	c #762E28",
"5+.	c #796657",
"6+.	c #6E6256",
"7+.	c #4E302B",
"8+.	c #773126",
"9+.	c #6B2E24",
"0+.	c #783128",
"a+.	c #74312A",
"b+.	c #6D342D",
"c+.	c #7E5D58",
"d+.	c #897B7A",
"e+.	c #594444",
"f+.	c #5E2C2A",
"g+.	c #602B28",
"h+.	c #5B2C28",
"i+.	c #5D2A27",
"j+.	c #5B2A28",
"k+.	c #72676A",
"l+.	c #3A2C2D",
"m+.	c #673531",
"n+.	c #A49593",
"o+.	c #A69895",
"p+.	c #724A43",
"q+.	c #7D625B",
"r+.	c #523632",
"s+.	c #795E5A",
"t+.	c #756462",
"u+.	c #432D2C",
"v+.	c #592E2A",
"w+.	c #6D2E2A",
"x+.	c #735A54",
"y+.	c #655451",
"z+.	c #542E2B",
"A+.	c #553631",
"B+.	c #58362E",
"C+.	c #7E6B5E",
"D+.	c #75675D",
"E+.	c #4D302B",
"F+.	c #773127",
"G+.	c #762E27",
"H+.	c #702C26",
"I+.	c #762F28",
"J+.	c #82645C",
"K+.	c #564041",
"L+.	c #5D2B29",
"M+.	c #5E2B28",
"N+.	c #6E6369",
"O+.	c #392B2B",
"P+.	c #542D2A",
"Q+.	c #65302B",
"R+.	c #816663",
"S+.	c #E0DBDA",
"T+.	c #E4E0DF",
"U+.	c #6A4941",
"V+.	c #4E3732",
"W+.	c #6E332B",
"X+.	c #68312B",
"Y+.	c #755C57",
"Z+.	c #745E55",
"`+.	c #63534F",
" @.	c #423F3D",
".@.	c #533532",
"+@.	c #552926",
"@@.	c #51332C",
"#@.	c #7A695C",
"$@.	c #786B5F",
"%@.	c #50322D",
"&@.	c #6C2D24",
"*@.	c #856B5E",
"=@.	c #847D73",
"-@.	c #4C3B36",
";@.	c #793A2D",
">@.	c #673125",
",@.	c #7C635F",
"'@.	c #3A2E2C",
")@.	c #B3AAA8",
"!@.	c #FAFAF8",
"~@.	c #FDFEFF",
"{@.	c #C7C0BE",
"]@.	c #62403B",
"^@.	c #522927",
"/@.	c #6C4E43",
"(@.	c #76655B",
"_@.	c #82372D",
":@.	c #7D372D",
"<@.	c #76615B",
"[@.	c #756760",
"}@.	c #3E2E2A",
"|@.	c #55332A",
"1@.	c #79665A",
"2@.	c #6A5C54",
"3@.	c #503431",
"4@.	c #52352D",
"5@.	c #7A6B5F",
"6@.	c #5E2B23",
"7@.	c #846A5E",
"8@.	c #857D73",
"9@.	c #4E3C37",
"0@.	c #622F25",
"a@.	c #76392C",
"b@.	c #7C645F",
"c@.	c #3B2D2A",
"d@.	c #502721",
"e@.	c #80716F",
"f@.	c #ECE8E8",
"g@.	c #F2F2F1",
"h@.	c #9C8F8E",
"i@.	c #522D25",
"j@.	c #705248",
"k@.	c #79665D",
"l@.	c #513632",
"m@.	c #67312C",
"n@.	c #7A352C",
"o@.	c #7A392E",
"p@.	c #75625A",
"q@.	c #766862",
"r@.	c #6D332C",
"s@.	c #78675A",
"t@.	c #665D52",
"u@.	c #643126",
"v@.	c #543332",
"w@.	c #542926",
"x@.	c #573A31",
"y@.	c #837269",
"z@.	c #82726E",
"A@.	c #543532",
"B@.	c #816860",
"C@.	c #887D7A",
"D@.	c #513B3A",
"E@.	c #72342A",
"F@.	c #74372C",
"G@.	c #5E2C29",
"H@.	c #7A605A",
"I@.	c #766A66",
"J@.	c #40302B",
"K@.	c #5E403C",
"L@.	c #CAC4C3",
"M@.	c #D9D6D4",
"N@.	c #765C59",
"O@.	c #6C4E47",
"P@.	c #79645F",
"Q@.	c #4E3433",
"R@.	c #6E352C",
"S@.	c #52312A",
"T@.	c #4A2E27",
"U@.	c #552A23",
"V@.	c #6E352B",
"W@.	c #6E5E53",
"X@.	c #60574E",
"Y@.	c #583432",
"Z@.	c #54352F",
"`@.	c #7F6B67",
" #.	c #806C6C",
".#.	c #543433",
"+#.	c #642B28",
"@#.	c #6B2B26",
"##.	c #672A25",
"$#.	c #602924",
"%#.	c #8A7D7C",
"&#.	c #533D3D",
"*#.	c #74322A",
"=#.	c #7C372F",
"-#.	c #612F2B",
";#.	c #795E59",
">#.	c #746765",
",#.	c #412E2C",
"'#.	c #978B87",
")#.	c #F0EEEE",
"!#.	c #F4F3F1",
"~#.	c #A89B99",
"{#.	c #62342F",
"]#.	c #674C44",
"^#.	c #796561",
"/#.	c #4C3534",
"(#.	c #75322B",
"_#.	c #765B58",
":#.	c #705D5C",
"<#.	c #54312A",
"[#.	c #74635B",
"}#.	c #605851",
"|#.	c #563530",
"1#.	c #7F6664",
"2#.	c #81686B",
"3#.	c #523333",
"4#.	c #6E2C27",
"5#.	c #6A2B25",
"6#.	c #5E2925",
"7#.	c #7A6660",
"8#.	c #887B7A",
"9#.	c #523E3E",
"0#.	c #755F58",
"a#.	c #6F6561",
"b#.	c #3D2C2B",
"c#.	c #74504C",
"d#.	c #CFC9C7",
"e#.	c #FBFBFA",
"f#.	c #D8D3D1",
"g#.	c #765956",
"h#.	c #694D44",
"i#.	c #74332B",
"j#.	c #7A5D59",
"k#.	c #6F5B59",
"l#.	c #432B2A",
"m#.	c #642D29",
"n#.	c #806D64",
"o#.	c #625651",
"p#.	c #682B26",
"q#.	c #4F2824",
"r#.	c #816764",
"s#.	c #7D6465",
"t#.	c #523231",
"u#.	c #612B28",
"v#.	c #5C2926",
"w#.	c #592A27",
"x#.	c #74665D",
"y#.	c #847D77",
"z#.	c #4F413E",
"A#.	c #69312B",
"B#.	c #70322C",
"C#.	c #522F26",
"D#.	c #6C5C52",
"E#.	c #6D6760",
"F#.	c #978684",
"G#.	c #EFEDEC",
"H#.	c #F5F4F2",
"I#.	c #998B88",
"J#.	c #6B4E43",
"K#.	c #736258",
"L#.	c #75625E",
"M#.	c #412C2C",
"N#.	c #60524D",
"O#.	c #4F2E2A",
"P#.	c #523432",
"Q#.	c #542923",
"R#.	c #573630",
"S#.	c #7C6C68",
"T#.	c #563833",
"U#.	c #716157",
"V#.	c #7D736C",
"W#.	c #4D3D39",
"X#.	c #622D2A",
"Y#.	c #533026",
"Z#.	c #6A5A4D",
"`#.	c #6B645B",
" $.	c #61413E",
".$.	c #FDFCFC",
"+$.	c #FDFDFC",
"@$.	c #CDC8C6",
"#$.	c #633F3C",
"$$.	c #63473D",
"%$.	c #746357",
"&$.	c #7B6158",
"*$.	c #482C27",
"=$.	c #5A4A46",
"-$.	c #4A2C26",
";$.	c #71342B",
">$.	c #513431",
",$.	c #76635B",
"'$.	c #583E38",
")$.	c #552923",
"!$.	c #572D25",
"~$.	c #502E27",
"{$.	c #796159",
"]$.	c #81716C",
"^$.	c #4B3836",
"/$.	c #553128",
"($.	c #70594F",
"_$.	c #6A5C56",
":$.	c #8E807B",
"<$.	c #EEEEEC",
"[$.	c #FBFCFC",
"}$.	c #F9FAF9",
"|$.	c #F8F8F6",
"1$.	c #F3F3F1",
"2$.	c #EEEDEC",
"3$.	c #EBEAE9",
"4$.	c #E7E5E4",
"5$.	c #E1E0DE",
"6$.	c #DBDBD9",
"7$.	c #CBC7C7",
"8$.	c #CBC7C6",
"9$.	c #BEB9B5",
"0$.	c #B1A4A1",
"a$.	c #B1A3A1",
"b$.	c #B0A4A2",
"c$.	c #B0A3A2",
"d$.	c #AFA3A2",
"e$.	c #B1A3A2",
"f$.	c #AEA3A2",
"g$.	c #AFA3A1",
"h$.	c #AEA3A1",
"i$.	c #ADA3A1",
"j$.	c #ABA3A1",
"k$.	c #B1A4A2",
"l$.	c #B9AEAD",
"m$.	c #CCC5C3",
"n$.	c #CEC7C6",
"o$.	c #CDC8C7",
"p$.	c #D8D5D3",
"q$.	c #DDDAD8",
"r$.	c #DEDCDA",
"s$.	c #E7E6E5",
"t$.	c #EBEBEA",
"u$.	c #F4F4F3",
"v$.	c #F9F9F8",
"w$.	c #FCFCFB",
"x$.	c #827471",
"y$.	c #502722",
"z$.	c #4F2C24",
"A$.	c #5F4539",
"B$.	c #756459",
"C$.	c #4E3A34",
"D$.	c #7B6458",
"E$.	c #6B312B",
"F$.	c #65443B",
"G$.	c #7F6961",
"H$.	c #584844",
"I$.	c #71342D",
"J$.	c #72352D",
"K$.	c #73352C",
"L$.	c #423F3E",
"M$.	c #4C3332",
"N$.	c #542A28",
"O$.	c #522A27",
"P$.	c #50362F",
"Q$.	c #615149",
"R$.	c #5D534A",
"S$.	c #503D37",
"T$.	c #4F2F29",
"U$.	c #5A3129",
"V$.	c #7D605A",
"W$.	c #877673",
"X$.	c #523E3F",
"Y$.	c #502926",
"Z$.	c #68322D",
"`$.	c #69332B",
" %.	c #683429",
".%.	c #736060",
"+%.	c #3F2A2A",
"@%.	c #CBC4C1",
"#%.	c #FCFDFC",
"$%.	c #F7F7F6",
"%%.	c #E6E4E4",
"&%.	c #D8D5D4",
"*%.	c #CCC6C5",
"=%.	c #C0B6B6",
"-%.	c #B8AEAC",
";%.	c #9E9391",
">%.	c #786361",
",%.	c #826F6B",
"'%.	c #65504C",
")%.	c #603934",
"!%.	c #5C2A23",
"~%.	c #5A2B22",
"{%.	c #5A2A21",
"]%.	c #5F2821",
"^%.	c #662A22",
"/%.	c #642B21",
"(%.	c #622921",
"_%.	c #632921",
":%.	c #612820",
"<%.	c #642A21",
"[%.	c #642B22",
"}%.	c #5F2820",
"|%.	c #57251E",
"1%.	c #58251F",
"2%.	c #5A271F",
"3%.	c #5B281F",
"4%.	c #59281E",
"5%.	c #56281E",
"6%.	c #50251D",
"7%.	c #56251D",
"8%.	c #602A20",
"9%.	c #602A22",
"0%.	c #5E2A22",
"a%.	c #652F24",
"b%.	c #662E23",
"c%.	c #632E24",
"d%.	c #6B413C",
"e%.	c #6F4944",
"f%.	c #6F4B47",
"g%.	c #795C58",
"h%.	c #887673",
"i%.	c #A19896",
"j%.	c #B4AEAC",
"k%.	c #B8B2B1",
"l%.	c #C3BDBD",
"m%.	c #CFCCCB",
"n%.	c #DDDBDA",
"o%.	c #F3F2F2",
"p%.	c #F9F8F9",
"q%.	c #C3BEBC",
"r%.	c #4B2F2D",
"s%.	c #4A2D25",
"t%.	c #574237",
"u%.	c #645A4F",
"v%.	c #433530",
"w%.	c #4D2F27",
"x%.	c #4A2B25",
"y%.	c #6A342D",
"z%.	c #4E2E27",
"A%.	c #52382F",
"B%.	c #6E5D51",
"C%.	c #6D635A",
"D%.	c #513029",
"E%.	c #59322B",
"F%.	c #532C29",
"G%.	c #5A3E36",
"H%.	c #514543",
"I%.	c #372823",
"J%.	c #472F26",
"K%.	c #513027",
"L%.	c #4B2C27",
"M%.	c #413F40",
"N%.	c #3F2726",
"O%.	c #442C28",
"P%.	c #42312A",
"Q%.	c #483A35",
"R%.	c #564B47",
"S%.	c #3E332F",
"T%.	c #382B27",
"U%.	c #392A26",
"V%.	c #3D2724",
"W%.	c #542E26",
"X%.	c #53302A",
"Y%.	c #654D48",
"Z%.	c #695B5B",
"`%.	c #473B3C",
" &.	c #5C322F",
".&.	c #4F2D2A",
"+&.	c #502B28",
"@&.	c #4A2A28",
"#&.	c #4D2A25",
"$&.	c #4E2C26",
"%&.	c #452D2A",
"&&.	c #675B5F",
"*&.	c #372A2B",
"=&.	c #3F2522",
"-&.	c #7E7270",
";&.	c #EDEBEA",
">&.	c #EEEEED",
",&.	c #CFCDCC",
"'&.	c #B6B0AE",
")&.	c #9F9593",
"!&.	c #908281",
"~&.	c #7E6E6D",
"{&.	c #695856",
"]&.	c #614341",
"^&.	c #5D241F",
"/&.	c #532620",
"(&.	c #59312F",
"_&.	c #654948",
":&.	c #5D4D4C",
"<&.	c #463431",
"[&.	c #4C2E28",
"}&.	c #4B2E29",
"|&.	c #472927",
"1&.	c #4D2C25",
"2&.	c #4E2E26",
"3&.	c #543129",
"4&.	c #4D2B24",
"5&.	c #45241D",
"6&.	c #3E1D15",
"7&.	c #3F1F16",
"8&.	c #4E3631",
"9&.	c #5F4D4A",
"0&.	c #6F625F",
"a&.	c #807977",
"b&.	c #8F8B89",
"c&.	c #A8A4A3",
"d&.	c #B7B5B5",
"e&.	c #CCCCCB",
"f&.	c #DEDFDE",
"g&.	c #F0F0F1",
"h&.	c #F8FAF9",
"i&.	c #E3E2E1",
"j&.	c #6A605F",
"k&.	c #463028",
"l&.	c #58473E",
"m&.	c #5E5B55",
"n&.	c #423938",
"o&.	c #3F302D",
"p&.	c #382A26",
"q&.	c #3A2B28",
"r&.	c #3B2B28",
"s&.	c #372825",
"t&.	c #452F2A",
"u&.	c #412C27",
"v&.	c #4D312A",
"w&.	c #3C2926",
"x&.	c #3E2D29",
"y&.	c #3D2D28",
"z&.	c #3C2B26",
"A&.	c #412E28",
"B&.	c #45302A",
"C&.	c #4E342E",
"D&.	c #543630",
"E&.	c #4E302A",
"F&.	c #4C2F2B",
"G&.	c #4D2F2C",
"H&.	c #432D29",
"I&.	c #513E37",
"J&.	c #685B54",
"K&.	c #6B635F",
"L&.	c #43403C",
"M&.	c #3C3732",
"N&.	c #3E332C",
"O&.	c #41322C",
"P&.	c #3E322C",
"Q&.	c #392E29",
"R&.	c #392D28",
"S&.	c #3E302C",
"T&.	c #443530",
"U&.	c #43352F",
"V&.	c #3A302B",
"W&.	c #332C28",
"X&.	c #473D36",
"Y&.	c #4C433B",
"Z&.	c #50463D",
"`&.	c #494037",
" *.	c #4A3D36",
".*.	c #56443C",
"+*.	c #5F4A41",
"@*.	c #5E4A41",
"#*.	c #57443D",
"$*.	c #503F39",
"%*.	c #493A34",
"&*.	c #473732",
"**.	c #4D3C36",
"=*.	c #4C3C35",
"-*.	c #463731",
";*.	c #3F322D",
">*.	c #463631",
",*.	c #453730",
"'*.	c #43342D",
")*.	c #52463D",
"!*.	c #635B56",
"~*.	c #585050",
"{*.	c #493F3A",
"]*.	c #584C41",
"^*.	c #57453D",
"/*.	c #5C4341",
"(*.	c #564540",
"_*.	c #49413A",
":*.	c #443E36",
"<*.	c #49433B",
"[*.	c #4C453C",
"}*.	c #4A443B",
"|*.	c #433D35",
"1*.	c #4A423A",
"2*.	c #544C42",
"3*.	c #544D43",
"4*.	c #524C44",
"5*.	c #4F4C45",
"6*.	c #4F4C46",
"7*.	c #4E4A43",
"8*.	c #4D473F",
"9*.	c #554D44",
"0*.	c #5C564C",
"a*.	c #55524A",
"b*.	c #545048",
"c*.	c #555147",
"d*.	c #514C41",
"e*.	c #5D504C",
"f*.	c #64524C",
"g*.	c #695750",
"h*.	c #6F5D56",
"i*.	c #705F58",
"j*.	c #695852",
"k*.	c #675751",
"l*.	c #5C4F4A",
"m*.	c #5B4B49",
"n*.	c #63524C",
"o*.	c #6B6357",
"p*.	c #756E67",
"q*.	c #72615D",
"r*.	c #69524F",
"s*.	c #736565",
"t*.	c #766A6A",
"u*.	c #6F615D",
"v*.	c #6A625B",
"w*.	c #696158",
"x*.	c #5D5149",
"y*.	c #64544D",
"z*.	c #63534D",
"A*.	c #5A4D46",
"B*.	c #5E524D",
"C*.	c #564D48",
"D*.	c #504541",
"E*.	c #504540",
"F*.	c #50433F",
"G*.	c #4E413D",
"H*.	c #4E4442",
"I*.	c #4E413E",
"J*.	c #4F403D",
"K*.	c #4F3E3D",
"L*.	c #4F403C",
"M*.	c #4E3F3A",
"N*.	c #4A3B38",
"O*.	c #433632",
"P*.	c #453835",
"Q*.	c #453634",
"R*.	c #433533",
"S*.	c #3E302E",
"T*.	c #41332F",
"U*.	c #463832",
"V*.	c #4F5350",
"W*.	c #3E3D3C",
"X*.	c #403732",
"Y*.	c #4B4036",
"Z*.	c #554A41",
"`*.	c #362D2A",
" =.	c #433833",
".=.	c #372E2B",
"+=.	c #362E2A",
"@=.	c #352D2A",
"#=.	c #3C322E",
"$=.	c #362F2C",
"%=.	c #332D2A",
"&=.	c #342D2B",
"*=.	c #2F2A28",
"==.	c #322C2A",
"-=.	c #3A3130",
";=.	c #3A2F2C",
">=.	c #4C3D38",
",=.	c #63514A",
"'=.	c #5A4C46",
")=.	c #473D39",
"!=.	c #3F3634",
"~=.	c #3F3432",
"{=.	c #423534",
"]=.	c #423635",
"^=.	c #3B3230",
"/=.	c #362D2B",
"(=.	c #3D3230",
"_=.	c #4B3E3A",
":=.	c #4B433D",
"<=.	c #433B37",
"[=.	c #433B35",
"}=.	c #515359",
"|=.	c #383639",
"1=.	c #3A3633",
"2=.	c #B4B2B2",
"3=.	c #FAFAFB",
"4=.	c #DAD9D8",
"5=.	c #BAB9B8",
"6=.	c #9D9A98",
"7=.	c #7F7B78",
"8=.	c #605A57",
"9=.	c #493D37",
"0=.	c #4D3D36",
"a=.	c #514139",
"b=.	c #4B3E36",
"c=.	c #40352E",
"d=.	c #42352E",
"e=.	c #4E3B33",
"f=.	c #5D443A",
"g=.	c #5A443A",
"h=.	c #564038",
"i=.	c #614A45",
"j=.	c #7A6C6A",
"k=.	c #6C6D6C",
"l=.	c #5B5956",
"m=.	c #615450",
"n=.	c #564743",
"o=.	c #4F4540",
"p=.	c #4D423F",
"q=.	c #524342",
"r=.	c #5D4D4B",
"s=.	c #584C48",
"t=.	c #5B5049",
"u=.	c #635650",
"v=.	c #584E49",
"w=.	c #584D47",
"x=.	c #605751",
"y=.	c #5F5650",
"z=.	c #5E544F",
"A=.	c #504843",
"B=.	c #4C4541",
"C=.	c #443D3A",
"D=.	c #463D39",
"E=.	c #4F433F",
"F=.	c #564945",
"G=.	c #594B47",
"H=.	c #5C4B47",
"I=.	c #6B5753",
"J=.	c #685351",
"K=.	c #5D4A47",
"L=.	c #5A4945",
"M=.	c #5C4C48",
"N=.	c #5F4D46",
"O=.	c #67564D",
"P=.	c #5D4C44",
"Q=.	c #5C4C44",
"R=.	c #66564C",
"S=.	c #6C5B53",
"T=.	c #736358",
"U=.	c #706358",
"V=.	c #827A78",
"W=.	c #7D7778",
"X=.	c #706862",
"Y=.	c #7C786D",
"Z=.	c #9D9490",
"`=.	c #B4ACAB",
" -.	c #CDC9C7",
".-.	c #F0EFED",
"+-.	c #F6F6F5",
"@-.	c #AFA9A5",
"#-.	c #71584D",
"$-.	c #7B7876",
"%-.	c #75676A",
"&-.	c #675A51",
"*-.	c #695C54",
"=-.	c #665952",
"--.	c #554A44",
";-.	c #5B5048",
">-.	c #6C5E55",
",-.	c #706158",
"'-.	c #67574F",
")-.	c #61544B",
"!-.	c #6B5E54",
"~-.	c #76675B",
"{-.	c #76665A",
"]-.	c #6B5D53",
"^-.	c #6A5D56",
"/-.	c #5D5652",
"(-.	c #564F4A",
"_-.	c #61574E",
":-.	c #685B51",
"<-.	c #65574C",
"[-.	c #65534A",
"}-.	c #69554C",
"|-.	c #6D584F",
"1-.	c #765F55",
"2-.	c #6E5B50",
"3-.	c #68564C",
"4-.	c #68574B",
"5-.	c #6F5C51",
"6-.	c #725F55",
"7-.	c #6E5B54",
"8-.	c #67534E",
"9-.	c #63504A",
"0-.	c #615049",
"a-.	c #6A5951",
"b-.	c #6C5B50",
"c-.	c #726053",
"d-.	c #816E63",
"e-.	c #85797B",
"f-.	c #746F6D",
"g-.	c #756E66",
"h-.	c #77685F",
"i-.	c #6E615A",
"j-.	c #6C6057",
"k-.	c #70655C",
"l-.	c #71675E",
"m-.	c #6C625A",
"n-.	c #6C6159",
"o-.	c #6A6056",
"p-.	c #685F56",
"q-.	c #5D5751",
"r-.	c #68625A",
"s-.	c #716961",
"t-.	c #7B726A",
"u-.	c #6D6159",
"v-.	c #78685F",
"w-.	c #807066",
"x-.	c #86776E",
"y-.	c #6F6159",
"z-.	c #71645B",
"A-.	c #756960",
"B-.	c #70625A",
"C-.	c #6B5E56",
"D-.	c #71635B",
"E-.	c #796C64",
"F-.	c #73675E",
"G-.	c #685B52",
"H-.	c #70665A",
"I-.	c #77736E",
"J-.	c #716C6E",
"K-.	c #7E7666",
"L-.	c #857772",
"M-.	c #7A736A",
"N-.	c #736961",
"O-.	c #7F746C",
"P-.	c #837870",
"Q-.	c #80766E",
"R-.	c #746A62",
"S-.	c #81776E",
"T-.	c #817970",
"U-.	c #7C756F",
"V-.	c #817C77",
"W-.	c #807B77",
"X-.	c #7F736B",
"Y-.	c #817671",
"Z-.	c #83756F",
"`-.	c #84766D",
" ;.	c #7E6E66",
".;.	c #474443",
"+;.	c #72615B",
"@;.	c #846C62",
"#;.	c #897065",
"$;.	c #8C7166",
"%;.	c #887268",
"&;.	c #826E65",
"*;.	c #806860",
"=;.	c #86756A",
"-;.	c #8D7671",
";;.	c #886D67",
">;.	c #88706E",
",;.	c #86716F",
"';.	c #88716B",
");.	c #8B776D",
"!;.	c #867367",
"~;.	c #846E62",
"{;.	c #846C61",
"];.	c #856B60",
"^;.	c #876B61",
"/;.	c #8A6F64",
"(;.	c #876F65",
"_;.	c #857268",
":;.	c #88776E",
"<;.	c #87786D",
"[;.	c #827268",
"};.	c #7B6A5F",
"|;.	c #7E6A60",
"1;.	c #867166",
"2;.	c #836B61",
"3;.	c #7D7470",
"4;.	c #868281",
"5;.	c #85706A",
"6;.	c #846B65",
"7;.	c #88716E",
"8;.	c #87726D",
"9;.	c #86736B",
"0;.	c #847169",
"a;.	c #826E66",
"b;.	c #86736A",
"c;.	c #806C63",
"d;.	c #806B63",
"e;.	c #837068",
"f;.	c #7E6A62",
"g;.	c #806B65",
"h;.	c #7C6865",
"i;.	c #725F5C",
"j;.	c #75615D",
"k;.	c #76665E",
"l;.	c #837E76",
"m;.	c #7E807B",
"n;.	c #7E736A",
"o;.	c #827869",
"p;.	c #82776C",
"q;.	c #746D66",
"r;.	c #68645D",
"s;.	c #625E57",
"t;.	c #716C64",
"u;.	c #756F66",
"v;.	c #6B675F",
"w;.	c #65625A",
"x;.	c #656159",
"y;.	c #666159",
"z;.	c #736D63",
"A;.	c #757065",
"B;.	c #6B695F",
"C;.	c #676258",
"D;.	c #62625B",
"E;.	c #505551",
"F;.	c #54504D",
"G;.	c #60544D",
"H;.	c #796A67",
"I;.	c #746462",
"J;.	c #6E5D59",
"K;.	c #7A6964",
"L;.	c #8A7974",
"M;.	c #827470",
"N;.	c #7D6E6C",
"O;.	c #716463",
"P;.	c #7C706F",
"Q;.	c #7D6F6E",
"R;.	c #776A69",
"S;.	c #695D5C",
"T;.	c #6D6161",
"U;.	c #7E736E",
"V;.	c #847F78",
"W;.	c #837D77",
"X;.	c #80807E",
"Y;.	c #808387",
"Z;.	c #737275",
"`;.	c #837F7D",
" >.	c #E2E1E1",
".>.	c #EEEEEE",
"+>.	c #E4E3E2",
"@>.	c #D4D3D1",
"#>.	c #B6B3B3",
"$>.	c #969090",
"%>.	c #7A736F",
"&>.	c #7A716D",
"*>.	c #7D7670",
"=>.	c #7E7A70",
"->.	c #746E63",
";>.	c #655D55",
">>.	c #6A6158",
",>.	c #736B61",
"'>.	c #7F786E",
")>.	c #7B7469",
"!>.	c #686156",
"~>.	c #7A6E64",
"{>.	c #867A6F",
"]>.	c #888074",
"^>.	c #867B70",
"/>.	c #908A86",
"(>.	c #8E8D8C",
"_>.	c #888783",
":>.	c #877E77",
"<>.	c #857D78",
"[>.	c #7F7673",
"}>.	c #807474",
"|>.	c #887D7B",
"1>.	c #837A76",
"2>.	c #89837D",
"3>.	c #8B8680",
"4>.	c #8A8581",
"5>.	c #7D7573",
"6>.	c #7F7672",
"7>.	c #8A837F",
"8>.	c #8A837E",
"9>.	c #877F79",
"0>.	c #877F75",
"a>.	c #857C72",
"b>.	c #80817D",
"c>.	c #777B7B",
"d>.	c #6E6865",
"e>.	c #6E5F56",
"f>.	c #85766D",
"g>.	c #82716B",
"h>.	c #7D6A65",
"i>.	c #7A6460",
"j>.	c #7E6763",
"k>.	c #877063",
"l>.	c #7D675C",
"m>.	c #87756A",
"n>.	c #8B796C",
"o>.	c #8A7669",
"p>.	c #8A7769",
"q>.	c #8E7E78",
"r>.	c #8E7F7C",
"s>.	c #88746A",
"t>.	c #867666",
"u>.	c #8C786D",
"v>.	c #8A736E",
"w>.	c #8C7871",
"x>.	c #8D7C72",
"y>.	c #9E8F86",
"z>.	c #B5AAA5",
"A>.	c #CDC6C4",
"B>.	c #E0DCDB",
"C>.	c #EAE9E8",
"D>.	c #D2CBC9",
"E>.	c #8D7167",
"F>.	c #81625A",
"G>.	c #7C6765",
"H>.	c #816666",
"I>.	c #85665E",
"J>.	c #7E6258",
"K>.	c #7D635A",
"L>.	c #7E655B",
"M>.	c #735950",
"N>.	c #6D564D",
"O>.	c #816A5F",
"P>.	c #876F63",
"Q>.	c #876D62",
"R>.	c #82685E",
"S>.	c #755F55",
"T>.	c #7C685D",
"U>.	c #857063",
"V>.	c #8C7568",
"W>.	c #836E64",
"X>.	c #847167",
"Y>.	c #5F5A57",
"Z>.	c #6B5C55",
"`>.	c #7D6256",
" ,.	c #806053",
".,.	c #7A594E",
"+,.	c #79564C",
"@,.	c #77564C",
"#,.	c #7A574F",
"$,.	c #7E5E54",
"%,.	c #786053",
"&,.	c #765E51",
"*,.	c #715A4E",
"=,.	c #755D52",
"-,.	c #7E6357",
";,.	c #7F6359",
">,.	c #7E5E56",
",,.	c #795951",
"',.	c #72574F",
"),.	c #795F55",
"!,.	c #81665B",
"~,.	c #83685B",
"{,.	c #83695F",
"],.	c #856B66",
"^,.	c #846D6D",
"/,.	c #7E6864",
"(,.	c #826A62",
"_,.	c #84695E",
":,.	c #8D7063",
"<,.	c #8D7064",
"[,.	c #84685F",
"},.	c #7C6259",
"|,.	c #856C61",
"1,.	c #886E62",
"2,.	c #846B60",
"3,.	c #7A6358",
"4,.	c #846A60",
"5,.	c #82685F",
"6,.	c #7E665D",
"7,.	c #7B6862",
"8,.	c #746865",
"9,.	c #655450",
"0,.	c #6E5953",
"a,.	c #725A52",
"b,.	c #705850",
"c,.	c #7B5F57",
"d,.	c #86675F",
"e,.	c #88675E",
"f,.	c #7B5B53",
"g,.	c #735A53",
"h,.	c #7B625A",
"i,.	c #81655C",
"j,.	c #765B54",
"k,.	c #755C54",
"l,.	c #7B6159",
"m,.	c #836A62",
"n,.	c #826960",
"o,.	c #765B51",
"p,.	c #7F655A",
"q,.	c #7B6766",
"r,.	c #806B5E",
"s,.	c #846960",
"t,.	c #7F6762",
"u,.	c #816960",
"v,.	c #7F665E",
"w,.	c #826962",
"x,.	c #856B65",
"y,.	c #856964",
"z,.	c #7A615B",
"A,.	c #7C645E",
"B,.	c #826A64",
"C,.	c #806B68",
"D,.	c #877675",
"E,.	c #8E8485",
"F,.	c #685858",
"G,.	c #69504A",
"H,.	c #725250",
"I,.	c #755450",
"J,.	c #704E4A",
"K,.	c #444040",
"L,.	c #6A433D",
"M,.	c #664039",
"N,.	c #6A423A",
"O,.	c #72493F",
"P,.	c #64433E",
"Q,.	c #61413B",
"R,.	c #62403A",
"S,.	c #6B443D",
"T,.	c #6C453B",
"U,.	c #6F473D",
"V,.	c #6B463B",
"W,.	c #66433A",
"X,.	c #6F4F45",
"Y,.	c #6C5044",
"Z,.	c #6D5348",
"`,.	c #695146",
" '.	c #64493F",
".'.	c #6C4D43",
"+'.	c #765549",
"@'.	c #755247",
"#'.	c #705048",
"$'.	c #6D5F5D",
"%'.	c #6C696C",
"&'.	c #79544E",
"*'.	c #765750",
"='.	c #765951",
"-'.	c #71554D",
";'.	c #72544D",
">'.	c #765850",
",'.	c #72534B",
"''.	c #75554E",
")'.	c #75584F",
"!'.	c #7A5A53",
"~'.	c #6D4D49",
"{'.	c #755550",
"]'.	c #755650",
"^'.	c #745952",
"/'.	c #755951",
"('.	c #715952",
"_'.	c #72625B",
":'.	c #73635E",
"<'.	c #7A655B",
"['.	c #7D655D",
"}'.	c #7A645E",
"|'.	c #79675F",
"1'.	c #726159",
"2'.	c #74635C",
"3'.	c #77655E",
"4'.	c #796860",
"5'.	c #847368",
"6'.	c #89776A",
"7'.	c #817366",
"8'.	c #7D7366",
"9'.	c #7D6E62",
"0'.	c #7D756D",
"a'.	c #676A68",
"b'.	c #625858",
"c'.	c #674F48",
"d'.	c #6F564F",
"e'.	c #785F5B",
"f'.	c #68504D",
"g'.	c #644F4B",
"h'.	c #735957",
"i'.	c #775C59",
"j'.	c #695251",
"k'.	c #675251",
"l'.	c #775F5C",
"m'.	c #7E6361",
"n'.	c #7B6260",
"o'.	c #6F5957",
"p'.	c #74615D",
"q'.	c #7A6A66",
"r'.	c #7B6B65",
"s'.	c #786A67",
"t'.	c #7E7170",
"u'.	c #B3AEAC",
"v'.	c #F7F6F5",
"w'.	c #FBFAFB",
"x'.	c #DADAD9",
"y'.	c #BFC0C2",
"z'.	c #959192",
"A'.	c #826F6E",
"B'.	c #786660",
"C'.	c #7B6764",
"D'.	c #816C66",
"E'.	c #7D6660",
"F'.	c #7D655F",
"G'.	c #7A655F",
"H'.	c #866D67",
"I'.	c #6E5852",
"J'.	c #705D58",
"K'.	c #766460",
"L'.	c #776661",
"M'.	c #75625D",
"N'.	c #715C58",
"O'.	c #746360",
"P'.	c #756562",
"Q'.	c #71625E",
"R'.	c #7B6965",
"S'.	c #6E5D5A",
"T'.	c #726360",
"U'.	c #77635F",
"V'.	c #796965",
"W'.	c #7D6B67",
"X'.	c #6D5957",
"Y'.	c #705C5A",
"Z'.	c #796662",
"`'.	c #77655F",
" ).	c #786459",
".).	c #78655A",
"+).	c #7E7978",
"@).	c #696B6E",
"#).	c #574947",
"$).	c #684A41",
"%).	c #704F44",
"&).	c #6D5247",
"*).	c #6F564A",
"=).	c #6A4E47",
"-).	c #6A4C46",
";).	c #6C4C46",
">).	c #664640",
",).	c #65433E",
"').	c #6A4641",
")).	c #68463E",
"!).	c #68473C",
"~).	c #6C493F",
"{).	c #67463B",
"]).	c #61433A",
"^).	c #64453B",
"/).	c #6B4A43",
"().	c #6A4A43",
"_).	c #65443D",
":).	c #62433A",
"<).	c #6B463E",
"[).	c #67433B",
"}).	c #67453D",
"|).	c #624038",
"1).	c #7C605A",
"2).	c #897A77",
"3).	c #A7A09E",
"4).	c #C5C1C0",
"5).	c #F6F7F6",
"6).	c #623732",
"7).	c #623834",
"8).	c #633832",
"9).	c #683B34",
"0).	c #663A33",
"a).	c #683D35",
"b).	c #673C34",
"c).	c #5F372F",
"d).	c #623B33",
"e).	c #663F35",
"f).	c #683F37",
"g).	c #5D3931",
"h).	c #613E35",
"i).	c #5D3C35",
"j).	c #67443C",
"k).	c #624E4B",
"l).	c #524B4E",
"m).	c #513B37",
"n).	c #6A3D32",
"o).	c #703C32",
"p).	c #6E382F",
"q).	c #6B372E",
"r).	c #63332E",
"s).	c #63362F",
"t).	c #633830",
"u).	c #54312C",
"v).	c #673A32",
"w).	c #683B32",
"x).	c #62372F",
"y).	c #5F3931",
"z).	c #643A31",
"A).	c #704237",
"B).	c #754438",
"C).	c #6D4036",
"D).	c #623B32",
"E).	c #6B4238",
"F).	c #694136",
"G).	c #694037",
"H).	c #623C33",
"I).	c #603B34",
"J).	c #694239",
"K).	c #674038",
"L).	c #644037",
"M).	c #694D49",
"N).	c #7A6A6A",
"O).	c #4E4444",
"P).	c #472F2B",
"Q).	c #50302A",
"R).	c #57322D",
"S).	c #55312C",
"T).	c #50302B",
"U).	c #67372F",
"V).	c #743E34",
"W).	c #774137",
"X).	c #6B3C33",
"Y).	c #59352E",
"Z).	c #59352F",
"`).	c #623A33",
" !.	c #6B4139",
".!.	c #643C35",
"+!.	c #663F36",
"@!.	c #694138",
"#!.	c #693F39",
"$!.	c #663C36",
"%!.	c #6A4339",
"&!.	c #613D34",
"*!.	c #603933",
"=!.	c #5E3A34",
"-!.	c #5A3932",
";!.	c #5B3A32",
">!.	c #5B3A33",
",!.	c #563732",
"'!.	c #79615E",
")!.	c #867A79",
"!!.	c #4C3B38",
"~!.	c #523533",
"{!.	c #612E2A",
"]!.	c #6A352E",
"^!.	c #62342C",
"/!.	c #6E5957",
"(!.	c #63585A",
"_!.	c #3B2F2E",
":!.	c #60312C",
"<!.	c #62322B",
"[!.	c #6C352F",
"}!.	c #723730",
"|!.	c #67302C",
"1!.	c #64312D",
"2!.	c #6D3C35",
"3!.	c #673A33",
"4!.	c #58332D",
"5!.	c #643832",
"6!.	c #623832",
"7!.	c #653C36",
"8!.	c #613A34",
"9!.	c #653E37",
"0!.	c #6B413A",
"a!.	c #65413B",
"b!.	c #5C3F39",
"c!.	c #61403A",
"d!.	c #736061",
"e!.	c #513E3F",
"f!.	c #51312D",
"g!.	c #613730",
"h!.	c #62342E",
"i!.	c #5F302C",
"j!.	c #683832",
"k!.	c #6A3934",
"l!.	c #5A312D",
"m!.	c #55312D",
"n!.	c #5E3A36",
"o!.	c #664F4C",
"p!.	c #CBC7C5",
"q!.	c #F5F4F3",
"r!.	c #D3D1CF",
"s!.	c #8C7A78",
"t!.	c #817271",
"u!.	c #5D4242",
"v!.	c #613731",
"w!.	c #663C35",
"x!.	c #6A3F3B",
"y!.	c #6E413E",
"z!.	c #673C35",
"A!.	c #603631",
"B!.	c #6A3D35",
"C!.	c #683C34",
"D!.	c #663B34",
"E!.	c #673B34",
"F!.	c #723F38",
"G!.	c #713E37",
"H!.	c #5F312F",
"I!.	c #5E322E",
"J!.	c #5E3732",
"K!.	c #58332E",
"L!.	c #663F38",
"M!.	c #613631",
"N!.	c #653F38",
"O!.	c #877576",
"P!.	c #766A70",
"Q!.	c #482D2D",
"R!.	c #66352E",
"S!.	c #60332C",
"T!.	c #634441",
"U!.	c #9A908E",
"V!.	c #BEB9B7",
"W!.	c #F4F2F2",
"X!.	c #9A8D8B",
"Y!.	c #64332E",
"Z!.	c #56322A",
"`!.	c #735D59",
" ~.	c #6B6162",
".~.	c #46312E",
"+~.	c #6B352A",
"@~.	c #806D6C",
"#~.	c #524747",
"$~.	c #623229",
"%~.	c #62342B",
"&~.	c #6E524E",
"*~.	c #48322D",
"=~.	c #443E40",
"-~.	c #715C59",
";~.	c #766969",
">~.	c #402D2D",
",~.	c #692B25",
"'~.	c #652D2A",
")~.	c #74534D",
"!~.	c #887471",
"~~.	c #8D7773",
"{~.	c #EEEBE9",
"]~.	c #E5E3E3",
"^~.	c #C5BCBB",
"/~.	c #927E7B",
"(~.	c #63423F",
"_~.	c #705349",
":~.	c #735E55",
"<~.	c #4E312D",
"[~.	c #6A3227",
"}~.	c #886F6D",
"|~.	c #6E5E60",
"1~.	c #72312A",
"2~.	c #5D3732",
"3~.	c #6E5553",
"4~.	c #A19894",
"5~.	c #D7D3CF",
"6~.	c #EBE9E8",
"7~.	c #F8F9F8",
"8~.	c #FCFBFA",
"9~.	c #B8ADAC",
"0~.	c #6C3A34",
"a~.	c #5C342A",
"b~.	c #826C64",
"c~.	c #412D2B",
"d~.	c #654641",
"e~.	c #806C6A",
"f~.	c #514443",
"g~.	c #6A4946",
"h~.	c #735B5A",
"i~.	c #5A3532",
"j~.	c #796968",
"k~.	c #442E2D",
"l~.	c #622C23",
"m~.	c #7A6056",
"n~.	c #8F857D",
"o~.	c #584943",
"p~.	c #733830",
"q~.	c #B7A9A6",
"r~.	c #D2CDCC",
"s~.	c #A99E9D",
"t~.	c #7D6360",
"u~.	c #69352B",
"v~.	c #622B22",
"w~.	c #5A2B23",
"x~.	c #602E24",
"y~.	c #745B4F",
"z~.	c #73645B",
"A~.	c #5C342B",
"B~.	c #816B64",
"C~.	c #665B55",
"D~.	c #664439",
"E~.	c #8A786C",
"F~.	c #847D79",
"G~.	c #B5B0AF",
"H~.	c #D9D5D3",
"I~.	c #DBD5D3",
"J~.	c #754B46",
"K~.	c #773429",
"L~.	c #60352A",
"M~.	c #836C62",
"N~.	c #716865",
"O~.	c #432D2B",
"P~.	c #62433F",
"Q~.	c #816D6B",
"R~.	c #564847",
"S~.	c #6F3429",
"T~.	c #725857",
"U~.	c #786664",
"V~.	c #442F2D",
"W~.	c #8C8479",
"X~.	c #54473F",
"Y~.	c #503026",
"Z~.	c #6F4440",
"`~.	c #DCD6D4",
" {.	c #C4BBBA",
".{.	c #9B8583",
"+{.	c #77524F",
"@{.	c #5E251E",
"#{.	c #5E2923",
"${.	c #775C53",
"%{.	c #6F5F59",
"&{.	c #4C312D",
"*{.	c #75332C",
"={.	c #78332D",
"-{.	c #60362D",
";{.	c #78645A",
">{.	c #655C54",
",{.	c #3D2A25",
"'{.	c #877669",
"){.	c #564841",
"!{.	c #522F29",
"~{.	c #9D8B88",
"{{.	c #C9C0BF",
"]{.	c #EBE9E7",
"^{.	c #FFFFFD",
"/{.	c #EFEDEB",
"({.	c #8D7472",
"_{.	c #642A23",
":{.	c #62372B",
"<{.	c #6D6461",
"[{.	c #702F25",
"}{.	c #62413D",
"|{.	c #85706E",
"1{.	c #71352E",
"2{.	c #7B372B",
"3{.	c #77352C",
"4{.	c #73524C",
"5{.	c #755D59",
"6{.	c #763428",
"7{.	c #592C24",
"8{.	c #77372B",
"9{.	c #71362A",
"0{.	c #6C4F4B",
"a{.	c #705C5B",
"b{.	c #642A27",
"c{.	c #795C4F",
"d{.	c #887B70",
"e{.	c #513E39",
"f{.	c #692924",
"g{.	c #917C7A",
"h{.	c #F7F4F3",
"i{.	c #F9FAF8",
"j{.	c #E6E5E3",
"k{.	c #B8AFAD",
"l{.	c #8C7371",
"m{.	c #703D3A",
"n{.	c #652B28",
"o{.	c #612A27",
"p{.	c #6C5959",
"q{.	c #4C302E",
"r{.	c #722F2A",
"s{.	c #692C28",
"t{.	c #675854",
"u{.	c #702F2A",
"v{.	c #817166",
"w{.	c #524740",
"x{.	c #703E39",
"y{.	c #8A716E",
"z{.	c #B9B0AE",
"A{.	c #E4E1E1",
"B{.	c #A69794",
"C{.	c #5F2924",
"D{.	c #71302A",
"E{.	c #5E372D",
"F{.	c #6B6462",
"G{.	c #5C3D39",
"H{.	c #816C6A",
"I{.	c #502E2A",
"J{.	c #7A352A",
"K{.	c #813A2D",
"L{.	c #7F3A2E",
"M{.	c #72352A",
"N{.	c #73362C",
"O{.	c #70352C",
"P{.	c #71372D",
"Q{.	c #6E342A",
"R{.	c #6F4F48",
"S{.	c #48302A",
"T{.	c #6B504B",
"U{.	c #715D5B",
"V{.	c #563029",
"W{.	c #79574D",
"X{.	c #86746C",
"Y{.	c #533C3A",
"Z{.	c #C6BDBB",
"`{.	c #C0B7B6",
" ].	c #7E6865",
".].	c #612A26",
"+].	c #622925",
"@].	c #785B56",
"#].	c #6B5C59",
"$].	c #876966",
"%].	c #6F5D5D",
"&].	c #762F2A",
"*].	c #5D443C",
"=].	c #817369",
"-].	c #554B45",
";].	c #B9AFAE",
">].	c #F7F6F7",
",].	c #FEFCFC",
"'].	c #BFB6B4",
")].	c #6B6364",
"!].	c #452B29",
"~].	c #6E3126",
"{].	c #5F3F3A",
"]].	c #85726F",
"^].	c #5C504E",
"/].	c #4B2D2A",
"(].	c #73514A",
"_].	c #76605A",
":].	c #48312B",
"<].	c #6B2B27",
"[].	c #6C2C25",
"}].	c #694D48",
"|].	c #422F2D",
"1].	c #753529",
"2].	c #795B51",
"3].	c #827469",
"4].	c #4D3A36",
"5].	c #77382B",
"6].	c #693024",
"7].	c #672F24",
"8].	c #652C23",
"9].	c #744F4B",
"0].	c #E1DCDB",
"a].	c #C1B8B6",
"b].	c #8F7672",
"c].	c #5B261F",
"d].	c #765E55",
"e].	c #695C56",
"f].	c #422F2A",
"g].	c #70352B",
"h].	c #88706C",
"i].	c #6F605F",
"j].	c #74302A",
"k].	c #594C45",
"l].	c #5D2722",
"m].	c #6A3730",
"n].	c #876C68",
"o].	c #B5AAA8",
"p].	c #E2E0DE",
"q].	c #D6CFCD",
"r].	c #6A3A33",
"s].	c #7E6B6A",
"t].	c #6A6264",
"u].	c #71362D",
"v].	c #85706F",
"w].	c #5C4F4F",
"x].	c #4B2C2A",
"y].	c #7B554D",
"z].	c #785F5A",
"A].	c #5F2925",
"B].	c #745049",
"C].	c #735A56",
"D].	c #79372D",
"E].	c #735A4D",
"F].	c #776E61",
"G].	c #453631",
"H].	c #7C3A2C",
"I].	c #6B3024",
"J].	c #5E251D",
"K].	c #968381",
"L].	c #E8E3E2",
"M].	c #CBC4C2",
"N].	c #8F7B79",
"O].	c #6E4540",
"P].	c #6B5F5B",
"Q].	c #462E2C",
"R].	c #5C2F26",
"S].	c #71312B",
"T].	c #5C3830",
"U].	c #87726C",
"V].	c #6E625F",
"W].	c #66473C",
"X].	c #857262",
"Y].	c #5A4940",
"Z].	c #6A3A34",
"`].	c #816865",
" ^.	c #B6ADAB",
".^.	c #FBFDFC",
"+^.	c #E6E1E1",
"@^.	c #785550",
"#^.	c #662C23",
"$^.	c #5C362F",
"%^.	c #836E6D",
"&^.	c #6A6163",
"*^.	c #5C3A37",
"=^.	c #584A4A",
"-^.	c #714C47",
";^.	c #795E5B",
">^.	c #4C302D",
",^.	c #78524B",
"'^.	c #765B56",
")^.	c #462E2B",
"!^.	c #71544A",
"~^.	c #74685D",
"{^.	c #49352F",
"]^.	c #7E372D",
"^^.	c #632822",
"/^.	c #856661",
"(^.	c #8E7673",
"_^.	c #6C403C",
":^.	c #7A635F",
"<^.	c #69605F",
"[^.	c #672F2A",
"}^.	c #5F3A30",
"|^.	c #877269",
"1^.	c #736864",
"2^.	c #67473D",
"3^.	c #826E62",
"4^.	c #56433B",
"5^.	c #6A3932",
"6^.	c #8C706D",
"7^.	c #CDC6C5",
"8^.	c #F1EFEF",
"9^.	c #FCFEFE",
"0^.	c #8A7470",
"a^.	c #62261D",
"b^.	c #6A6062",
"c^.	c #71352A",
"d^.	c #533533",
"e^.	c #796564",
"f^.	c #594D4C",
"g^.	c #754E4A",
"h^.	c #7B5E5C",
"i^.	c #71312A",
"j^.	c #71514A",
"k^.	c #735E5A",
"l^.	c #72312B",
"m^.	c #79554F",
"n^.	c #7D665F",
"o^.	c #4C332F",
"p^.	c #672A24",
"q^.	c #622722",
"r^.	c #612C29",
"s^.	c #66615C",
"t^.	c #3E2D2B",
"u^.	c #73342C",
"v^.	c #7F392F",
"w^.	c #7A362C",
"x^.	c #5B352D",
"y^.	c #66443D",
"z^.	c #58453E",
"A^.	c #72413C",
"B^.	c #A2908D",
"C^.	c #D8D4D3",
"D^.	c #F6F6F6",
"E^.	c #F9F8F7",
"F^.	c #A39391",
"G^.	c #62271D",
"H^.	c #683431",
"I^.	c #85726E",
"J^.	c #6C6360",
"K^.	c #7D6F67",
"L^.	c #5C534F",
"M^.	c #472A28",
"N^.	c #7D5651",
"O^.	c #76615C",
"P^.	c #674C47",
"Q^.	c #6C5B5A",
"R^.	c #422E2E",
"S^.	c #7C5953",
"T^.	c #7F6E60",
"U^.	c #656257",
"V^.	c #3D2E2A",
"W^.	c #78352C",
"X^.	c #6B6161",
"Y^.	c #4F2B29",
"Z^.	c #594943",
"`^.	c #7E605D",
" /.	c #B4ABA9",
"./.	c #EBEAE8",
"+/.	c #B5A9A8",
"@/.	c #63322F",
"#/.	c #81726C",
"$/.	c #573B33",
"%/.	c #7E7469",
"&/.	c #4B2C2B",
"*/.	c #765D51",
"=/.	c #4E362F",
"-/.	c #432E2D",
";/.	c #745A52",
">/.	c #542A23",
",/.	c #706454",
"'/.	c #615F52",
")/.	c #72362D",
"!/.	c #69312D",
"~/.	c #6D342E",
"{/.	c #66332B",
"]/.	c #6B342D",
"^/.	c #6A342E",
"//.	c #6E352E",
"(/.	c #6D352E",
"_/.	c #6A342F",
":/.	c #6B3933",
"</.	c #8D7270",
"[/.	c #6E6161",
"}/.	c #512C2A",
"|/.	c #63453E",
"1/.	c #584842",
"2/.	c #673733",
"3/.	c #97837F",
"4/.	c #CAC2C1",
"5/.	c #613733",
"6/.	c #68645E",
"7/.	c #573E35",
"8/.	c #7F766A",
"9/.	c #5C564F",
"0/.	c #522C24",
"a/.	c #776253",
"b/.	c #777363",
"c/.	c #4E3B31",
"d/.	c #5D332B",
"e/.	c #745C53",
"f/.	c #6A5D57",
"g/.	c #767068",
"h/.	c #562F2B",
"i/.	c #746657",
"j/.	c #636256",
"k/.	c #3B2D2B",
"l/.	c #5C2B22",
"m/.	c #602B23",
"n/.	c #63281E",
"o/.	c #5E231B",
"p/.	c #64332C",
"q/.	c #73514D",
"r/.	c #795855",
"s/.	c #866E6C",
"t/.	c #96827F",
"u/.	c #998785",
"v/.	c #9A8786",
"w/.	c #A29291",
"x/.	c #AC9B9A",
"y/.	c #AD9C9A",
"z/.	c #AE9D9B",
"A/.	c #AC9D9A",
"B/.	c #AB9C9B",
"C/.	c #AA9C9B",
"D/.	c #AC9D9B",
"E/.	c #A89C9A",
"F/.	c #A39795",
"G/.	c #988987",
"H/.	c #958785",
"I/.	c #948684",
"J/.	c #928483",
"K/.	c #867472",
"L/.	c #846E6C",
"M/.	c #7F6866",
"N/.	c #66413D",
"O/.	c #876C66",
"P/.	c #6A5E5A",
"Q/.	c #654940",
"R/.	c #84766A",
"S/.	c #564A42",
"T/.	c #72332B",
"U/.	c #7E5C58",
"V/.	c #C2B9B8",
"W/.	c #D7D0CF",
"X/.	c #714742",
"Y/.	c #5C3831",
"Z/.	c #837771",
"`/.	c #68665F",
" (.	c #3F2B26",
".(.	c #543F32",
"+(.	c #7C7463",
"@(.	c #60584D",
"#(.	c #4B2D2B",
"$(.	c #592E25",
"%(.	c #74342A",
"&(.	c #806559",
"*(.	c #7C6F63",
"=(.	c #4C362F",
"-(.	c #5F382E",
";(.	c #85675C",
">(.	c #776057",
",(.	c #797268",
"'(.	c #42332F",
")(.	c #5D2A23",
"!(.	c #5F2723",
"~(.	c #5F332C",
"{(.	c #7C695A",
"](.	c #6C5351",
"^(.	c #7D6563",
"/(.	c #8D7876",
"((.	c #A59795",
"_(.	c #ADA3A2",
":(.	c #C5BEBD",
"<(.	c #D5D0D0",
"[(.	c #E4E0E0",
"}(.	c #E8E5E5",
"|(.	c #E9E7E6",
"1(.	c #F2F1F1",
"2(.	c #F3F1F1",
"3(.	c #F7F6F6",
"4(.	c #F1F0F0",
"5(.	c #EAE8E8",
"6(.	c #E3E0E0",
"7(.	c #D9D4D4",
"8(.	c #CAC5C4",
"9(.	c #BCB7B5",
"0(.	c #ACA5A2",
"a(.	c #ABA39D",
"b(.	c #8E8B85",
"c(.	c #615551",
"d(.	c #5E271D",
"e(.	c #602921",
"f(.	c #6C3428",
"g(.	c #573025",
"h(.	c #694E44",
"i(.	c #867C6E",
"j(.	c #554D45",
"k(.	c #492E28",
"l(.	c #563028",
"m(.	c #684440",
"n(.	c #A19593",
"o(.	c #E0DDDC",
"p(.	c #DDD7D3",
"q(.	c #77534D",
"r(.	c #593831",
"s(.	c #80756E",
"t(.	c #6A6961",
"u(.	c #3A2B26",
"v(.	c #5F332A",
"w(.	c #62332B",
"x(.	c #6B352C",
"y(.	c #613328",
"z(.	c #64342A",
"A(.	c #68352B",
"B(.	c #503B2F",
"C(.	c #6C6050",
"D(.	c #574C42",
"E(.	c #452D29",
"F(.	c #533027",
"G(.	c #67342A",
"H(.	c #623228",
"I(.	c #633328",
"J(.	c #71372C",
"K(.	c #70382C",
"L(.	c #7D5E57",
"M(.	c #7E6B66",
"N(.	c #413F3E",
"O(.	c #462B25",
"P(.	c #4E2E29",
"Q(.	c #533129",
"R(.	c #57322B",
"S(.	c #5C3A33",
"T(.	c #82665F",
"U(.	c #6E5C57",
"V(.	c #46322D",
"W(.	c #673630",
"X(.	c #63332B",
"Y(.	c #7A6556",
"Z(.	c #7D7667",
"`(.	c #40342D",
" _.	c #71332D",
"._.	c #69362F",
"+_.	c #73413B",
"@_.	c #6F4640",
"#_.	c #8E7F7D",
"$_.	c #A59C9A",
"%_.	c #C5C0BC",
"&_.	c #D3D2CE",
"*_.	c #D8D7D7",
"=_.	c #E2E1E0",
"-_.	c #E9E8E7",
";_.	c #F4F3F3",
">_.	c #F9FAFA",
",_.	c #F5F6F6",
"'_.	c #F3F3F2",
")_.	c #EDEEEE",
"!_.	c #E2E2E0",
"~_.	c #D6D4D3",
"{_.	c #C3BFBE",
"]_.	c #B6AFAD",
"^_.	c #9C928F",
"/_.	c #7E726F",
"(_.	c #5F4D49",
"__.	c #604540",
":_.	c #553933",
"<_.	c #57332A",
"[_.	c #4B2E28",
"}_.	c #58312B",
"|_.	c #512E26",
"1_.	c #492B24",
"2_.	c #563229",
"3_.	c #55352B",
"4_.	c #52332A",
"5_.	c #462C26",
"6_.	c #4C3328",
"7_.	c #473128",
"8_.	c #5D4840",
"9_.	c #7A7066",
"0_.	c #555149",
"a_.	c #3D2F2A",
"b_.	c #47302A",
"c_.	c #483028",
"d_.	c #462F28",
"e_.	c #442D27",
"f_.	c #452C25",
"g_.	c #4F312A",
"h_.	c #50332A",
"i_.	c #492E27",
"j_.	c #482E28",
"k_.	c #503029",
"l_.	c #52322C",
"m_.	c #48322F",
"n_.	c #736A68",
"o_.	c #89847F",
"p_.	c #4E3A36",
"q_.	c #523129",
"r_.	c #4B2F28",
"s_.	c #4D3129",
"t_.	c #4B2F2A",
"u_.	c #503832",
"v_.	c #5F5852",
"w_.	c #3F2C28",
"x_.	c #452E28",
"y_.	c #472E28",
"z_.	c #4B312A",
"A_.	c #442E28",
"B_.	c #462D28",
"C_.	c #493029",
"D_.	c #422C26",
"E_.	c #482F28",
"F_.	c #52352E",
"G_.	c #4D332D",
"H_.	c #49312B",
"I_.	c #4D322C",
"J_.	c #52342C",
"K_.	c #472D28",
"L_.	c #4F322B",
"M_.	c #4B3129",
"N_.	c #48372F",
"O_.	c #594E46",
"P_.	c #4C423D",
"Q_.	c #3D2F2C",
"R_.	c #402E28",
"S_.	c #3F2E26",
"T_.	c #422C27",
"U_.	c #442D28",
"V_.	c #4B2E27",
"W_.	c #4C2F29",
"X_.	c #4E3029",
"Y_.	c #492D27",
"Z_.	c #56342B",
"`_.	c #4C2F28",
" :.	c #492F28",
".:.	c #4B302B",
"+:.	c #594643",
"@:.	c #443733",
"#:.	c #42322F",
"$:.	c #414040",
"%:.	c #493E3A",
"&:.	c #4C413E",
"*:.	c #504442",
"=:.	c #4E413F",
"-:.	c #453836",
";:.	c #403433",
">:.	c #392F2F",
",:.	c #382F2E",
"':.	c #39302F",
"):.	c #393131",
"!:.	c #362F2F",
"~:.	c #3A2F2F",
"{:.	c #3C3030",
"]:.	c #382D2C",
"^:.	c #362C29",
"/:.	c #433534",
"(:.	c #3C302E",
"_:.	c #3C302F",
"::.	c #3D2F2D",
"<:.	c #3E2F2D",
"[:.	c #3E2D2C",
"}:.	c #392B2A",
"|:.	c #392B29",
"1:.	c #3C2B2A",
"2:.	c #564949",
"3:.	c #484244",
"4:.	c #44312B",
"5:.	c #442E2A",
"6:.	c #4C312C",
"7:.	c #4C312B",
"8:.	c #4D302A",
"9:.	c #54342F",
"0:.	c #462D2A",
"a:.	c #4A2D2B",
"b:.	c #54332B",
"c:.	c #57342D",
"d:.	c #55332C",
"e:.	c #4F2F28",
"f:.	c #6D6155",
"g:.	c #747667",
"h:.	c #44433C",
"i:.	c #43332F",
"j:.	c #412F2B",
"k:.	c #452E2A",
"l:.	c #432D2A",
"m:.	c #412E2A",
"n:.	c #402B29",
"o:.	c #492F2D",
"p:.	c #422E2C",
"q:.	c #3B2B29",
"r:.	c #3C2828",
"s:.	c #3F2A28",
"t:.	c #4F2E29",
"u:.	c #4A2D29",
"v:.	c #563C38",
"w:.	c #644D49",
"x:.	c #796866",
"y:.	c #877C7A",
"z:.	c #9A9391",
"A:.	c #B0A9A8",
"B:.	c #CEC9C9",
"C:.	c #F0F1EF",
"D:.	c #F7F7F7",
"E:.	c #EBECEB",
"F:.	c #D4D4D3",
"G:.	c #BBBAB9",
"H:.	c #A7A6A5",
"I:.	c #949392",
"J:.	c #827F7E",
"K:.	c #797574",
"L:.	c #6B6563",
"M:.	c #615955",
"N:.	c #4A3F3E",
"O:.	c #443636",
"P:.	c #433334",
"Q:.	c #4D3E3E",
"R:.	c #4F3F3C",
"S:.	c #4B3D3A",
"T:.	c #4B3C3A",
"U:.	c #52423F",
"V:.	c #5E4B47",
"W:.	c #68544F",
"X:.	c #63514C",
"Y:.	c #594A45",
"Z:.	c #544541",
"`:.	c #60524C",
" <.	c #584A45",
".<.	c #4E3F3C",
"+<.	c #584542",
"@<.	c #5E4A46",
"#<.	c #5C5047",
"$<.	c #5F524C",
"%<.	c #6C5F5E",
"&<.	c #7D7A77",
"*<.	c #777774",
"=<.	c #655954",
"-<.	c #665953",
";<.	c #635752",
"><.	c #594F4A",
",<.	c #5B4F4A",
"'<.	c #655751",
")<.	c #62564F",
"!<.	c #635951",
"~<.	c #5A544B",
"{<.	c #524E45",
"]<.	c #5C554A",
"^<.	c #645B50",
"/<.	c #5F584E",
"(<.	c #555046",
"_<.	c #4D4840",
":<.	c #4D4742",
"<<.	c #4C4745",
"[<.	c #454040",
"}<.	c #494342",
"|<.	c #524C47",
"1<.	c #59544D",
"2<.	c #4F4A44",
"3<.	c #4C4942",
"4<.	c #5A4F48",
"5<.	c #5E534E",
"6<.	c #584E4B",
"7<.	c #5E5552",
"8<.	c #59504C",
"9<.	c #5D524E",
"0<.	c #5C524E",
"a<.	c #625452",
"b<.	c #675957",
"c<.	c #605453",
"d<.	c #5D514F",
"e<.	c #615351",
"f<.	c #6C5F5F",
"g<.	c #777374",
"h<.	c #75797A",
"i<.	c #636064",
"j<.	c #615458",
"k<.	c #58534F",
"l<.	c #59544E",
"m<.	c #5C5856",
"n<.	c #595553",
"o<.	c #5E5653",
"p<.	c #625A56",
"q<.	c #585450",
"r<.	c #5F5954",
"s<.	c #645D59",
"t<.	c #615B57",
"u<.	c #57504C",
"v<.	c #595451",
"w<.	c #514E4D",
"x<.	c #535151",
"y<.	c #5B5757",
"z<.	c #5C5454",
"A<.	c #5C524F",
"B<.	c #605552",
"C<.	c #6B5F5A",
"D<.	c #746661",
"E<.	c #70625E",
"F<.	c #6E6059",
"G<.	c #70625C",
"H<.	c #5F534E",
"I<.	c #635751",
"J<.	c #5C504B",
"K<.	c #5F504C",
"L<.	c #6D5F5C",
"M<.	c #746B6C",
"N<.	c #6C625F",
"O<.	c #645C55",
"P<.	c #5D584F",
"Q<.	c #5C544F",
"R<.	c #655F58",
"S<.	c #615B56",
"T<.	c #625C56",
"U<.	c #5B544F",
"V<.	c #5B554F",
"W<.	c #5A514D",
"X<.	c #65534F",
"Y<.	c #695753",
"Z<.	c #655654",
"`<.	c #5B4E4C",
" [.	c #5F5452",
".[.	c #5E5350",
"+[.	c #594D49",
"@[.	c #5A4C47",
"#[.	c #63524D",
"$[.	c #60514C",
"%[.	c #59514C",
"&[.	c #58504B",
"*[.	c #5A524C",
"=[.	c #58504A",
"-[.	c #554C47",
";[.	c #514943",
">[.	c #524840",
",[.	c #544842",
"'[.	c #514540",
")[.	c #564B42",
"![.	c #7C7D79",
"~[.	c #7F7F78",
"{[.	c #847F77",
"][.	c #807A73",
"^[.	c #79706A",
"/[.	c #7C726C",
"([.	c #464344",
"_[.	c #706462",
":[.	c #7A6967",
"<[.	c #776967",
"[[.	c #7E6F6E",
"}[.	c #857373",
"|[.	c #837270",
"1[.	c #746162",
"2[.	c #6A6467",
"3[.	c #666268",
"4[.	c #625D61",
"5[.	c #6F6468",
"6[.	c #756365",
"7[.	c #6F5B5C",
"8[.	c #655555",
"9[.	c #746363",
"0[.	c #6F5F5E",
"a[.	c #736262",
"b[.	c #706060",
"c[.	c #6E5E5D",
"d[.	c #695958",
"e[.	c #70605E",
"f[.	c #6C5D5B",
"g[.	c #685A57",
"h[.	c #6D615D",
"i[.	c #666A68",
"j[.	c #5E6667",
"k[.	c #515852",
"l[.	c #4B4B42",
"m[.	c #4E4743",
"n[.	c #564E4C",
"o[.	c #595450",
"p[.	c #615A56",
"q[.	c #655C59",
"r[.	c #645C56",
"s[.	c #6A605A",
"t[.	c #685C55",
"u[.	c #71625C",
"v[.	c #6B5C57",
"w[.	c #615550",
"x[.	c #625A55",
"y[.	c #5A5653",
"z[.	c #514844",
"A[.	c #504744",
"B[.	c #554C48",
"C[.	c #6D605B",
"D[.	c #6A5B56",
"E[.	c #695751",
"F[.	c #665651",
"G[.	c #655551",
"H[.	c #6C5B56",
"I[.	c #6A5854",
"J[.	c #5E4F4B",
"K[.	c #544744",
"L[.	c #50403E",
"M[.	c #57433E",
"N[.	c #534940",
"O[.	c #524A41",
"P[.	c #564B46",
"Q[.	c #63635E",
"R[.	c #6E7A73",
"S[.	c #656B66",
"T[.	c #66645E",
"U[.	c #6F6A66",
"V[.	c #6A6663",
"W[.	c #696361",
"X[.	c #605A58",
"Y[.	c #595350",
"Z[.	c #5D5753",
"`[.	c #5F5B57",
" }.	c #5D5A55",
".}.	c #5E5B57",
"+}.	c #585653",
"@}.	c #5E5B58",
"#}.	c #64605E",
"$}.	c #696461",
"%}.	c #696362",
"&}.	c #615D5B",
"*}.	c #565350",
"=}.	c #50534F",
"-}.	c #4A4E49",
";}.	c #4E4F4A",
">}.	c #55524E",
",}.	c #4B4642",
"'}.	c #453E39",
")}.	c #493F3B",
"!}.	c #5A504D",
"~}.	c #797472",
"{}.	c #858382",
"]}.	c #9E9D9C",
"^}.	c #B8B7B7",
"/}.	c #CDCCCC",
"(}.	c #E4E3E3",
"_}.	c #E1DFDE",
":}.	c #D2D1D0",
"<}.	c #C4C1C0",
"[}.	c #B0ABAB",
"}}.	c #A19999",
"|}.	c #948C8F",
"1}.	c #8F878B",
"2}.	c #827A7C",
"3}.	c #7F6E6C",
"4}.	c #806B66",
"5}.	c #87716D",
"6}.	c #8D7C77",
"7}.	c #8E7D79",
"8}.	c #8E7C76",
"9}.	c #887671",
"0}.	c #8F857F",
"a}.	c #918681",
"b}.	c #8B706F",
"c}.	c #8F7875",
"d}.	c #8D8077",
"e}.	c #8E807A",
"f}.	c #918587",
"g}.	c #928E90",
"h}.	c #938F90",
"i}.	c #908C8B",
"j}.	c #908987",
"k}.	c #8F8784",
"l}.	c #8F8683",
"m}.	c #8E827D",
"n}.	c #8E817B",
"o}.	c #918680",
"p}.	c #908781",
"q}.	c #90867E",
"r}.	c #8D847A",
"s}.	c #8A8177",
"t}.	c #8B8177",
"u}.	c #8E847A",
"v}.	c #8D857B",
"w}.	c #888077",
"x}.	c #7D7570",
"y}.	c #7B7979",
"z}.	c #767275",
"A}.	c #7D7475",
"B}.	c #867B74",
"C}.	c #837C73",
"D}.	c #8E857D",
"E}.	c #908A82",
"F}.	c #908883",
"G}.	c #8B807E",
"H}.	c #8F8886",
"I}.	c #918D8B",
"J}.	c #8F8986",
"K}.	c #908986",
"L}.	c #8F8884",
"M}.	c #8E8481",
"N}.	c #908988",
"O}.	c #908A8B",
"P}.	c #908A8A",
"Q}.	c #918C8B",
"R}.	c #938F8F",
"S}.	c #939293",
"T}.	c #929293",
"U}.	c #8C858C",
"V}.	c #8F7F89",
"W}.	c #91878A",
"X}.	c #8F8B85",
"Y}.	c #8F8882",
"Z}.	c #908785",
"`}.	c #8E8B8A",
" |.	c #8E8C8B",
".|.	c #8F8988",
"+|.	c #908D8B",
"@|.	c #8B8886",
"#|.	c #8E8D8B",
"$|.	c #8D8C8A",
"%|.	c #908E8C",
"&|.	c #8A8783",
"*|.	c #8D8A87",
"=|.	c #848585",
"-|.	c #828487",
";|.	c #8A8B8E",
">|.	c #8E8A8C",
",|.	c #8D8383",
"'|.	c #8D807E",
")|.	c #908583",
"!|.	c #908886",
"~|.	c #928D8B",
"{|.	c #938F8E",
"]|.	c #928E8C",
"^|.	c #938E8C",
"/|.	c #928B89",
"(|.	c #918988",
"_|.	c #928B87",
":|.	c #928C87",
"<|.	c #918B87",
"[|.	c #8E8680",
"}|.	c #908983",
"||.	c #918984",
"1|.	c #8F8480",
"2|.	c #908582",
"3|.	c #928888",
"4|.	c #948E8F",
"5|.	c #90878A",
"6|.	c #8C8181",
"7|.	c #8B857C",
"8|.	c #8E8682",
"9|.	c #918785",
"0|.	c #8F837F",
"a|.	c #90847F",
"b|.	c #918885",
"c|.	c #8F8682",
"d|.	c #8F807D",
"e|.	c #928584",
"f|.	c #8F8584",
"g|.	c #8C8384",
"h|.	c #8B8787",
"i|.	c #8C898A",
"j|.	c #8D8788",
"k|.	c #8E8886",
"l|.	c #8D807C",
"m|.	c #8F827E",
"n|.	c #8C7E7B",
"o|.	c #8E807E",
"p|.	c #8F807E",
"q|.	c #897E7B",
"r|.	c #7B716D",
"s|.	c #817570",
"t|.	c #8A7D78",
"u|.	c #887974",
"v|.	c #887972",
"w|.	c #8B756B",
"x|.	c #89746A",
"y|.	c #857364",
"z|.	c #918C83",
"A|.	c #8F8980",
"B|.	c #918881",
"C|.	c #92857D",
"D|.	c #91827A",
"E|.	c #90837B",
"F|.	c #6D5A57",
"G|.	c #856965",
"H|.	c #826662",
"I|.	c #795F5E",
"J|.	c #7A6361",
"K|.	c #836B67",
"L|.	c #84625E",
"M|.	c #827577",
"N|.	c #797177",
"O|.	c #675E63",
"P|.	c #7B6A6D",
"Q|.	c #836868",
"R|.	c #816361",
"S|.	c #806461",
"T|.	c #816766",
"U|.	c #846765",
"V|.	c #826664",
"W|.	c #826A65",
"X|.	c #89716A",
"Y|.	c #8C756E",
"Z|.	c #89736C",
"`|.	c #836D66",
" 1.	c #87756C",
".1.	c #86796F",
"+1.	c #817A75",
"@1.	c #79766B",
"#1.	c #716959",
"$1.	c #7A6A67",
"%1.	c #7B6E69",
"&1.	c #81736E",
"*1.	c #857672",
"=1.	c #867872",
"-1.	c #847570",
";1.	c #806F68",
">1.	c #8A776D",
",1.	c #8B766B",
"'1.	c #89766C",
")1.	c #87776D",
"!1.	c #7F776F",
"~1.	c #7C7B74",
"{1.	c #626460",
"]1.	c #7B6E67",
"^1.	c #796D69",
"/1.	c #7D706E",
"(1.	c #867875",
"_1.	c #8A7872",
":1.	c #87736F",
"<1.	c #836F6C",
"[1.	c #846B6B",
"}1.	c #836564",
"|1.	c #82746B",
"11.	c #80786E",
"21.	c #857979",
"31.	c #85807F",
"41.	c #817B79",
"51.	c #78746F",
"61.	c #827D79",
"71.	c #8A8280",
"81.	c #8E8583",
"91.	c #897C7A",
"01.	c #7E726E",
"a1.	c #817873",
"b1.	c #77726B",
"c1.	c #78736C",
"d1.	c #7F7973",
"e1.	c #878079",
"f1.	c #8B827C",
"g1.	c #837A72",
"h1.	c #7A7971",
"i1.	c #6F776E",
"j1.	c #6F756B",
"k1.	c #74736A",
"l1.	c #847A73",
"m1.	c #968E88",
"n1.	c #ADA8A5",
"o1.	c #CBC8C6",
"p1.	c #DDDCDA",
"q1.	c #E7E7E6",
"r1.	c #EDEDED",
"s1.	c #EDECEC",
"t1.	c #E8E7E8",
"u1.	c #D9D9D9",
"v1.	c #C8C2C0",
"w1.	c #B3A7A4",
"x1.	c #A08F8B",
"y1.	c #8A746E",
"z1.	c #705853",
"A1.	c #7D615A",
"B1.	c #7E625C",
"C1.	c #7D625C",
"D1.	c #785957",
"E1.	c #77655B",
"F1.	c #765E58",
"G1.	c #775A5A",
"H1.	c #7B6665",
"I1.	c #7C6766",
"J1.	c #786562",
"K1.	c #7E6A66",
"L1.	c #806C68",
"M1.	c #78625E",
"N1.	c #78605B",
"O1.	c #775F5A",
"P1.	c #7A625C",
"Q1.	c #7E5F5A",
"R1.	c #7B5C58",
"S1.	c #6E5855",
"T1.	c #6D6866",
"U1.	c #6C6465",
"V1.	c #736161",
"W1.	c #836562",
"X1.	c #836561",
"Y1.	c #826660",
"Z1.	c #816760",
"`1.	c #84726A",
" 2.	c #85726D",
".2.	c #806E6A",
"+2.	c #7E6C68",
"@2.	c #7C6864",
"#2.	c #7B6A67",
"$2.	c #7C6C6B",
"%2.	c #837472",
"&2.	c #857877",
"*2.	c #8C7F7E",
"=2.	c #837071",
"-2.	c #806468",
";2.	c #82696A",
">2.	c #89756E",
",2.	c #8B726A",
"'2.	c #8C726C",
")2.	c #887774",
"!2.	c #8B7C79",
"~2.	c #827773",
"{2.	c #877B77",
"]2.	c #8F817D",
"^2.	c #8D7E7A",
"/2.	c #847B79",
"(2.	c #827F7D",
"_2.	c #817D7C",
":2.	c #796F70",
"<2.	c #7F6C6B",
"[2.	c #82706D",
"}2.	c #81736F",
"|2.	c #80726F",
"12.	c #7E6D6B",
"22.	c #7A6965",
"32.	c #776561",
"42.	c #796A65",
"52.	c #7C6C67",
"62.	c #7A6763",
"72.	c #7C6762",
"82.	c #7C6665",
"92.	c #7E6867",
"02.	c #7B6463",
"a2.	c #6E5E57",
"b2.	c #6E5C54",
"c2.	c #75605C",
"d2.	c #7B6262",
"e2.	c #755A58",
"f2.	c #765E5B",
"g2.	c #6F5855",
"h2.	c #765F5C",
"i2.	c #755E5B",
"j2.	c #725C59",
"k2.	c #735D5A",
"l2.	c #7D6764",
"m2.	c #705D5D",
"n2.	c #716062",
"o2.	c #736E6F",
"p2.	c #7D7171",
"q2.	c #7F706E",
"r2.	c #7D6763",
"s2.	c #725B5A",
"t2.	c #795F5D",
"u2.	c #705857",
"v2.	c #5A4543",
"w2.	c #735A57",
"x2.	c #6E5551",
"y2.	c #735752",
"z2.	c #75554D",
"A2.	c #765650",
"B2.	c #6E5146",
"C2.	c #6A5148",
"D2.	c #6C534D",
"E2.	c #735A4F",
"F2.	c #6C554A",
"G2.	c #6A504A",
"H2.	c #73554F",
"I2.	c #74544E",
"J2.	c #71534C",
"K2.	c #533A37",
"L2.	c #653C35",
"M2.	c #673D37",
"N2.	c #613B36",
"O2.	c #52332F",
"P2.	c #663A32",
"Q2.	c #613931",
"R2.	c #62423B",
"S2.	c #735955",
"T2.	c #7A6563",
"U2.	c #4C3D3C",
"V2.	c #523B39",
"W2.	c #5D3D39",
"X2.	c #633E39",
"Y2.	c #5D3935",
"Z2.	c #5B3834",
"`2.	c #643D38",
" 3.	c #603B36",
".3.	c #66423A",
"+3.	c #68463D",
"@3.	c #61413A",
"#3.	c #63423B",
"$3.	c #67453E",
"%3.	c #644541",
"&3.	c #644945",
"*3.	c #5E473E",
"=3.	c #5B4137",
"-3.	c #61413C",
";3.	c #644240",
">3.	c #62463F",
",3.	c #61453E",
"'3.	c #61443F",
")3.	c #6A4B45",
"!3.	c #674A45",
"~3.	c #60453F",
"{3.	c #5F413B",
"]3.	c #66473F",
"^3.	c #6D4B43",
"/3.	c #6A4A42",
"(3.	c #5F4B43",
"_3.	c #77665E",
":3.	c #736560",
"<3.	c #4A3E3A",
"[3.	c #644D46",
"}3.	c #6C5149",
"|3.	c #6E534D",
"13.	c #664C48",
"23.	c #704F4A",
"33.	c #6C4A46",
"43.	c #6C4C47",
"53.	c #6E4D48",
"63.	c #71504C",
"73.	c #714C48",
"83.	c #6F4744",
"93.	c #6A5149",
"03.	c #67544A",
"a3.	c #6C4F4C",
"b3.	c #704F4E",
"c3.	c #6D4E4C",
"d3.	c #664A47",
"e3.	c #58443D",
"f3.	c #584640",
"g3.	c #654E4A",
"h3.	c #6D4F4B",
"i3.	c #674844",
"j3.	c #654B45",
"k3.	c #644C45",
"l3.	c #5D4843",
"m3.	c #70554E",
"n3.	c #6E534C",
"o3.	c #684F48",
"p3.	c #6D524A",
"q3.	c #70564D",
"r3.	c #746C62",
"s3.	c #928A81",
"t3.	c #A69F9B",
"u3.	c #C4BEBC",
"v3.	c #E0DDDB",
"w3.	c #E4E2E1",
"x3.	c #CFCDCB",
"y3.	c #B6AFB0",
"z3.	c #988D8C",
"A3.	c #6B4D49",
"B3.	c #65403B",
"C3.	c #603730",
"D3.	c #5D342C",
"E3.	c #52332B",
"F3.	c #55302A",
"G3.	c #5A322C",
"H3.	c #50342F",
"I3.	c #685D51",
"J3.	c #5A5046",
"K3.	c #673932",
"L3.	c #5F3830",
"M3.	c #633A32",
"N3.	c #633C35",
"O3.	c #5B3832",
"P3.	c #543530",
"Q3.	c #573530",
"R3.	c #583830",
"S3.	c #563932",
"T3.	c #62433E",
"U3.	c #5A3934",
"V3.	c #5B3331",
"W3.	c #724539",
"X3.	c #714037",
"Y3.	c #683E39",
"Z3.	c #6A413C",
"`3.	c #5C3C36",
" 4.	c #573A34",
".4.	c #6A4640",
"+4.	c #67433D",
"@4.	c #654C45",
"#4.	c #65514B",
"$4.	c #51423E",
"%4.	c #4A3431",
"&4.	c #583632",
"*4.	c #5A3330",
"=4.	c #5A3530",
"-4.	c #5B3731",
";4.	c #5C3630",
">4.	c #54322D",
",4.	c #523029",
"'4.	c #54302B",
")4.	c #55342E",
"!4.	c #4D302C",
"~4.	c #4D3430",
"{4.	c #745852",
"]4.	c #423430",
"^4.	c #58352E",
"/4.	c #5C312A",
"(4.	c #856963",
"_4.	c #4E3733",
":4.	c #502E29",
"<4.	c #5F2C29",
"[4.	c #745C57",
"}4.	c #5F3229",
"|4.	c #5D3D36",
"14.	c #77615D",
"24.	c #90807E",
"34.	c #AAA29F",
"44.	c #CDCAC7",
"54.	c #F7F8F7",
"64.	c #EBE9E9",
"74.	c #DCD8D7",
"84.	c #A69896",
"94.	c #94817E",
"04.	c #734943",
"a4.	c #602821",
"b4.	c #58332A",
"c4.	c #725F52",
"d4.	c #685A50",
"e4.	c #5E3C33",
"f4.	c #785950",
"g4.	c #765048",
"h4.	c #836760",
"i4.	c #513530",
"j4.	c #6F5B55",
"k4.	c #5F261F",
"l4.	c #683934",
"m4.	c #7C605D",
"n4.	c #9E908E",
"o4.	c #DCDAD7",
"p4.	c #EFEEED",
"q4.	c #CEC8C6",
"r4.	c #754D4A",
"s4.	c #662820",
"t4.	c #60362C",
"u4.	c #7B635A",
"v4.	c #4E3532",
"w4.	c #79342A",
"x4.	c #71554E",
"y4.	c #614C47",
"z4.	c #754E47",
"A4.	c #7F625C",
"B4.	c #7B3429",
"C4.	c #705049",
"D4.	c #6A5650",
"E4.	c #73403A",
"F4.	c #7C5B58",
"G4.	c #AC9F9D",
"H4.	c #D1CDCB",
"I4.	c #F2F2F2",
"J4.	c #F6F6F4",
"K4.	c #CAC2C0",
"L4.	c #A89895",
"M4.	c #80615D",
"N4.	c #71413B",
"O4.	c #6F6161",
"P4.	c #523936",
"Q4.	c #7C342B",
"R4.	c #7B352B",
"S4.	c #6D534D",
"T4.	c #5B4844",
"U4.	c #79534A",
"V4.	c #84655F",
"W4.	c #563631",
"X4.	c #76342A",
"Y4.	c #7D352A",
"Z4.	c #7D3529",
"`4.	c #725149",
" 5.	c #6B5651",
".5.	c #793329",
"+5.	c #753C36",
"@5.	c #845D59",
"#5.	c #99807E",
"$5.	c #B1A5A4",
"%5.	c #D1CBCA",
"&5.	c #B4A6A4",
"*5.	c #978380",
"=5.	c #81615E",
"-5.	c #75433D",
";5.	c #71352D",
">5.	c #7C645D",
",5.	c #492E2B",
"'5.	c #65453E",
")5.	c #6E544F",
"!5.	c #584643",
"~5.	c #7B534B",
"{5.	c #83645E",
"]5.	c #6F4F46",
"^5.	c #66534D",
"/5.	c #692A22",
"(5.	c #66251D",
"_5.	c #733D37",
":5.	c #89625D",
"<5.	c #A48D8A",
"[5.	c #BDB1AF",
"}5.	c #DCD8D6",
"|5.	c #FAFBFB",
"15.	c #E2DDDC",
"25.	c #C8BFBD",
"35.	c #AB9A97",
"45.	c #8B6E6A",
"55.	c #744A46",
"65.	c #62251E",
"75.	c #755E56",
"85.	c #695C59",
"95.	c #64443D",
"05.	c #7D6461",
"a5.	c #503735",
"b5.	c #6E554F",
"c5.	c #554440",
"d5.	c #5C3531",
"e5.	c #754F48",
"f5.	c #55342F",
"g5.	c #7A3329",
"h5.	c #694C42",
"i5.	c #79342B",
"j5.	c #7D5956",
"k5.	c #9E8B8A",
"l5.	c #CBC2C0",
"m5.	c #E4DFDF",
"n5.	c #F0EFEF",
"o5.	c #F6F5F5",
"p5.	c #F0F0EF",
"q5.	c #EAE8E7",
"r5.	c #EAE7E6",
"s5.	c #EBE7E6",
"t5.	c #D9D3D3",
"u5.	c #DAD3D3",
"v5.	c #D9D4D3",
"w5.	c #D7D3D3",
"x5.	c #D8D3D2",
"y5.	c #D8D3D3",
"z5.	c #D6D3D3",
"A5.	c #D7D4D2",
"B5.	c #E8E7E6",
"C5.	c #E9E7E7",
"D5.	c #ECECEA",
"E5.	c #F4F4F2",
"F5.	c #D7D2D1",
"G5.	c #B4A9A6",
"H5.	c #8E7A77",
"I5.	c #77625A",
"J5.	c #6E615F",
"K5.	c #492F2B",
"L5.	c #68473F",
"M5.	c #4B3432",
"N5.	c #705650",
"O5.	c #564440",
"P5.	c #7B5D58",
"Q5.	c #6C5047",
"R5.	c #675650",
"S5.	c #7C352C",
"T5.	c #733B35",
"U5.	c #855B58",
"V5.	c #A38C8B",
"W5.	c #C8BEBD",
"X5.	c #E6E2E2",
"Y5.	c #F5F4F4",
"Z5.	c #EBEAEA",
"`5.	c #E3E1E1",
" 6.	c #E1DEDD",
".6.	c #D3CFCE",
"+6.	c #D0C7C6",
"@6.	c #C0B3B1",
"#6.	c #B4A7A5",
"$6.	c #A99B9A",
"%6.	c #988785",
"&6.	c #8E7675",
"*6.	c #826360",
"=6.	c #85625E",
"-6.	c #87625F",
";6.	c #84615E",
">6.	c #7F5650",
",6.	c #75403B",
"'6.	c #79423D",
")6.	c #78423C",
"!6.	c #71403B",
"~6.	c #6F3F3B",
"{6.	c #6E3F3B",
"]6.	c #6C403B",
"^6.	c #693F3B",
"/6.	c #6C413C",
"(6.	c #5E3D3B",
"_6.	c #66403C",
":6.	c #6A423D",
"<6.	c #5D3E3B",
"[6.	c #5E3E3B",
"}6.	c #7F605A",
"|6.	c #685753",
"16.	c #59403D",
"26.	c #7F605E",
"36.	c #7D605E",
"46.	c #866D6A",
"56.	c #988481",
"66.	c #998584",
"76.	c #A49391",
"86.	c #B5A6A3",
"96.	c #B5A6A5",
"06.	c #BFB5B4",
"a6.	c #D0C8C7",
"b6.	c #E2DEDE",
"c6.	c #EDEAE9",
"d6.	c #DBD7D6",
"e6.	c #B7AEAB",
"f6.	c #8D7C7A",
"g6.	c #6F514E",
"h6.	c #5F3733",
"i6.	c #76615D",
"j6.	c #483231",
"k6.	c #5F362D",
"l6.	c #71574F",
"m6.	c #574542",
"n6.	c #572923",
"o6.	c #755047",
"p6.	c #80625D",
"q6.	c #4F322E",
"r6.	c #64554E",
"s6.	c #6F2E25",
"t6.	c #722B22",
"u6.	c #78413A",
"v6.	c #866965",
"w6.	c #9F8D8B",
"x6.	c #BDB1B0",
"y6.	c #E3E0DF",
"z6.	c #E5E4E3",
"A6.	c #ACA2A1",
"B6.	c #A59695",
"C6.	c #93807F",
"D6.	c #6A4440",
"E6.	c #7A5952",
"F6.	c #5D4A46",
"G6.	c #5E2924",
"H6.	c #6A2C24",
"I6.	c #6A2B24",
"J6.	c #6D3730",
"K6.	c #734541",
"L6.	c #7A4D49",
"M6.	c #896967",
"N6.	c #957D7B",
"O6.	c #A59393",
"P6.	c #AE9E9D",
"Q6.	c #DBD7D5",
"R6.	c #DFDCDC",
"S6.	c #E6E4E3",
"T6.	c #EDECEA",
"U6.	c #DEDBDA",
"V6.	c #B8B1B0",
"W6.	c #948887",
"X6.	c #806967",
"Y6.	c #714541",
"Z6.	c #5E2920",
"`6.	c #562922",
" 7.	c #7B645B",
".7.	c #716462",
"+7.	c #634841",
"@7.	c #753C31",
"#7.	c #6E554E",
"$7.	c #564542",
"%7.	c #593531",
"&7.	c #6F4C43",
"*7.	c #896C66",
"=7.	c #573B36",
"-7.	c #6E2D25",
";7.	c #74574D",
">7.	c #685851",
",7.	c #6D2C23",
"'7.	c #76524E",
")7.	c #A59491",
"!7.	c #C8C1BE",
"~7.	c #E2DFDE",
"{7.	c #FCFEFC",
"]7.	c #FAFBFA",
"^7.	c #DCD9D8",
"/7.	c #CCC7C6",
"(7.	c #BFB8B7",
"_7.	c #A19A99",
":7.	c #867D7C",
"<7.	c #6F514D",
"[7.	c #6F4641",
"}7.	c #6D3C34",
"|7.	c #5F2A21",
"17.	c #5F231A",
"27.	c #64281F",
"37.	c #652B22",
"47.	c #795850",
"57.	c #5B4944",
"67.	c #492B28",
"77.	c #622721",
"87.	c #63251C",
"97.	c #5F2219",
"07.	c #6C3D37",
"a7.	c #6C4541",
"b7.	c #876B68",
"c7.	c #98817D",
"d7.	c #A38F8D",
"e7.	c #B8ABA9",
"f7.	c #C6BCBA",
"g7.	c #EDEBEB",
"h7.	c #E2E0DF",
"i7.	c #CAC3C3",
"j7.	c #A69997",
"k7.	c #79625F",
"l7.	c #61423B",
"m7.	c #624840",
"n7.	c #483533",
"o7.	c #745B54",
"p7.	c #5A4946",
"q7.	c #553430",
"r7.	c #6D4D44",
"s7.	c #856A63",
"t7.	c #593C37",
"u7.	c #7D5F53",
"v7.	c #6F5E57",
"w7.	c #4F2F2C",
"x7.	c #8E7572",
"y7.	c #C5BCBA",
"z7.	c #F3F2F1",
"A7.	c #F9FBF9",
"B7.	c #F6F4F3",
"C7.	c #D2CDCB",
"D7.	c #B9B1AE",
"E7.	c #AA9D9B",
"F7.	c #6E4944",
"G7.	c #684038",
"H7.	c #7C5D57",
"I7.	c #715B5A",
"J7.	c #482A28",
"K7.	c #7C5C54",
"L7.	c #5C4B46",
"M7.	c #753931",
"N7.	c #794039",
"O7.	c #7D4C45",
"P7.	c #86605C",
"Q7.	c #8D706E",
"R7.	c #9B8886",
"S7.	c #B1A8A6",
"T7.	c #C0BAB9",
"U7.	c #D6D3D1",
"V7.	c #E7E6E4",
"W7.	c #D4D1D0",
"X7.	c #B8B1AF",
"Y7.	c #847B7B",
"Z7.	c #523B3A",
"`7.	c #604D4B",
" 8.	c #73544B",
".8.	c #51352F",
"+8.	c #84655B",
"@8.	c #76453F",
"#8.	c #90706D",
"$8.	c #B1A09E",
"%8.	c #D8D0CF",
"&8.	c #ECE8E7",
"*8.	c #DED7D6",
"=8.	c #B3A4A1",
"-8.	c #8E726F",
";8.	c #70403C",
">8.	c #6A3630",
",8.	c #67362D",
"'8.	c #7D5C54",
")8.	c #6C5753",
"!8.	c #5E4E49",
"~8.	c #7B352A",
"{8.	c #7F372D",
"]8.	c #77342B",
"^8.	c #74362C",
"/8.	c #6B362E",
"(8.	c #734640",
"_8.	c #754C48",
":8.	c #A99C99",
"<8.	c #C0B8B7",
"[8.	c #D5D0CF",
"}8.	c #E4E1E0",
"|8.	c #EFEEEE",
"18.	c #F6F4F4",
"28.	c #C8C5C4",
"38.	c #A89F9F",
"48.	c #522D26",
"58.	c #6A5249",
"68.	c #433733",
"78.	c #4F2926",
"88.	c #5E2A23",
"98.	c #71534A",
"08.	c #74605A",
"a8.	c #503530",
"b8.	c #722F29",
"c8.	c #732E28",
"d8.	c #742F26",
"e8.	c #783429",
"f8.	c #82625A",
"g8.	c #78635D",
"h8.	c #5F2822",
"i8.	c #785350",
"j8.	c #C8BEBC",
"k8.	c #E9E6E5",
"l8.	c #D5CFCD",
"m8.	c #C0B2B1",
"n8.	c #A68D8A",
"o8.	c #8D6562",
"p8.	c #844742",
"q8.	c #782D25",
"r8.	c #762921",
"s8.	c #6F2A23",
"t8.	c #6E3C32",
"u8.	c #856659",
"v8.	c #6A594D",
"w8.	c #5E2A27",
"x8.	c #732D27",
"y8.	c #752E27",
"z8.	c #732E26",
"A8.	c #70564E",
"B8.	c #532E2D",
"C8.	c #7B332A",
"D8.	c #80372D",
"E8.	c #7A342B",
"F8.	c #7B352C",
"G8.	c #602C23",
"H8.	c #60291F",
"I8.	c #602B22",
"J8.	c #6F4C45",
"K8.	c #92827B",
"L8.	c #7B726F",
"M8.	c #887875",
"N8.	c #A99D9A",
"O8.	c #BEB5B5",
"P8.	c #CCC8C7",
"Q8.	c #DBD9D8",
"R8.	c #B7ACAA",
"S8.	c #937D7B",
"T8.	c #685049",
"U8.	c #7D746B",
"V8.	c #443A35",
"W8.	c #512C29",
"X8.	c #7A6557",
"Y8.	c #61564A",
"Z8.	c #6C5E53",
"`8.	c #4F362E",
" 9.	c #825E56",
".9.	c #795E57",
"+9.	c #55352F",
"@9.	c #785854",
"#9.	c #D7D4D3",
"$9.	c #F6F7F5",
"%9.	c #EAE8E6",
"&9.	c #D4CCCA",
"*9.	c #B7A7A4",
"=9.	c #9D8987",
"-9.	c #8B716E",
";9.	c #7A534C",
">9.	c #6F2E21",
",9.	c #702C1F",
"'9.	c #722E23",
")9.	c #7A3127",
"!9.	c #7B3328",
"~9.	c #6F3E32",
"{9.	c #826756",
"]9.	c #645747",
"^9.	c #753026",
"/9.	c #6F584E",
"(9.	c #5F534A",
"_9.	c #522F2C",
":9.	c #783628",
"<9.	c #723429",
"[9.	c #6B3226",
"}9.	c #712F25",
"|9.	c #6C443B",
"19.	c #8C7268",
"29.	c #625049",
"39.	c #552B23",
"49.	c #5A261D",
"59.	c #602A23",
"69.	c #AEA09E",
"79.	c #C4BDBB",
"89.	c #D6D2D0",
"99.	c #B0A6A4",
"09.	c #7F6A67",
"a9.	c #5E3832",
"b9.	c #624841",
"c9.	c #453A34",
"d9.	c #703429",
"e9.	c #703428",
"f9.	c #786656",
"g9.	c #5D5647",
"h9.	c #70554A",
"i9.	c #4A342D",
"j9.	c #693428",
"k9.	c #6C352A",
"l9.	c #73372B",
"m9.	c #77342A",
"n9.	c #77352A",
"o9.	c #77362A",
"p9.	c #76362B",
"q9.	c #6C3427",
"r9.	c #70362A",
"s9.	c #7E5B4F",
"t9.	c #755B51",
"u9.	c #51342E",
"v9.	c #6B3E35",
"w9.	c #805E58",
"x9.	c #B6AAA7",
"y9.	c #E2DEDD",
"z9.	c #DFDCDA",
"A9.	c #C2BBB7",
"B9.	c #A3928D",
"C9.	c #8A6A65",
"D9.	c #7B4841",
"E9.	c #773B31",
"F9.	c #733428",
"G9.	c #763528",
"H9.	c #763628",
"I9.	c #743428",
"J9.	c #623A30",
"K9.	c #806D5E",
"L9.	c #695F51",
"M9.	c #412C25",
"N9.	c #653428",
"O9.	c #582F25",
"P9.	c #683326",
"Q9.	c #743529",
"R9.	c #73352A",
"S9.	c #71352B",
"T9.	c #61534A",
"U9.	c #723628",
"V9.	c #733829",
"W9.	c #72362A",
"X9.	c #733629",
"Y9.	c #743629",
"Z9.	c #7C342A",
"`9.	c #7E352B",
" 0.	c #82372C",
".0.	c #74362A",
"+0.	c #79352C",
"@0.	c #7C362B",
"#0.	c #76342C",
"$0.	c #84665F",
"%0.	c #62504B",
"&0.	c #482C25",
"*0.	c #4B2924",
"=0.	c #5D3C37",
"-0.	c #604440",
";0.	c #73615E",
">0.	c #A8A09D",
",0.	c #B9B5B3",
"'0.	c #D2D1CF",
")0.	c #E9E9E8",
"!0.	c #CCC8C6",
"~0.	c #A09390",
"{0.	c #785D5A",
"]0.	c #664941",
"^0.	c #7D6E63",
"/0.	c #473A34",
"(0.	c #693429",
"_0.	c #68342B",
":0.	c #68382B",
"<0.	c #5E3229",
"[0.	c #66352C",
"}0.	c #63342A",
"|0.	c #573529",
"10.	c #51302D",
"20.	c #605648",
"30.	c #4E4B3E",
"40.	c #5E342C",
"50.	c #5F352B",
"60.	c #5D332A",
"70.	c #5D342B",
"80.	c #583229",
"90.	c #502F27",
"00.	c #4F3734",
"a0.	c #522D29",
"b0.	c #5A423D",
"c0.	c #5E4F4C",
"d0.	c #562F26",
"e0.	c #503028",
"f0.	c #674F45",
"g0.	c #6C5C56",
"h0.	c #7A7472",
"i0.	c #B5AEAB",
"j0.	c #F3F5F3",
"k0.	c #E7E8E7",
"l0.	c #B4ADAC",
"m0.	c #948380",
"n0.	c #6F4F4A",
"o0.	c #6B342B",
"p0.	c #663228",
"q0.	c #4D332E",
"r0.	c #706159",
"s0.	c #665E55",
"t0.	c #63352B",
"u0.	c #66352A",
"v0.	c #6A382E",
"w0.	c #65342D",
"x0.	c #522E26",
"y0.	c #5E4740",
"z0.	c #53443F",
"A0.	c #5E3328",
"B0.	c #6B322C",
"C0.	c #71362F",
"D0.	c #4F3430",
"E0.	c #5E4946",
"F0.	c #544545",
"G0.	c #362724",
"H0.	c #402B27",
"I0.	c #402E29",
"J0.	c #372623",
"K0.	c #3D2B26",
"L0.	c #382723",
"M0.	c #3C2C27",
"N0.	c #413531",
"O0.	c #5C5654",
"P0.	c #848281",
"Q0.	c #A4A3A2",
"R0.	c #C4C4C3",
"S0.	c #DCDCDB",
"T0.	c #E7E7E7",
"U0.	c #E1DFDF",
"V0.	c #B7B2B1",
"W0.	c #948886",
"X0.	c #70615F",
"Y0.	c #513D39",
"Z0.	c #4A312A",
"`0.	c #6C645A",
" a.	c #423834",
".a.	c #422724",
"+a.	c #452924",
"@a.	c #3E2723",
"#a.	c #3F2C29",
"$a.	c #412F2A",
"%a.	c #3F312D",
"&a.	c #423331",
"*a.	c #46332E",
"=a.	c #4A3933",
"-a.	c #4D3E36",
";a.	c #4D4038",
">a.	c #483C35",
",a.	c #483B35",
"'a.	c #473B35",
")a.	c #453834",
"!a.	c #443833",
"~a.	c #473A37",
"{a.	c #4C3E3F",
"]a.	c #545651",
"^a.	c #494F48",
"/a.	c #3C2F2C",
"(a.	c #46302B",
"_a.	c #48352F",
":a.	c #473530",
"<a.	c #45332E",
"[a.	c #483831",
"}a.	c #43342E",
"|a.	c #40322E",
"1a.	c #42322D",
"2a.	c #463530",
"3a.	c #4C3B35",
"4a.	c #4B3A34",
"5a.	c #4C3C36",
"6a.	c #4E3D37",
"7a.	c #4C3B34",
"8a.	c #4B3D37",
"9a.	c #403431",
"0a.	c #483A38",
"aa.	c #4B3A37",
"ba.	c #493A35",
"ca.	c #493C38",
"da.	c #4B403E",
"ea.	c #554240",
"fa.	c #51403D",
"ga.	c #4F3E3C",
"ha.	c #4D3E3C",
"ia.	c #594543",
"ja.	c #6B5E5E",
"ka.	c #696666",
"la.	c #585152",
"ma.	c #5E4E4B",
"na.	c #5E504A",
"oa.	c #5C524B",
"pa.	c #5B514B",
"qa.	c #514642",
"ra.	c #4F443F",
"sa.	c #4F4340",
"ta.	c #453A36",
"ua.	c #493D39",
"va.	c #4D413A",
"wa.	c #504640",
"xa.	c #4D443D",
"ya.	c #4E453E",
"za.	c #4B433C",
"Aa.	c #534942",
"Ba.	c #4C403A",
"Ca.	c #4A3A36",
"Da.	c #4C3A36",
"Ea.	c #4D3937",
"Fa.	c #473735",
"Ga.	c #48413D",
"Ha.	c #4F3F3A",
"Ia.	c #463E38",
"Ja.	c #413733",
"Ka.	c #4A403A",
"La.	c #453C38",
"Ma.	c #423735",
"Na.	c #443735",
"Oa.	c #463734",
"Pa.	c #453732",
"Qa.	c #817C7A",
"Ra.	c #C3C1C1",
"Sa.	c #E5E5E5",
"Ta.	c #CDCBCB",
"Ua.	c #A6A3A1",
"Va.	c #807C7B",
"Wa.	c #503C38",
"Xa.	c #4F3C39",
"Ya.	c #4D3C38",
"Za.	c #4B3B36",
"`a.	c #4D3934",
" b.	c #4A3833",
".b.	c #483934",
"+b.	c #4A3D39",
"@b.	c #4A3C35",
"#b.	c #4C4139",
"$b.	c #4A3E39",
"%b.	c #4D3C3A",
"&b.	c #3B302D",
"*b.	c #332928",
"=b.	c #3A3030",
"-b.	c #4F4B4A",
";b.	c #4E4C4C",
">b.	c #332B2A",
",b.	c #452E2C",
"'b.	c #4C3430",
")b.	c #48332F",
"!b.	c #45322E",
"~b.	c #392B28",
"{b.	c #3F302C",
"]b.	c #3C2D2B",
"^b.	c #44302E",
"/b.	c #4D3533",
"(b.	c #3F312C",
"_b.	c #382D29",
":b.	c #392925",
"<b.	c #422F2B",
"[b.	c #3D2C2A",
"}b.	c #322725",
"|b.	c #3B2E2C",
"1b.	c #423634",
"2b.	c #4E4545",
"3b.	c #373333",
"4b.	c #2D2727",
"5b.	c #302725",
"6b.	c #322724",
"7b.	c #352928",
"8b.	c #342727",
"9b.	c #3D2F2B",
"0b.	c #3E312D",
"ab.	c #3F3734",
"bb.	c #372E2C",
"cb.	c #3C3633",
"db.	c #3D3631",
"eb.	c #3E3632",
"fb.	c #3F3633",
"gb.	c #3F3533",
"hb.	c #3E3331",
"ib.	c #3C3130",
"jb.	c #3D3231",
"kb.	c #3D312F",
"lb.	c #3F3434",
"mb.	c #3B3532",
"nb.	c #393736",
"ob.	c #343230",
"pb.	c #31302C",
"qb.	c #3B3934",
"rb.	c #524F4B",
"sb.	c #575959",
"tb.	c #56585B",
"ub.	c #534E4E",
"vb.	c #544D4B",
"wb.	c #5A5150",
"xb.	c #605755",
"yb.	c #544B4A",
"zb.	c #514847",
"Ab.	c #524949",
"Bb.	c #5B5250",
"Cb.	c #5A514F",
"Db.	c #524D4B",
"Eb.	c #565453",
"Fb.	c #5B5B5A",
"Gb.	c #72736F",
"Hb.	c #9E9C99",
"Ib.	c #B8B6B5",
"Jb.	c #E1E0E1",
"Kb.	c #FDFEFC",
"Lb.	c #DCDAD9",
"Mb.	c #BDBAB9",
"Nb.	c #8E8B87",
"Ob.	c #76726B",
"Pb.	c #6A645C",
"Qb.	c #605B53",
"Rb.	c #645C54",
"Sb.	c #605953",
"Tb.	c #5A4F49",
"Ub.	c #62564E",
"Vb.	c #665851",
"Wb.	c #685550",
"Xb.	c #61534E",
"Yb.	c #574E48",
"Zb.	c #66544E",
"`b.	c #65544E",
" c.	c #5D4D47",
".c.	c #594A44",
"+c.	c #584B46",
"@c.	c #584D49",
"#c.	c #534A47",
"$c.	c #5C685D",
"%c.	c #4F5950",
"&c.	c #53514C",
"*c.	c #59544F",
"=c.	c #595851",
"-c.	c #5A5953",
";c.	c #514E49",
">c.	c #514D47",
",c.	c #544F47",
"'c.	c #57524B",
")c.	c #585650",
"!c.	c #635754",
"~c.	c #695D5B",
"{c.	c #5A4F4D",
"]c.	c #564E4D",
"^c.	c #514C48",
"/c.	c #59554E",
"(c.	c #5B5B5B",
"_c.	c #626066",
":c.	c #6B6264",
"<c.	c #6F625B",
"[c.	c #716860",
"}c.	c #78716B",
"|c.	c #7C756D",
"1c.	c #7F7B74",
"2c.	c #7C7970",
"3c.	c #7D7A71",
"4c.	c #7E7A75",
"5c.	c #7D7673",
"6c.	c #7C736F",
"7c.	c #807572",
"8c.	c #83767B",
"9c.	c #818484",
"0c.	c #737C79",
"ac.	c #685E5D",
"bc.	c #6B5B57",
"cc.	c #6C5E58",
"dc.	c #7A6F69",
"ec.	c #716965",
"fc.	c #706562",
"gc.	c #756B6A",
"hc.	c #786C6A",
"ic.	c #7F716E",
"jc.	c #7E716D",
"kc.	c #7F736F",
"lc.	c #827875",
"mc.	c #7E7571",
"nc.	c #807976",
"oc.	c #766C6C",
"pc.	c #786F6D",
"qc.	c #757374",
"rc.	c #787377",
"sc.	c #7E6E6A",
"tc.	c #7F7570",
"uc.	c #756E6A",
"vc.	c #70615E",
"wc.	c #887571",
"xc.	c #856F6B",
"yc.	c #846E6A",
"zc.	c #856E6A",
"Ac.	c #836E69",
"Bc.	c #88776F",
"Cc.	c #867168",
"Dc.	c #866B68",
"Ec.	c #897971",
"Fc.	c #898278",
"Gc.	c #8E8882",
"Hc.	c #89807A",
"Ic.	c #877B75",
"Jc.	c #867770",
"Kc.	c #82756D",
"Lc.	c #82726C",
"Mc.	c #857A73",
"Nc.	c #88847E",
"Oc.	c #7F7B72",
"Pc.	c #79736B",
"Qc.	c #807B72",
"Rc.	c #87847D",
"Sc.	c #84807B",
"Tc.	c #847974",
"Uc.	c #6C6967",
"Vc.	c #6A6C6B",
"Wc.	c #74716D",
"Xc.	c #837A73",
"Yc.	c #77746D",
"Zc.	c #818079",
"`c.	c #7F7E77",
" d.	c #74726B",
".d.	c #797770",
"+d.	c #807C79",
"@d.	c #817A78",
"#d.	c #7E7472",
"$d.	c #9A928E",
"%d.	c #C5C2C2",
"&d.	c #E8E8E8",
"*d.	c #DAD8D9",
"=d.	c #B8B5B5",
"-d.	c #958F8F",
";d.	c #857C7B",
">d.	c #7C7170",
",d.	c #756967",
"'d.	c #807672",
")d.	c #7B6A62",
"!d.	c #7E726A",
"~d.	c #666262",
"{d.	c #6C6264",
"]d.	c #756666",
"^d.	c #7D6E6A",
"/d.	c #7B736D",
"(d.	c #7E7673",
"_d.	c #7F7476",
":d.	c #837777",
"<d.	c #796F6D",
"[d.	c #766D6A",
"}d.	c #79716E",
"|d.	c #77706D",
"1d.	c #7B7370",
"2d.	c #736A67",
"3d.	c #777974",
"4d.	c #6A6662",
"5d.	c #71615E",
"6d.	c #6F645C",
"7d.	c #6E6562",
"8d.	c #6D6562",
"9d.	c #756D69",
"0d.	c #766C68",
"ad.	c #726866",
"bd.	c #776D6A",
"cd.	c #776C69",
"dd.	c #7A6D6C",
"ed.	c #786A6A",
"fd.	c #766868",
"gd.	c #766A69",
"hd.	c #746B67",
"id.	c #726C68",
"jd.	c #766D65",
"kd.	c #756665",
"ld.	c #6F6C6C",
"md.	c #626566",
"nd.	c #7D6665",
"od.	c #766860",
"pd.	c #6F675D",
"qd.	c #695C53",
"rd.	c #6B5D55",
"sd.	c #776B64",
"td.	c #6C625D",
"ud.	c #71645E",
"vd.	c #756A63",
"wd.	c #756864",
"xd.	c #766965",
"yd.	c #796C6B",
"zd.	c #7C7074",
"Ad.	c #6B6167",
"Bd.	c #645E5F",
"Cd.	c #5F5A56",
"Dd.	c #665A55",
"Ed.	c #746964",
"Fd.	c #746A65",
"Gd.	c #746F67",
"Hd.	c #747169",
"Id.	c #747269",
"Jd.	c #737067",
"Kd.	c #76736A",
"Ld.	c #757169",
"Md.	c #72736E",
"Nd.	c #797A75",
"Od.	c #7C7772",
"Pd.	c #746D6A",
"Qd.	c #6D6F6E",
"Rd.	c #707776",
"Sd.	c #727774",
"Td.	c #747068",
"Ud.	c #756C64",
"Vd.	c #766E67",
"Wd.	c #796F68",
"Xd.	c #7A6E69",
"Yd.	c #776A64",
"Zd.	c #7E716B",
"`d.	c #7A7571",
" e.	c #74726C",
".e.	c #716F67",
"+e.	c #777569",
"@e.	c #838177",
"#e.	c #868885",
"$e.	c #868686",
"%e.	c #888381",
"&e.	c #89827F",
"*e.	c #8C8986",
"=e.	c #8D8987",
"-e.	c #89807D",
";e.	c #867978",
">e.	c #837574",
",e.	c #8A807E",
"'e.	c #8D8582",
")e.	c #8A827C",
"!e.	c #8C827D",
"~e.	c #8B7F7C",
"{e.	c #8B7F7B",
"]e.	c #887A76",
"^e.	c #8A7D79",
"/e.	c #867B77",
"(e.	c #817A77",
"_e.	c #7F7B79",
":e.	c #7E7B74",
"<e.	c #7D766C",
"[e.	c #7F756C",
"}e.	c #8B878A",
"|e.	c #999698",
"1e.	c #AAA4A4",
"2e.	c #C7C3C1",
"3e.	c #DAD6D4",
"4e.	c #EEECEB",
"5e.	c #E1E2E0",
"6e.	c #C2C2BF",
"7e.	c #9F9D97",
"8e.	c #918981",
"9e.	c #8F867E",
"0e.	c #87827B",
"ae.	c #7C827A",
"be.	c #7F877D",
"ce.	c #868076",
"de.	c #8C8178",
"ee.	c #887D75",
"fe.	c #8E7C75",
"ge.	c #8C7971",
"he.	c #8C7B71",
"ie.	c #89776F",
"je.	c #8A7E77",
"ke.	c #857B74",
"le.	c #79786F",
"me.	c #707C6E",
"ne.	c #798073",
"oe.	c #807C73",
"pe.	c #817B73",
"qe.	c #848379",
"re.	c #88867E",
"se.	c #837F76",
"te.	c #807A70",
"ue.	c #827A6F",
"ve.	c #867E72",
"we.	c #8C877F",
"xe.	c #89847C",
"ye.	c #8D807B",
"ze.	c #8F8681",
"Ae.	c #908782",
"Be.	c #918883",
"Ce.	c #857471",
"De.	c #8A7976",
"Ee.	c #877670",
"Fe.	c #857C7E",
"Ge.	c #827C86",
"He.	c #897980",
"Ie.	c #8A7370",
"Je.	c #8C7B74",
"Ke.	c #8D7E79",
"Le.	c #90807B",
"Me.	c #8F807B",
"Ne.	c #918683",
"Oe.	c #928984",
"Pe.	c #928882",
"Qe.	c #918781",
"Re.	c #908783",
"Se.	c #8F847F",
"Te.	c #8F847D",
"Ue.	c #928582",
"Ve.	c #938386",
"We.	c #928A89",
"Xe.	c #8D8886",
"Ye.	c #8B7873",
"Ze.	c #8B7872",
"`e.	c #8D7D77",
" f.	c #8C7F79",
".f.	c #8C7F7B",
"+f.	c #8A7E7B",
"@f.	c #928C89",
"#f.	c #918983",
"$f.	c #918D88",
"%f.	c #918E89",
"&f.	c #908D89",
"*f.	c #8F8B8B",
"=f.	c #878C8D",
"-f.	c #848B8E",
";f.	c #878080",
">f.	c #8B7771",
",f.	c #8B7871",
"'f.	c #8D7B77",
")f.	c #6F5954",
"!f.	c #856660",
"~f.	c #81615B",
"{f.	c #85635D",
"]f.	c #85635C",
"^f.	c #7F5D58",
"/f.	c #7D5D57",
"(f.	c #83645A",
"_f.	c #836156",
":f.	c #7E5E5A",
"<f.	c #806561",
"[f.	c #785E57",
"}f.	c #766359",
"|f.	c #7F6D66",
"1f.	c #7E6A63",
"2f.	c #80665E",
"3f.	c #836961",
"4f.	c #896F65",
"5f.	c #886B64",
"6f.	c #84756E",
"7f.	c #897A72",
"8f.	c #8E7B75",
"9f.	c #8C7770",
"0f.	c #8A776F",
"af.	c #897B77",
"bf.	c #8B776F",
"cf.	c #8A7670",
"df.	c #817573",
"ef.	c #7F6F6A",
"ff.	c #897871",
"gf.	c #8A7B73",
"hf.	c #8B7C75",
"if.	c #867971",
"jf.	c #8A7D77",
"kf.	c #877C78",
"lf.	c #867B78",
"mf.	c #978E8A",
"nf.	c #C1BDBA",
"of.	c #FCFEFD",
"pf.	c #E6E6E4",
"qf.	c #A19796",
"rf.	c #897977",
"sf.	c #837172",
"tf.	c #847071",
"uf.	c #887474",
"vf.	c #866E6D",
"wf.	c #826B6A",
"xf.	c #806E6B",
"yf.	c #887B76",
"zf.	c #85746D",
"Af.	c #7F6E64",
"Bf.	c #836960",
"Cf.	c #876D65",
"Df.	c #87776E",
"Ef.	c #7C7977",
"Ff.	c #836D6E",
"Gf.	c #8D7673",
"Hf.	c #8D7E78",
"If.	c #8D7F78",
"Jf.	c #8B7B77",
"Kf.	c #8D7B7D",
"Lf.	c #8D7D7C",
"Mf.	c #8C8079",
"Nf.	c #8A7B74",
"Of.	c #8B7D76",
"Pf.	c #8D837C",
"Qf.	c #8D817A",
"Rf.	c #8B7D75",
"Sf.	c #8D7C73",
"Tf.	c #8D7E72",
"Uf.	c #8F8579",
"Vf.	c #8B7E74",
"Wf.	c #907F76",
"Xf.	c #917F74",
"Yf.	c #8F8274",
"Zf.	c #8D8478",
"`f.	c #867C75",
" g.	c #857972",
".g.	c #827670",
"+g.	c #877D76",
"@g.	c #8A7F78",
"#g.	c #897D77",
"$g.	c #867A73",
"%g.	c #887C77",
"&g.	c #8F7F7C",
"*g.	c #8C7877",
"=g.	c #897371",
"-g.	c #877370",
";g.	c #887973",
">g.	c #876E6C",
",g.	c #7E7374",
"'g.	c #6B6C6C",
")g.	c #756869",
"!g.	c #886E6C",
"~g.	c #857067",
"{g.	c #85756A",
"]g.	c #81685F",
"^g.	c #887269",
"/g.	c #8B7970",
"(g.	c #88756E",
"_g.	c #846C64",
":g.	c #866E65",
"<g.	c #866F65",
"[g.	c #856B63",
"}g.	c #87716A",
"|g.	c #87706D",
"1g.	c #84696B",
"2g.	c #806760",
"3g.	c #846B64",
"4g.	c #86716A",
"5g.	c #856F69",
"6g.	c #88736C",
"7g.	c #8C7A71",
"8g.	c #8C7970",
"9g.	c #8A756C",
"0g.	c #8A766E",
"ag.	c #8A7C73",
"bg.	c #887B72",
"cg.	c #897C72",
"dg.	c #877A71",
"eg.	c #877B74",
"fg.	c #8E7C77",
"gg.	c #887470",
"hg.	c #877E7C",
"ig.	c #898685",
"jg.	c #807067",
"kg.	c #856D63",
"lg.	c #877066",
"mg.	c #867169",
"ng.	c #876F69",
"og.	c #80655E",
"pg.	c #836A65",
"qg.	c #7D6864",
"rg.	c #78625D",
"sg.	c #83726D",
"tg.	c #857A74",
"ug.	c #827671",
"vg.	c #806F6A",
"wg.	c #85716C",
"xg.	c #85726C",
"yg.	c #88766F",
"zg.	c #87766F",
"Ag.	c #86726B",
"Bg.	c #89746C",
"Cg.	c #866D66",
"Dg.	c #856C65",
"Eg.	c #816961",
"Fg.	c #725A4F",
"Gg.	c #705C56",
"Hg.	c #695B5C",
"Ig.	c #69595A",
"Jg.	c #745B59",
"Kg.	c #7E5B56",
"Lg.	c #7E6764",
"Mg.	c #978B8A",
"Ng.	c #B7B0AF",
"Og.	c #CECAC9",
"Pg.	c #EFEFEE",
"Qg.	c #D5D1CE",
"Rg.	c #B2A8A5",
"Sg.	c #7A756F",
"Tg.	c #6F6F65",
"Ug.	c #765C55",
"Vg.	c #7B5752",
"Wg.	c #6F524B",
"Xg.	c #6E584F",
"Yg.	c #7D6258",
"Zg.	c #80635A",
"`g.	c #7B5C54",
" h.	c #76574F",
".h.	c #6B4E48",
"+h.	c #73564E",
"@h.	c #7C5D54",
"#h.	c #80635C",
"$h.	c #725E55",
"%h.	c #65594E",
"&h.	c #6A5A50",
"*h.	c #6C574E",
"=h.	c #68524B",
"-h.	c #6C5A52",
";h.	c #78645B",
">h.	c #7D665E",
",h.	c #85675D",
"'h.	c #876961",
")h.	c #846962",
"!h.	c #896D64",
"~h.	c #896A62",
"{h.	c #84655D",
"]h.	c #85675F",
"^h.	c #80615B",
"/h.	c #86665E",
"(h.	c #83645C",
"_h.	c #776970",
":h.	c #604A4E",
"<h.	c #5D3D3A",
"[h.	c #60403A",
"}h.	c #5F403D",
"|h.	c #64413D",
"1h.	c #6B4541",
"2h.	c #68443F",
"3h.	c #6B4743",
"4h.	c #724B46",
"5h.	c #744D47",
"6h.	c #6F4A45",
"7h.	c #6B4A44",
"8h.	c #644844",
"9h.	c #664B45",
"0h.	c #684D45",
"ah.	c #795653",
"bh.	c #6E544E",
"ch.	c #6E504A",
"dh.	c #684D48",
"eh.	c #654D47",
"fh.	c #755D57",
"gh.	c #755E59",
"hh.	c #775C56",
"ih.	c #7A6058",
"jh.	c #775E54",
"kh.	c #705951",
"lh.	c #705C51",
"mh.	c #776357",
"nh.	c #6E5A57",
"oh.	c #745E57",
"ph.	c #79695E",
"qh.	c #736E6B",
"rh.	c #626767",
"sh.	c #524744",
"th.	c #5F4139",
"uh.	c #624039",
"vh.	c #62423C",
"wh.	c #523835",
"xh.	c #5F342C",
"yh.	c #65352D",
"zh.	c #532E2A",
"Ah.	c #60342D",
"Bh.	c #6A3A32",
"Ch.	c #673933",
"Dh.	c #5E3731",
"Eh.	c #5A332F",
"Fh.	c #673B35",
"Gh.	c #74403A",
"Hh.	c #6D3C37",
"Ih.	c #693D36",
"Jh.	c #745E58",
"Kh.	c #574644",
"Lh.	c #543834",
"Mh.	c #603D37",
"Nh.	c #68413A",
"Oh.	c #663F39",
"Ph.	c #5D3A33",
"Qh.	c #7C6D69",
"Rh.	c #CFCAC8",
"Sh.	c #DCDBDA",
"Th.	c #B2ACAA",
"Uh.	c #7A6863",
"Vh.	c #5A403B",
"Wh.	c #754F4A",
"Xh.	c #5E3F3C",
"Yh.	c #573A37",
"Zh.	c #5F3D38",
"`h.	c #5D3A36",
" i.	c #593834",
".i.	c #5F3D35",
"+i.	c #5C4039",
"@i.	c #6C5B51",
"#i.	c #827870",
"$i.	c #65443F",
"%i.	c #67463E",
"&i.	c #6B4C42",
"*i.	c #644542",
"=i.	c #64473D",
"-i.	c #67493F",
";i.	c #66483E",
">i.	c #67473E",
",i.	c #6A473C",
"'i.	c #704A3C",
")i.	c #714F41",
"!i.	c #6C4B3F",
"~i.	c #765045",
"{i.	c #775146",
"]i.	c #75594D",
"^i.	c #614840",
"/i.	c #60453D",
"(i.	c #644840",
"_i.	c #624740",
":i.	c #60463E",
"<i.	c #684B43",
"[i.	c #63483F",
"}i.	c #5F443D",
"|i.	c #64413C",
"1i.	c #623F3B",
"2i.	c #5E3F39",
"3i.	c #5A3F39",
"4i.	c #5A3C35",
"5i.	c #64433F",
"6i.	c #66635D",
"7i.	c #4C3432",
"8i.	c #623733",
"9i.	c #5C3730",
"0i.	c #5A3931",
"ai.	c #5D3831",
"bi.	c #623E35",
"ci.	c #69433B",
"di.	c #634038",
"ei.	c #5F3E37",
"fi.	c #5C3C34",
"gi.	c #623B34",
"hi.	c #613A32",
"ii.	c #643D35",
"ji.	c #593B33",
"ki.	c #5D3A32",
"li.	c #5F3B33",
"mi.	c #613E37",
"ni.	c #69423B",
"oi.	c #653E38",
"pi.	c #673F37",
"qi.	c #5E3D38",
"ri.	c #643F3B",
"si.	c #6A3E38",
"ti.	c #54413E",
"ui.	c #683831",
"vi.	c #673830",
"wi.	c #693A32",
"xi.	c #653832",
"yi.	c #653731",
"zi.	c #66352F",
"Ai.	c #693630",
"Bi.	c #68342D",
"Ci.	c #67372D",
"Di.	c #65372D",
"Ei.	c #673931",
"Fi.	c #54352E",
"Gi.	c #57362F",
"Hi.	c #56352D",
"Ii.	c #5D3830",
"Ji.	c #5F362F",
"Ki.	c #653B32",
"Li.	c #663C33",
"Mi.	c #59352B",
"Ni.	c #5D3930",
"Oi.	c #62372C",
"Pi.	c #5F352C",
"Qi.	c #5E4540",
"Ri.	c #512922",
"Si.	c #5A2922",
"Ti.	c #725550",
"Ui.	c #8E7C78",
"Vi.	c #AEA7A5",
"Wi.	c #CAC6C4",
"Xi.	c #F8F7F7",
"Yi.	c #E6E6E5",
"Zi.	c #C7C5C2",
"`i.	c #989592",
" j.	c #6F5C59",
".j.	c #69302B",
"+j.	c #62332C",
"@j.	c #642F2B",
"#j.	c #6C3630",
"$j.	c #69372D",
"%j.	c #6B382E",
"&j.	c #66342B",
"*j.	c #61362D",
"=j.	c #643D31",
"-j.	c #7A6256",
";j.	c #594B43",
">j.	c #3E2A27",
",j.	c #5B352C",
"'j.	c #655B55",
")j.	c #533631",
"!j.	c #58423C",
"~j.	c #6E5B55",
"{j.	c #4C3C37",
"]j.	c #8E7E7B",
"^j.	c #D8D7D5",
"/j.	c #A29592",
"(j.	c #6A362E",
"_j.	c #7C4439",
":j.	c #79453B",
"<j.	c #4B2F27",
"[j.	c #6A5447",
"}j.	c #7D6D60",
"|j.	c #5A3830",
"1j.	c #806E64",
"2j.	c #615F54",
"3j.	c #5B3128",
"4j.	c #543027",
"5j.	c #715A50",
"6j.	c #7D6B61",
"7j.	c #48342D",
"8j.	c #6A3327",
"9j.	c #60372F",
"0j.	c #6F4F49",
"aj.	c #49322F",
"bj.	c #4A2924",
"cj.	c #672E23",
"dj.	c #632B20",
"ej.	c #5F271D",
"fj.	c #6B443E",
"gj.	c #957E7B",
"hj.	c #AA9997",
"ij.	c #DEDAD9",
"jj.	c #F0F1F0",
"kj.	c #DAD8D7",
"lj.	c #BDB5B3",
"mj.	c #8F7977",
"nj.	c #74423E",
"oj.	c #582B23",
"pj.	c #653B2D",
"qj.	c #836D5C",
"rj.	c #665C4F",
"sj.	c #703126",
"tj.	c #723327",
"uj.	c #603329",
"vj.	c #7F635A",
"wj.	c #726861",
"xj.	c #633226",
"yj.	c #593D38",
"zj.	c #755B57",
"Aj.	c #4F3937",
"Bj.	c #6C342E",
"Cj.	c #FEFFFC",
"Dj.	c #C7BDBB",
"Ej.	c #98807D",
"Fj.	c #704642",
"Gj.	c #73372E",
"Hj.	c #6F5348",
"Ij.	c #46322C",
"Jj.	c #846B61",
"Kj.	c #665F55",
"Lj.	c #773027",
"Mj.	c #665045",
"Nj.	c #7C6B5E",
"Oj.	c #4E372F",
"Pj.	c #733026",
"Qj.	c #643B36",
"Rj.	c #785956",
"Sj.	c #4B3332",
"Tj.	c #74342D",
"Uj.	c #783C36",
"Vj.	c #7B504B",
"Wj.	c #937674",
"Xj.	c #B3A3A2",
"Yj.	c #F2F1F0",
"Zj.	c #D9D2D1",
"`j.	c #B0A09F",
" k.	c #886C69",
".k.	c #78433C",
"+k.	c #783027",
"@k.	c #61342B",
"#k.	c #7B6558",
"$k.	c #62574D",
"%k.	c #793327",
"&k.	c #453F3E",
"*k.	c #5E3532",
"=k.	c #6C2B25",
"-k.	c #712D25",
";k.	c #846764",
">k.	c #553C3B",
",k.	c #937978",
"'k.	c #E2DEDC",
")k.	c #E3E0DE",
"!k.	c #C1B2B0",
"~k.	c #96716B",
"{k.	c #7C3B34",
"]k.	c #6F2D25",
"^k.	c #6F2C26",
"/k.	c #7C6D63",
"(k.	c #4A322D",
"_k.	c #742E28",
":k.	c #752F26",
"<k.	c #783428",
"[k.	c #665D56",
"}k.	c #7A2F27",
"|k.	c #674E45",
"1k.	c #4D3530",
"2k.	c #693E38",
"3k.	c #6E2B24",
"4k.	c #6D2C24",
"5k.	c #79514B",
"6k.	c #987C7A",
"7k.	c #BAACAA",
"8k.	c #D3CDCC",
"9k.	c #E6E3E1",
"0k.	c #F1F0EE",
"ak.	c #EBE8E7",
"bk.	c #CDC2C1",
"ck.	c #A79290",
"dk.	c #8A6C69",
"ek.	c #76443F",
"fk.	c #6D2720",
"gk.	c #702B25",
"hk.	c #76352A",
"ik.	c #775C54",
"jk.	c #5F4E47",
"kk.	c #755754",
"lk.	c #736261",
"mk.	c #5C3432",
"nk.	c #64463F",
"ok.	c #503A38",
"pk.	c #642820",
"qk.	c #8D7674",
"rk.	c #E0DCDC",
"sk.	c #EFEDED",
"tk.	c #D1CAC7",
"uk.	c #896460",
"vk.	c #7C3730",
"wk.	c #7B2E23",
"xk.	c #7B3128",
"yk.	c #793129",
"zk.	c #735B51",
"Ak.	c #773428",
"Bk.	c #665C55",
"Ck.	c #6B5049",
"Dk.	c #4E3430",
"Ek.	c #653831",
"Fk.	c #74564D",
"Gk.	c #682C24",
"Hk.	c #6A2C23",
"Ik.	c #6C291F",
"Jk.	c #70423E",
"Kk.	c #896865",
"Lk.	c #A38E8B",
"Mk.	c #BBAFAC",
"Nk.	c #D7D1D0",
"Ok.	c #E3E1E0",
"Pk.	c #C9C1C0",
"Qk.	c #A28E8B",
"Rk.	c #7F5450",
"Sk.	c #6C2B22",
"Tk.	c #614E49",
"Uk.	c #78544F",
"Vk.	c #76605F",
"Wk.	c #5B3533",
"Xk.	c #4D3A38",
"Yk.	c #7E5B58",
"Zk.	c #D3CCCC",
"`k.	c #BEB5B3",
" l.	c #947E7C",
".l.	c #7A504B",
"+l.	c #72352E",
"@l.	c #7A3128",
"#l.	c #7A342A",
"$l.	c #783129",
"%l.	c #6E564C",
"&l.	c #7C6C63",
"*l.	c #7C6A5E",
"=l.	c #655A53",
"-l.	c #806C69",
";l.	c #632A24",
">l.	c #602925",
",l.	c #673930",
"'l.	c #795950",
")l.	c #4F3631",
"!l.	c #6A3833",
"~l.	c #76534F",
"{l.	c #8B7471",
"]l.	c #A29694",
"^l.	c #BEB7B5",
"/l.	c #DFDEDB",
"(l.	c #C5BCB9",
"_l.	c #927975",
":l.	c #73443E",
"<l.	c #725853",
"[l.	c #5F4B48",
"}l.	c #786766",
"|l.	c #443F40",
"1l.	c #5F433D",
"2l.	c #693934",
"3l.	c #B3A6A4",
"4l.	c #6C564C",
"5l.	c #7E7068",
"6l.	c #773226",
"7l.	c #7A3328",
"8l.	c #513430",
"9l.	c #683A32",
"0l.	c #4F3530",
"al.	c #663832",
"bl.	c #704742",
"cl.	c #B9AFAC",
"dl.	c #D4CFCD",
"el.	c #B0A3A1",
"fl.	c #90716E",
"gl.	c #7C4843",
"hl.	c #5C4A45",
"il.	c #7E625B",
"jl.	c #7E6560",
"kl.	c #836A69",
"ll.	c #E8E4E4",
"ml.	c #EDE9E8",
"nl.	c #998381",
"ol.	c #582923",
"pl.	c #6E554A",
"ql.	c #7F6F64",
"rl.	c #72534C",
"sl.	c #7B6360",
"tl.	c #693B33",
"ul.	c #79584E",
"vl.	c #4C332D",
"wl.	c #622A22",
"xl.	c #653E3A",
"yl.	c #836D6C",
"zl.	c #AFA5A4",
"Al.	c #FCFEFF",
"Bl.	c #CCC4C2",
"Cl.	c #AD9B99",
"Dl.	c #8C6C68",
"El.	c #733E38",
"Fl.	c #692A1F",
"Gl.	c #7D645E",
"Hl.	c #60504A",
"Il.	c #7A6B69",
"Jl.	c #63463F",
"Kl.	c #7E6661",
"Ll.	c #503D3A",
"Ml.	c #BCAFAC",
"Nl.	c #F8F5F4",
"Ol.	c #6E5348",
"Pl.	c #7D6C62",
"Ql.	c #4E3530",
"Rl.	c #58352D",
"Sl.	c #6A625A",
"Tl.	c #7A5950",
"Ul.	c #4C3530",
"Vl.	c #61271F",
"Wl.	c #704B45",
"Xl.	c #856C6A",
"Yl.	c #998A87",
"Zl.	c #BBB4B2",
"`l.	c #C9C2C0",
" m.	c #9D8B89",
".m.	c #784D49",
"+m.	c #61504C",
"@m.	c #7B5E58",
"#m.	c #7A6867",
"$m.	c #5E433C",
"%m.	c #75605B",
"&m.	c #4E3A38",
"*m.	c #682A22",
"=m.	c #734B48",
"-m.	c #DED9D7",
";m.	c #EEEBEB",
">m.	c #988381",
",m.	c #743026",
"'m.	c #6D5147",
")m.	c #7C6A60",
"!m.	c #4D342E",
"~m.	c #743327",
"{m.	c #696059",
"]m.	c #775F5B",
"^m.	c #51332F",
"/m.	c #582A23",
"(m.	c #663A31",
"_m.	c #643E37",
":m.	c #876C67",
"<m.	c #938684",
"[m.	c #B6AFAE",
"}m.	c #BDB4B2",
"|m.	c #907977",
"1m.	c #734844",
"2m.	c #62382F",
"3m.	c #7D615B",
"4m.	c #5D4B46",
"5m.	c #7C5F59",
"6m.	c #7B6B69",
"7m.	c #622B23",
"8m.	c #572824",
"9m.	c #4F2D25",
"0m.	c #604941",
"am.	c #7D6862",
"bm.	c #65251C",
"cm.	c #8B7470",
"dm.	c #EFECEC",
"em.	c #76514F",
"fm.	c #6C5348",
"gm.	c #7B6960",
"hm.	c #4B322D",
"im.	c #5F3930",
"jm.	c #645952",
"km.	c #6A4A44",
"lm.	c #785B51",
"mm.	c #614440",
"nm.	c #6D4843",
"om.	c #8E7B79",
"pm.	c #B9B0AF",
"qm.	c #D5D0CE",
"rm.	c #AB9B9A",
"sm.	c #6F433E",
"tm.	c #64261D",
"um.	c #683D33",
"vm.	c #5D4B45",
"wm.	c #7B5F58",
"xm.	c #796966",
"ym.	c #4F3D3A",
"zm.	c #602017",
"Am.	c #958380",
"Bm.	c #F5F2F1",
"Cm.	c #6A322D",
"Dm.	c #7A3229",
"Em.	c #7C3229",
"Fm.	c #644B42",
"Gm.	c #4C322E",
"Hm.	c #613B31",
"Im.	c #7F6A5D",
"Jm.	c #60564F",
"Km.	c #6C4C45",
"Lm.	c #653C33",
"Mm.	c #4D3833",
"Nm.	c #65372E",
"Om.	c #5F433F",
"Pm.	c #61261F",
"Qm.	c #795450",
"Rm.	c #927C78",
"Sm.	c #F8F7F6",
"Tm.	c #CBC2C1",
"Um.	c #9F8E8B",
"Vm.	c #76504B",
"Wm.	c #673C33",
"Xm.	c #876962",
"Ym.	c #795B53",
"Zm.	c #71594E",
"`m.	c #68241B",
" n.	c #998481",
".n.	c #F3F0EE",
"+n.	c #B2A4A2",
"@n.	c #7D3129",
"#n.	c #7C3329",
"$n.	c #623B31",
"%n.	c #7D685D",
"&n.	c #635A53",
"*n.	c #7B3028",
"=n.	c #7A3029",
"-n.	c #775F55",
";n.	c #4D3932",
">n.	c #653930",
",n.	c #815D55",
"'n.	c #6D352F",
")n.	c #754F4C",
"!n.	c #DDD9D7",
"~n.	c #AFA19E",
"{n.	c #785451",
"]n.	c #683430",
"^n.	c #693E34",
"/n.	c #896E66",
"(n.	c #66544D",
"_n.	c #74554E",
":n.	c #46302C",
"<n.	c #6A5348",
"[n.	c #4C3A37",
"}n.	c #6A261C",
"|n.	c #9A8481",
"1n.	c #F0EBEA",
"2n.	c #9E8988",
"3n.	c #66241B",
"4n.	c #7E3228",
"5n.	c #6E5347",
"6n.	c #7E6C60",
"7n.	c #4C352F",
"8n.	c #7C3328",
"9n.	c #673F34",
"0n.	c #80695E",
"an.	c #645751",
"bn.	c #7B3229",
"cn.	c #6E4D42",
"dn.	c #7B635B",
"en.	c #684537",
"fn.	c #816B5D",
"gn.	c #523E38",
"hn.	c #815E56",
"in.	c #67342D",
"jn.	c #6B3F3B",
"kn.	c #8B736F",
"ln.	c #C1B7B4",
"mn.	c #B1A7A6",
"nn.	c #846A68",
"on.	c #683A36",
"pn.	c #693E33",
"qn.	c #866C61",
"rn.	c #68554D",
"sn.	c #6E3429",
"tn.	c #7B372C",
"un.	c #75362B",
"vn.	c #74382B",
"wn.	c #7F6B66",
"xn.	c #563632",
"yn.	c #503129",
"zn.	c #67574C",
"An.	c #473934",
"Bn.	c #61291E",
"Cn.	c #8C7471",
"Dn.	c #E0DAD7",
"En.	c #8C726E",
"Fn.	c #642920",
"Gn.	c #70362B",
"Hn.	c #74352A",
"In.	c #6F5849",
"Jn.	c #807362",
"Kn.	c #49362E",
"Ln.	c #77362B",
"Mn.	c #7A382B",
"Nn.	c #78362B",
"On.	c #7D372A",
"Pn.	c #6F3729",
"Qn.	c #654137",
"Rn.	c #7B6357",
"Sn.	c #5B4D47",
"Tn.	c #63382C",
"Un.	c #69372A",
"Vn.	c #69342A",
"Wn.	c #6D3429",
"Xn.	c #75352C",
"Yn.	c #673226",
"Zn.	c #683527",
"`n.	c #6A3429",
" o.	c #70362C",
".o.	c #673429",
"+o.	c #66372B",
"@o.	c #6B4D40",
"#o.	c #6F5C4F",
"$o.	c #572D24",
"%o.	c #633329",
"&o.	c #5F4439",
"*o.	c #79685C",
"=o.	c #4F3E38",
"-o.	c #623429",
";o.	c #7A5B52",
">o.	c #60433C",
",o.	c #6C4D49",
"'o.	c #8D8280",
")o.	c #B8B4B3",
"!o.	c #F1F2F0",
"~o.	c #725553",
"{o.	c #5E3C31",
"]o.	c #7C6253",
"^o.	c #645146",
"/o.	c #69352A",
"(o.	c #68332C",
"_o.	c #6C372B",
":o.	c #5B3026",
"<o.	c #67362A",
"[o.	c #623529",
"}o.	c #5B473E",
"|o.	c #63554C",
"1o.	c #392D29",
"2o.	c #403E40",
"3o.	c #3F3331",
"4o.	c #45322C",
"5o.	c #4E4941",
"6o.	c #54544D",
"7o.	c #45241E",
"8o.	c #6F6260",
"9o.	c #4B2620",
"0o.	c #522E29",
"ao.	c #55322A",
"bo.	c #593229",
"co.	c #5C332B",
"do.	c #54483D",
"eo.	c #645D52",
"fo.	c #39302D",
"go.	c #63352C",
"ho.	c #573128",
"io.	c #59332B",
"jo.	c #5C4F4D",
"ko.	c #423D3D",
"lo.	c #2F2724",
"mo.	c #3E2C25",
"no.	c #472B25",
"oo.	c #503027",
"po.	c #523328",
"qo.	c #523028",
"ro.	c #4D4039",
"so.	c #322C29",
"to.	c #462A25",
"uo.	c #452C26",
"vo.	c #473029",
"wo.	c #462E28",
"xo.	c #54332D",
"yo.	c #4E2F2A",
"zo.	c #4F302A",
"Ao.	c #3E312C",
"Bo.	c #453431",
"Co.	c #44312D",
"Do.	c #493531",
"Eo.	c #4B3732",
"Fo.	c #4E3E36",
"Go.	c #3E342E",
"Ho.	c #463831",
"Io.	c #4D3C35",
"Jo.	c #3D312B",
"Ko.	c #3C2D28",
"Lo.	c #402F29",
"Mo.	c #48312C",
"No.	c #46302A",
"Oo.	c #47342C",
"Po.	c #402F2A",
"Qo.	c #412F29",
"Ro.	c #44322E",
"So.	c #41312C",
"To.	c #42322C",
"Uo.	c #41312B",
"Vo.	c #42312B",
"Wo.	c #413934",
"Xo.	c #544C45",
"Yo.	c #49413B",
"Zo.	c #402F2B",
"`o.	c #3E302B",
" p.	c #3B2F2A",
".p.	c #483530",
"+p.	c #3B2C29",
"@p.	c #47352F",
"#p.	c #4D3D38",
"$p.	c #655F5D",
"%p.	c #8F8D8B",
"&p.	c #BFBEBD",
"*p.	c #D4D2D1",
"=p.	c #8D8786",
"-p.	c #4A3936",
";p.	c #3F2D29",
">p.	c #4A3B36",
",p.	c #625850",
"'p.	c #5A554F",
")p.	c #3E3733",
"!p.	c #403432",
"~p.	c #3D3331",
"{p.	c #38322F",
"]p.	c #3A3432",
"^p.	c #3F3A38",
"/p.	c #3C3533",
"(p.	c #433630",
"_p.	c #43332E",
":p.	c #463732",
"<p.	c #3D302D",
"[p.	c #3E2F31",
"}p.	c #3F3232",
"|p.	c #3D322D",
"1p.	c #423332",
"2p.	c #463430",
"3p.	c #4B322E",
"4p.	c #4E3431",
"5p.	c #4C3632",
"6p.	c #4B3734",
"7p.	c #4C3935",
"8p.	c #43302B",
"9p.	c #4A322C",
"0p.	c #4D3731",
"ap.	c #52403A",
"bp.	c #514740",
"cp.	c #615F55",
"dp.	c #6D6D63",
"ep.	c #494945",
"fp.	c #474340",
"gp.	c #504842",
"hp.	c #473F39",
"ip.	c #4A403E",
"jp.	c #4D4341",
"kp.	c #594F4E",
"lp.	c #5D5452",
"mp.	c #564C4B",
"np.	c #504544",
"op.	c #544647",
"pp.	c #564746",
"qp.	c #554747",
"rp.	c #504647",
"sp.	c #4B4345",
"tp.	c #4B4343",
"up.	c #4F4645",
"vp.	c #524A49",
"wp.	c #4B4646",
"xp.	c #4F4C4B",
"yp.	c #4E4747",
"zp.	c #4D4141",
"Ap.	c #4E403F",
"Bp.	c #534441",
"Cp.	c #574845",
"Dp.	c #4F4241",
"Ep.	c #483E3D",
"Fp.	c #4B4040",
"Gp.	c #4F4544",
"Hp.	c #524745",
"Ip.	c #4B403F",
"Jp.	c #453B3A",
"Kp.	c #473C3B",
"Lp.	c #51433E",
"Mp.	c #50433E",
"Np.	c #565957",
"Op.	c #545B5A",
"Pp.	c #434545",
"Qp.	c #3B3535",
"Rp.	c #3C3332",
"Sp.	c #433736",
"Tp.	c #5E5858",
"Up.	c #B8B5B4",
"Vp.	c #585150",
"Wp.	c #3C3230",
"Xp.	c #433837",
"Yp.	c #3E3433",
"Zp.	c #423732",
"`p.	c #473C37",
" q.	c #423833",
".q.	c #453C37",
"+q.	c #413834",
"@q.	c #3F332F",
"#q.	c #423737",
"$q.	c #433A3A",
"%q.	c #3F3534",
"&q.	c #3D312E",
"*q.	c #453533",
"=q.	c #483A37",
"-q.	c #443836",
";q.	c #443736",
">q.	c #443838",
",q.	c #413535",
"'q.	c #3D3233",
")q.	c #433735",
"!q.	c #433836",
"~q.	c #555453",
"{q.	c #565758",
"]q.	c #3E3B3D",
"^q.	c #413638",
"/q.	c #433536",
"(q.	c #3B3632",
"_q.	c #3B3733",
":q.	c #3B3231",
"<q.	c #453938",
"[q.	c #473A3A",
"}q.	c #463A39",
"|q.	c #493E3D",
"1q.	c #53423E",
"2q.	c #4F413C",
"3q.	c #534041",
"4q.	c #4C3F40",
"5q.	c #4C4141",
"6q.	c #564443",
"7q.	c #594644",
"8q.	c #5B4946",
"9q.	c #5D4B48",
"0q.	c #584744",
"aq.	c #544441",
"bq.	c #514340",
"cq.	c #4D3F3C",
"dq.	c #4A3C3A",
"eq.	c #4F403E",
"fq.	c #514240",
"gq.	c #534342",
"hq.	c #514140",
"iq.	c #5C5052",
"jq.	c #6C6A70",
"kq.	c #5C5D64",
"lq.	c #4C494A",
"mq.	c #4F4542",
"nq.	c #524645",
"oq.	c #4E4241",
"pq.	c #524642",
"qq.	c #534743",
"rq.	c #554844",
"sq.	c #544642",
"tq.	c #574A45",
"uq.	c #574843",
"vq.	c #524641",
"wq.	c #514845",
"xq.	c #564D4A",
"yq.	c #504643",
"zq.	c #5D5051",
"Aq.	c #645550",
"Bq.	c #64514F",
"Cq.	c #634F51",
"Dq.	c #5C4A4A",
"Eq.	c #564543",
"Fq.	c #544644",
"Gq.	c #534644",
"Hq.	c #504342",
"Iq.	c #524542",
"Jq.	c #564947",
"Kq.	c #554745",
"Lq.	c #594947",
"Mq.	c #686567",
"Nq.	c #707175",
"Oq.	c #585658",
"Pq.	c #5D5453",
"Qq.	c #605451",
"Rq.	c #5D524F",
"Sq.	c #615552",
"Tq.	c #5F5551",
"Uq.	c #5F5453",
"Vq.	c #645957",
"Wq.	c #685C5B",
"Xq.	c #6F6661",
"Yq.	c #675C58",
"Zq.	c #605653",
"`q.	c #5C5250",
" r.	c #625959",
".r.	c #645B5D",
"+r.	c #665A5B",
"@r.	c #726260",
"#r.	c #71615C",
"$r.	c #695652",
"%r.	c #6A5653",
"&r.	c #745E5C",
"*r.	c #725C5A",
"=r.	c #63504E",
"-r.	c #5B4B48",
";r.	c #705F5A",
">r.	c #6F5E5A",
",r.	c #5F524E",
"'r.	c #665450",
")r.	c #725E5A",
"!r.	c #74605D",
"~r.	c #6B5B5C",
"{r.	c #74686B",
"]r.	c #7E797D",
"^r.	c #7B7577",
"/r.	c #746B68",
"(r.	c #7A6F6E",
"_r.	c #7B716E",
":r.	c #7F7472",
"<r.	c #756B68",
"[r.	c #77706B",
"}r.	c #7D7871",
"|r.	c #78756D",
"1r.	c #76746E",
"2r.	c #62645C",
"3r.	c #5A5B53",
"4r.	c #625956",
"5r.	c #666361",
"6r.	c #61645F",
"7r.	c #69615C",
"8r.	c #6E655C",
"9r.	c #68645B",
"0r.	c #66635B",
"ar.	c #6A665E",
"br.	c #6C685F",
"cr.	c #605D56",
"dr.	c #65635C",
"er.	c #64615A",
"fr.	c #67635E",
"gr.	c #645F5A",
"hr.	c #6E6761",
"ir.	c #6A655F",
"jr.	c #666966",
"kr.	c #697270",
"lr.	c #666C69",
"mr.	c #676862",
"nr.	c #6D6B63",
"or.	c #6C6760",
"pr.	c #67625D",
"qr.	c #64615D",
"rr.	c #5D5B57",
"sr.	c #605F5A",
"tr.	c #6B6A65",
"ur.	c #666660",
"vr.	c #676761",
"wr.	c #62615D",
"xr.	c #60615B",
"yr.	c #6E6E68",
"zr.	c #777771",
"Ar.	c #6F6D6B",
"Br.	c #65625F",
"Cr.	c #605C58",
"Dr.	c #6B6B67",
"Er.	c #858784",
"Fr.	c #AAADAB",
"Gr.	c #D1D3D2",
"Hr.	c #EFEFEF",
"Ir.	c #B2B0AE",
"Jr.	c #878483",
"Kr.	c #868787",
"Lr.	c #807D7E",
"Mr.	c #7D6F70",
"Nr.	c #71706E",
"Or.	c #747472",
"Pr.	c #7E7F7C",
"Qr.	c #7D7C78",
"Rr.	c #787671",
"Sr.	c #78756F",
"Tr.	c #76736E",
"Ur.	c #736F68",
"Vr.	c #78776F",
"Wr.	c #6B6C68",
"Xr.	c #6A6B73",
"Yr.	c #6E6D72",
"Zr.	c #6F6D66",
"`r.	c #797370",
" s.	c #7A7172",
".s.	c #766B69",
"+s.	c #7D6F6B",
"@s.	c #7A6564",
"#s.	c #847171",
"$s.	c #827372",
"%s.	c #7A6A68",
"&s.	c #7D675D",
"*s.	c #86746D",
"=s.	c #888078",
"-s.	c #898780",
";s.	c #8B8A85",
">s.	c #847F7F",
",s.	c #847E7D",
"'s.	c #847E79",
")s.	c #86827C",
"!s.	c #7F7C75",
"~s.	c #7E7970",
"{s.	c #665D5B",
"]s.	c #756865",
"^s.	c #7F7470",
"/s.	c #8E837F",
"(s.	c #817270",
"_s.	c #8A7877",
":s.	c #897A79",
"<s.	c #817576",
"[s.	c #7C706D",
"}s.	c #7F7775",
"|s.	c #757473",
"1s.	c #656B6B",
"2s.	c #707777",
"3s.	c #7B7877",
"4s.	c #867774",
"5s.	c #83726F",
"6s.	c #7D6965",
"7s.	c #84716A",
"8s.	c #877D7A",
"9s.	c #837E7F",
"0s.	c #797171",
"as.	c #766764",
"bs.	c #867977",
"cs.	c #7B6C69",
"ds.	c #756763",
"es.	c #72635E",
"fs.	c #7E6F68",
"gs.	c #7A6C65",
"hs.	c #7C6E67",
"is.	c #756761",
"js.	c #766963",
"ks.	c #7A6F67",
"ls.	c #776B68",
"ms.	c #6E6767",
"ns.	c #746C6D",
"os.	c #7B6D6F",
"ps.	c #74615B",
"qs.	c #796763",
"rs.	c #7C6A66",
"ss.	c #796865",
"ts.	c #796764",
"us.	c #75665F",
"vs.	c #837774",
"ws.	c #827B7D",
"xs.	c #7D6F72",
"ys.	c #7F6A68",
"zs.	c #766961",
"As.	c #79736A",
"Bs.	c #766864",
"Cs.	c #7C6A68",
"Ds.	c #826F6C",
"Es.	c #806F6B",
"Fs.	c #80756F",
"Gs.	c #80746B",
"Hs.	c #86786D",
"Is.	c #836F67",
"Js.	c #846F6F",
"Ks.	c #7A7074",
"Ls.	c #807779",
"Ms.	c #8A7776",
"Ns.	c #8C7671",
"Os.	c #8D7B74",
"Ps.	c #8D7973",
"Qs.	c #897770",
"Rs.	c #86706B",
"Ss.	c #846F69",
"Ts.	c #8B7974",
"Us.	c #897772",
"Vs.	c #8B7972",
"Ws.	c #8D8489",
"Xs.	c #898389",
"Ys.	c #887C7D",
"Zs.	c #8A7672",
"`s.	c #8D7A75",
" t.	c #8C7E7C",
".t.	c #8A7D74",
"+t.	c #8D7F76",
"@t.	c #898178",
"#t.	c #89827D",
"$t.	c #877F7A",
"%t.	c #8B827D",
"&t.	c #89807B",
"*t.	c #857C76",
"=t.	c #89827C",
"-t.	c #8C8583",
";t.	c #898285",
">t.	c #8B8484",
",t.	c #8E837E",
"'t.	c #92867F",
")t.	c #93817F",
"!t.	c #907F7F",
"~t.	c #8E7B7A",
"{t.	c #87726E",
"]t.	c #8B7A76",
"^t.	c #8C7A76",
"/t.	c #887670",
"(t.	c #8D7E77",
"_t.	c #8E7973",
":t.	c #8E8283",
"<t.	c #8C8487",
"[t.	c #8B8383",
"}t.	c #8E8681",
"|t.	c #8F837D",
"1t.	c #918682",
"2t.	c #908480",
"3t.	c #928986",
"4t.	c #938A89",
"5t.	c #928D8C",
"6t.	c #93908D",
"7t.	c #918884",
"8t.	c #8D888A",
"9t.	c #89878B",
"0t.	c #898485",
"at.	c #8C8280",
"bt.	c #908682",
"ct.	c #8E827B",
"dt.	c #8E817C",
"et.	c #8C7876",
"ft.	c #8B7A77",
"gt.	c #8B7B75",
"ht.	c #8E7F7A",
"it.	c #8D7E7C",
"jt.	c #8E7F81",
"kt.	c #8E7F83",
"lt.	c #8F8285",
"mt.	c #8F8485",
"nt.	c #8F8282",
"ot.	c #8D7F80",
"pt.	c #8C7D7D",
"qt.	c #8E7F7E",
"rt.	c #8A7E7C",
"st.	c #8F8583",
"tt.	c #8F8785",
"ut.	c #8C807F",
"vt.	c #8C7B7C",
"wt.	c #89817A",
"xt.	c #8C8888",
"yt.	c #848684",
"zt.	c #807472",
"At.	c #83726C",
"Bt.	c #8C817D",
"Ct.	c #8C817B",
"Dt.	c #8A7F7A",
"Et.	c #8B7C7B",
"Ft.	c #827270",
"Gt.	c #8A7977",
"Ht.	c #8E7E7C",
"It.	c #8B7978",
"Jt.	c #837979",
"Kt.	c #817775",
"Lt.	c #8F847E",
"Mt.	c #8B7A7A",
"Nt.	c #847272",
"Ot.	c #8A827F",
"Pt.	c #8C827F",
"Qt.	c #887E7C",
"Rt.	c #867D7A",
"St.	c #88817D",
"Tt.	c #8C7B7A",
"Ut.	c #877573",
"Vt.	c #867673",
"Wt.	c #847775",
"Xt.	c #878181",
"Yt.	c #818283",
"Zt.	c #79797B",
"`t.	c #908B8C",
" u.	c #BAB6B5",
".u.	c #DDDBDB",
"+u.	c #C6C1C0",
"@u.	c #8D8184",
"#u.	c #87777A",
"$u.	c #887476",
"%u.	c #8A7575",
"&u.	c #8A7777",
"*u.	c #8A7C79",
"=u.	c #8D827D",
"-u.	c #8D827E",
";u.	c #8B7B79",
">u.	c #887A77",
",u.	c #8E807D",
"'u.	c #858179",
")u.	c #807F83",
"!u.	c #7F797C",
"~u.	c #86766F",
"{u.	c #8B7876",
"]u.	c #806560",
"^u.	c #846964",
"/u.	c #886C67",
"(u.	c #82665C",
"_u.	c #7C625C",
":u.	c #816A6B",
"<u.	c #826B6B",
"[u.	c #84756F",
"}u.	c #444041",
"|u.	c #62524E",
"1u.	c #6C5750",
"2u.	c #78645D",
"3u.	c #7B675F",
"4u.	c #856B64",
"5u.	c #76625F",
"6u.	c #79645D",
"7u.	c #766760",
"8u.	c #736C66",
"9u.	c #696A66",
"0u.	c #626762",
"au.	c #6C6560",
"bu.	c #7C6963",
"cu.	c #7D645C",
"du.	c #7C6861",
"eu.	c #7D655E",
"fu.	c #7B655E",
"gu.	c #7C665F",
"hu.	c #7A635B",
"iu.	c #7A6159",
"ju.	c #7C5F5A",
"ku.	c #79605C",
"lu.	c #7B6660",
"mu.	c #816A68",
"nu.	c #866B6E",
"ou.	c #84666B",
"pu.	c #7C6363",
"qu.	c #7D6661",
"ru.	c #7A615C",
"su.	c #7F645D",
"tu.	c #7F655C",
"uu.	c #826961",
"vu.	c #836A61",
"wu.	c #7F6863",
"xu.	c #816B65",
"yu.	c #876E6A",
"zu.	c #8A726E",
"Au.	c #8A7169",
"Bu.	c #897367",
"Cu.	c #746A68",
"Du.	c #786462",
"Eu.	c #7E5D54",
"Fu.	c #7F645C",
"Gu.	c #836860",
"Hu.	c #735B57",
"Iu.	c #776258",
"Ju.	c #745E53",
"Ku.	c #755C52",
"Lu.	c #7A645D",
"Mu.	c #745D5A",
"Nu.	c #7B5F5B",
"Ou.	c #7B615A",
"Pu.	c #76675A",
"Qu.	c #7D645B",
"Ru.	c #7E635B",
"Su.	c #7B6058",
"Tu.	c #796057",
"Uu.	c #80675E",
"Vu.	c #836962",
"Wu.	c #836F65",
"Xu.	c #836E60",
"Yu.	c #867065",
"Zu.	c #826C5E",
"`u.	c #7F6559",
" v.	c #7A645F",
".v.	c #6E6463",
"+v.	c #625B5B",
"@v.	c #735D5B",
"#v.	c #785C52",
"$v.	c #785B52",
"%v.	c #775B52",
"&v.	c #765950",
"*v.	c #74574F",
"=v.	c #795D54",
"-v.	c #7B5E55",
";v.	c #7B5E54",
">v.	c #7C6059",
",v.	c #796162",
"'v.	c #775B59",
")v.	c #78635E",
"!v.	c #725D56",
"~v.	c #735D53",
"{v.	c #7A6359",
"]v.	c #795F54",
"^v.	c #7B6156",
"/v.	c #775D54",
"(v.	c #7A6A60",
"_v.	c #806F67",
":v.	c #807168",
"<v.	c #7D6C65",
"[v.	c #80726D",
"}v.	c #726969",
"|v.	c #645A59",
"1v.	c #6B5953",
"2v.	c #785D58",
"3v.	c #745953",
"4v.	c #6F534D",
"5v.	c #71544E",
"6v.	c #795F58",
"7v.	c #796058",
"8v.	c #7C625B",
"9v.	c #786057",
"0v.	c #765F57",
"av.	c #785E56",
"bv.	c #765A51",
"cv.	c #725951",
"dv.	c #795B59",
"ev.	c #785F59",
"fv.	c #746057",
"gv.	c #776059",
"hv.	c #7A625B",
"iv.	c #7A655D",
"jv.	c #7C6760",
"kv.	c #7E6D67",
"lv.	c #807069",
"mv.	c #82726A",
"nv.	c #7C6A62",
"ov.	c #7C6860",
"pv.	c #7B6964",
"qv.	c #7D7070",
"rv.	c #787374",
"sv.	c #615C5D",
"tv.	c #745851",
"uv.	c #6A4D48",
"vv.	c #6A504B",
"wv.	c #684F49",
"xv.	c #684E48",
"yv.	c #6A534A",
"zv.	c #655046",
"Av.	c #674F47",
"Bv.	c #6E534E",
"Cv.	c #6B504E",
"Dv.	c #6F4F4D",
"Ev.	c #6D504C",
"Fv.	c #664C49",
"Gv.	c #694F4C",
"Hv.	c #684D4A",
"Iv.	c #6B4846",
"Jv.	c #6B4B47",
"Kv.	c #72514E",
"Lv.	c #70514E",
"Mv.	c #71514E",
"Nv.	c #6F4D4A",
"Ov.	c #704B49",
"Pv.	c #795952",
"Qv.	c #795655",
"Rv.	c #836B6A",
"Sv.	c #7D6E6B",
"Tv.	c #664D4A",
"Uv.	c #63433E",
"Vv.	c #6E4F49",
"Wv.	c #71524D",
"Xv.	c #684946",
"Yv.	c #72514C",
"Zv.	c #73504D",
"`v.	c #6F4D4B",
" w.	c #745150",
".w.	c #634342",
"+w.	c #6B4847",
"@w.	c #754F4E",
"#w.	c #6E4A48",
"$w.	c #724F4E",
"%w.	c #714F4C",
"&w.	c #72534F",
"*w.	c #755750",
"=w.	c #775650",
"-w.	c #775351",
";w.	c #764F4E",
">w.	c #6C4A48",
",w.	c #715451",
"'w.	c #6E534F",
")w.	c #705550",
"!w.	c #7A5656",
"~w.	c #795453",
"{w.	c #785452",
"]w.	c #7C5854",
"^w.	c #72524F",
"/w.	c #6D5654",
"(w.	c #706061",
"_w.	c #543D3E",
":w.	c #786060",
"<w.	c #9A8A8A",
"[w.	c #BCB6B4",
"}w.	c #B2A9A6",
"|w.	c #6D4A4A",
"1w.	c #644342",
"2w.	c #634442",
"3w.	c #644642",
"4w.	c #674541",
"5w.	c #6F4843",
"6w.	c #6E4843",
"7w.	c #6A4642",
"8w.	c #694440",
"9w.	c #6B4844",
"0w.	c #724D49",
"aw.	c #6A4743",
"bw.	c #6C4C48",
"cw.	c #6E4E4A",
"dw.	c #724E4A",
"ew.	c #744E49",
"fw.	c #60413C",
"gw.	c #5D433D",
"hw.	c #755C53",
"iw.	c #584746",
"jw.	c #5F4239",
"kw.	c #64423A",
"lw.	c #6A433E",
"mw.	c #6A413A",
"nw.	c #5E3A32",
"ow.	c #613C33",
"pw.	c #694137",
"qw.	c #674036",
"rw.	c #5D3431",
"sw.	c #58322F",
"tw.	c #653E36",
"uw.	c #683E35",
"vw.	c #4E3835",
"ww.	c #52322B",
"xw.	c #5B3730",
"yw.	c #603C33",
"zw.	c #573731",
"Aw.	c #563931",
"Bw.	c #553830",
"Cw.	c #523931",
"Dw.	c #5C483F",
"Ew.	c #6D5F56",
"Fw.	c #413C37",
"Gw.	c #46362F",
"Hw.	c #583831",
"Iw.	c #56352F",
"Jw.	c #5A3731",
"Kw.	c #5A362F",
"Lw.	c #523530",
"Mw.	c #5A3835",
"Nw.	c #633938",
"Ow.	c #643737",
"Pw.	c #5B3532",
"Qw.	c #53342F",
"Rw.	c #58362F",
"Sw.	c #5F3D36",
"Tw.	c #5D3B35",
"Uw.	c #583833",
"Vw.	c #5B3B36",
"Ww.	c #583733",
"Xw.	c #623D39",
"Yw.	c #6A413E",
"Zw.	c #644238",
"`w.	c #6F5449",
" x.	c #5C4D46",
".x.	c #603A30",
"+x.	c #63382F",
"@x.	c #673E35",
"#x.	c #653C34",
"$x.	c #56312D",
"%x.	c #623D33",
"&x.	c #5A372D",
"*x.	c #58342C",
"=x.	c #5A352D",
"-x.	c #643931",
";x.	c #63372F",
">x.	c #633B33",
",x.	c #693F36",
"'x.	c #613B33",
")x.	c #5E3B33",
"!x.	c #603B31",
"~x.	c #5E3B31",
"{x.	c #5D3B2F",
"]x.	c #695047",
"^x.	c #453F3A",
"/x.	c #48302B",
"(x.	c #60342B",
"_x.	c #65352C",
":x.	c #54322C",
"<x.	c #54312B",
"[x.	c #54332C",
"}x.	c #603B32",
"|x.	c #593931",
"1x.	c #63524E",
"2x.	c #4D312B",
"3x.	c #55332B",
"4x.	c #5C342D",
"5x.	c #4F322A",
"6x.	c #51322A",
"7x.	c #59372F",
"8x.	c #58372F",
"9x.	c #5B3B33",
"0x.	c #513732",
"ax.	c #82756F",
"bx.	c #49403C",
"cx.	c #5B332A",
"dx.	c #5A332A",
"ex.	c #663A34",
"fx.	c #72524B",
"gx.	c #574641",
"hx.	c #5B3229",
"ix.	c #5A322B",
"jx.	c #50332C",
"kx.	c #6C544D",
"lx.	c #68534E",
"mx.	c #63403B",
"nx.	c #7F6E6B",
"ox.	c #AAA19F",
"px.	c #E4E2E0",
"qx.	c #7D6861",
"rx.	c #65342A",
"sx.	c #5F3026",
"tx.	c #563534",
"ux.	c #5B3E37",
"vx.	c #857165",
"wx.	c #684B42",
"xx.	c #704C45",
"yx.	c #664E49",
"zx.	c #6C544E",
"Ax.	c #897E78",
"Bx.	c #4B413D",
"Cx.	c #5C2F25",
"Dx.	c #5C3026",
"Ex.	c #7F685E",
"Fx.	c #635A4F",
"Gx.	c #542D24",
"Hx.	c #503128",
"Ix.	c #756258",
"Jx.	c #68392F",
"Kx.	c #A0928E",
"Lx.	c #EFEFED",
"Mx.	c #613024",
"Nx.	c #542C24",
"Ox.	c #7A685F",
"Px.	c #673126",
"Qx.	c #65423C",
"Rx.	c #564A48",
"Sx.	c #432624",
"Tx.	c #88766E",
"Ux.	c #5F4E48",
"Vx.	c #772F29",
"Wx.	c #644740",
"Xx.	c #585452",
"Yx.	c #4C2925",
"Zx.	c #764D48",
"`x.	c #652A20",
" y.	c #67403B",
".y.	c #8F7A77",
"+y.	c #9E8784",
"@y.	c #744641",
"#y.	c #866F6D",
"$y.	c #C3B9B7",
"%y.	c #AB9997",
"&y.	c #7E5B57",
"*y.	c #6F5651",
"=y.	c #473F3C",
"-y.	c #472F2A",
";y.	c #502E26",
">y.	c #766761",
",y.	c #74453E",
"'y.	c #9C8581",
")y.	c #C8BFBC",
"!y.	c #D6D0CE",
"~y.	c #7B544F",
"{y.	c #68483D",
"]y.	c #75685A",
"^y.	c #623126",
"/y.	c #69392F",
"(y.	c #754D43",
"_y.	c #8A7772",
":y.	c #5A4E4D",
"<y.	c #662F24",
"[y.	c #5F2B23",
"}y.	c #66433F",
"|y.	c #867871",
"1y.	c #5C4F49",
"2y.	c #5D2E2B",
"3y.	c #664841",
"4y.	c #575251",
"5y.	c #6B2D24",
"6y.	c #744F48",
"7y.	c #6A524C",
"8y.	c #6F3E38",
"9y.	c #C9C3C1",
"0y.	c #E0DBDB",
"ay.	c #876D6A",
"by.	c #6A342C",
"cy.	c #A39492",
"dy.	c #DCD7D5",
"ey.	c #AC9C9B",
"fy.	c #7C524D",
"gy.	c #735A55",
"hy.	c #857D7A",
"iy.	c #433C39",
"jy.	c #7E6F6B",
"ky.	c #696662",
"ly.	c #4B302D",
"my.	c #6D6162",
"ny.	c #4D2F2A",
"oy.	c #752E23",
"py.	c #7D443F",
"qy.	c #957572",
"ry.	c #B5A5A4",
"sy.	c #D8D2D1",
"ty.	c #DCD8D5",
"uy.	c #825E59",
"vy.	c #6F4A3F",
"wy.	c #716252",
"xy.	c #67382D",
"yy.	c #70483E",
"zy.	c #84706A",
"Ay.	c #584C4A",
"By.	c #6C4843",
"Cy.	c #877C73",
"Dy.	c #8B7D7B",
"Ey.	c #5F5757",
"Fy.	c #4C2724",
"Gy.	c #672D23",
"Hy.	c #692B24",
"Iy.	c #6D4C44",
"Jy.	c #7A4640",
"Ky.	c #9A817E",
"Ly.	c #D1C9C7",
"My.	c #927F7E",
"Ny.	c #68352E",
"Oy.	c #A49594",
"Py.	c #FAF8F7",
"Qy.	c #A99895",
"Ry.	c #78524E",
"Sy.	c #755B54",
"Ty.	c #827B76",
"Uy.	c #643935",
"Vy.	c #6D352B",
"Wy.	c #846D69",
"Xy.	c #695E5C",
"Yy.	c #7D3329",
"Zy.	c #793027",
"`y.	c #763630",
" z.	c #7B4A45",
".z.	c #91726F",
"+z.	c #AF9D9A",
"@z.	c #B6A8A8",
"#z.	c #B3A4A3",
"$z.	c #947B78",
"%z.	c #703C34",
"&z.	c #726357",
"*z.	c #5A4F4C",
"=z.	c #742E29",
"-z.	c #6C453D",
";z.	c #5E4E48",
">z.	c #653F3B",
",z.	c #635B5C",
"'z.	c #4C2725",
")z.	c #542F26",
"!z.	c #644E46",
"~z.	c #682A21",
"{z.	c #77504C",
"]z.	c #998380",
"^z.	c #C8BDBC",
"/z.	c #F0EEEC",
"(z.	c #93807E",
"_z.	c #67352E",
":z.	c #A39593",
"<z.	c #D8D4D2",
"[z.	c #A49392",
"}z.	c #672C22",
"|z.	c #735C51",
"1z.	c #3C3531",
"2z.	c #653D38",
"3z.	c #716B68",
"4z.	c #4E312C",
"5z.	c #6B332C",
"6z.	c #806962",
"7z.	c #6B615C",
"8z.	c #783127",
"9z.	c #773026",
"0z.	c #793028",
"az.	c #682A24",
"bz.	c #652A24",
"cz.	c #735248",
"dz.	c #76665D",
"ez.	c #4F332D",
"fz.	c #6B322B",
"gz.	c #453F3D",
"hz.	c #64453F",
"iz.	c #887D78",
"jz.	c #5D5251",
"kz.	c #6A443D",
"lz.	c #604844",
"mz.	c #603E3A",
"nz.	c #8A7D7A",
"oz.	c #442625",
"pz.	c #654F46",
"qz.	c #6A2D23",
"rz.	c #713F38",
"sz.	c #9A8683",
"tz.	c #CEC8C8",
"uz.	c #8B7573",
"vz.	c #A39693",
"wz.	c #DAD4D2",
"xz.	c #AB9D9C",
"yz.	c #75524E",
"zz.	c #756255",
"Az.	c #78766C",
"Bz.	c #6E6664",
"Cz.	c #6D312B",
"Dz.	c #74352C",
"Ez.	c #6D382C",
"Fz.	c #816A5D",
"Gz.	c #6E645A",
"Hz.	c #723025",
"Iz.	c #77645F",
"Jz.	c #4A2F2A",
"Kz.	c #6A352F",
"Lz.	c #6D4A45",
"Mz.	c #584D4D",
"Nz.	c #887D79",
"Oz.	c #6A6463",
"Pz.	c #702D25",
"Qz.	c #6E4D44",
"Rz.	c #693A36",
"Sz.	c #957F7C",
"Tz.	c #DDD8D8",
"Uz.	c #7D5E5C",
"Vz.	c #A39592",
"Wz.	c #A1908F",
"Xz.	c #6E4945",
"Yz.	c #7B655B",
"Zz.	c #83746F",
"`z.	c #6A6360",
" A.	c #4D2F29",
".A.	c #6F352A",
"+A.	c #723529",
"@A.	c #693125",
"#A.	c #64362A",
"$A.	c #7F6D5D",
"%A.	c #696256",
"&A.	c #713225",
"*A.	c #786160",
"=A.	c #6E3A34",
"-A.	c #724C47",
";A.	c #5D5352",
">A.	c #472824",
",A.	c #674540",
"'A.	c #867372",
")A.	c #5E4A49",
"!A.	c #5D413A",
"~A.	c #8A7F7B",
"{A.	c #686160",
"]A.	c #672B24",
"^A.	c #682A25",
"/A.	c #77554C",
"(A.	c #6C554D",
"_A.	c #674440",
":A.	c #8C7A77",
"<A.	c #C0B9B8",
"[A.	c #9F8F8D",
"}A.	c #988886",
"|A.	c #73524E",
"1A.	c #433333",
"2A.	c #6F3125",
"3A.	c #653933",
"4A.	c #685D5B",
"5A.	c #51302A",
"6A.	c #796055",
"7A.	c #65564E",
"8A.	c #4A2E29",
"9A.	c #562C24",
"0A.	c #4D2A23",
"aA.	c #6E4B4A",
"bA.	c #7B5F62",
"cA.	c #4F302D",
"dA.	c #867A75",
"eA.	c #5F5352",
"fA.	c #442624",
"gA.	c #6C4943",
"hA.	c #614C4A",
"iA.	c #4C2A24",
"jA.	c #5F463D",
"kA.	c #8D837D",
"lA.	c #76584F",
"mA.	c #6F5850",
"nA.	c #602923",
"oA.	c #6E4441",
"pA.	c #C2BCBA",
"qA.	c #9A8784",
"rA.	c #5C261F",
"sA.	c #958280",
"tA.	c #998C8B",
"uA.	c #664B48",
"vA.	c #4E251F",
"wA.	c #6E544D",
"xA.	c #7F7270",
"yA.	c #433232",
"zA.	c #693B32",
"AA.	c #816962",
"BA.	c #685A56",
"CA.	c #7C605B",
"DA.	c #675654",
"EA.	c #4B2C29",
"FA.	c #745451",
"GA.	c #7A6466",
"HA.	c #4E2E2C",
"IA.	c #612924",
"JA.	c #5D4F4D",
"KA.	c #6E4740",
"LA.	c #88716C",
"MA.	c #5F4845",
"NA.	c #5F453C",
"OA.	c #8D807A",
"PA.	c #695F5D",
"QA.	c #75564B",
"RA.	c #8F7C79",
"SA.	c #D0CAC7",
"TA.	c #92817F",
"UA.	c #FBFBFC",
"VA.	c #D1CFCE",
"WA.	c #968D8B",
"XA.	c #6B3E32",
"YA.	c #675B53",
"ZA.	c #4E3028",
"`A.	c #712D29",
" B.	c #6D2C27",
".B.	c #7D605B",
"+B.	c #6B5A58",
"@B.	c #502A23",
"#B.	c #755A54",
"$B.	c #786866",
"%B.	c #654139",
"&B.	c #5F5150",
"*B.	c #72483F",
"=B.	c #876B64",
"-B.	c #59413E",
";B.	c #602824",
">B.	c #664940",
",B.	c #8F827B",
"'B.	c #675C5A",
")B.	c #7E5C4F",
"!B.	c #7A6057",
"~B.	c #C5BFBC",
"{B.	c #90817F",
"]B.	c #FDFDFF",
"^B.	c #F2F3F1",
"/B.	c #D7D6D4",
"(B.	c #B0B1AC",
"_B.	c #676361",
":B.	c #693732",
"<B.	c #7E615D",
"[B.	c #B1A6A4",
"}B.	c #978784",
"|B.	c #693F34",
"1B.	c #877668",
"2B.	c #665E54",
"3B.	c #4F3028",
"4B.	c #7B6157",
"5B.	c #6D5C53",
"6B.	c #51312B",
"7B.	c #4F2B24",
"8B.	c #6B554C",
"9B.	c #5E4F4E",
"0B.	c #724B41",
"aB.	c #866D65",
"bB.	c #57403D",
"cB.	c #5C2824",
"dB.	c #645A5A",
"eB.	c #732D25",
"fB.	c #845954",
"gB.	c #8D6A68",
"hB.	c #876562",
"iB.	c #7C504B",
"jB.	c #72322B",
"kB.	c #6D261A",
"lB.	c #6E2A20",
"mB.	c #6B2A21",
"nB.	c #622720",
"oB.	c #692B23",
"pB.	c #602822",
"qB.	c #682921",
"rB.	c #69241C",
"sB.	c #642621",
"tB.	c #6C4846",
"uB.	c #856F6E",
"vB.	c #AC9C97",
"wB.	c #ECEBEB",
"xB.	c #A2928F",
"yB.	c #91807F",
"zB.	c #F8F8F9",
"AB.	c #DFDFDF",
"BB.	c #BDB4B3",
"CB.	c #988582",
"DB.	c #805E5B",
"EB.	c #672A1F",
"FB.	c #672921",
"GB.	c #703E38",
"HB.	c #896E6C",
"IB.	c #B2A5A3",
"JB.	c #E1DEDC",
"KB.	c #B2A7A5",
"LB.	c #724339",
"MB.	c #8E7A6F",
"NB.	c #695D56",
"OB.	c #773327",
"PB.	c #723225",
"QB.	c #723226",
"RB.	c #673527",
"SB.	c #806250",
"TB.	c #6C584B",
"UB.	c #732F25",
"VB.	c #783028",
"WB.	c #772F26",
"XB.	c #793226",
"YB.	c #682F24",
"ZB.	c #743226",
"`B.	c #703125",
" C.	c #7C6F6C",
".C.	c #472F2D",
"+C.	c #612F24",
"@C.	c #663125",
"#C.	c #66463F",
"$C.	c #5F5351",
"%C.	c #6B4840",
"&C.	c #57433F",
"*C.	c #654640",
"=C.	c #8A807C",
"-C.	c #645F5E",
";C.	c #752E28",
">C.	c #793E3A",
",C.	c #C6B8B6",
"'C.	c #E7E3E2",
")C.	c #E4DFDD",
"!C.	c #C4B8B7",
"~C.	c #9A807E",
"{C.	c #8C6C6A",
"]C.	c #80605D",
"^C.	c #7B504C",
"/C.	c #784C47",
"(C.	c #6D3933",
"_C.	c #6B332E",
":C.	c #6F342F",
"<C.	c #67261D",
"[C.	c #64251D",
"}C.	c #62231C",
"|C.	c #6E3E3A",
"1C.	c #7E5A56",
"2C.	c #A89592",
"3C.	c #BAAFAE",
"4C.	c #CFCAC9",
"5C.	c #E5E4E4",
"6C.	c #BEB3B2",
"7C.	c #704440",
"8C.	c #92807F",
"9C.	c #FCFBFC",
"0C.	c #DBD6D4",
"aC.	c #B4A8A6",
"bC.	c #8E7774",
"cC.	c #724E49",
"dC.	c #6B2B20",
"eC.	c #754A45",
"fC.	c #9A8583",
"gC.	c #C7BEBC",
"hC.	c #D1CCCB",
"iC.	c #978682",
"jC.	c #7B463F",
"kC.	c #917A76",
"lC.	c #6E5F5F",
"mC.	c #54302D",
"nC.	c #6F362A",
"oC.	c #753D2F",
"pC.	c #8A6959",
"qC.	c #735F54",
"rC.	c #4D2E28",
"sC.	c #783227",
"tC.	c #7B3427",
"uC.	c #7F3528",
"vC.	c #866C67",
"wC.	c #7F7576",
"xC.	c #4A302F",
"yC.	c #672F2B",
"zC.	c #593933",
"AC.	c #68352A",
"BC.	c #605854",
"CC.	c #66342C",
"DC.	c #6D4E47",
"EC.	c #7D6F69",
"FC.	c #534440",
"GC.	c #53322A",
"HC.	c #5B3D39",
"IC.	c #756F6E",
"JC.	c #5F5F5F",
"KC.	c #6A3F3A",
"LC.	c #EEEDEA",
"MC.	c #C8C0BE",
"NC.	c #B8AEAD",
"OC.	c #B7AFAE",
"PC.	c #D2CCCA",
"QC.	c #D2CCCB",
"RC.	c #F3F1F0",
"SC.	c #A29393",
"TC.	c #8E8180",
"UC.	c #E0E0DF",
"VC.	c #A6A09E",
"WC.	c #C3BDBA",
"XC.	c #A59996",
"YC.	c #7B6461",
"ZC.	c #6B4945",
"`C.	c #67413C",
" D.	c #6C3F39",
".D.	c #6E423C",
"+D.	c #693A33",
"@D.	c #B5ACA9",
"#D.	c #C6C2C1",
"$D.	c #BFB8B5",
"%D.	c #D7D4D1",
"&D.	c #715E59",
"*D.	c #6C473F",
"=D.	c #81716F",
"-D.	c #615A5C",
";D.	c #4D2D2A",
">D.	c #61322B",
",D.	c #60342C",
"'D.	c #59322A",
")D.	c #663D33",
"!D.	c #7E635A",
"~D.	c #3F2E2B",
"{D.	c #73605B",
"]D.	c #6F6A6C",
"^D.	c #3C2E2E",
"/D.	c #50302C",
"(D.	c #473532",
"_D.	c #56423D",
":D.	c #746B66",
"<D.	c #58524F",
"[D.	c #3D2E28",
"}D.	c #4A312B",
"|D.	c #4F302B",
"1D.	c #54322B",
"2D.	c #55362E",
"3D.	c #68605C",
"4D.	c #473E3D",
"5D.	c #4C4B4C",
"6D.	c #312A28",
"7D.	c #352826",
"8D.	c #372827",
"9D.	c #432E2A",
"0D.	c #432D28",
"aD.	c #46322E",
"bD.	c #A19D9B",
"cD.	c #DCD9D9",
"dD.	c #87807F",
"eD.	c #493734",
"fD.	c #402C2A",
"gD.	c #858180",
"hD.	c #D0D0CE",
"iD.	c #3B3533",
"jD.	c #6F6C6A",
"kD.	c #B4B3B2",
"lD.	c #DDDDDC",
"mD.	c #D4D3D2",
"nD.	c #BEBCBB",
"oD.	c #898483",
"pD.	c #665C5B",
"qD.	c #BAB7B6",
"rD.	c #CAC8C7",
"sD.	c #9B9796",
"tD.	c #453434",
"uD.	c #463837",
"vD.	c #AFACAD",
"wD.	c #DADADA",
"xD.	c #C9C9C7",
"yD.	c #8C8A89",
"zD.	c #3E312E",
"AD.	c #969291",
"BD.	c #ACA9A7",
"CD.	c #443B39",
"DD.	c #372A27",
"ED.	c #414543",
"FD.	c #463B37",
"GD.	c #403633",
"HD.	c #3F3532",
"ID.	c #413935",
"JD.	c #423835",
"KD.	c #463934",
"LD.	c #4A3D3A",
"MD.	c #433832",
"ND.	c #443832",
"OD.	c #3E322F",
"PD.	c #362D29",
"QD.	c #392D2A",
"RD.	c #352B27",
"SD.	c #342B29",
"TD.	c #332A28",
"UD.	c #392F2B",
"VD.	c #433D39",
"WD.	c #3B3B3A",
"XD.	c #2F2E2D",
"YD.	c #2E2A28",
"ZD.	c #322B29",
"`D.	c #332C29",
" E.	c #342B28",
".E.	c #3A302D",
"+E.	c #3A3230",
"@E.	c #37302E",
"#E.	c #39312F",
"$E.	c #3A312F",
"%E.	c #3D2F2E",
"&E.	c #3F312E",
"*E.	c #403736",
"=E.	c #3F3836",
"-E.	c #403835",
";E.	c #3C3331",
">E.	c #3A302E",
",E.	c #3B3431",
"'E.	c #39312E",
")E.	c #3E3431",
"!E.	c #3C3431",
"~E.	c #352E2C",
"{E.	c #342C2A",
"]E.	c #362D2C",
"^E.	c #362C2B",
"/E.	c #38302C",
"(E.	c #484340",
"_E.	c #4C4C4E",
":E.	c #383534",
"<E.	c #372D2A",
"[E.	c #382F2B",
"}E.	c #3D332E",
"|E.	c #382E2A",
"1E.	c #3A312D",
"2E.	c #3E3634",
"3E.	c #36312F",
"4E.	c #453D3A",
"5E.	c #423D3B",
"6E.	c #413E3A",
"7E.	c #3E3735",
"8E.	c #423B39",
"9E.	c #424141",
"0E.	c #594B46",
"aE.	c #5D4E49",
"bE.	c #61524C",
"cE.	c #655650",
"dE.	c #63544E",
"eE.	c #5F514B",
"fE.	c #5E4F49",
"gE.	c #584F4A",
"hE.	c #5C524D",
"iE.	c #655C57",
"jE.	c #706058",
"kE.	c #75655D",
"lE.	c #685B55",
"mE.	c #70645C",
"nE.	c #75675E",
"oE.	c #6E5F57",
"pE.	c #6F5F57",
"qE.	c #716158",
"rE.	c #70635A",
"sE.	c #695352",
"tE.	c #66564F",
"uE.	c #62534B",
"vE.	c #5D4F4C",
"wE.	c #594E49",
"xE.	c #594B44",
"yE.	c #584944",
"zE.	c #5C4D48",
"AE.	c #4D403E",
"BE.	c #4C3F3D",
"CE.	c #433A36",
"DE.	c #463D3A",
"EE.	c #54504E",
"FE.	c #544F4B",
"GE.	c #554F4C",
"HE.	c #514B48",
"IE.	c #4B433F",
"JE.	c #4B413C",
"KE.	c #514843",
"LE.	c #504945",
"ME.	c #554A48",
"NE.	c #5D5150",
"OE.	c #554D48",
"PE.	c #564A47",
"QE.	c #4C4340",
"RE.	c #4A4543",
"SE.	c #4D4A48",
"TE.	c #514D49",
"UE.	c #4E4641",
"VE.	c #534A44",
"WE.	c #514D46",
"XE.	c #645351",
"YE.	c #64564F",
"ZE.	c #645851",
"`E.	c #645452",
" F.	c #5E4E4C",
".F.	c #62524F",
"+F.	c #61504B",
"@F.	c #5F4E49",
"#F.	c #5B4E4A",
"$F.	c #4C4341",
"%F.	c #584C46",
"&F.	c #594D48",
"*F.	c #544844",
"=F.	c #615651",
"-F.	c #5B4E4B",
";F.	c #5B4F4B",
">F.	c #5B504C",
",F.	c #5C514C",
"'F.	c #5A514B",
")F.	c #5D524B",
"!F.	c #5F544D",
"~F.	c #615650",
"{F.	c #857F7C",
"]F.	c #605F5B",
"^F.	c #4A4747",
"/F.	c #514A4C",
"(F.	c #8C8987",
"_F.	c #817E7B",
":F.	c #5D5852",
"<F.	c #5F5A55",
"[F.	c #72706C",
"}F.	c #84827F",
"|F.	c #A4A2A1",
"1F.	c #B7B5B3",
"2F.	c #959390",
"3F.	c #5E5A53",
"4F.	c #5C5954",
"5F.	c #DCDCDC",
"6F.	c #E8E9E8",
"7F.	c #C2C1BE",
"8F.	c #6E6663",
"9F.	c #67625E",
"0F.	c #696B65",
"aF.	c #6B6763",
"bF.	c #63544F",
"cF.	c #5C5448",
"dF.	c #5A554A",
"eF.	c #59514B",
"fF.	c #787370",
"gF.	c #C0BEBC",
"hF.	c #9B9693",
"iF.	c #645A53",
"jF.	c #635851",
"kF.	c #61554E",
"lF.	c #60534D",
"mF.	c #60544E",
"nF.	c #60554F",
"oF.	c #5F534D",
"pF.	c #5E524C",
"qF.	c #625953",
"rF.	c #6E6B65",
"sF.	c #7D7B76",
"tF.	c #7B746E",
"uF.	c #7A706A",
"vF.	c #7C716B",
"wF.	c #7B6E68",
"xF.	c #82736C",
"yF.	c #7A6D66",
"zF.	c #776D68",
"AF.	c #7D716C",
"BF.	c #776F69",
"CF.	c #7B746F",
"DF.	c #7D7772",
"EF.	c #807872",
"FF.	c #80766D",
"GF.	c #7D7678",
"HF.	c #7E7372",
"IF.	c #797165",
"JF.	c #7B7264",
"KF.	c #716460",
"LF.	c #69625A",
"MF.	c #70645E",
"NF.	c #6B605A",
"OF.	c #6F6660",
"PF.	c #6A615C",
"QF.	c #665E58",
"RF.	c #675D57",
"SF.	c #635A52",
"TF.	c #645B53",
"UF.	c #625851",
"VF.	c #625650",
"WF.	c #665D57",
"XF.	c #635952",
"YF.	c #6A6059",
"ZF.	c #685E56",
"`F.	c #685F57",
" G.	c #71665F",
".G.	c #736761",
"+G.	c #706560",
"@G.	c #6C5D58",
"#G.	c #6C5E59",
"$G.	c #70615D",
"%G.	c #736863",
"&G.	c #756F62",
"*G.	c #797372",
"=G.	c #747572",
"-G.	c #746E69",
";G.	c #6D6462",
">G.	c #76706B",
",G.	c #6F6760",
"'G.	c #766C65",
")G.	c #706962",
"!G.	c #6B625C",
"~G.	c #685E58",
"{G.	c #665C56",
"]G.	c #675A53",
"^G.	c #63564E",
"/G.	c #685B53",
"(G.	c #796F6A",
"_G.	c #7F7976",
":G.	c #746C68",
"<G.	c #71645C",
"[G.	c #73645E",
"}G.	c #695953",
"|G.	c #756660",
"1G.	c #776963",
"2G.	c #736760",
"3G.	c #776E67",
"4G.	c #77726D",
"5G.	c #706C6B",
"6G.	c #6B655F",
"7G.	c #756A5F",
"8G.	c #797A79",
"9G.	c #7A7E7B",
"0G.	c #696560",
"aG.	c #78726D",
"bG.	c #7F7772",
"cG.	c #6E605A",
"dG.	c #857267",
"eG.	c #88756B",
"fG.	c #867369",
"gG.	c #887A6F",
"hG.	c #8C7C70",
"iG.	c #89786C",
"jG.	c #877368",
"kG.	c #847266",
"lG.	c #887B6F",
"mG.	c #887C71",
"nG.	c #887A70",
"oG.	c #897B73",
"pG.	c #8B7E76",
"qG.	c #887D74",
"rG.	c #86776D",
"sG.	c #85766B",
"tG.	c #897C71",
"uG.	c #8A7C70",
"vG.	c #8B7D71",
"wG.	c #8D7E73",
"xG.	c #8D8074",
"yG.	c #908679",
"zG.	c #908578",
"AG.	c #8F8377",
"BG.	c #8D7F73",
"CG.	c #8C7D71",
"DG.	c #8B7C6F",
"EG.	c #8B8173",
"FG.	c #8E7D7A",
"GG.	c #837065",
"HG.	c #82716D",
"IG.	c #847369",
"JG.	c #867769",
"KG.	c #827667",
"LG.	c #7F7567",
"MG.	c #82786A",
"NG.	c #867C6F",
"OG.	c #82776B",
"PG.	c #7C7167",
"QG.	c #82766C",
"RG.	c #82766B",
"SG.	c #7B7064",
"TG.	c #7E7568",
"UG.	c #7E7A6B",
"VG.	c #7B7465",
"WG.	c #776E60",
"XG.	c #7E7468",
"YG.	c #827B6F",
"ZG.	c #807B70",
"`G.	c #837D73",
" H.	c #89857B",
".H.	c #87847B",
"+H.	c #87827A",
"@H.	c #88847A",
"#H.	c #868179",
"$H.	c #89847E",
"%H.	c #7E7770",
"&H.	c #7E7269",
"*H.	c #81766D",
"=H.	c #857D76",
"-H.	c #817973",
";H.	c #8A8176",
">H.	c #857E70",
",H.	c #84796C",
"'H.	c #84786C",
")H.	c #82786E",
"!H.	c #838175",
"~H.	c #83867E",
"{H.	c #7D7F78",
"]H.	c #706C62",
"^H.	c #7F7E6C",
"/H.	c #858474",
"(H.	c #8E8078",
"_H.	c #857D6E",
":H.	c #7F796B",
"<H.	c #8A7A6F",
"[H.	c #867669",
"}H.	c #847367",
"|H.	c #7D7368",
"1H.	c #776C62",
"2H.	c #7E7266",
"3H.	c #827669",
"4H.	c #827668",
"5H.	c #84786B",
"6H.	c #897D70",
"7H.	c #8F877A",
"8H.	c #8C8377",
"9H.	c #8B7E71",
"0H.	c #8A776E",
"aH.	c #8B786E",
"bH.	c #8A786F",
"cH.	c #837268",
"dH.	c #847469",
"eH.	c #8B7D6F",
"fH.	c #897C6D",
"gH.	c #877B6D",
"hH.	c #898074",
"iH.	c #D3D0CC",
"jH.	c #D1D1CF",
"kH.	c #969492",
"lH.	c #736B6C",
"mH.	c #99948E",
"nH.	c #F0F1EE",
"oH.	c #E4E4E3",
"pH.	c #C1BFBB",
"qH.	c #A4A09A",
"rH.	c #8F8A83",
"sH.	c #8B867F",
"tH.	c #8C8680",
"uH.	c #8D8982",
"vH.	c #8E8B82",
"wH.	c #8F8E89",
"xH.	c #91908E",
"yH.	c #A1A09F",
"zH.	c #A4A49F",
"AH.	c #9C9A91",
"BH.	c #908D85",
"CH.	c #8E8D83",
"DH.	c #7E8177",
"EH.	c #805F58",
"FH.	c #836B5D",
"GH.	c #847162",
"HH.	c #A79C96",
"IH.	c #DCD9D7",
"JH.	c #E1DDDA",
"KH.	c #94817C",
"LH.	c #877168",
"MH.	c #866F66",
"NH.	c #866B61",
"OH.	c #7F645B",
"PH.	c #856B62",
"QH.	c #87746B",
"RH.	c #857169",
"SH.	c #846F68",
"TH.	c #8E827A",
"UH.	c #8A7A72",
"VH.	c #897169",
"WH.	c #886A63",
"XH.	c #8A6E64",
"YH.	c #866961",
"ZH.	c #816861",
"`H.	c #876C65",
" I.	c #866D69",
".I.	c #8A7571",
"+I.	c #897670",
"@I.	c #8D8385",
"#I.	c #827264",
"$I.	c #847261",
"%I.	c #886C65",
"&I.	c #877069",
"*I.	c #846A63",
"=I.	c #836862",
"-I.	c #89726A",
";I.	c #887367",
">I.	c #887468",
",I.	c #80665D",
"'I.	c #866A62",
")I.	c #8B736A",
"!I.	c #8B746B",
"~I.	c #866C62",
"{I.	c #866B62",
"]I.	c #856C62",
"^I.	c #876C64",
"/I.	c #866962",
"(I.	c #866C65",
"_I.	c #876B66",
":I.	c #836661",
"<I.	c #846762",
"[I.	c #866968",
"}I.	c #826D66",
"|I.	c #776A5A",
"1I.	c #7A6862",
"2I.	c #8B8381",
"3I.	c #7D7976",
"4I.	c #887F76",
"5I.	c #887771",
"6I.	c #8A7771",
"7I.	c #89746D",
"8I.	c #8A746D",
"9I.	c #876D66",
"0I.	c #876D64",
"aI.	c #866A5F",
"bI.	c #82655B",
"cI.	c #88726A",
"dI.	c #8D7C75",
"eI.	c #897973",
"fI.	c #87776F",
"gI.	c #846E67",
"hI.	c #87726A",
"iI.	c #89736A",
"jI.	c #886F66",
"kI.	c #8A7369",
"lI.	c #8D776D",
"mI.	c #8A726B",
"nI.	c #8C776E",
"oI.	c #8B766E",
"pI.	c #88766D",
"qI.	c #89786E",
"rI.	c #8B7B72",
"sI.	c #8D817B",
"tI.	c #8C807D",
"uI.	c #83746A",
"vI.	c #867464",
"wI.	c #848883",
"xI.	c #7E736D",
"yI.	c #827069",
"zI.	c #846D67",
"AI.	c #87706B",
"BI.	c #54423E",
"CI.	c #6A4B43",
"DI.	c #654840",
"EI.	c #61463E",
"FI.	c #705147",
"GI.	c #6A4B41",
"HI.	c #6C4B42",
"II.	c #71564A",
"JI.	c #72574C",
"KI.	c #6F4F47",
"LI.	c #6A4C44",
"MI.	c #664A43",
"NI.	c #64473F",
"OI.	c #6A4A41",
"PI.	c #724D45",
"QI.	c #775249",
"RI.	c #7A584D",
"SI.	c #77574C",
"TI.	c #6D4E45",
"UI.	c #6A4B42",
"VI.	c #68493E",
"WI.	c #674B40",
"XI.	c #6E4743",
"YI.	c #674C43",
"ZI.	c #856C68",
"`I.	c #6F574E",
" J.	c #73594C",
".J.	c #71594B",
"+J.	c #6C5649",
"@J.	c #755E51",
"#J.	c #786154",
"$J.	c #70594E",
"%J.	c #765E53",
"&J.	c #745D50",
"*J.	c #735B4E",
"=J.	c #7C6456",
"-J.	c #816C5C",
";J.	c #826F5E",
">J.	c #7D6657",
",J.	c #765F51",
"'J.	c #766457",
")J.	c #7B685B",
"!J.	c #79675B",
"~J.	c #7C695D",
"{J.	c #736055",
"]J.	c #7F6C60",
"^J.	c #7F6C63",
"/J.	c #766159",
"(J.	c #735A51",
"_J.	c #7B6557",
":J.	c #796556",
"<J.	c #786051",
"[J.	c #7C6357",
"}J.	c #7B665B",
"|J.	c #796A5F",
"1J.	c #887D73",
"2J.	c #837A71",
"3J.	c #5A5047",
"4J.	c #625346",
"5J.	c #6C5D4C",
"6J.	c #7A6A5A",
"7J.	c #785B53",
"8J.	c #6A564A",
"9J.	c #5B4B40",
"0J.	c #604A40",
"aJ.	c #674E43",
"bJ.	c #6A4F43",
"cJ.	c #6B4F43",
"dJ.	c #6C5145",
"eJ.	c #634C41",
"fJ.	c #644D43",
"gJ.	c #634D41",
"hJ.	c #6B5246",
"iJ.	c #6E5649",
"jJ.	c #6A5347",
"kJ.	c #675044",
"lJ.	c #6B5448",
"mJ.	c #6F5549",
"nJ.	c #705148",
"oJ.	c #705047",
"pJ.	c #6E5046",
"qJ.	c #77584E",
"rJ.	c #6B5045",
"sJ.	c #6E5448",
"tJ.	c #7C6152",
"uJ.	c #765D4E",
"vJ.	c #70594B",
"wJ.	c #695549",
"xJ.	c #A7A09D",
"yJ.	c #A8A4A4",
"zJ.	c #AFADA9",
"AJ.	c #F5F5F3",
"BJ.	c #D7D5D1",
"CJ.	c #B5ADA8",
"DJ.	c #9B8E87",
"EJ.	c #89776D",
"FJ.	c #7A655A",
"GJ.	c #807061",
"HJ.	c #837469",
"IJ.	c #83726A",
"JJ.	c #7E6F62",
"KJ.	c #7C6E60",
"LJ.	c #807567",
"MJ.	c #787264",
"NJ.	c #644F4A",
"OJ.	c #A19592",
"PJ.	c #C9C5C2",
"QJ.	c #684744",
"RJ.	c #663B36",
"SJ.	c #604037",
"TJ.	c #5D3C36",
"UJ.	c #5C3E38",
"VJ.	c #5A3B36",
"WJ.	c #5F3B35",
"XJ.	c #643932",
"YJ.	c #643A33",
"ZJ.	c #5D3834",
"`J.	c #55332F",
" K.	c #553330",
".K.	c #593734",
"+K.	c #5A3936",
"@K.	c #563734",
"#K.	c #593D37",
"$K.	c #6D5852",
"%K.	c #7F6B6A",
"&K.	c #574341",
"*K.	c #5C3E33",
"=K.	c #623A36",
"-K.	c #633835",
";K.	c #653C37",
">K.	c #623B36",
",K.	c #673F39",
"'K.	c #6A4139",
")K.	c #6B423C",
"!K.	c #613836",
"~K.	c #5D3734",
"{K.	c #593634",
"]K.	c #523833",
"^K.	c #4D382E",
"/K.	c #5E433F",
"(K.	c #5F5350",
"_K.	c #523D37",
":K.	c #5A423B",
"<K.	c #654340",
"[K.	c #5D3B37",
"}K.	c #633F3A",
"|K.	c #633D39",
"1K.	c #633A35",
"2K.	c #6A3F39",
"3K.	c #623E38",
"4K.	c #63413B",
"5K.	c #5A3C37",
"6K.	c #5C3D36",
"7K.	c #5E3D36",
"8K.	c #613F36",
"9K.	c #634039",
"0K.	c #63423A",
"aK.	c #64443C",
"bK.	c #60433B",
"cK.	c #694541",
"dK.	c #694946",
"eK.	c #593F39",
"fK.	c #543D34",
"gK.	c #604B46",
"hK.	c #847D76",
"iK.	c #686B64",
"jK.	c #4E403A",
"kK.	c #583C37",
"lK.	c #5D3D38",
"mK.	c #5B3935",
"nK.	c #4D3431",
"oK.	c #785651",
"pK.	c #614945",
"qK.	c #4D312C",
"rK.	c #82655E",
"sK.	c #533A35",
"tK.	c #F5F5F6",
"uK.	c #D4D2D2",
"vK.	c #C8C6C6",
"wK.	c #DBD9D7",
"xK.	c #C7C1BF",
"yK.	c #9D8F8D",
"zK.	c #66443E",
"AK.	c #6E4C48",
"BK.	c #91807E",
"CK.	c #998F8D",
"DK.	c #756360",
"EK.	c #624E42",
"FK.	c #72665B",
"GK.	c #B7B3B0",
"HK.	c #AEA4A4",
"IK.	c #4D2824",
"JK.	c #623329",
"KK.	c #4D2D25",
"LK.	c #846B68",
"MK.	c #574642",
"NK.	c #553935",
"OK.	c #65665E",
"PK.	c #523531",
"QK.	c #5D322C",
"RK.	c #764F4A",
"SK.	c #5C423D",
"TK.	c #795A54",
"UK.	c #513733",
"VK.	c #5A251D",
"WK.	c #6D4744",
"XK.	c #FDFBFB",
"YK.	c #887F7D",
"ZK.	c #4D3F3E",
"`K.	c #6C5350",
" L.	c #95817E",
".L.	c #B4A5A3",
"+L.	c #D2C9C7",
"@L.	c #E7E4E3",
"#L.	c #ECE9E9",
"$L.	c #5E261D",
"%L.	c #9A8684",
"&L.	c #E8E5E3",
"*L.	c #6E6058",
"=L.	c #787168",
"-L.	c #DADAD8",
";L.	c #826C68",
">L.	c #652B1F",
",L.	c #66443C",
"'L.	c #51312C",
")L.	c #753629",
"!L.	c #78372A",
"~L.	c #763629",
"{L.	c #55322E",
"]L.	c #816460",
"^L.	c #56403A",
"/L.	c #5B3B35",
"(L.	c #5D4340",
"_L.	c #6F5750",
":L.	c #785754",
"<L.	c #ADA09E",
"[L.	c #C8C1C1",
"}L.	c #D0CBCB",
"|L.	c #CDC5C3",
"1L.	c #9D8A85",
"2L.	c #673731",
"3L.	c #A69996",
"4L.	c #F8F5F6",
"5L.	c #7F7678",
"6L.	c #79514D",
"7L.	c #774039",
"8L.	c #81504B",
"9L.	c #886A67",
"0L.	c #A58E8B",
"aL.	c #BBADAB",
"bL.	c #B5AAA9",
"cL.	c #5C261C",
"dL.	c #A39290",
"eL.	c #F4F3F0",
"fL.	c #DAD7D6",
"gL.	c #7F756A",
"hL.	c #706C5F",
"iL.	c #CBCBC8",
"jL.	c #CCC6C4",
"kL.	c #713428",
"lL.	c #6B4A42",
"mL.	c #6E564E",
"nL.	c #793628",
"oL.	c #7C3629",
"pL.	c #7B372A",
"qL.	c #56322D",
"rL.	c #745E59",
"sL.	c #543F3A",
"tL.	c #8B7A73",
"uL.	c #4A302C",
"vL.	c #732D26",
"wL.	c #722C27",
"xL.	c #712C27",
"yL.	c #7C5B59",
"zL.	c #5E4745",
"AL.	c #7A534F",
"BL.	c #AD9E9D",
"CL.	c #E5E0DE",
"DL.	c #EEEAEA",
"EL.	c #79504C",
"FL.	c #632A23",
"GL.	c #765755",
"HL.	c #E5DFDF",
"IL.	c #E8E6E7",
"JL.	c #82797E",
"KL.	c #817C7C",
"LL.	c #ECEAEA",
"ML.	c #C3B7B6",
"NL.	c #AA9795",
"OL.	c #8D6F6C",
"PL.	c #845350",
"QL.	c #78413C",
"RL.	c #794440",
"SL.	c #855A57",
"TL.	c #AA9490",
"UL.	c #C9BFBD",
"VL.	c #F4F2F1",
"WL.	c #876C6A",
"XL.	c #CEC7C5",
"YL.	c #B2A7A4",
"ZL.	c #796658",
"`L.	c #6B6455",
" M.	c #B1AFAB",
".M.	c #F9F7F6",
"+M.	c #743126",
"@M.	c #6B5950",
"#M.	c #80362A",
"$M.	c #82372A",
"%M.	c #7E3529",
"&M.	c #6B5A56",
"*M.	c #5D3936",
"=M.	c #533331",
"-M.	c #712C26",
";M.	c #682A26",
">M.	c #642925",
",M.	c #632C23",
"'M.	c #643531",
")M.	c #775957",
"!M.	c #554242",
"~M.	c #502C29",
"{M.	c #683932",
"]M.	c #7A5852",
"^M.	c #612E2B",
"/M.	c #6C2B26",
"(M.	c #722D28",
"_M.	c #7A4C48",
":M.	c #C4B8B5",
"<M.	c #F7F6F4",
"[M.	c #ECE8E6",
"}M.	c #EAE7E4",
"|M.	c #F7F5F3",
"1M.	c #CAC1BF",
"2M.	c #8A6B69",
"3M.	c #C5BBBA",
"4M.	c #938D90",
"5M.	c #D7CFCE",
"6M.	c #BFB1B0",
"7M.	c #A99594",
"8M.	c #91716E",
"9M.	c #804C47",
"0M.	c #743731",
"aM.	c #733935",
"bM.	c #8B5F5C",
"cM.	c #A58C8A",
"dM.	c #BDADAB",
"eM.	c #CDC3C2",
"fM.	c #DDD7D5",
"gM.	c #CAC1BE",
"hM.	c #997F7A",
"iM.	c #69241D",
"jM.	c #682822",
"kM.	c #663530",
"lM.	c #71443F",
"mM.	c #877267",
"nM.	c #706356",
"oM.	c #EBE6E5",
"pM.	c #947571",
"qM.	c #9E827E",
"rM.	c #8F6A66",
"sM.	c #7C4642",
"tM.	c #6E2D23",
"uM.	c #6C2E24",
"vM.	c #7B302A",
"wM.	c #685046",
"xM.	c #7B3228",
"yM.	c #783026",
"zM.	c #772F27",
"AM.	c #762E26",
"BM.	c #7B3027",
"CM.	c #7D3029",
"DM.	c #7F3329",
"EM.	c #803329",
"FM.	c #623F39",
"GM.	c #6A625E",
"HM.	c #7A605C",
"IM.	c #534442",
"JM.	c #512B29",
"KM.	c #6E2E24",
"LM.	c #7A584E",
"MM.	c #68342F",
"NM.	c #AFA29D",
"OM.	c #F4F1EE",
"PM.	c #E7E2DF",
"QM.	c #A89D9B",
"RM.	c #9C8B89",
"SM.	c #C1B9B6",
"TM.	c #A0908D",
"UM.	c #653935",
"VM.	c #988A86",
"WM.	c #ABA7A7",
"XM.	c #534746",
"YM.	c #DDDAD9",
"ZM.	c #E8E6E5",
"`M.	c #DDD8D7",
" N.	c #C7BDBC",
".N.	c #A99997",
"+N.	c #977976",
"@N.	c #81524D",
"#N.	c #752F25",
"$N.	c #7A4039",
"%N.	c #8A5D58",
"&N.	c #957470",
"*N.	c #A18683",
"=N.	c #AA9794",
"-N.	c #BCB0AE",
";N.	c #CEC5C4",
">N.	c #DFDADA",
",N.	c #E9E6E6",
"'N.	c #C9C0C0",
")N.	c #B8AAA9",
"!N.	c #A59291",
"~N.	c #9A8382",
"{N.	c #7D5B59",
"]N.	c #784D48",
"^N.	c #8C7370",
"/N.	c #C3BBBA",
"(N.	c #D8D3D0",
"_N.	c #B0A6A0",
":N.	c #6E6153",
"<N.	c #ACA7A6",
"[N.	c #D2CAC8",
"}N.	c #763D37",
"|N.	c #A38D8A",
"1N.	c #EAE7E5",
"2N.	c #EEECEA",
"3N.	c #D3CCCA",
"4N.	c #744B45",
"5N.	c #6A5046",
"6N.	c #6E2C25",
"7N.	c #792F27",
"8N.	c #6E4942",
"9N.	c #82746A",
"0N.	c #886F69",
"aN.	c #69605B",
"bN.	c #4F3331",
"cN.	c #693A34",
"dN.	c #544743",
"eN.	c #673C30",
"fN.	c #7E5D4F",
"gN.	c #563A31",
"hN.	c #775B57",
"iN.	c #E9E4E1",
"jN.	c #EAE8E4",
"kN.	c #9C8B87",
"lN.	c #653E39",
"mN.	c #846661",
"nN.	c #734B46",
"oN.	c #704540",
"pN.	c #98837F",
"qN.	c #F9F8F6",
"rN.	c #B4AAA7",
"sN.	c #DBD5D5",
"tN.	c #483431",
"uN.	c #C9C2C1",
"vN.	c #E6E1E0",
"wN.	c #BCAFAD",
"xN.	c #AA9694",
"yN.	c #937673",
"zN.	c #815B57",
"AN.	c #73433E",
"BN.	c #74433E",
"CN.	c #76433E",
"DN.	c #774E4A",
"EN.	c #977E7A",
"FN.	c #A38D8B",
"GN.	c #B3A2A1",
"HN.	c #BFB3B0",
"IN.	c #D2C9C9",
"JN.	c #EBE8E8",
"KN.	c #E7E3E3",
"LN.	c #D1CAC8",
"MN.	c #BEB2B1",
"NN.	c #B6AAA8",
"ON.	c #A69493",
"PN.	c #957E7C",
"QN.	c #856764",
"RN.	c #79514C",
"SN.	c #74423C",
"TN.	c #79433D",
"UN.	c #76433D",
"VN.	c #7B534F",
"WN.	c #A28F8D",
"XN.	c #D0C9C8",
"YN.	c #A79D95",
"ZN.	c #82766A",
"`N.	c #CECDCB",
" O.	c #AC9E9B",
".O.	c #6B362F",
"+O.	c #6D3B35",
"@O.	c #EEECEC",
"#O.	c #F4F5F3",
"$O.	c #907572",
"%O.	c #695A4F",
"&O.	c #704B43",
"*O.	c #8B7D73",
"=O.	c #53413A",
"-O.	c #6B625A",
";O.	c #623125",
">O.	c #673934",
",O.	c #554443",
"'O.	c #663C31",
")O.	c #7D5D50",
"!O.	c #53362E",
"~O.	c #A99B96",
"{O.	c #F5F1EC",
"]O.	c #BBB3AE",
"^O.	c #A49692",
"/O.	c #E2DEDB",
"(O.	c #D4CCC9",
"_O.	c #A89794",
":O.	c #774E49",
"<O.	c #74534F",
"[O.	c #C5BCB8",
"}O.	c #F2F1EE",
"|O.	c #CBC6C5",
"1O.	c #FBF9F8",
"2O.	c #CECDCD",
"3O.	c #A69D9A",
"4O.	c #F8FAF8",
"5O.	c #D5CFCE",
"6O.	c #C3BAB8",
"7O.	c #AD9F9D",
"8O.	c #A49492",
"9O.	c #998684",
"0O.	c #907470",
"aO.	c #886662",
"bO.	c #774540",
"cO.	c #6B2920",
"dO.	c #764943",
"eO.	c #774D49",
"fO.	c #81625E",
"gO.	c #8E7A76",
"hO.	c #9B8784",
"iO.	c #AD9C9B",
"jO.	c #AD9D9C",
"kO.	c #B3A8A7",
"lO.	c #C4BEBD",
"mO.	c #C6C1C1",
"nO.	c #C6C5C3",
"oO.	c #C5C2BF",
"pO.	c #C7C2C1",
"qO.	c #C8C2C2",
"rO.	c #C9C2C2",
"sO.	c #C9C1C1",
"tO.	c #CAC1C1",
"uO.	c #BFB4B2",
"vO.	c #B0A09E",
"wO.	c #A89491",
"xO.	c #977D7A",
"yO.	c #8E7371",
"zO.	c #7D514D",
"AO.	c #784843",
"BO.	c #6A2920",
"CO.	c #713E38",
"DO.	c #794F4B",
"EO.	c #825F5B",
"FO.	c #8A6C68",
"GO.	c #947B79",
"HO.	c #A4918E",
"IO.	c #AE9E9C",
"JO.	c #C5BAB7",
"KO.	c #EDECEB",
"LO.	c #8D7C71",
"MO.	c #999287",
"NO.	c #E8E9E6",
"OO.	c #ECE9E7",
"PO.	c #8F7D78",
"QO.	c #724A47",
"RO.	c #AC9E9D",
"SO.	c #DFDCDB",
"TO.	c #E1DBDA",
"UO.	c #7F5652",
"VO.	c #725246",
"WO.	c #705F55",
"XO.	c #763327",
"YO.	c #6F4E46",
"ZO.	c #8D827A",
"`O.	c #5B4941",
" P.	c #8A756B",
".P.	c #6C6259",
"+P.	c #583532",
"@P.	c #6B2C28",
"#P.	c #7A5E5D",
"$P.	c #584545",
"%P.	c #663E34",
"&P.	c #7D5D53",
"*P.	c #593630",
"=P.	c #CCC0BC",
"-P.	c #ECE7E1",
";P.	c #E8E1DD",
">P.	c #FFFDF9",
",P.	c #FFFDFA",
"'P.	c #FEFCFA",
")P.	c #764A43",
"!P.	c #AE9F9A",
"~P.	c #E4E0DE",
"{P.	c #9C8D89",
"]P.	c #643831",
"^P.	c #E5E3E4",
"/P.	c #786F6E",
"(P.	c #7E6D68",
"_P.	c #EAE7E7",
":P.	c #D6D1D0",
"<P.	c #CDC7C5",
"[P.	c #C1B9B7",
"}P.	c #BCB1B0",
"|P.	c #AB9C9A",
"1P.	c #A69796",
"2P.	c #826562",
"3P.	c #724845",
"4P.	c #6F4B48",
"5P.	c #684C4A",
"6P.	c #5F3B37",
"7P.	c #68413D",
"8P.	c #623935",
"9P.	c #603833",
"0P.	c #643835",
"aP.	c #663A35",
"bP.	c #673935",
"cP.	c #683935",
"dP.	c #6F3B36",
"eP.	c #6D372F",
"fP.	c #75443E",
"gP.	c #754945",
"hP.	c #856663",
"iP.	c #947E7A",
"jP.	c #AFA2A1",
"kP.	c #BFB6B6",
"lP.	c #C8C2C1",
"mP.	c #D4CECE",
"nP.	c #DEDAD8",
"oP.	c #E6E4E2",
"pP.	c #836D62",
"qP.	c #BEB9B2",
"rP.	c #F9F9F7",
"sP.	c #704F47",
"tP.	c #794D48",
"uP.	c #D4CDCA",
"vP.	c #824F4A",
"wP.	c #834C45",
"xP.	c #804D47",
"yP.	c #93726D",
"zP.	c #B5A19E",
"AP.	c #D2C8C6",
"BP.	c #947673",
"CP.	c #6E2D24",
"DP.	c #76564A",
"EP.	c #77645D",
"FP.	c #6E4D45",
"GP.	c #65504A",
"HP.	c #793428",
"IP.	c #88786D",
"JP.	c #69635B",
"KP.	c #573433",
"LP.	c #6C2C28",
"MP.	c #79605E",
"NP.	c #673F36",
"OP.	c #7F6056",
"PP.	c #D4C9C3",
"QP.	c #DED6CF",
"RP.	c #FAF7F0",
"SP.	c #FFFCF7",
"TP.	c #FFFCF8",
"UP.	c #FFFCF9",
"VP.	c #FDFBF8",
"WP.	c #FAF9F5",
"XP.	c #E0DBD7",
"YP.	c #937976",
"ZP.	c #6E3B36",
"`P.	c #A18E8C",
" Q.	c #ECE7E5",
".Q.	c #94827E",
"+Q.	c #785B58",
"@Q.	c #DBD5D4",
"#Q.	c #958E8D",
"$Q.	c #EEEBEA",
"%Q.	c #FBF9F9",
"&Q.	c #F9FBFA",
"*Q.	c #F4F5F4",
"=Q.	c #E1DDDD",
"-Q.	c #D0CCCB",
";Q.	c #D5D2CF",
">Q.	c #CECECB",
",Q.	c #CDCCC9",
"'Q.	c #E3E2E0",
")Q.	c #F5F6F5",
"!Q.	c #FBFCFA",
"~Q.	c #8D7E7D",
"{Q.	c #E3E0DC",
"]Q.	c #AEA29F",
"^Q.	c #602A1F",
"/Q.	c #714641",
"(Q.	c #BEB2B0",
"_Q.	c #E8E4E2",
":Q.	c #B09F9B",
"<Q.	c #835551",
"[Q.	c #753A34",
"}Q.	c #845C59",
"|Q.	c #AC928E",
"1Q.	c #BEACAA",
"2Q.	c #BAAAA8",
"3Q.	c #9D807D",
"4Q.	c #874F49",
"5Q.	c #8C5953",
"6Q.	c #80433D",
"7Q.	c #795B4E",
"8Q.	c #79312A",
"9Q.	c #67473F",
"0Q.	c #8F8179",
"aQ.	c #6F5852",
"bQ.	c #66665B",
"cQ.	c #583431",
"dQ.	c #6F2C27",
"eQ.	c #7C6460",
"fQ.	c #5D4D4A",
"gQ.	c #662A24",
"hQ.	c #72463C",
"iQ.	c #836258",
"jQ.	c #D4C7C1",
"kQ.	c #CFC4BD",
"lQ.	c #653A35",
"mQ.	c #CBC0BC",
"nQ.	c #FDF9F3",
"oQ.	c #FFFCF6",
"pQ.	c #FEFCF7",
"qQ.	c #FEFCF8",
"rQ.	c #FEFBF8",
"sQ.	c #D5CBC8",
"tQ.	c #6E3C36",
"uQ.	c #6F312B",
"vQ.	c #9F8884",
"wQ.	c #E1DDDB",
"xQ.	c #FBFCF9",
"yQ.	c #FDFCF9",
"zQ.	c #683C39",
"AQ.	c #F9F7F5",
"BQ.	c #BCB7B6",
"CQ.	c #723C37",
"DQ.	c #A69594",
"EQ.	c #D0C9C7",
"FQ.	c #735655",
"GQ.	c #A19490",
"HQ.	c #F6F3F2",
"IQ.	c #BAB0AE",
"JQ.	c #F3F2F0",
"KQ.	c #977C78",
"LQ.	c #794139",
"MQ.	c #8D6B68",
"NQ.	c #B9ACAA",
"OQ.	c #C9BDBA",
"PQ.	c #86564F",
"QQ.	c #755D51",
"RQ.	c #786B62",
"SQ.	c #60443C",
"TQ.	c #8C7D74",
"UQ.	c #765F58",
"VQ.	c #7F7568",
"WQ.	c #6B6C62",
"XQ.	c #3F2C2A",
"YQ.	c #5D4B47",
"ZQ.	c #6D4539",
"`Q.	c #806557",
" R.	c #583C35",
".R.	c #6A3830",
"+R.	c #D3C5BE",
"@R.	c #C1B3AB",
"#R.	c #CCC0BB",
"$R.	c #FDF8F1",
"%R.	c #FEFAF3",
"&R.	c #FFFBF4",
"*R.	c #FFFCF5",
"=R.	c #FEFBF7",
"-R.	c #D5CAC7",
";R.	c #8B7572",
">R.	c #DDDAD7",
",R.	c #FBFBF8",
"'R.	c #7F6562",
")R.	c #EBE8E5",
"!R.	c #E1DEDB",
"~R.	c #652A23",
"{R.	c #632920",
"]R.	c #6E3933",
"^R.	c #845F5A",
"/R.	c #9F8A89",
"(R.	c #C0B2B0",
"_R.	c #D3CCCB",
":R.	c #E3DFDE",
"<R.	c #F1EEED",
"[R.	c #D6D2D2",
"}R.	c #867371",
"|R.	c #5E3936",
"1R.	c #CCC6C6",
"2R.	c #FCFAFA",
"3R.	c #B6A7A5",
"4R.	c #67291D",
"5R.	c #A1918F",
"6R.	c #846B67",
"7R.	c #6F3932",
"8R.	c #A6938F",
"9R.	c #B5A5A2",
"0R.	c #733831",
"aR.	c #705A50",
"bR.	c #7D362A",
"cR.	c #674A43",
"dR.	c #88746E",
"eR.	c #6F5550",
"fR.	c #553632",
"gR.	c #684037",
"hR.	c #5A4843",
"iR.	c #663428",
"jR.	c #714739",
"kR.	c #7D6051",
"lR.	c #533730",
"mR.	c #6A3831",
"nR.	c #D1C1BA",
"oR.	c #B4A49C",
"pR.	c #CCBFB9",
"qR.	c #FDF7ED",
"rR.	c #FEF9F0",
"sR.	c #FEFAF2",
"tR.	c #FFFAF3",
"uR.	c #FEFBF5",
"vR.	c #FEFCF5",
"wR.	c #EDE8E2",
"xR.	c #9C8680",
"yR.	c #714741",
"zR.	c #A18E89",
"AR.	c #7B5B56",
"BR.	c #958582",
"CR.	c #E7E6E2",
"DR.	c #F8F6F3",
"ER.	c #B0A6A2",
"FR.	c #A5938E",
"GR.	c #69281E",
"HR.	c #7A4E49",
"IR.	c #9D8381",
"JR.	c #A99795",
"KR.	c #BFB3B2",
"LR.	c #D8D2D2",
"MR.	c #C3B9B9",
"NR.	c #9E8E8D",
"OR.	c #562520",
"PR.	c #F1ECEB",
"QR.	c #96726F",
"RR.	c #773E39",
"SR.	c #BEB0B0",
"TR.	c #B7A8A7",
"UR.	c #7D5855",
"VR.	c #6D3D38",
"WR.	c #B0A3A0",
"XR.	c #DFDAD9",
"YR.	c #DED8D6",
"ZR.	c #7D524F",
"`R.	c #7A6561",
" S.	c #7C362A",
".S.	c #7F362A",
"+S.	c #785450",
"@S.	c #907674",
"#S.	c #6C4F4D",
"$S.	c #5C3331",
"%S.	c #7A6861",
"&S.	c #634137",
"*S.	c #7F665C",
"=S.	c #594640",
"-S.	c #6D2F2A",
";S.	c #7A4C40",
">S.	c #7F6054",
",S.	c #51302C",
"'S.	c #692A26",
")S.	c #C2B1A8",
"!S.	c #C7BAAF",
"~S.	c #69423D",
"{S.	c #D5C8C1",
"]S.	c #FDF6EC",
"^S.	c #FFF8EE",
"/S.	c #F8F2E8",
"(S.	c #E8E3D9",
"_S.	c #E6E0D9",
":S.	c #DDD4CF",
"<S.	c #A5908A",
"[S.	c #76443D",
"}S.	c #A89590",
"|S.	c #DDD6D1",
"1S.	c #8D7573",
"2S.	c #A09491",
"3S.	c #F1EDEA",
"4S.	c #D9D5D0",
"5S.	c #6D524F",
"6S.	c #8C7F7C",
"7S.	c #D6CDCA",
"8S.	c #774D48",
"9S.	c #74322B",
"0S.	c #753B34",
"aS.	c #7A443F",
"bS.	c #967F7D",
"cS.	c #B8ACAA",
"dS.	c #C6BEBD",
"eS.	c #D7D1D1",
"fS.	c #E4E1DF",
"gS.	c #E9E5E5",
"hS.	c #C2B7B5",
"iS.	c #A1928E",
"jS.	c #6F3C38",
"kS.	c #672F2C",
"lS.	c #613D38",
"mS.	c #C6C0BF",
"nS.	c #FDFCFD",
"oS.	c #77423C",
"pS.	c #743A32",
"qS.	c #78504C",
"rS.	c #6D3C39",
"sS.	c #755652",
"tS.	c #C5BBB9",
"uS.	c #9B807D",
"vS.	c #7A4844",
"wS.	c #A2918F",
"xS.	c #6C332D",
"yS.	c #6F524C",
"zS.	c #4E3332",
"AS.	c #71332C",
"BS.	c #75362C",
"CS.	c #77372D",
"DS.	c #77362C",
"ES.	c #74352B",
"FS.	c #6E312B",
"GS.	c #662E2A",
"HS.	c #74514F",
"IS.	c #8E7677",
"JS.	c #654C4D",
"KS.	c #73342B",
"LS.	c #6C312B",
"MS.	c #70352E",
"NS.	c #813E37",
"OS.	c #76372F",
"PS.	c #572B29",
"QS.	c #7B6E66",
"RS.	c #6E6C66",
"SS.	c #4F3634",
"TS.	c #5F443B",
"US.	c #776158",
"VS.	c #51413C",
"WS.	c #542A27",
"XS.	c #622E2A",
"YS.	c #63302C",
"ZS.	c #7B5F56",
"`S.	c #4D2F2D",
" T.	c #5E2A28",
".T.	c #612D2A",
"+T.	c #5A2721",
"@T.	c #B3A39A",
"#T.	c #DDD1C6",
"$T.	c #E6DDD2",
"%T.	c #FDF5EA",
"&T.	c #F9F3E7",
"*T.	c #C2B8AE",
"=T.	c #714F4B",
"-T.	c #6F4742",
";T.	c #98827D",
">T.	c #DFD7D2",
",T.	c #B7AFAB",
"'T.	c #745A56",
")T.	c #7C6561",
"!T.	c #5B3F3C",
"~T.	c #C1BAB8",
"{T.	c #EDEAE5",
"]T.	c #958B87",
"^T.	c #57413C",
"/T.	c #C8C4C1",
"(T.	c #F7F6F3",
"_T.	c #A99E9A",
":T.	c #725B59",
"<T.	c #9C9190",
"[T.	c #A8A09F",
"}T.	c #C5C3C1",
"|T.	c #D0CECC",
"1T.	c #DFDFDE",
"2T.	c #E5E6E4",
"3T.	c #E6E7E6",
"4T.	c #F0F1F1",
"5T.	c #F1F2F1",
"6T.	c #F1F2F2",
"7T.	c #E6E6E6",
"8T.	c #DBDAD8",
"9T.	c #C6C5C4",
"0T.	c #B1ADAB",
"aT.	c #9B9290",
"bT.	c #817371",
"cT.	c #8A8584",
"dT.	c #A9A2A1",
"eT.	c #604C48",
"fT.	c #7C7371",
"gT.	c #64534F",
"hT.	c #4D3029",
"iT.	c #5B4441",
"jT.	c #897D7B",
"kT.	c #D5D1D0",
"lT.	c #827472",
"mT.	c #4B2B24",
"nT.	c #4A312C",
"oT.	c #60524F",
"pT.	c #3C2F2D",
"qT.	c #512E2A",
"rT.	c #3F2D27",
"sT.	c #594641",
"tT.	c #6C5F5D",
"uT.	c #4B3E3C",
"vT.	c #443029",
"wT.	c #523229",
"xT.	c #513229",
"yT.	c #503229",
"zT.	c #59342B",
"AT.	c #613B32",
"BT.	c #59362C",
"CT.	c #583129",
"DT.	c #5C342C",
"ET.	c #543128",
"FT.	c #472B24",
"GT.	c #472C25",
"HT.	c #54413C",
"IT.	c #69665D",
"JT.	c #5D635B",
"KT.	c #33302C",
"LT.	c #412D28",
"MT.	c #433B38",
"NT.	c #40352F",
"OT.	c #40342E",
"PT.	c #473931",
"QT.	c #483A33",
"RT.	c #463932",
"ST.	c #4C3D36",
"TT.	c #4E3F36",
"UT.	c #4D3D35",
"VT.	c #4B3B33",
"WT.	c #4A3A32",
"XT.	c #45352E",
"YT.	c #493A33",
"ZT.	c #473830",
"`T.	c #473932",
" U.	c #463730",
".U.	c #44352F",
"+U.	c #362B27",
"@U.	c #3A2E29",
"#U.	c #352726",
"$U.	c #362925",
"%U.	c #4B3F38",
"&U.	c #60514D",
"*U.	c #433838",
"=U.	c #3B2B27",
"-U.	c #402D2A",
";U.	c #3C2F29",
">U.	c #3E2C26",
",U.	c #482F2A",
"'U.	c #3F2925",
")U.	c #3A2824",
"!U.	c #574A43",
"~U.	c #372925",
"{U.	c #3D2625",
"]U.	c #362623",
"^U.	c #382624",
"/U.	c #382320",
"(U.	c #F2EADB",
"_U.	c #F0E9D9",
":U.	c #FAF1E3",
"<U.	c #FDF5E8",
"[U.	c #FAF3E6",
"}U.	c #CFC7BD",
"|U.	c #837C75",
"1U.	c #6F6560",
"2U.	c #7D736E",
"3U.	c #B2AAA3",
"4U.	c #E2DCD5",
"5U.	c #C4C1BB",
"6U.	c #625C59",
"7U.	c #C7C3BE",
"8U.	c #D1CDC8",
"9U.	c #665F5D",
"0U.	c #E4E2DE",
"aU.	c #C9C6C3",
"bU.	c #58524E",
"cU.	c #8C8985",
"dU.	c #F0EFEC",
"eU.	c #716A69",
"fU.	c #3B2A25",
"gU.	c #3C2924",
"hU.	c #392924",
"iU.	c #392825",
"jU.	c #382522",
"kU.	c #32221F",
"lU.	c #2F1D18",
"mU.	c #2E1C17",
"nU.	c #33201A",
"oU.	c #35231C",
"pU.	c #3F302B",
"qU.	c #463733",
"rU.	c #524A48",
"sU.	c #514A48",
"tU.	c #5F5A59",
"uU.	c #716E6D",
"vU.	c #716F6E",
"wU.	c #757271",
"xU.	c #878685",
"yU.	c #8C8A8A",
"zU.	c #8B8A89",
"AU.	c #8F8F8E",
"BU.	c #908F8F",
"CU.	c #A4A3A3",
"DU.	c #AAA9A9",
"EU.	c #A9A9A9",
"FU.	c #AAAAA9",
"GU.	c #ABAAAA",
"HU.	c #ABABAA",
"IU.	c #A3A3A3",
"JU.	c #91908F",
"KU.	c #858383",
"LU.	c #74716F",
"MU.	c #6C6968",
"NU.	c #342A26",
"OU.	c #32221D",
"PU.	c #34221F",
"QU.	c #3A2B27",
"RU.	c #B3B2B1",
"SU.	c #C3C3C3",
"TU.	c #524F4C",
"UU.	c #413F39",
"VU.	c #42423B",
"WU.	c #837E7D",
"XU.	c #BCBAB8",
"YU.	c #403932",
"ZU.	c #3F372E",
"`U.	c #453D34",
" V.	c #615C56",
".V.	c #918E8A",
"+V.	c #C2C1BF",
"@V.	c #E9EAE9",
"#V.	c #A8A6A3",
"$V.	c #4C443B",
"%V.	c #4E4840",
"&V.	c #464139",
"*V.	c #443C35",
"=V.	c #463B35",
"-V.	c #493E37",
";V.	c #483E36",
">V.	c #443C34",
",V.	c #483F37",
"'V.	c #433B34",
")V.	c #403A34",
"!V.	c #3E3732",
"~V.	c #3E3630",
"{V.	c #3D3630",
"]V.	c #3E3731",
"^V.	c #3C3631",
"/V.	c #423C34",
"(V.	c #565449",
"_V.	c #4B4640",
":V.	c #434238",
"<V.	c #413F37",
"[V.	c #4E433C",
"}V.	c #4B433B",
"|V.	c #49403D",
"1V.	c #4B423F",
"2V.	c #4E4742",
"3V.	c #49433E",
"4V.	c #4A4540",
"5V.	c #4D4841",
"6V.	c #4D4641",
"7V.	c #4C453E",
"8V.	c #4A413B",
"9V.	c #4D433C",
"0V.	c #524941",
"aV.	c #50493F",
"bV.	c #51473E",
"cV.	c #574B41",
"dV.	c #5B4E43",
"eV.	c #53493F",
"fV.	c #51453C",
"gV.	c #4F453E",
"hV.	c #4F4541",
"iV.	c #524743",
"jV.	c #534943",
"kV.	c #4D473D",
"lV.	c #514B3D",
"mV.	c #676056",
"nV.	c #72706A",
"oV.	c #67645D",
"pV.	c #5F5B4C",
"qV.	c #645949",
"rV.	c #645447",
"sV.	c #5E5043",
"tV.	c #635548",
"uV.	c #6B5B4E",
"vV.	c #726253",
"wV.	c #68594C",
"xV.	c #645448",
"yV.	c #615145",
"zV.	c #5D5044",
"AV.	c #5E5346",
"BV.	c #6A5F51",
"CV.	c #736758",
"DV.	c #6F6050",
"EV.	c #6E5E4E",
"FV.	c #675849",
"GV.	c #635243",
"HV.	c #6C594B",
"IV.	c #695648",
"JV.	c #5C4C3F",
"KV.	c #5E5245",
"LV.	c #585144",
"MV.	c #514D42",
"NV.	c #555044",
"OV.	c #60584C",
"PV.	c #62574C",
"QV.	c #66594C",
"RV.	c #5F5448",
"SV.	c #594F44",
"TV.	c #544B40",
"UV.	c #4F473D",
"VV.	c #4F463C",
"WV.	c #50483E",
"XV.	c #493F37",
"YV.	c #483D35",
"ZV.	c #4C423A",
"`V.	c #584A46",
" W.	c #6D7368",
".W.	c #5E685E",
"+W.	c #3D3E39",
"@W.	c #3A3731",
"#W.	c #3B3832",
"$W.	c #39352F",
"%W.	c #3C3731",
"&W.	c #67625C",
"*W.	c #756D65",
"=W.	c #766D67",
"-W.	c #797169",
";W.	c #7E756E",
">W.	c #7D766E",
",W.	c #807870",
"'W.	c #786F66",
")W.	c #776E65",
"!W.	c #776E66",
"~W.	c #736D66",
"{W.	c #6B645C",
"]W.	c #6D675F",
"^W.	c #6A645D",
"/W.	c #66615B",
"(W.	c #625C58",
"_W.	c #615C58",
":W.	c #5A5550",
"<W.	c #5C5854",
"[W.	c #6B635B",
"}W.	c #68615E",
"|W.	c #595954",
"1W.	c #68655E",
"2W.	c #73696B",
"3W.	c #655C60",
"4W.	c #5E5951",
"5W.	c #5C574F",
"6W.	c #5B564F",
"7W.	c #5F5952",
"8W.	c #645F59",
"9W.	c #625D54",
"0W.	c #615D53",
"aW.	c #605E53",
"bW.	c #5F5E53",
"cW.	c #616156",
"dW.	c #59574D",
"eW.	c #565249",
"fW.	c #58524A",
"gW.	c #575048",
"hW.	c #574E47",
"iW.	c #564C46",
"jW.	c #594F47",
"kW.	c #584F48",
"lW.	c #514B44",
"mW.	c #49443E",
"nW.	c #48453F",
"oW.	c #4C4842",
"pW.	c #4C4540",
"qW.	c #403B38",
"rW.	c #413C3A",
"sW.	c #413D3A",
"tW.	c #403B37",
"uW.	c #423D38",
"vW.	c #494541",
"wW.	c #5E5E5F",
"xW.	c #575050",
"yW.	c #534B46",
"zW.	c #4A4E43",
"AW.	c #4B4C45",
"BW.	c #504745",
"CW.	c #4F4D49",
"DW.	c #4C4B46",
"EW.	c #4F4D48",
"FW.	c #4F4C47",
"GW.	c #4D4A46",
"HW.	c #524F4A",
"IW.	c #4A4844",
"JW.	c #484742",
"KW.	c #615E57",
"LW.	c #E4DECE",
"MW.	c #FCF4E1",
"NW.	c #FDF3E2",
"OW.	c #FDF4E5",
"PW.	c #FDF4E6",
"QW.	c #FAF1E4",
"RW.	c #EEE7DB",
"SW.	c #EDE5DA",
"TW.	c #EFE8DC",
"UW.	c #F8F2E7",
"VW.	c #D8D3CA",
"WW.	c #76726C",
"XW.	c #716D68",
"YW.	c #C7C5BE",
"ZW.	c #F8F6ED",
"`W.	c #F6F3ED",
" X.	c #A7A4A0",
".X.	c #605B59",
"+X.	c #CBC8C5",
"@X.	c #F2F1EC",
"#X.	c #A49F9A",
"$X.	c #867E7D",
"%X.	c #FEFDFA",
"&X.	c #FDFDF9",
"*X.	c #C1BEBC",
"=X.	c #5F5A51",
"-X.	c #5C5850",
";X.	c #545049",
">X.	c #524E47",
",X.	c #54524A",
"'X.	c #545148",
")X.	c #564F49",
"!X.	c #59514A",
"~X.	c #574F4A",
"{X.	c #57504A",
"]X.	c #57524D",
"^X.	c #5B5652",
"/X.	c #5B5753",
"(X.	c #605E5A",
"_X.	c #5E5D59",
":X.	c #55544F",
"<X.	c #5D5854",
"[X.	c #615A54",
"}X.	c #625B54",
"|X.	c #605C55",
"1X.	c #5C5A53",
"2X.	c #5D5A54",
"3X.	c #5C5952",
"4X.	c #5C5752",
"5X.	c #5B5551",
"6X.	c #5D5155",
"7X.	c #57564C",
"8X.	c #635F57",
"9X.	c #6C6769",
"0X.	c #665E63",
"aX.	c #5F5F55",
"bX.	c #62605B",
"cX.	c #64625C",
"dX.	c #686560",
"eX.	c #67645F",
"fX.	c #65605C",
"gX.	c #66605E",
"hX.	c #68625F",
"iX.	c #6A6560",
"jX.	c #69655F",
"kX.	c #6B6761",
"lX.	c #6C6861",
"mX.	c #706C64",
"nX.	c #6F6A63",
"oX.	c #6F6965",
"pX.	c #675F5C",
"qX.	c #62605E",
"rX.	c #646261",
"sX.	c #5F5A58",
"tX.	c #655B57",
"uX.	c #625D58",
"vX.	c #67605C",
"wX.	c #655E59",
"xX.	c #685F5B",
"yX.	c #685F58",
"zX.	c #615A53",
"AX.	c #665B58",
"BX.	c #909089",
"CX.	c #EAEBE9",
"DX.	c #B9B6B4",
"EX.	c #BBB9B2",
"FX.	c #B4B4AE",
"GX.	c #837D75",
"HX.	c #8F8782",
"IX.	c #85817A",
"JX.	c #858078",
"KX.	c #B6B4B1",
"LX.	c #EDEEEC",
"MX.	c #B3B0AC",
"NX.	c #857E75",
"OX.	c #878077",
"PX.	c #7A7068",
"QX.	c #807269",
"RX.	c #85746B",
"SX.	c #86756C",
"TX.	c #867C71",
"UX.	c #83786B",
"VX.	c #857A6F",
"WX.	c #84756B",
"XX.	c #7B6C65",
"YX.	c #7E7264",
"ZX.	c #898479",
"`X.	c #898581",
" Y.	c #88817A",
".Y.	c #837F72",
"+Y.	c #867979",
"@Y.	c #877E76",
"#Y.	c #877C76",
"$Y.	c #857F79",
"%Y.	c #87847E",
"&Y.	c #86837B",
"*Y.	c #858178",
"=Y.	c #858076",
"-Y.	c #868277",
";Y.	c #87837A",
">Y.	c #89837A",
",Y.	c #867F76",
"'Y.	c #888378",
")Y.	c #89867D",
"!Y.	c #736C61",
"~Y.	c #7B7065",
"{Y.	c #8A8075",
"]Y.	c #8A8275",
"^Y.	c #898375",
"/Y.	c #898177",
"(Y.	c #897F76",
"_Y.	c #8A8279",
":Y.	c #877D74",
"<Y.	c #897C74",
"[Y.	c #857871",
"}Y.	c #8A7F7C",
"|Y.	c #888175",
"1Y.	c #898270",
"2Y.	c #8E877E",
"3Y.	c #8F8C89",
"4Y.	c #8E8A80",
"5Y.	c #8D877A",
"6Y.	c #8E8077",
"7Y.	c #8C8177",
"8Y.	c #8F857C",
"9Y.	c #8F8379",
"0Y.	c #8F8478",
"aY.	c #8D8377",
"bY.	c #8A8174",
"cY.	c #898173",
"dY.	c #8C8478",
"eY.	c #90887A",
"fY.	c #8E8274",
"gY.	c #908676",
"hY.	c #8E8071",
"iY.	c #8C7969",
"jY.	c #8D7968",
"kY.	c #856D5F",
"lY.	c #8C7F72",
"mY.	c #8C8578",
"nY.	c #848072",
"oY.	c #878174",
"pY.	c #8C857A",
"qY.	c #8C867E",
"rY.	c #8B877F",
"sY.	c #89857E",
"tY.	c #87817A",
"uY.	c #867F78",
"vY.	c #84776E",
"wY.	c #857970",
"xY.	c #888177",
"yY.	c #868177",
"zY.	c #8C8581",
"AY.	c #8D8986",
"BY.	c #8D908A",
"CY.	c #888C85",
"DY.	c #817E79",
"EY.	c #7F7A75",
"FY.	c #7F7873",
"GY.	c #7D746E",
"HY.	c #8F7F7B",
"IY.	c #8C7C7A",
"JY.	c #897674",
"KY.	c #8C7C79",
"LY.	c #8C7773",
"MY.	c #8A746F",
"NY.	c #89716E",
"OY.	c #8A706B",
"PY.	c #8C7772",
"QY.	c #8A7C7A",
"RY.	c #736867",
"SY.	c #877471",
"TY.	c #8F7D79",
"UY.	c #8E7C79",
"VY.	c #907D7B",
"WY.	c #8D7978",
"XY.	c #8A7F76",
"YY.	c #8B827E",
"ZY.	c #86817F",
"`Y.	c #838077",
" Z.	c #847E74",
".Z.	c #877671",
"+Z.	c #8B7F76",
"@Z.	c #8D8379",
"#Z.	c #8D8278",
"$Z.	c #87786E",
"%Z.	c #88776D",
"&Z.	c #89766D",
"*Z.	c #89756C",
"=Z.	c #856E66",
"-Z.	c #7E6B65",
";Z.	c #756965",
">Z.	c #7B6C63",
",Z.	c #84756A",
"'Z.	c #85716B",
")Z.	c #74665E",
"!Z.	c #70625D",
"~Z.	c #786966",
"{Z.	c #7E6F6A",
"]Z.	c #7F6D64",
"^Z.	c #87756F",
"/Z.	c #837E71",
"(Z.	c #8A7875",
"_Z.	c #8A7674",
":Z.	c #877A73",
"<Z.	c #7E746D",
"[Z.	c #7D746D",
"}Z.	c #837871",
"|Z.	c #867A74",
"1Z.	c #887B74",
"2Z.	c #837872",
"3Z.	c #847971",
"4Z.	c #817770",
"5Z.	c #847B73",
"6Z.	c #D3C9B9",
"7Z.	c #FDF2DE",
"8Z.	c #FEF2E0",
"9Z.	c #FCF3E2",
"0Z.	c #FDF4E3",
"aZ.	c #FDF5E6",
"bZ.	c #FDF5E9",
"cZ.	c #FDF6E8",
"dZ.	c #FBF4E8",
"eZ.	c #BBB3AA",
"fZ.	c #958A82",
"gZ.	c #D5CFC7",
"hZ.	c #FAF6EC",
"iZ.	c #FEFAF0",
"jZ.	c #FCF8F1",
"kZ.	c #C6BFB9",
"lZ.	c #928781",
"mZ.	c #CFCAC4",
"nZ.	c #FCFBF5",
"oZ.	c #DAD5D1",
"pZ.	c #998C8A",
"qZ.	c #B6AFAF",
"rZ.	c #F5F5F2",
"sZ.	c #BEBAB5",
"tZ.	c #918880",
"uZ.	c #8C8176",
"vZ.	c #8E8378",
"wZ.	c #897B71",
"xZ.	c #8F7F75",
"yZ.	c #8E7D75",
"zZ.	c #8F7D76",
"AZ.	c #908580",
"BZ.	c #918782",
"CZ.	c #918D8A",
"DZ.	c #8A8686",
"EZ.	c #807673",
"FZ.	c #90807D",
"GZ.	c #8E7874",
"HZ.	c #8B7570",
"IZ.	c #8E7D77",
"JZ.	c #908982",
"KZ.	c #8E847F",
"LZ.	c #908584",
"MZ.	c #8F7F82",
"NZ.	c #8D7F7B",
"OZ.	c #8B8073",
"PZ.	c #8E867C",
"QZ.	c #908587",
"RZ.	c #8E8185",
"SZ.	c #8A7F77",
"TZ.	c #8A8478",
"UZ.	c #8F8684",
"VZ.	c #8E8382",
"WZ.	c #908482",
"XZ.	c #8F8380",
"YZ.	c #8D817D",
"ZZ.	c #8E847E",
"`Z.	c #8B7C78",
" `.	c #8C807E",
".`.	c #8C807C",
"+`.	c #897976",
"@`.	c #898180",
"#`.	c #8B898A",
"$`.	c #736E6E",
"%`.	c #8C7B77",
"&`.	c #8C7E79",
"*`.	c #8C7A74",
"=`.	c #8B7A75",
"-`.	c #8A7773",
";`.	c #88736E",
">`.	c #94827D",
",`.	c #D5D2CD",
"'`.	c #DBD7D7",
")`.	c #948381",
"!`.	c #9E8C89",
"~`.	c #ACA09D",
"{`.	c #8A6F6E",
"]`.	c #C2BBB9",
"^`.	c #B7B0AE",
"/`.	c #A39794",
"(`.	c #93827F",
"_`.	c #D1CDCC",
":`.	c #968A87",
"<`.	c #85746E",
"[`.	c #6A5955",
"}`.	c #7C5E58",
"|`.	c #80615C",
"1`.	c #83655F",
"2`.	c #846B63",
"3`.	c #886763",
"4`.	c #83635F",
"5`.	c #785A58",
"6`.	c #7A5B57",
"7`.	c #7F5F5A",
"8`.	c #795B55",
"9`.	c #7D5F55",
"0`.	c #836967",
"a`.	c #7D675E",
"b`.	c #856669",
"c`.	c #846860",
"d`.	c #8A6F68",
"e`.	c #897269",
"f`.	c #877065",
"g`.	c #887066",
"h`.	c #816C62",
"i`.	c #826F66",
"j`.	c #897569",
"k`.	c #856F63",
"l`.	c #847166",
"m`.	c #87786F",
"n`.	c #5A4B45",
"o`.	c #725B55",
"p`.	c #755D56",
"q`.	c #79635C",
"r`.	c #755E57",
"s`.	c #775E56",
"t`.	c #765D54",
"u`.	c #755E54",
"v`.	c #735A52",
"w`.	c #765D55",
"x`.	c #775E5B",
"y`.	c #765D58",
"z`.	c #785D53",
"A`.	c #7F5E5A",
"B`.	c #7B5C5C",
"C`.	c #7A6059",
"D`.	c #7F5F5C",
"E`.	c #765855",
"F`.	c #745A57",
"G`.	c #715955",
"H`.	c #6D5350",
"I`.	c #755A55",
"J`.	c #785B54",
"K`.	c #755D53",
"L`.	c #7E645A",
"M`.	c #6F544B",
"N`.	c #705149",
"O`.	c #715D55",
"P`.	c #6B5D56",
"Q`.	c #816E66",
"R`.	c #886A66",
"S`.	c #81635F",
"T`.	c #897471",
"U`.	c #7E6966",
"V`.	c #836E6B",
"W`.	c #8A706E",
"X`.	c #886C66",
"Y`.	c #866E66",
"Z`.	c #87736A",
"``.	c #85736A",
"  +	c #8D7D79",
". +	c #8A807A",
"+ +	c #8A7573",
"@ +	c #87706E",
"# +	c #8A7170",
"$ +	c #886D6B",
"% +	c #454240",
"& +	c #684F4A",
"* +	c #74504A",
"= +	c #684541",
"- +	c #674641",
"; +	c #63433D",
"> +	c #68423C",
", +	c #653F3A",
"' +	c #6C413A",
") +	c #70413A",
"! +	c #6B423B",
"~ +	c #765F5E",
"{ +	c #5A4C4D",
"] +	c #6E4C47",
"^ +	c #7B5851",
"/ +	c #79554E",
"( +	c #7D5953",
"_ +	c #73524D",
": +	c #7B5A54",
"< +	c #6D5249",
"[ +	c #6E554D",
"} +	c #6D564B",
"| +	c #7A5F56",
"1 +	c #745650",
"2 +	c #6D514A",
"3 +	c #7E6057",
"4 +	c #7E6259",
"5 +	c #745950",
"6 +	c #7D675B",
"7 +	c #7C6157",
"8 +	c #74574E",
"9 +	c #6F5248",
"0 +	c #77554A",
"a +	c #7B574B",
"b +	c #785549",
"c +	c #725045",
"d +	c #6C4B40",
"e +	c #817170",
"f +	c #665554",
"g +	c #75564A",
"h +	c #76584D",
"i +	c #6F5249",
"j +	c #6C5147",
"k +	c #826258",
"l +	c #805F55",
"m +	c #85655B",
"n +	c #74584E",
"o +	c #715650",
"p +	c #7F625A",
"q +	c #71564F",
"r +	c #7C615A",
"s +	c #7B645A",
"t +	c #7F615A",
"u +	c #7C5B54",
"v +	c #7B5951",
"w +	c #7A5A51",
"x +	c #72564D",
"y +	c #6C544B",
"z +	c #755B52",
"A +	c #745A50",
"B +	c #785E55",
"C +	c #7D6353",
"D +	c #836657",
"E +	c #7D6357",
"F +	c #80685B",
"G +	c #B5A394",
"H +	c #F9ECD8",
"I +	c #FDF1DD",
"J +	c #FDF3E1",
"K +	c #FDF3E3",
"L +	c #FDF3E4",
"M +	c #FCF5E6",
"N +	c #FDF5E7",
"O +	c #F5EEE1",
"P +	c #9F8F86",
"Q +	c #937F76",
"R +	c #E8E0D6",
"S +	c #FDF9EE",
"T +	c #FEF9EF",
"U +	c #F6F1E8",
"V +	c #A99D96",
"W +	c #836D64",
"X +	c #DBD4CC",
"Y +	c #F9F6F0",
"Z +	c #B0A59E",
"` +	c #806A64",
" .+	c #D0CCC6",
"..+	c #FCFAF6",
"+.+	c #FEFDF9",
"@.+	c #FDFDFA",
"#.+	c #F3F2EE",
"$.+	c #B8B1AB",
"%.+	c #7C655C",
"&.+	c #6F564C",
"*.+	c #745C52",
"=.+	c #7D6459",
"-.+	c #7C6257",
";.+	c #71554B",
">.+	c #7D5B53",
",.+	c #7B5C56",
"'.+	c #785F58",
").+	c #817A7A",
"!.+	c #63514E",
"~.+	c #7B514A",
"{.+	c #785049",
"].+	c #755049",
"^.+	c #76554D",
"/.+	c #775850",
"(.+	c #72534D",
"_.+	c #7D5B54",
":.+	c #7F5A54",
"<.+	c #79514E",
"[.+	c #78514A",
"}.+	c #765047",
"|.+	c #704E47",
"1.+	c #74524E",
"2.+	c #6E4E4C",
"3.+	c #694D45",
"4.+	c #704D48",
"5.+	c #76524C",
"6.+	c #735049",
"7.+	c #714F48",
"8.+	c #6D4C45",
"9.+	c #725049",
"0.+	c #765149",
"a.+	c #6E4842",
"b.+	c #6C4741",
"c.+	c #6A4842",
"d.+	c #66443F",
"e.+	c #69453F",
"f.+	c #67443E",
"g.+	c #806B64",
"h.+	c #704640",
"i.+	c #6E4841",
"j.+	c #69463F",
"k.+	c #724A42",
"l.+	c #69433C",
"m.+	c #613C36",
"n.+	c #6F4D47",
"o.+	c #BDB3B0",
"p.+	c #A49996",
"q.+	c #C4BAB8",
"r.+	c #E3E1DF",
"s.+	c #6D4E4A",
"t.+	c #CEC9C8",
"u.+	c #85716E",
"v.+	c #92817E",
"w.+	c #D7D3D1",
"x.+	c #614743",
"y.+	c #56302B",
"z.+	c #603530",
"A.+	c #5C352F",
"B.+	c #663933",
"C.+	c #6B3731",
"D.+	c #693530",
"E.+	c #63342D",
"F.+	c #633430",
"G.+	c #66372E",
"H.+	c #6D3A32",
"I.+	c #6A3931",
"J.+	c #6D3B33",
"K.+	c #5E352D",
"L.+	c #643830",
"M.+	c #63362E",
"N.+	c #62362E",
"O.+	c #5E3930",
"P.+	c #61524F",
"Q.+	c #5C3229",
"R.+	c #5F2D2A",
"S.+	c #583D36",
"T.+	c #5A382E",
"U.+	c #653833",
"V.+	c #613830",
"W.+	c #6A3B33",
"X.+	c #6D3F38",
"Y.+	c #6E4339",
"Z.+	c #613A35",
"`.+	c #623835",
" ++	c #603632",
".++	c #503733",
"+++	c #725552",
"@++	c #766869",
"#++	c #806B6D",
"$++	c #554446",
"%++	c #633730",
"&++	c #623932",
"*++	c #613831",
"=++	c #67362E",
"-++	c #693A30",
";++	c #E7D8C5",
">++	c #FDF0DA",
",++	c #FCF0DC",
"'++	c #FCF1DF",
")++	c #FDF2E1",
"!++	c #FDF5E4",
"~++	c #F9F1E3",
"{++	c #9F9189",
"]++	c #745D57",
"^++	c #DCD4CA",
"/++	c #FDF8EC",
"(++	c #FEF7ED",
"_++	c #E5DED5",
":++	c #91827B",
"<++	c #F2EEE5",
"[++	c #FEFBF4",
"}++	c #FDFAF4",
"|++	c #DBD6D0",
"1++	c #EDE9E3",
"2++	c #F1EEEB",
"3++	c #B4AEAA",
"4++	c #53342E",
"5++	c #79635E",
"6++	c #46332F",
"7++	c #755A51",
"8++	c #A29794",
"9++	c #EEEDED",
"0++	c #725450",
"a++	c #72504C",
"b++	c #E3DDDC",
"c++	c #FCFBF9",
"d++	c #B0A4A0",
"e++	c #714D48",
"f++	c #D2CCCC",
"g++	c #8E7B78",
"h++	c #A59896",
"i++	c #9F9493",
"j++	c #795E53",
"k++	c #59403A",
"l++	c #6D534B",
"m++	c #625350",
"n++	c #5E4137",
"o++	c #614F47",
"p++	c #3B2C2A",
"q++	c #583633",
"r++	c #75524C",
"s++	c #64423F",
"t++	c #84686A",
"u++	c #594244",
"v++	c #6E413A",
"w++	c #C2AF9F",
"x++	c #FAEDD6",
"y++	c #FDF0DB",
"z++	c #FDF2DF",
"A++	c #FDF3E0",
"B++	c #FDF4E2",
"C++	c #BBABA1",
"D++	c #BCAEA4",
"E++	c #F7F1E6",
"F++	c #FCF6EB",
"G++	c #D6CAC0",
"H++	c #79514A",
"I++	c #BDAEA7",
"J++	c #FDF8EE",
"K++	c #FFFAF4",
"L++	c #F5F1EA",
"M++	c #A99994",
"N++	c #C3B8B2",
"O++	c #FDFAF5",
"P++	c #F6F5F1",
"Q++	c #CCC4C0",
"R++	c #896864",
"S++	c #733631",
"T++	c #702E29",
"U++	c #7C635B",
"V++	c #6A5A55",
"W++	c #694E47",
"X++	c #6D3830",
"Y++	c #9C8A87",
"Z++	c #A99A97",
"`++	c #67352F",
" @+	c #A89A97",
".@+	c #886E6A",
"+@+	c #896F6B",
"@@+	c #C1B9B5",
"#@+	c #714944",
"$@+	c #693D38",
"%@+	c #765753",
"&@+	c #694E4B",
"*@+	c #533933",
"=@+	c #6B5850",
"-@+	c #402E2D",
";@+	c #765148",
">@+	c #663F3D",
",@+	c #826063",
"'@+	c #543A3B",
")@+	c #90766C",
"!@+	c #E9DAC7",
"~@+	c #FDEFD9",
"{@+	c #FBF1DB",
"]@+	c #FDF1DE",
"^@+	c #FCF3E0",
"/@+	c #F9F1DF",
"(@+	c #E1D2C5",
"_@+	c #794F47",
":@+	c #825F59",
"<@+	c #DBD0C5",
"[@+	c #F9F2E6",
"}@+	c #D2C5BA",
"|@+	c #794A43",
"1@+	c #C0B0A7",
"2@+	c #FCF7ED",
"3@+	c #FEFAF1",
"4@+	c #FCF9F0",
"5@+	c #DCD3CC",
"6@+	c #855F59",
"7@+	c #8F716B",
"8@+	c #E8E2DC",
"9@+	c #FDFCF6",
"0@+	c #FDFCF7",
"a@+	c #FBFBF7",
"b@+	c #E4DFDB",
"c@+	c #B09E9B",
"d@+	c #815C58",
"e@+	c #7E655A",
"f@+	c #6D5C54",
"g@+	c #4D3C39",
"h@+	c #9C8682",
"i@+	c #8B6965",
"j@+	c #856662",
"k@+	c #E0DBD8",
"l@+	c #6E413C",
"m@+	c #B6ACA8",
"n@+	c #D6D1CF",
"o@+	c #703F39",
"p@+	c #71453F",
"q@+	c #ECEAE9",
"r@+	c #9D918F",
"s@+	c #785C4F",
"t@+	c #573D35",
"u@+	c #6B5A55",
"v@+	c #604239",
"w@+	c #6C564D",
"x@+	c #43302D",
"y@+	c #593331",
"z@+	c #75524A",
"A@+	c #826161",
"B@+	c #513939",
"C@+	c #4E2B25",
"D@+	c #C3B5A7",
"E@+	c #F7EAD5",
"F@+	c #FCF0DA",
"G@+	c #FDF1DF",
"H@+	c #EEE1D1",
"I@+	c #C0B2A3",
"J@+	c #DDD1C2",
"K@+	c #F3E9D9",
"L@+	c #B9A59A",
"M@+	c #8F7067",
"N@+	c #C3B3A7",
"O@+	c #B6A298",
"P@+	c #723E35",
"Q@+	c #967A71",
"R@+	c #E4DBD1",
"S@+	c #FBF5EC",
"T@+	c #F6F2EA",
"U@+	c #B09F99",
"V@+	c #6E3F38",
"W@+	c #B3A6A1",
"X@+	c #F8F6F0",
"Y@+	c #FEFCF6",
"Z@+	c #FEFDF8",
"`@+	c #A89996",
" #+	c #612A21",
".#+	c #7C5F56",
"+#+	c #6F5A53",
"@#+	c #644239",
"##+	c #7C655D",
"$#+	c #692C23",
"%#+	c #A79795",
"&#+	c #723E39",
"*#+	c #A49290",
"=#+	c #8C7673",
"-#+	c #6B2D23",
";#+	c #9B8986",
">#+	c #704D4B",
",#+	c #7E6053",
"'#+	c #5C4339",
")#+	c #69554F",
"!#+	c #5F3F37",
"~#+	c #6C554E",
"{#+	c #47322F",
"]#+	c #66403A",
"^#+	c #4E3736",
"/#+	c #4C2B24",
"(#+	c #72554F",
"_#+	c #CDC3B3",
":#+	c #FAEEDA",
"<#+	c #FCF1DC",
"[#+	c #FCF0DD",
"}#+	c #DACDBE",
"|#+	c #715149",
"1#+	c #806157",
"2#+	c #B5A497",
"3#+	c #DCCFC1",
"4#+	c #A79187",
"5#+	c #6E3B32",
"6#+	c #74413A",
"7#+	c #784941",
"8#+	c #6F3A33",
"9#+	c #733D35",
"0#+	c #916F67",
"a#+	c #B6A49C",
"b#+	c #D6CCC2",
"c#+	c #F1ECE1",
"d#+	c #FBF6EE",
"e#+	c #E3DAD4",
"f#+	c #E3DDD7",
"g#+	c #FDFBF6",
"h#+	c #FEFCF9",
"i#+	c #ACA19C",
"j#+	c #6A3832",
"k#+	c #6E5954",
"l#+	c #6A2D24",
"m#+	c #674139",
"n#+	c #7A5F58",
"o#+	c #4E3A35",
"p#+	c #82605D",
"q#+	c #C4BCBB",
"r#+	c #896B67",
"s#+	c #734F4A",
"t#+	c #DED9D8",
"u#+	c #968280",
"v#+	c #94817D",
"w#+	c #E9E7E5",
"x#+	c #9E8C8A",
"y#+	c #764942",
"z#+	c #927E79",
"A#+	c #7A5D50",
"B#+	c #61443A",
"C#+	c #6C4F44",
"D#+	c #552825",
"E#+	c #6D554D",
"F#+	c #46302E",
"G#+	c #7E3329",
"H#+	c #6B2C24",
"I#+	c #513A37",
"J#+	c #70534F",
"K#+	c #7C6E6A",
"L#+	c #DED1BF",
"M#+	c #FCEFDB",
"N#+	c #F4EAD8",
"O#+	c #C3B3A6",
"P#+	c #733F3A",
"Q#+	c #8D6B64",
"R#+	c #A8887A",
"S#+	c #7A483C",
"T#+	c #7F5750",
"U#+	c #A99288",
"V#+	c #C7B8AE",
"W#+	c #A08981",
"X#+	c #845750",
"Y#+	c #784038",
"Z#+	c #79433C",
"`#+	c #8D6A64",
" $+	c #BDAEA6",
".$+	c #D7CEC6",
"+$+	c #98827C",
"@$+	c #B5A8A2",
"#$+	c #F6F2ED",
"$$+	c #FDFCF8",
"%$+	c #FAF9F6",
"&$+	c #E5E1DE",
"*$+	c #BDB4B0",
"=$+	c #978481",
"-$+	c #7B605A",
";$+	c #6D5856",
">$+	c #67423B",
",$+	c #503C37",
"'$+	c #998885",
")$+	c #D8D4D1",
"!$+	c #A89796",
"~$+	c #672E2A",
"{$+	c #D2CECC",
"]$+	c #D0C8C6",
"^$+	c #876B67",
"/$+	c #A2918E",
"($+	c #E7E4E4",
"_$+	c #A59390",
":$+	c #6F3933",
"<$+	c #6C3731",
"[$+	c #CEC5C3",
"}$+	c #693932",
"|$+	c #7C5C4F",
"1$+	c #5A3F35",
"2$+	c #6A4D44",
"3$+	c #67544D",
"4$+	c #582825",
"5$+	c #573533",
"6$+	c #73544E",
"7$+	c #756361",
"8$+	c #4A3432",
"9$+	c #6D514D",
"0$+	c #E2D4C2",
"a$+	c #FBF0DC",
"b$+	c #FCF2DE",
"c$+	c #FAEFDD",
"d$+	c #E2D5C5",
"e$+	c #B19B8F",
"f$+	c #81524B",
"g$+	c #6C241E",
"h$+	c #9C8177",
"i$+	c #D4C7BB",
"j$+	c #ECE3D7",
"k$+	c #EAE2D7",
"l$+	c #D4C9BE",
"m$+	c #B19A91",
"n$+	c #814D47",
"o$+	c #742D26",
"p$+	c #6F3F38",
"q$+	c #DED7D1",
"r$+	c #F2F0EE",
"s$+	c #BBB3B1",
"t$+	c #9E918F",
"u$+	c #7D6D6A",
"v$+	c #604944",
"w$+	c #7D645F",
"x$+	c #695654",
"y$+	c #472621",
"z$+	c #512724",
"A$+	c #4D3A35",
"B$+	c #5E2720",
"C$+	c #652B23",
"D$+	c #794F4A",
"E$+	c #9F8C89",
"F$+	c #B9ADAC",
"G$+	c #6A3731",
"H$+	c #6A423C",
"I$+	c #7F5D59",
"J$+	c #D6CFCE",
"K$+	c #7B5955",
"L$+	c #AC9F9E",
"M$+	c #D3CECC",
"N$+	c #632B23",
"O$+	c #6A5751",
"P$+	c #5E3F36",
"Q$+	c #6F5851",
"R$+	c #583634",
"S$+	c #775852",
"T$+	c #796967",
"U$+	c #473433",
"V$+	c #6B2B25",
"W$+	c #5E2F24",
"X$+	c #80635F",
"Y$+	c #48312E",
"Z$+	c #6C534C",
"`$+	c #7A6C66",
" %+	c #937A6F",
".%+	c #E3D6C4",
"+%+	c #F4EADA",
"@%+	c #DACBBC",
"#%+	c #AA9489",
"$%+	c #7F534A",
"%%+	c #815952",
"&%+	c #967970",
"*%+	c #A78D85",
"=%+	c #AE968C",
"-%+	c #A1827A",
";%+	c #7F4640",
">%+	c #6D2C25",
",%+	c #74433D",
"'%+	c #A69791",
")%+	c #F7F2EB",
"!%+	c #FEFBF6",
"~%+	c #F1F0ED",
"{%+	c #E5E5E3",
"]%+	c #D4D2D0",
"^%+	c #BDB5B2",
"/%+	c #9D9694",
"(%+	c #61413D",
"_%+	c #4F2724",
":%+	c #62413B",
"<%+	c #7A635D",
"[%+	c #4D3B37",
"}%+	c #7B6562",
"|%+	c #A99D9D",
"1%+	c #D5D1CF",
"2%+	c #CCC3C2",
"3%+	c #8D7675",
"4%+	c #67342E",
"5%+	c #8C7674",
"6%+	c #826663",
"7%+	c #77524D",
"8%+	c #CCC5C4",
"9%+	c #836966",
"0%+	c #74574C",
"a%+	c #563B33",
"b%+	c #72574D",
"c%+	c #5A2D24",
"d%+	c #5F3F36",
"e%+	c #705B52",
"f%+	c #473430",
"g%+	c #4C3735",
"h%+	c #6F4842",
"i%+	c #826563",
"j%+	c #4A312F",
"k%+	c #6A4F48",
"l%+	c #8C746B",
"m%+	c #D4C5B7",
"n%+	c #F8EEDC",
"o%+	c #FCF3E4",
"p%+	c #F7EEE0",
"q%+	c #E0D3C7",
"r%+	c #BDADA1",
"s%+	c #987F77",
"t%+	c #856059",
"u%+	c #78473F",
"v%+	c #75433B",
"w%+	c #75413B",
"x%+	c #7A4842",
"y%+	c #8D6D66",
"z%+	c #B3A199",
"A%+	c #D9D0C8",
"B%+	c #DFD7CE",
"C%+	c #BFB1A9",
"D%+	c #6D4540",
"E%+	c #D0C5BF",
"F%+	c #FDFAF3",
"G%+	c #FDFBF5",
"H%+	c #FEFCFB",
"I%+	c #DAD8D5",
"J%+	c #B1A2A1",
"K%+	c #A28B89",
"L%+	c #8D7271",
"M%+	c #6F4946",
"N%+	c #6D3E39",
"O%+	c #653630",
"P%+	c #593735",
"Q%+	c #998C89",
"R%+	c #A5A19F",
"S%+	c #C5C2C1",
"T%+	c #896C68",
"U%+	c #713B37",
"V%+	c #A5908D",
"W%+	c #BDB3B3",
"X%+	c #DCD8D8",
"Y%+	c #C2B9B7",
"Z%+	c #755653",
"`%+	c #77594F",
" &+	c #5A3F37",
".&+	c #4E2724",
"+&+	c #73615B",
"@&+	c #4D2E2B",
"#&+	c #614038",
"$&+	c #6E5B51",
"%&+	c #44332F",
"&&+	c #7E6968",
"*&+	c #513737",
"=&+	c #71453E",
"-&+	c #806460",
";&+	c #4B3230",
">&+	c #674C45",
",&+	c #6E6259",
"'&+	c #77544B",
")&+	c #BEAFA2",
"!&+	c #EDE3D3",
"~&+	c #FCF3E5",
"{&+	c #FEF4E8",
"]&+	c #FDF4E8",
"^&+	c #FBF5E7",
"/&+	c #F3ECE0",
"(&+	c #E7DFD4",
"_&+	c #DCD1C7",
":&+	c #DAD0C7",
"<&+	c #DACFC6",
"[&+	c #DCD3CB",
"}&+	c #EDE7DD",
"|&+	c #F9F5EB",
"1&+	c #FDF9F0",
"2&+	c #FDF9F1",
"3&+	c #FBF7EF",
"4&+	c #D6CFC8",
"5&+	c #85615B",
"6&+	c #997D78",
"7&+	c #EAE4DF",
"8&+	c #FEFDF6",
"9&+	c #FDFEFA",
"0&+	c #F8F6F4",
"a&+	c #DDD9D8",
"b&+	c #CFC7C7",
"c&+	c #C0B6B5",
"d&+	c #A79897",
"e&+	c #A79493",
"f&+	c #978483",
"g&+	c #96807F",
"h&+	c #947D7A",
"i&+	c #896D6A",
"j&+	c #886866",
"k&+	c #836865",
"l&+	c #826765",
"m&+	c #7E6765",
"n&+	c #7F6764",
"o&+	c #755753",
"p&+	c #714F4A",
"q&+	c #724F4B",
"r&+	c #7A6664",
"s&+	c #948481",
"t&+	c #A09492",
"u&+	c #B2ABAB",
"v&+	c #C1BCBB",
"w&+	c #6E3832",
"x&+	c #A3918E",
"y&+	c #B3A9A6",
"z&+	c #673B37",
"A&+	c #5B3E38",
"B&+	c #725750",
"C&+	c #73605A",
"D&+	c #54312E",
"E&+	c #715F57",
"F&+	c #443431",
"G&+	c #765651",
"H&+	c #503738",
"I&+	c #42312D",
"J&+	c #6A4E48",
"K&+	c #70635B",
"L&+	c #76433C",
"M&+	c #9F867C",
"N&+	c #D2C4B9",
"O&+	c #F5ECE0",
"P&+	c #FEF6EA",
"Q&+	c #FCF7EA",
"R&+	c #FEF8EB",
"S&+	c #FEF7EB",
"T&+	c #FEF8EC",
"U&+	c #FEF9ED",
"V&+	c #FEF8ED",
"W&+	c #FFF9EF",
"X&+	c #FFF9F1",
"Y&+	c #FEF9F1",
"Z&+	c #F9F5EE",
"`&+	c #C2B4AD",
" *+	c #764641",
".*+	c #AE9C98",
"+*+	c #F2EDE8",
"@*+	c #FDFBFC",
"#*+	c #FCFAFB",
"$*+	c #FAF8F8",
"%*+	c #F9F7F8",
"&*+	c #F8F6F6",
"**+	c #F2EFEF",
"=*+	c #F0ECED",
"-*+	c #E4E2E2",
";*+	c #D5CFCF",
">*+	c #E5E2E1",
",*+	c #DDD7D6",
"'*+	c #8F7572",
")*+	c #937D7C",
"!*+	c #EBE7E7",
"~*+	c #A09290",
"{*+	c #643F3A",
"]*+	c #815D56",
"^*+	c #583F39",
"/*+	c #715953",
"(*+	c #736158",
"_*+	c #66453E",
":*+	c #715E56",
"<*+	c #43403D",
"[*+	c #715E55",
"}*+	c #777370",
"|*+	c #4E3F3D",
"1*+	c #5D2F24",
"2*+	c #6E2B26",
"3*+	c #714C42",
"4*+	c #776C64",
"5*+	c #3D332F",
"6*+	c #512A28",
"7*+	c #70645B",
"8*+	c #AA938A",
"9*+	c #D8CCC2",
"0*+	c #F5EEE3",
"a*+	c #FEF7EC",
"b*+	c #FFF8ED",
"c*+	c #FFF8EF",
"d*+	c #FFF9F0",
"e*+	c #FFFAF1",
"f*+	c #FEF9F2",
"g*+	c #FEFAF5",
"h*+	c #F3EFE9",
"i*+	c #B19F9B",
"j*+	c #BBABA7",
"k*+	c #F6F1EC",
"l*+	c #8D706D",
"m*+	c #EEEDEB",
"n*+	c #BDB7B4",
"o*+	c #5B2E24",
"p*+	c #55342B",
"q*+	c #7E6355",
"r*+	c #543F35",
"s*+	c #6A2A26",
"t*+	c #69534A",
"u*+	c #67463D",
"v*+	c #725D51",
"w*+	c #47362F",
"x*+	c #75746B",
"y*+	c #4F3D3C",
"z*+	c #5A2F24",
"A*+	c #744F45",
"B*+	c #7C6D65",
"C*+	c #6B5348",
"D*+	c #716659",
"E*+	c #42342D",
"F*+	c #79443D",
"G*+	c #A48C85",
"H*+	c #D7CBC1",
"I*+	c #EDE5DB",
"J*+	c #F8F3E8",
"K*+	c #FBF7EC",
"L*+	c #FDF8ED",
"M*+	c #FEF9EE",
"N*+	c #FFFAF2",
"O*+	c #FEFAF4",
"P*+	c #F0EBE6",
"Q*+	c #AC9B97",
"R*+	c #764B45",
"S*+	c #B2A49E",
"T*+	c #ECE9E2",
"U*+	c #FBFBF5",
"V*+	c #C9C4C2",
"W*+	c #7D5F5D",
"X*+	c #6E2923",
"Y*+	c #967C7A",
"Z*+	c #E9E8E6",
"`*+	c #C4BBB9",
" =+	c #876F6C",
".=+	c #673A34",
"+=+	c #57342A",
"@=+	c #584035",
"#=+	c #5D4E42",
"$=+	c #532E24",
"%=+	c #644439",
"&=+	c #6F5B4E",
"*=+	c #48372E",
"==+	c #533432",
"-=+	c #5E362C",
";=+	c #816E5F",
">=+	c #503B38",
",=+	c #7C5348",
"'=+	c #806B62",
")=+	c #6E5245",
"!=+	c #6C5E4F",
"~=+	c #3F312B",
"{=+	c #744039",
"]=+	c #96766F",
"^=+	c #D3CAC1",
"/=+	c #E6DFD5",
"(=+	c #F5EFE6",
"_=+	c #FFFBF3",
":=+	c #FFFBF5",
"<=+	c #ECE8E4",
"[=+	c #A28C87",
"}=+	c #723B33",
"|=+	c #A28A85",
"1=+	c #DCD5CF",
"2=+	c #F7F5F0",
"3=+	c #DEDDDB",
"4=+	c #694B45",
"5=+	c #6D3932",
"6=+	c #BCB4B0",
"7=+	c #9D8682",
"8=+	c #815955",
"9=+	c #78544E",
"0=+	c #583D38",
"a=+	c #684136",
"b=+	c #6F564D",
"c=+	c #5E3329",
"d=+	c #5F423A",
"e=+	c #423E40",
"f=+	c #4F312B",
"g=+	c #6D5951",
"h=+	c #493634",
"i=+	c #5F3329",
"j=+	c #61352B",
"k=+	c #64362B",
"l=+	c #61352A",
"m=+	c #64352B",
"n=+	c #63544A",
"o=+	c #372C28",
"p=+	c #502D24",
"q=+	c #846F67",
"r=+	c #9C8C85",
"s=+	c #B7ACA5",
"t=+	c #CBC7BE",
"u=+	c #E3E1D9",
"v=+	c #F3F0E9",
"w=+	c #F9F7F0",
"x=+	c #FDFBF4",
"y=+	c #FDFBF7",
"z=+	c #CEC6C1",
"A=+	c #69342B",
"B=+	c #836660",
"C=+	c #B8AFA9",
"D=+	c #EAE8E2",
"E=+	c #B4B1AF",
"F=+	c #766B68",
"G=+	c #6C5F5C",
"H=+	c #898281",
"I=+	c #918584",
"J=+	c #7C6E6D",
"K=+	c #685B5A",
"L=+	c #492927",
"M=+	c #3C2623",
"N=+	c #3E2928",
"O=+	c #5B4342",
"P=+	c #4B3939",
"Q=+	c #3F2824",
"R=+	c #5B4039",
"S=+	c #494440",
"T=+	c #3C2A27",
"U=+	c #392A25",
"V=+	c #3A2925",
"W=+	c #3E2D2A",
"X=+	c #432C29",
"Y=+	c #392624",
"Z=+	c #493834",
"`=+	c #372D2B",
" -+	c #403E3F",
".-+	c #352825",
"+-+	c #362625",
"@-+	c #342724",
"#-+	c #312624",
"$-+	c #2C2523",
"%-+	c #2B2523",
"&-+	c #2C2524",
"*-+	c #2D2524",
"=-+	c #2E2625",
"--+	c #302625",
";-+	c #302827",
">-+	c #3A3434",
",-+	c #3D393A",
"'-+	c #2F2A2A",
")-+	c #342827",
"!-+	c #372B27",
"~-+	c #372927",
"{-+	c #3F2927",
"]-+	c #3D2927",
"^-+	c #524A4A",
"/-+	c #302C2C",
"(-+	c #332927",
"_-+	c #3C2B27",
":-+	c #3A2927",
"<-+	c #3B2A28",
"[-+	c #482927",
"}-+	c #4A2C2A",
"|-+	c #5A4644",
"1-+	c #504845",
"2-+	c #2D2929",
"3-+	c #3E2A25",
"4-+	c #483C39",
"5-+	c #7F7C78",
"6-+	c #AAA7A3",
"7-+	c #BAB8B4",
"8-+	c #CCCBC6",
"9-+	c #CFCDC9",
"0-+	c #C6C3C0",
"a-+	c #8B8682",
"b-+	c #463633",
"c-+	c #7B7673",
"d-+	c #C5C2C0",
"e-+	c #FCFAF7",
"f-+	c #848180",
"g-+	c #4A413E",
"h-+	c #3B312F",
"i-+	c #372F2D",
"j-+	c #332D2B",
"k-+	c #2E2927",
"l-+	c #302927",
"m-+	c #302B27",
"n-+	c #312B2A",
"o-+	c #332D2C",
"p-+	c #362E2C",
"q-+	c #373230",
"r-+	c #312F2D",
"s-+	c #363430",
"t-+	c #3D3A35",
"u-+	c #3C3733",
"v-+	c #3C3635",
"w-+	c #40403E",
"x-+	c #423C36",
"y-+	c #47403B",
"z-+	c #4C4640",
"A-+	c #4E4643",
"B-+	c #4C4442",
"C-+	c #483F3E",
"D-+	c #423939",
"E-+	c #4A3F3F",
"F-+	c #514644",
"G-+	c #443C3A",
"H-+	c #463F3C",
"I-+	c #48403F",
"J-+	c #403D3A",
"K-+	c #524443",
"L-+	c #504240",
"M-+	c #50413D",
"N-+	c #584A47",
"O-+	c #483F3D",
"P-+	c #473D3B",
"Q-+	c #453C39",
"R-+	c #483C3A",
"S-+	c #423937",
"T-+	c #5A5554",
"U-+	c #6C6F6E",
"V-+	c #636C6A",
"W-+	c #5B5756",
"X-+	c #4F4E49",
"Y-+	c #4E4944",
"Z-+	c #4F4B46",
"`-+	c #5A5855",
" ;+	c #5B5C59",
".;+	c #565652",
"+;+	c #4E4D47",
"@;+	c #4F4E47",
"#;+	c #534F48",
"$;+	c #58524B",
"%;+	c #58514A",
"&;+	c #5B5751",
"*;+	c #5F564F",
"=;+	c #625E5C",
"-;+	c #63615E",
";;+	c #645B58",
">;+	c #6C615D",
",;+	c #67605B",
"';+	c #726C6B",
");+	c #6D6665",
"!;+	c #746E6B",
"~;+	c #645F5B",
"{;+	c #5E5855",
"];+	c #595351",
"^;+	c #524D4A",
"/;+	c #4B4744",
"(;+	c #4B453F",
"_;+	c #5E5B56",
":;+	c #626463",
"<;+	c #424341",
"[;+	c #3A3530",
"};+	c #433A37",
"|;+	c #443B38",
"1;+	c #433A38",
"2;+	c #403836",
"3;+	c #3C3535",
"4;+	c #373434",
"5;+	c #363434",
"6;+	c #363030",
"7;+	c #494648",
"8;+	c #4A4649",
"9;+	c #484547",
"0;+	c #464245",
"a;+	c #434043",
"b;+	c #474446",
"c;+	c #4B484A",
"d;+	c #4A474A",
"e;+	c #484546",
"f;+	c #4D474A",
"g;+	c #4E484A",
"h;+	c #4F484A",
"i;+	c #4F484B",
"j;+	c #524D51",
"k;+	c #55555A",
"l;+	c #525357",
"m;+	c #4B4A4D",
"n;+	c #4F4C4D",
"o;+	c #504D4D",
"p;+	c #504E4B",
"q;+	c #56524F",
"r;+	c #5A5452",
"s;+	c #5D5555",
"t;+	c #5D5252",
"u;+	c #584B4A",
"v;+	c #574B4A",
"w;+	c #5E5353",
"x;+	c #5E5050",
"y;+	c #5D4A48",
"z;+	c #5C4C4B",
"A;+	c #5A5354",
"B;+	c #555455",
"C;+	c #434244",
"D;+	c #3E3838",
"E;+	c #524B47",
"F;+	c #524B48",
"G;+	c #534C4B",
"H;+	c #544E4D",
"I;+	c #544E4C",
"J;+	c #524C4A",
"K;+	c #534D4B",
"L;+	c #534E4C",
"M;+	c #554E4D",
"N;+	c #544D4E",
"O;+	c #595355",
"P;+	c #575652",
"Q;+	c #5D6267",
"R;+	c #4E5052",
"S;+	c #53514E",
"T;+	c #575353",
"U;+	c #595354",
"V;+	c #564D4D",
"W;+	c #544C4B",
"X;+	c #564F4E",
"Y;+	c #57504E",
"Z;+	c #554D4C",
"`;+	c #554C4C",
" >+	c #534748",
".>+	c #463E3D",
"+>+	c #433F42",
"@>+	c #3A3A3C",
"#>+	c #423B3A",
"$>+	c #4A403F",
"%>+	c #4D4140",
"&>+	c #4A3D3C",
"*>+	c #4B3D3D",
"=>+	c #4E4141",
"->+	c #4C4040",
";>+	c #453E3C",
">>+	c #4C403F",
",>+	c #514846",
"'>+	c #605D5E",
")>+	c #616566",
"!>+	c #535051",
"~>+	c #52484A",
"{>+	c #55494A",
"]>+	c #564C49",
"^>+	c #594746",
"/>+	c #5C4A49",
"(>+	c #554B47",
"_>+	c #584B48",
":>+	c #594E4C",
"<>+	c #574C4A",
"[>+	c #564B49",
"}>+	c #554843",
"|>+	c #4C4D4C",
"1>+	c #544641",
"2>+	c #49423E",
"3>+	c #4A433F",
"4>+	c #48403C",
"5>+	c #453C3A",
"6>+	c #504846",
"7>+	c #888280",
"8>+	c #C5C1BF",
"9>+	c #F6F5F2",
"0>+	c #F5F3F3",
"a>+	c #D9D6D5",
"b>+	c #7E706E",
"c>+	c #796E6B",
"d>+	c #7A7069",
"e>+	c #77726A",
"f>+	c #736E66",
"g>+	c #6E6862",
"h>+	c #666561",
"i>+	c #5F5C55",
"j>+	c #59524B",
"k>+	c #635A51",
"l>+	c #666055",
"m>+	c #666155",
"n>+	c #656156",
"o>+	c #6D655D",
"p>+	c #786B64",
"q>+	c #776A62",
"r>+	c #786D64",
"s>+	c #6B6860",
"t>+	c #767469",
"u>+	c #7A7369",
"v>+	c #7E726B",
"w>+	c #837A77",
"x>+	c #7E7977",
"y>+	c #7F7B77",
"z>+	c #837C76",
"A>+	c #83766B",
"B>+	c #83756A",
"C>+	c #81756E",
"D>+	c #83716D",
"E>+	c #7E6F67",
"F>+	c #837973",
"G>+	c #6B706B",
"H>+	c #777471",
"I>+	c #837571",
"J>+	c #86766D",
"K>+	c #86776C",
"L>+	c #81756C",
"M>+	c #82756C",
"N>+	c #81736A",
"O>+	c #74625A",
"P>+	c #7B6963",
"Q>+	c #867D78",
"R>+	c #898986",
"S>+	c #84827A",
"T>+	c #817A71",
"U>+	c #867E77",
"V>+	c #898279",
"W>+	c #8A817A",
"X>+	c #8B847F",
"Y>+	c #8A857E",
"Z>+	c #8B847B",
"`>+	c #918182",
" ,+	c #8A8585",
".,+	c #838584",
"+,+	c #776F6E",
"@,+	c #8D837B",
"#,+	c #8F8984",
"$,+	c #8D8782",
"%,+	c #8B857F",
"&,+	c #918B86",
"*,+	c #928B84",
"=,+	c #918C87",
"-,+	c #918C86",
";,+	c #8E8983",
">,+	c #8C8883",
",,+	c #8B8782",
"',+	c #878078",
"),+	c #817870",
"!,+	c #7D7069",
"~,+	c #7F7066",
"{,+	c #868181",
"],+	c #746E6A",
"^,+	c #72675A",
"/,+	c #7C6C5E",
"(,+	c #82776D",
"_,+	c #80776C",
":,+	c #7F776C",
"<,+	c #7E766A",
"[,+	c #7C6C65",
"},+	c #7E6B63",
"|,+	c #80736B",
"1,+	c #7F746E",
"2,+	c #716F6D",
"3,+	c #5A5F5F",
"4,+	c #685854",
"5,+	c #76645C",
"6,+	c #706D6D",
"7,+	c #858181",
"8,+	c #817B7C",
"9,+	c #7F7979",
"0,+	c #7F7A7A",
"a,+	c #827E7E",
"b,+	c #878282",
"c,+	c #857E7E",
"d,+	c #817877",
"e,+	c #847879",
"f,+	c #837677",
"g,+	c #847777",
"h,+	c #87797B",
"i,+	c #897A7D",
"j,+	c #877B7D",
"k,+	c #857D7F",
"l,+	c #786D6D",
"m,+	c #827675",
"n,+	c #857A78",
"o,+	c #867B76",
"p,+	c #897A75",
"q,+	c #877875",
"r,+	c #8A7B7A",
"s,+	c #8D7776",
"t,+	c #8C7472",
"u,+	c #877876",
"v,+	c #8B7979",
"w,+	c #8F7876",
"x,+	c #8D6E6A",
"y,+	c #8A706D",
"z,+	c #887D7D",
"A,+	c #8A898A",
"B,+	c #737373",
"C,+	c #796C66",
"D,+	c #877970",
"E,+	c #897C73",
"F,+	c #8C817C",
"G,+	c #897B76",
"H,+	c #897A74",
"I,+	c #8B7B76",
"J,+	c #897A78",
"K,+	c #8D7F7E",
"L,+	c #87837D",
"M,+	c #837F82",
"N,+	c #7A7272",
"O,+	c #877371",
"P,+	c #887271",
"Q,+	c #826967",
"R,+	c #866D6B",
"S,+	c #816B67",
"T,+	c #7E6B67",
"U,+	c #797274",
"V,+	c #6F6E71",
"W,+	c #6C6364",
"X,+	c #7C6967",
"Y,+	c #867570",
"Z,+	c #877975",
"`,+	c #85716D",
" '+	c #756A61",
".'+	c #7E7369",
"+'+	c #847C79",
"@'+	c #827572",
"#'+	c #877272",
"$'+	c #877071",
"%'+	c #886966",
"&'+	c #876A67",
"*'+	c #89746E",
"='+	c #85716A",
"-'+	c #866F69",
";'+	c #88726E",
">'+	c #88716D",
",'+	c #866B63",
"''+	c #896E67",
")'+	c #868180",
"!'+	c #7E807E",
"~'+	c #896F66",
"{'+	c #847064",
"]'+	c #7D6D63",
"^'+	c #7D6D65",
"/'+	c #7C6C64",
"('+	c #7B6861",
"_'+	c #89736E",
":'+	c #9F8D89",
"<'+	c #B9AEAA",
"['+	c #E0DDDA",
"}'+	c #F9F9F6",
"|'+	c #D9D5D4",
"1'+	c #B1A5A2",
"2'+	c #927C79",
"3'+	c #89726F",
"4'+	c #8E7975",
"5'+	c #8E7873",
"6'+	c #8C7E77",
"7'+	c #8E8884",
"8'+	c #736058",
"9'+	c #856C64",
"0'+	c #8C746A",
"a'+	c #8B746A",
"b'+	c #877268",
"c'+	c #876D63",
"d'+	c #876B62",
"e'+	c #846E64",
"f'+	c #7C685F",
"g'+	c #75655A",
"h'+	c #706156",
"i'+	c #735F55",
"j'+	c #7F6662",
"k'+	c #7E645C",
"l'+	c #7F5E54",
"m'+	c #7D5E55",
"n'+	c #785A53",
"o'+	c #735952",
"p'+	c #775E57",
"q'+	c #7E5F57",
"r'+	c #7E5D53",
"s'+	c #816158",
"t'+	c #826359",
"u'+	c #83655B",
"v'+	c #816156",
"w'+	c #7F5D51",
"x'+	c #7F5E53",
"y'+	c #83655D",
"z'+	c #87736D",
"A'+	c #605752",
"B'+	c #5D524D",
"C'+	c #715651",
"D'+	c #735449",
"E'+	c #74584C",
"F'+	c #70544B",
"G'+	c #765A4F",
"H'+	c #74564C",
"I'+	c #76574C",
"J'+	c #694A41",
"K'+	c #74544C",
"L'+	c #73534B",
"M'+	c #70534A",
"N'+	c #755654",
"O'+	c #7E605E",
"P'+	c #756058",
"Q'+	c #7A5E56",
"R'+	c #79625E",
"S'+	c #735B58",
"T'+	c #745C55",
"U'+	c #766058",
"V'+	c #765E57",
"W'+	c #735C58",
"X'+	c #706057",
"Y'+	c #775A57",
"Z'+	c #805F62",
"`'+	c #796B6B",
" )+	c #747571",
".)+	c #785A51",
"+)+	c #785B50",
"@)+	c #745951",
"#)+	c #745E56",
"$)+	c #7A5F54",
"%)+	c #7C5951",
"&)+	c #75544D",
"*)+	c #664B49",
"=)+	c #674C41",
"-)+	c #78574B",
";)+	c #7D5753",
">)+	c #785852",
",)+	c #77594E",
"')+	c #785E52",
"))+	c #785D51",
"!)+	c #785F52",
"~)+	c #7B6153",
"{)+	c #7F5D54",
"])+	c #7C594D",
"^)+	c #805C51",
"/)+	c #836155",
"()+	c #88665B",
"_)+	c #87685C",
":)+	c #7E6B62",
"<)+	c #493A37",
"[)+	c #654440",
"})+	c #444141",
"|)+	c #625754",
"1)+	c #7A6761",
"2)+	c #765F5A",
"3)+	c #705955",
"4)+	c #68524F",
"5)+	c #66504D",
"6)+	c #6F5654",
"7)+	c #705654",
"8)+	c #705755",
"9)+	c #6B5450",
"0)+	c #6A514C",
"a)+	c #69514D",
"b)+	c #785951",
"c)+	c #7A5951",
"d)+	c #694C49",
"e)+	c #7A554F",
"f)+	c #624A45",
"g)+	c #77534C",
"h)+	c #744C44",
"i)+	c #6C4B45",
"j)+	c #8D857F",
"k)+	c #78716C",
"l)+	c #5A4B46",
"m)+	c #76594F",
"n)+	c #775A50",
"o)+	c #6E5149",
"p)+	c #7E5F58",
"q)+	c #7D5C56",
"r)+	c #73544D",
"s)+	c #70524B",
"t)+	c #785750",
"u)+	c #74534C",
"v)+	c #73534E",
"w)+	c #69544B",
"x)+	c #634A46",
"y)+	c #72544F",
"z)+	c #704E49",
"A)+	c #72534E",
"B)+	c #694C47",
"C)+	c #664944",
"D)+	c #78524C",
"E)+	c #70544C",
"F)+	c #7B6C68",
"G)+	c #5C4E4B",
"H)+	c #76544D",
"I)+	c #7D5D55",
"J)+	c #80655B",
"K)+	c #7D5C52",
"L)+	c #79564E",
"M)+	c #74534B",
"N)+	c #6C534A",
"O)+	c #694F46",
"P)+	c #674945",
"Q)+	c #645249",
"R)+	c #694F49",
"S)+	c #5F4C47",
"T)+	c #714D49",
"U)+	c #714842",
"V)+	c #68433E",
"W)+	c #654943",
"X)+	c #69493F",
"Y)+	c #6B4941",
"Z)+	c #6C4A42",
"`)+	c #6E4D46",
" !+	c #6D4B44",
".!+	c #6D4840",
"+!+	c #70514C",
"@!+	c #68625D",
"#!+	c #6C4B46",
"$!+	c #755045",
"%!+	c #6F4E43",
"&!+	c #6F5046",
"*!+	c #694A43",
"=!+	c #684841",
"-!+	c #5E413A",
";!+	c #65453D",
">!+	c #724C43",
",!+	c #AEA7A3",
"'!+	c #E7E5E3",
")!+	c #ACA4A2",
"!!+	c #755F5C",
"~!+	c #623E39",
"{!+	c #623F3A",
"]!+	c #6B4640",
"^!+	c #62423E",
"/!+	c #6F4C46",
"(!+	c #6A4945",
"_!+	c #5A3B37",
":!+	c #6D413B",
"<!+	c #6D423D",
"[!+	c #65413C",
"}!+	c #673D35",
"|!+	c #6E4139",
"1!+	c #64352D",
"2!+	c #5E362E",
"3!+	c #60372E",
"4!+	c #63382E",
"5!+	c #683A33",
"6!+	c #7E5A54",
"7!+	c #5C4640",
"8!+	c #66312C",
"9!+	c #633530",
"0!+	c #55352C",
"a!+	c #613433",
"b!+	c #66554D",
"c!+	c #747365",
"d!+	c #453F37",
"e!+	c #602F2C",
"f!+	c #663930",
"g!+	c #63372E",
"h!+	c #683A30",
"i!+	c #6B4035",
"j!+	c #76574A",
"k!+	c #5D4D44",
"l!+	c #4D3733",
"m!+	c #653A32",
"n!+	c #5B4038",
"o!+	c #867568",
"p!+	c #49312C",
"q!+	c #5A3128",
"r!+	c #5A342A",
"s!+	c #796156",
"t!+	c #74655B",
"u!+	c #442F2A",
"v!+	c #57342C",
"w!+	c #563129",
"x!+	c #6D5D55",
"y!+	c #603731",
"z!+	c #816C68",
"A!+	c #C1BCB9",
"B!+	c #CBC3C1",
"C!+	c #68342E",
"D!+	c #827165",
"E!+	c #55433A",
"F!+	c #64342C",
"G!+	c #816259",
"H!+	c #685345",
"I!+	c #696655",
"J!+	c #3F342D",
"K!+	c #5F372E",
"L!+	c #7A5E50",
"M!+	c #554840",
"N!+	c #592B28",
"O!+	c #573930",
"P!+	c #816F64",
"Q!+	c #5B4E49",
"R!+	c #806358",
"S!+	c #706056",
"T!+	c #816A67",
"U!+	c #D1CAC9",
"V!+	c #9A8280",
"W!+	c #703C35",
"X!+	c #662B22",
"Y!+	c #6C4D45",
"Z!+	c #7E6D66",
"`!+	c #7F5F58",
" ~+	c #604D49",
".~+	c #71655A",
"+~+	c #5F392F",
"@~+	c #4D423B",
"#~+	c #5B3B31",
"$~+	c #5B4C48",
"%~+	c #7E5E52",
"&~+	c #7B6259",
"*~+	c #6F5D57",
"=~+	c #673530",
"-~+	c #A0918E",
";~+	c #CDC7C4",
">~+	c #7C524E",
",~+	c #7F6E67",
"'~+	c #503E3A",
")~+	c #665250",
"!~+	c #73554A",
"~~+	c #7C6459",
"{~+	c #483E38",
"]~+	c #452823",
"^~+	c #654138",
"/~+	c #867066",
"(~+	c #5C4C47",
"_~+	c #7E5D52",
":~+	c #6A5750",
"<~+	c #6B5954",
"[~+	c #6B4441",
"}~+	c #947C7A",
"|~+	c #E6E2E0",
"1~+	c #F9F7F7",
"2~+	c #E9E7E4",
"3~+	c #B4A9A7",
"4~+	c #795754",
"5~+	c #6B5855",
"6~+	c #6E5D55",
"7~+	c #816A60",
"8~+	c #4C413B",
"9~+	c #6A4439",
"0~+	c #897166",
"a~+	c #7D5C53",
"b~+	c #68554E",
"c~+	c #A89A98",
"d~+	c #C4BCBA",
"e~+	c #6B352E",
"f~+	c #6E4E45",
"g~+	c #816C65",
"h~+	c #655350",
"i~+	c #422E2A",
"j~+	c #562C28",
"k~+	c #5F3B32",
"l~+	c #523431",
"m~+	c #83685F",
"n~+	c #4D2927",
"o~+	c #7F5F55",
"p~+	c #67554D",
"q~+	c #775E55",
"r~+	c #68281F",
"s~+	c #5F271F",
"t~+	c #6E443F",
"u~+	c #95807D",
"v~+	c #72433C",
"w~+	c #682A20",
"x~+	c #6F4E45",
"y~+	c #503E3B",
"z~+	c #73635C",
"A~+	c #4C3E3A",
"B~+	c #594844",
"C~+	c #826358",
"D~+	c #97817F",
"E~+	c #A99896",
"F~+	c #6F4E4A",
"G~+	c #B3A9A8",
"H~+	c #DDDBD9",
"I~+	c #D2CDCA",
"J~+	c #9A8A88",
"K~+	c #6F4A46",
"L~+	c #513F3B",
"M~+	c #5F4D4D",
"N~+	c #746055",
"O~+	c #4F2927",
"P~+	c #7F635B",
"Q~+	c #594742",
"R~+	c #6B5853",
"S~+	c #6A514E",
"T~+	c #D0CBC9",
"U~+	c #6E4B47",
"V~+	c #C6C0BE",
"W~+	c #A0918F",
"X~+	c #6D4743",
"Y~+	c #6B4E47",
"Z~+	c #53413D",
"`~+	c #5E4D4E",
" {+	c #6E5047",
".{+	c #473D37",
"+{+	c #513331",
"@{+	c #574440",
"#{+	c #66554F",
"${+	c #462A24",
"%{+	c #D2CBC8",
"&{+	c #A89A99",
"*{+	c #704743",
"={+	c #735853",
"-{+	c #9E928F",
";{+	c #CAC6C3",
">{+	c #DFDDDC",
",{+	c #C2BAB9",
"'{+	c #9A8A89",
"){+	c #56433E",
"!{+	c #64332B",
"~{+	c #7A5C59",
"{{+	c #5D4D50",
"]{+	c #705249",
"^{+	c #78675F",
"/{+	c #483532",
"({+	c #593B34",
"_{+	c #78655B",
":{+	c #493F39",
"<{+	c #503332",
"[{+	c #5B4845",
"}{+	c #785A52",
"|{+	c #64534D",
"1{+	c #77544E",
"2{+	c #C8C1C0",
"3{+	c #5A2720",
"4{+	c #6C4945",
"5{+	c #988684",
"6{+	c #97908F",
"7{+	c #B0AAA8",
"8{+	c #9E8F8D",
"9{+	c #7F6663",
"0{+	c #60261D",
"a{+	c #674943",
"b{+	c #503C39",
"c{+	c #73352D",
"d{+	c #70524A",
"e{+	c #796861",
"f{+	c #493632",
"g{+	c #562A28",
"h{+	c #5B3D35",
"i{+	c #77655A",
"j{+	c #483E39",
"k{+	c #4F3332",
"l{+	c #7E615A",
"m{+	c #7C5D55",
"n{+	c #624F4A",
"o{+	c #644946",
"p{+	c #60251E",
"q{+	c #937E7B",
"r{+	c #673732",
"s{+	c #624E4D",
"t{+	c #613632",
"u{+	c #664942",
"v{+	c #4E3936",
"w{+	c #795D5C",
"x{+	c #5C4F50",
"y{+	c #77665F",
"z{+	c #552A29",
"A{+	c #7B695F",
"B{+	c #423F40",
"C{+	c #4D3231",
"D{+	c #7B5F5C",
"E{+	c #574645",
"F{+	c #7A5B56",
"G{+	c #634D4B",
"H{+	c #6F524E",
"I{+	c #604C4B",
"J{+	c #BAAEAD",
"K{+	c #ABA09E",
"L{+	c #81655F",
"M{+	c #76524F",
"N{+	c #B6ABA9",
"O{+	c #683D39",
"P{+	c #694C46",
"Q{+	c #7B6763",
"R{+	c #523C39",
"S{+	c #602C29",
"T{+	c #6A4C43",
"U{+	c #4C4241",
"V{+	c #503331",
"W{+	c #584546",
"X{+	c #672C23",
"Y{+	c #60504F",
"Z{+	c #66261C",
"`{+	c #BBAEAC",
" ]+	c #CDC7C6",
".]+	c #876C69",
"+]+	c #806658",
"@]+	c #655448",
"#]+	c #E1DCDC",
"$]+	c #724C48",
"%]+	c #6C3A2E",
"&]+	c #74554D",
"*]+	c #816B66",
"=]+	c #533D3A",
"-]+	c #64594E",
";]+	c #462B29",
">]+	c #5F2E2A",
",]+	c #684C43",
"']+	c #726054",
")]+	c #4E3731",
"!]+	c #68453F",
"~]+	c #795D59",
"{]+	c #574543",
"]]+	c #68584E",
"^]+	c #5D2E24",
"/]+	c #5E352B",
"(]+	c #765E56",
"_]+	c #635550",
":]+	c #64281B",
"<]+	c #BBAEAB",
"[]+	c #653730",
"}]+	c #5E3025",
"|]+	c #61382C",
"1]+	c #806855",
"2]+	c #6B5C4C",
"3]+	c #AA9B97",
"4]+	c #E7E5E2",
"5]+	c #75504A",
"6]+	c #613429",
"7]+	c #704133",
"8]+	c #7B5C50",
"9]+	c #806B61",
"0]+	c #68342A",
"a]+	c #583128",
"b]+	c #6C5A4B",
"c]+	c #625C4D",
"d]+	c #42302A",
"e]+	c #513127",
"f]+	c #604B40",
"g]+	c #605549",
"h]+	c #633A30",
"i]+	c #7A4F41",
"j]+	c #7D5145",
"k]+	c #61362E",
"l]+	c #65352B",
"m]+	c #68372E",
"n]+	c #66372F",
"o]+	c #532D24",
"p]+	c #583027",
"q]+	c #56372F",
"r]+	c #6D5853",
"s]+	c #60332A",
"t]+	c #584C44",
"u]+	c #502B24",
"v]+	c #725D59",
"w]+	c #635453",
"x]+	c #69352D",
"y]+	c #55281D",
"z]+	c #755D4D",
"A]+	c #615246",
"B]+	c #442924",
"C]+	c #5A352C",
"D]+	c #593430",
"E]+	c #7B6664",
"F]+	c #6D504B",
"G]+	c #643D33",
"H]+	c #6C5349",
"I]+	c #72645B",
"J]+	c #403631",
"K]+	c #4A3029",
"L]+	c #4F3128",
"M]+	c #482D26",
"N]+	c #432C26",
"O]+	c #432D27",
"P]+	c #3E2B25",
"Q]+	c #432C28",
"R]+	c #3C2A25",
"S]+	c #4D443C",
"T]+	c #3F3D36",
"U]+	c #302726",
"V]+	c #362624",
"W]+	c #2F2424",
"X]+	c #2F2423",
"Y]+	c #312524",
"Z]+	c #312425",
"`]+	c #342525",
" ^+	c #362924",
".^+	c #452E27",
"+^+	c #3B2B25",
"@^+	c #51453E",
"#^+	c #44443B",
"$^+	c #2E2926",
"%^+	c #372726",
"&^+	c #3B2C27",
"*^+	c #3D2E29",
"=^+	c #4E3C35",
"-^+	c #57423B",
";^+	c #4A302A",
">^+	c #4D322B",
",^+	c #452D27",
"'^+	c #4F332A",
")^+	c #50352C",
"!^+	c #442D25",
"~^+	c #442F27",
"{^+	c #4A332A",
"]^+	c #4D332B",
"^^+	c #422E28",
"/^+	c #4A3229",
"(^+	c #4B342C",
"_^+	c #4F443C",
":^+	c #5B5752",
"<^+	c #393838",
"[^+	c #2D2625",
"}^+	c #413E3F",
"|^+	c #492C29",
"1^+	c #352622",
"2^+	c #382722",
"3^+	c #3C2F2B",
"4^+	c #484342",
"5^+	c #343131",
"6^+	c #442D29",
"7^+	c #3C2723",
"8^+	c #4E312A",
"9^+	c #352624",
"0^+	c #493732",
"a^+	c #362626",
"b^+	c #4A2E2B",
"c^+	c #422B26",
"d^+	c #3A2826",
"e^+	c #554A4A",
"f^+	c #4B4549",
"g^+	c #3F2B29",
"h^+	c #3E2A28",
"i^+	c #85817F",
"j^+	c #C9C7C6",
"k^+	c #7D7877",
"l^+	c #4E4B48",
"m^+	c #3E3532",
"n^+	c #453936",
"o^+	c #453934",
"p^+	c #433A35",
"q^+	c #4E4744",
"r^+	c #939190",
"s^+	c #D9D8D8",
"t^+	c #DFDEDE",
"u^+	c #524B49",
"v^+	c #332524",
"w^+	c #312422",
"x^+	c #4B403C",
"y^+	c #373331",
"z^+	c #34302D",
"A^+	c #38332F",
"B^+	c #393130",
"C^+	c #3B3332",
"D^+	c #3B3531",
"E^+	c #453E3A",
"F^+	c #413B36",
"G^+	c #403834",
"H^+	c #3F3937",
"I^+	c #403A36",
"J^+	c #423D3C",
"K^+	c #3D3E3F",
"L^+	c #353738",
"M^+	c #443937",
"N^+	c #4C423F",
"O^+	c #463E3A",
"P^+	c #423A37",
"Q^+	c #403936",
"R^+	c #3D3734",
"S^+	c #35302E",
"T^+	c #3D3836",
"U^+	c #3C3936",
"V^+	c #454741",
"W^+	c #3E443E",
"X^+	c #3C3E3A",
"Y^+	c #433D3B",
"Z^+	c #44403D",
"`^+	c #43413B",
" /+	c #433F3A",
"./+	c #423F38",
"+/+	c #44413A",
"@/+	c #45413A",
"#/+	c #45403A",
"$/+	c #453F39",
"%/+	c #46423D",
"&/+	c #4E4541",
"*/+	c #493F3C",
"=/+	c #424442",
"-/+	c #48403D",
";/+	c #484540",
">/+	c #464741",
",/+	c #474642",
"'/+	c #4A4643",
")/+	c #48443F",
"!/+	c #4D4944",
"~/+	c #48433F",
"{/+	c #555350",
"]/+	c #4B504B",
"^/+	c #3F3E3C",
"//+	c #413939",
"(/+	c #3F3837",
"_/+	c #433B39",
":/+	c #403937",
"</+	c #3D3C3B",
"[/+	c #3C3B39",
"}/+	c #3E3937",
"|/+	c #3D3834",
"1/+	c #443C38",
"2/+	c #3F3834",
"3/+	c #393433",
"4/+	c #353030",
"5/+	c #352E2D",
"6/+	c #342B2A",
"7/+	c #372B29",
"8/+	c #3C302D",
"9/+	c #382D2D",
"0/+	c #342D2C",
"a/+	c #3C322F",
"b/+	c #474240",
"c/+	c #4A4847",
"d/+	c #3A3839",
"e/+	c #332E2E",
"f/+	c #3B3131",
"g/+	c #3E3435",
"h/+	c #463836",
"i/+	c #4B3C3B",
"j/+	c #534140",
"k/+	c #524140",
"l/+	c #4F3F3D",
"m/+	c #4E3E3D",
"n/+	c #5A4847",
"o/+	c #584748",
"p/+	c #473C3C",
"q/+	c #413A3B",
"r/+	c #383335",
"s/+	c #3F3739",
"t/+	c #3F3638",
"u/+	c #403636",
"v/+	c #453B39",
"w/+	c #4B3F3E",
"x/+	c #57494B",
"y/+	c #5E5053",
"z/+	c #5B4D50",
"A/+	c #534747",
"B/+	c #524646",
"C/+	c #5B4E4E",
"D/+	c #584D4E",
"E/+	c #554D4D",
"F/+	c #514B4C",
"G/+	c #524C4C",
"H/+	c #56504E",
"I/+	c #565050",
"J/+	c #5A5355",
"K/+	c #5D5A59",
"L/+	c #5C6163",
"M/+	c #44474A",
"N/+	c #333130",
"O/+	c #322E2C",
"P/+	c #342E2E",
"Q/+	c #363130",
"R/+	c #383230",
"S/+	c #473E3C",
"T/+	c #564B48",
"U/+	c #5B504D",
"V/+	c #5E5251",
"W/+	c #615756",
"X/+	c #625756",
"Y/+	c #5E5351",
"Z/+	c #574F4B",
"`/+	c #5C504D",
" (+	c #58534D",
".(+	c #4C4D46",
"+(+	c #574946",
"@(+	c #675F57",
"#(+	c #6C665C",
"$(+	c #676158",
"%(+	c #635F56",
"&(+	c #5B5850",
"*(+	c #5B4F4C",
"=(+	c #747273",
"-(+	c #686769",
";(+	c #4F4949",
">(+	c #504440",
",(+	c #574C48",
"'(+	c #5B504E",
")(+	c #5C514D",
"!(+	c #5F5552",
"~(+	c #635855",
"{(+	c #605553",
"](+	c #605855",
"^(+	c #605654",
"/(+	c #635856",
"((+	c #645857",
"_(+	c #635A54",
":(+	c #605B56",
"<(+	c #635E5D",
"[(+	c #645E61",
"}(+	c #544F51",
"|(+	c #4F4644",
"1(+	c #5B504A",
"2(+	c #655750",
"3(+	c #6C5D55",
"4(+	c #6C5D57",
"5(+	c #685955",
"6(+	c #665B56",
"7(+	c #69615A",
"8(+	c #6A655E",
"9(+	c #615954",
"0(+	c #6B625E",
"a(+	c #6E6561",
"b(+	c #737072",
"c(+	c #727277",
"d(+	c #656062",
"e(+	c #615752",
"f(+	c #5F5752",
"g(+	c #645D57",
"h(+	c #655E5A",
"i(+	c #6F6360",
"j(+	c #938D8C",
"k(+	c #E1E1E1",
"l(+	c #9F9E9B",
"m(+	c #65605A",
"n(+	c #5F5554",
"o(+	c #645855",
"p(+	c #605551",
"q(+	c #6A5E5C",
"r(+	c #767472",
"s(+	c #7D7F7E",
"t(+	c #7A7572",
"u(+	c #6E655F",
"v(+	c #756B65",
"w(+	c #847A74",
"x(+	c #78746B",
"y(+	c #7E7D73",
"z(+	c #7E7E73",
"A(+	c #727368",
"B(+	c #727469",
"C(+	c #84847C",
"D(+	c #D8D6D6",
"E(+	c #67625B",
"F(+	c #665F58",
"G(+	c #635651",
"H(+	c #5D514D",
"I(+	c #625451",
"J(+	c #635653",
"K(+	c #62524D",
"L(+	c #7B6E6B",
"M(+	c #6E615E",
"N(+	c #7B726E",
"O(+	c #786D6B",
"P(+	c #786969",
"Q(+	c #7A6C6B",
"R(+	c #7F7671",
"S(+	c #87827C",
"T(+	c #857F7B",
"U(+	c #827672",
"V(+	c #847773",
"W(+	c #83756E",
"X(+	c #847F7C",
"Y(+	c #798183",
"Z(+	c #5E6869",
"`(+	c #625957",
" _+	c #827371",
"._+	c #87807C",
"+_+	c #88817E",
"@_+	c #857C78",
"#_+	c #827574",
"$_+	c #807776",
"%_+	c #7B7371",
"&_+	c #807B7A",
"*_+	c #827979",
"=_+	c #84817E",
"-_+	c #81837E",
";_+	c #81817D",
">_+	c #857F7F",
",_+	c #857F7E",
"'_+	c #858380",
")_+	c #85847A",
"!_+	c #838278",
"~_+	c #838176",
"{_+	c #858075",
"]_+	c #847E72",
"^_+	c #847D71",
"/_+	c #817A6E",
"(_+	c #85827B",
"__+	c #88837F",
":_+	c #88807D",
"<_+	c #867D7B",
"[_+	c #857C7A",
"}_+	c #837F80",
"|_+	c #6C6F71",
"1_+	c #6B6165",
"2_+	c #7B6A69",
"3_+	c #847D78",
"4_+	c #84797A",
"5_+	c #877C7D",
"6_+	c #847A78",
"7_+	c #877C77",
"8_+	c #877A76",
"9_+	c #857571",
"0_+	c #7D6A66",
"a_+	c #836C6B",
"b_+	c #877372",
"c_+	c #807B75",
"d_+	c #7D6F6C",
"e_+	c #7C6C69",
"f_+	c #80736F",
"g_+	c #7F726D",
"h_+	c #7F716B",
"i_+	c #776662",
"j_+	c #7E6861",
"k_+	c #7B645D",
"l_+	c #7E6760",
"m_+	c #796560",
"n_+	c #6B6B68",
"o_+	c #5D5C5B",
"p_+	c #705F5B",
"q_+	c #715A56",
"r_+	c #725E58",
"s_+	c #7A6864",
"t_+	c #6D5C5A",
"u_+	c #6C5F5B",
"v_+	c #71605D",
"w_+	c #71615D",
"x_+	c #6D5F5A",
"y_+	c #71625B",
"z_+	c #74675F",
"A_+	c #756A65",
"B_+	c #695A5A",
"C_+	c #705C5E",
"D_+	c #7A666A",
"E_+	c #877D75",
"F_+	c #757074",
"G_+	c #6D6E75",
"H_+	c #757278",
"I_+	c #716A6C",
"J_+	c #746665",
"K_+	c #8A7876",
"L_+	c #8E7C7F",
"M_+	c #8E7D80",
"N_+	c #8B7777",
"O_+	c #8A7472",
"P_+	c #8B7675",
"Q_+	c #8D7A7A",
"R_+	c #8D7D7D",
"S_+	c #8D8181",
"T_+	c #8B8081",
"U_+	c #8F8985",
"V_+	c #8B8B89",
"W_+	c #807D7C",
"X_+	c #6C615C",
"Y_+	c #625450",
"Z_+	c #685852",
"`_+	c #8F837E",
" :+	c #897970",
".:+	c #8D7B72",
"+:+	c #8C837A",
"@:+	c #797C74",
"#:+	c #6A6962",
"$:+	c #85766C",
"%:+	c #8D7E74",
"&:+	c #8A7D73",
"*:+	c #8C7F77",
"=:+	c #8C8078",
"-:+	c #8B7C76",
";:+	c #887872",
">:+	c #8D827C",
",:+	c #908A88",
"':+	c #82716C",
"):+	c #7D6C63",
"!:+	c #8D847D",
"~:+	c #8F8780",
"{:+	c #8E8881",
"]:+	c #8F8881",
"^:+	c #908A84",
"/:+	c #908B86",
"(:+	c #8E827C",
"_:+	c #91897F",
"::+	c #90897E",
"<:+	c #908C84",
"[:+	c #89868A",
"}:+	c #6B6669",
"|:+	c #78635B",
"1:+	c #8A7066",
"2:+	c #8B7269",
"3:+	c #8A716B",
"4:+	c #856F68",
"5:+	c #8D8079",
"6:+	c #8C7A73",
"7:+	c #89736D",
"8:+	c #8C7E7D",
"9:+	c #8E8584",
"0:+	c #86736D",
"a:+	c #887C76",
"b:+	c #8B7D77",
"c:+	c #8F837C",
"d:+	c #A59E9A",
"e:+	c #FAFAF7",
"f:+	c #F3F4F1",
"g:+	c #CBC8C4",
"h:+	c #988B85",
"i:+	c #8A7972",
"j:+	c #8B7975",
"k:+	c #8A7770",
"l:+	c #8A756E",
"m:+	c #877976",
"n:+	c #7F726E",
"o:+	c #71615A",
"p:+	c #8A7871",
"q:+	c #887C70",
"r:+	c #A19C95",
"s:+	c #7E6E64",
"t:+	c #857369",
"u:+	c #846E66",
"v:+	c #7C655E",
"w:+	c #7F6760",
"x:+	c #806661",
"y:+	c #82645E",
"z:+	c #83655E",
"A:+	c #806761",
"B:+	c #866B66",
"C:+	c #826863",
"D:+	c #806A63",
"E:+	c #856E6B",
"F:+	c #8B7070",
"G:+	c #896F6E",
"H:+	c #786460",
"I:+	c #836A66",
"J:+	c #7B625B",
"K:+	c #87898B",
"L:+	c #5F6769",
"M:+	c #584946",
"N:+	c #7B6361",
"O:+	c #786360",
"P:+	c #7A6865",
"Q:+	c #72615F",
"R:+	c #786061",
"S:+	c #766162",
"T:+	c #816F6D",
"U:+	c #877574",
"V:+	c #866F70",
"W:+	c #826869",
"X:+	c #7D6866",
"Y:+	c #7D6969",
"Z:+	c #756363",
"`:+	c #796B68",
" <+	c #776D64",
".<+	c #766D63",
"+<+	c #756B61",
"@<+	c #7A6D63",
"#<+	c #75685E",
"$<+	c #6B5E55",
"%<+	c #816D6A",
"&<+	c #7C6564",
"*<+	c #7C6464",
"=<+	c #776261",
"-<+	c #72605F",
";<+	c #7D6F6F",
"><+	c #6F6569",
",<+	c #533F44",
"'<+	c #664749",
")<+	c #725A57",
"!<+	c #715758",
"~<+	c #75575B",
"{<+	c #715454",
"]<+	c #755350",
"^<+	c #7B5957",
"/<+	c #72524E",
"(<+	c #6F4C49",
"_<+	c #6F4E4B",
":<+	c #6F504C",
"<<+	c #6D4C4B",
"[<+	c #73514F",
"}<+	c #725852",
"|<+	c #755752",
"1<+	c #70534E",
"2<+	c #82685C",
"3<+	c #7A5F55",
"4<+	c #68504C",
"5<+	c #714B44",
"6<+	c #77514A",
"7<+	c #75524B",
"8<+	c #76544C",
"9<+	c #5E5C58",
"0<+	c #82665D",
"a<+	c #856158",
"b<+	c #83645B",
"c<+	c #7E695E",
"d<+	c #766259",
"e<+	c #7D6359",
"f<+	c #81695F",
"g<+	c #8B766A",
"h<+	c #8C756A",
"i<+	c #83675E",
"j<+	c #8A6D64",
"k<+	c #856960",
"l<+	c #81675B",
"m<+	c #786054",
"n<+	c #6D594E",
"o<+	c #67544C",
"p<+	c #735C57",
"q<+	c #765B57",
"r<+	c #6A5050",
"s<+	c #6C5455",
"t<+	c #8B7267",
"u<+	c #876B5F",
"v<+	c #81665C",
"w<+	c #7E675D",
"x<+	c #836E63",
"y<+	c #866D62",
"z<+	c #846B62",
"A<+	c #846861",
"B<+	c #816F66",
"C<+	c #8C7064",
"D<+	c #836D65",
"E<+	c #767A7B",
"F<+	c #6C6C6F",
"G<+	c #7B6056",
"H<+	c #785D56",
"I<+	c #745856",
"J<+	c #7F6560",
"K<+	c #775D53",
"L<+	c #745A53",
"M<+	c #6E5450",
"N<+	c #765C56",
"O<+	c #79635A",
"P<+	c #705F57",
"Q<+	c #5D4740",
"R<+	c #614942",
"S<+	c #644D45",
"T<+	c #694E43",
"U<+	c #6D5148",
"V<+	c #6D534A",
"W<+	c #6F554B",
"X<+	c #73584E",
"Y<+	c #785D54",
"Z<+	c #785249",
"`<+	c #7C665E",
" [+	c #504844",
".[+	c #6D4740",
"+[+	c #66453D",
"@[+	c #6D4842",
"#[+	c #694640",
"$[+	c #69443F",
"%[+	c #724B45",
"&[+	c #714B45",
"*[+	c #714F47",
"=[+	c #6F5049",
"-[+	c #6D4F47",
";[+	c #6D5047",
">[+	c #6F5149",
",[+	c #6B5046",
"'[+	c #71564E",
")[+	c #6F524A",
"![+	c #72584D",
"~[+	c #776155",
"{[+	c #7A6257",
"][+	c #816B62",
"^[+	c #816C64",
"/[+	c #80695B",
"([+	c #7F6A5C",
"_[+	c #8A8380",
":[+	c #5E5756",
"<[+	c #4B3733",
"[[+	c #5F3B34",
"}[+	c #613B35",
"|[+	c #5E3934",
"1[+	c #603A35",
"2[+	c #683F3B",
"3[+	c #6E443E",
"4[+	c #673E38",
"5[+	c #5E3C37",
"6[+	c #603E38",
"7[+	c #6E4C49",
"8[+	c #62433D",
"9[+	c #64453E",
"0[+	c #60423B",
"a[+	c #593E38",
"b[+	c #795852",
"c[+	c #77574F",
"d[+	c #6D4D46",
"e[+	c #6C514B",
"f[+	c #755A52",
"g[+	c #F1F1ED",
"h[+	c #92827F",
"i[+	c #68443D",
"j[+	c #5D403B",
"k[+	c #5C403A",
"l[+	c #543831",
"m[+	c #5D3D34",
"n[+	c #5B3B34",
"o[+	c #5E3D35",
"p[+	c #5C3D34",
"q[+	c #5A3A32",
"r[+	c #725954",
"s[+	c #A9A09D",
"t[+	c #693C35",
"u[+	c #6A3C34",
"v[+	c #5A3732",
"w[+	c #6E443D",
"x[+	c #6F453C",
"y[+	c #57372D",
"z[+	c #5D3A30",
"A[+	c #664036",
"B[+	c #633C31",
"C[+	c #603C31",
"D[+	c #5B372E",
"E[+	c #56352C",
"F[+	c #867876",
"G[+	c #5E352E",
"H[+	c #633930",
"I[+	c #54352B",
"J[+	c #53332C",
"K[+	c #7C5B4F",
"L[+	c #756359",
"M[+	c #593429",
"N[+	c #6A382F",
"O[+	c #704233",
"P[+	c #844F3E",
"Q[+	c #724133",
"R[+	c #65362C",
"S[+	c #6C3B32",
"T[+	c #795348",
"U[+	c #7C6C61",
"V[+	c #4F423C",
"W[+	c #6C362F",
"X[+	c #683931",
"Y[+	c #6B3E34",
"Z[+	c #78493D",
"`[+	c #7B493F",
" }+	c #663830",
".}+	c #6E3D34",
"+}+	c #734138",
"@}+	c #6C3D33",
"#}+	c #62372E",
"$}+	c #61342A",
"%}+	c #62352A",
"&}+	c #6D3E34",
"*}+	c #6C3C32",
"=}+	c #6B3B32",
"-}+	c #56342D",
";}+	c #613A30",
">}+	c #7B4E41",
",}+	c #886355",
"'}+	c #7F6F63",
")}+	c #5A342C",
"!}+	c #70453B",
"~}+	c #643B32",
"{}+	c #7B7269",
"]}+	c #61352E",
"^}+	c #52302B",
"/}+	c #52312B",
"(}+	c #5B342B",
"_}+	c #563830",
":}+	c #8F807A",
"<}+	c #A99E9C",
"[}+	c #C5C0BE",
"}}+	c #584F4C",
"|}+	c #7B5749",
"1}+	c #633227",
"2}+	c #5C3126",
"3}+	c #713529",
"4}+	c #793A2C",
"5}+	c #7B3B2E",
"6}+	c #73483D",
"7}+	c #756053",
"8}+	c #463630",
"9}+	c #593632",
"0}+	c #68352D",
"a}+	c #794F42",
"b}+	c #867264",
"c}+	c #8D8A7E",
"d}+	c #6D6E67",
"e}+	c #6F534E",
"f}+	c #7F716D",
"g}+	c #463735",
"h}+	c #594846",
"i}+	c #6C4B47",
"j}+	c #EFEBE9",
"k}+	c #815A55",
"l}+	c #6C3934",
"m}+	c #9A8785",
"n}+	c #D6CDCD",
"o}+	c #663831",
"p}+	c #67403C",
"q}+	c #81706F",
"r}+	c #504847",
"s}+	c #7C5C50",
"t}+	c #74655D",
"u}+	c #7C3428",
"v}+	c #793227",
"w}+	c #43332D",
"x}+	c #722D25",
"y}+	c #8D8174",
"z}+	c #816C6C",
"A}+	c #4C3636",
"B}+	c #584543",
"C}+	c #762F27",
"D}+	c #752D27",
"E}+	c #772E28",
"F}+	c #742D27",
"G}+	c #642A24",
"H}+	c #714946",
"I}+	c #EBE7E4",
"J}+	c #DAD2CF",
"K}+	c #9B7E7A",
"L}+	c #773E36",
"M}+	c #754944",
"N}+	c #E2DCDB",
"O}+	c #764C47",
"P}+	c #7A3028",
"Q}+	c #7A3027",
"R}+	c #69413D",
"S}+	c #806E6F",
"T}+	c #4C4647",
"U}+	c #7D5E52",
"V}+	c #783427",
"W}+	c #783528",
"X}+	c #876B60",
"Y}+	c #786A65",
"Z}+	c #6A4943",
"`}+	c #806863",
" |+	c #4E3635",
".|+	c #8A7469",
"+|+	c #604A46",
"@|+	c #752E26",
"#|+	c #6C413D",
"$|+	c #EBE8E6",
"%|+	c #906F6B",
"&|+	c #713731",
"*|+	c #68261D",
"=|+	c #6B2B23",
"-|+	c #876561",
";|+	c #C1B8B5",
">|+	c #E3DEDC",
",|+	c #764D49",
"'|+	c #4F4746",
")|+	c #75372C",
"!|+	c #795B4F",
"~|+	c #766861",
"{|+	c #6F453F",
"]|+	c #4A352F",
"^|+	c #83665C",
"/|+	c #6C4D41",
"(|+	c #8D786A",
"_|+	c #763026",
":|+	c #682C23",
"<|+	c #6B403B",
"[|+	c #D2CCC9",
"}|+	c #F7F8F6",
"||+	c #BEB3B1",
"1|+	c #8C7372",
"2|+	c #744744",
"3|+	c #744B48",
"4|+	c #A3928F",
"5|+	c #742E26",
"6|+	c #73685F",
"7|+	c #7B3327",
"8|+	c #745752",
"9|+	c #49322C",
"0|+	c #6B4C45",
"a|+	c #4E3632",
"b|+	c #6D4C41",
"c|+	c #8B7568",
"d|+	c #644E48",
"e|+	c #662B23",
"f|+	c #E0DADA",
"g|+	c #D2CAC9",
"h|+	c #E0DEDC",
"i|+	c #7A3227",
"j|+	c #7C3227",
"k|+	c #6F433C",
"l|+	c #715550",
"m|+	c #7C6058",
"n|+	c #533734",
"o|+	c #4E3633",
"p|+	c #724F44",
"q|+	c #887265",
"r|+	c #5E4844",
"s|+	c #643C37",
"t|+	c #CBC6C4",
"u|+	c #846C69",
"v|+	c #632922",
"w|+	c #83706B",
"x|+	c #504644",
"y|+	c #785E54",
"z|+	c #786E67",
"A|+	c #7E3328",
"B|+	c #7C3228",
"C|+	c #45302D",
"D|+	c #775B53",
"E|+	c #86726C",
"F|+	c #7D635C",
"G|+	c #6E5145",
"H|+	c #88786B",
"I|+	c #5A4842",
"J|+	c #B9B1B0",
"K|+	c #87726F",
"L|+	c #673F38",
"M|+	c #826E68",
"N|+	c #6B352D",
"O|+	c #72453D",
"P|+	c #47322E",
"Q|+	c #553734",
"R|+	c #684741",
"S|+	c #7E655F",
"T|+	c #4C3431",
"U|+	c #8A796D",
"V|+	c #5E4B46",
"W|+	c #B4ADAB",
"X|+	c #9E928E",
"Y|+	c #59231A",
"Z|+	c #83716B",
"`|+	c #544947",
" 1+	c #6E382E",
".1+	c #6F362D",
"+1+	c #7C655B",
"@1+	c #78726B",
"#1+	c #715551",
"$1+	c #47312D",
"%1+	c #6A4E45",
"&1+	c #705B54",
"*1+	c #532B23",
"=1+	c #694B43",
"-1+	c #6D4D42",
";1+	c #5E4B45",
">1+	c #B5ADAC",
",1+	c #5B221B",
"'1+	c #6A372D",
")1+	c #80665B",
"!1+	c #746159",
"~1+	c #806D66",
"{1+	c #7E6C5F",
"]1+	c #594540",
"^1+	c #B2AAA8",
"/1+	c #B2A9A8",
"(1+	c #5B241E",
"_1+	c #613C34",
":1+	c #7D6257",
"<1+	c #6F443C",
"[1+	c #795C51",
"}1+	c #593936",
"|1+	c #572823",
"11+	c #73554C",
"21+	c #4F3733",
"31+	c #77665A",
"41+	c #55403D",
"51+	c #A59797",
"61+	c #C0B8B8",
"71+	c #612922",
"81+	c #7B6359",
"91+	c #7C716A",
"01+	c #603025",
"a1+	c #6D413A",
"b1+	c #8A7870",
"c1+	c #573E3A",
"d1+	c #6B4C41",
"e1+	c #7D6A5F",
"f1+	c #54423D",
"g1+	c #A09190",
"h1+	c #C2B8B8",
"i1+	c #70443D",
"j1+	c #533330",
"k1+	c #4E2924",
"l1+	c #533329",
"m1+	c #71574C",
"n1+	c #6E5E54",
"o1+	c #533731",
"p1+	c #554039",
"q1+	c #7E6961",
"r1+	c #78352A",
"s1+	c #65362F",
"t1+	c #70382D",
"u1+	c #783E31",
"v1+	c #763A2F",
"w1+	c #72372C",
"x1+	c #76372B",
"y1+	c #5E4036",
"z1+	c #5E5148",
"A1+	c #644941",
"B1+	c #6D554F",
"C1+	c #5D3229",
"D1+	c #6F322C",
"E1+	c #6F362C",
"F1+	c #6D362C",
"G1+	c #5B4A43",
"H1+	c #533632",
"I1+	c #4F342C",
"J1+	c #644F46",
"K1+	c #5C524A",
"L1+	c #5C4038",
"M1+	c #453B33",
"N1+	c #695550",
"O1+	c #542E25",
"P1+	c #543127",
"Q1+	c #9C9391",
"R1+	c #D0CBCA",
"S1+	c #624C49",
"T1+	c #6F453B",
"U1+	c #492E26",
"V1+	c #46342D",
"W1+	c #473E35",
"X1+	c #51322B",
"Y1+	c #3F2F27",
"Z1+	c #443730",
"`1+	c #4A443D",
" 2+	c #554F48",
".2+	c #4F4741",
"+2+	c #332B29",
"@2+	c #382925",
"#2+	c #3F2A24",
"$2+	c #382926",
"%2+	c #3D2726",
"&2+	c #413932",
"*2+	c #2F2A26",
"=2+	c #462C25",
"-2+	c #422823",
";2+	c #422B24",
">2+	c #3D2823",
",2+	c #493534",
"'2+	c #4B3833",
")2+	c #5A4E49",
"!2+	c #403D39",
"~2+	c #372B2B",
"{2+	c #432828",
"]2+	c #4A2D2A",
"^2+	c #4B2F2B",
"/2+	c #402A29",
"(2+	c #433F3B",
"_2+	c #302E2B",
":2+	c #342928",
"<2+	c #3B2928",
"[2+	c #3E2824",
"}2+	c #55403B",
"|2+	c #322F2D",
"12+	c #2D2726",
"22+	c #2E2725",
"32+	c #312726",
"42+	c #302826",
"52+	c #392D2B",
"62+	c #382D2B",
"72+	c #362B29",
"82+	c #3C2E2D",
"92+	c #392C2A",
"02+	c #392D2C",
"a2+	c #352B29",
"b2+	c #3E2B29",
"c2+	c #372B2A",
"d2+	c #969493",
"e2+	c #D1CFD0",
"f2+	c #554F4E",
"g2+	c #2F2726",
"h2+	c #322A27",
"i2+	c #312926",
"j2+	c #302A28",
"k2+	c #302A29",
"l2+	c #322B2B",
"m2+	c #34312D",
"n2+	c #403935",
"o2+	c #3E3734",
"p2+	c #47423E",
"q2+	c #47433F",
"r2+	c #3F3B37",
"s2+	c #483C3B",
"t2+	c #4E4746",
"u2+	c #595452",
"v2+	c #484243",
"w2+	c #524F49",
"x2+	c #57534D",
"y2+	c #58534C",
"z2+	c #5B554D",
"A2+	c #615B52",
"B2+	c #6C655D",
"C2+	c #716A62",
"D2+	c #767069",
"E2+	c #746F69",
"F2+	c #6F6A65",
"G2+	c #5F504A",
"H2+	c #5E5248",
"I2+	c #615C57",
"J2+	c #615E5B",
"K2+	c #686058",
"L2+	c #6F5E5C",
"M2+	c #6A5F5A",
"N2+	c #635D57",
"O2+	c #514E48",
"P2+	c #4C4742",
"Q2+	c #494340",
"R2+	c #4F4743",
"S2+	c #564D47",
"T2+	c #6D675E",
"U2+	c #7E827D",
"V2+	c #7D8581",
"W2+	c #727D79",
"X2+	c #656E69",
"Y2+	c #676A63",
"Z2+	c #67665F",
"`2+	c #666259",
" 3+	c #676359",
".3+	c #626158",
"+3+	c #57554F",
"@3+	c #53504A",
"#3+	c #5C5751",
"$3+	c #635F59",
"%3+	c #625F58",
"&3+	c #5D5B56",
"*3+	c #5E5C56",
"=3+	c #66655D",
"-3+	c #64635B",
";3+	c #5C5B55",
">3+	c #56594E",
",3+	c #535A51",
"'3+	c #4E5455",
")3+	c #484B49",
"!3+	c #494B40",
"~3+	c #4E4D43",
"{3+	c #58564C",
"]3+	c #595A4E",
"^3+	c #4E5046",
"/3+	c #56574E",
"(3+	c #575950",
"_3+	c #56574F",
":3+	c #52504B",
"<3+	c #51504C",
"[3+	c #4C4B47",
"}3+	c #474743",
"|3+	c #55554F",
"13+	c #5D5A53",
"23+	c #69685E",
"33+	c #5A5E56",
"43+	c #3C3D39",
"53+	c #493838",
"63+	c #4C3D3B",
"73+	c #483F3A",
"83+	c #4C4441",
"93+	c #49433C",
"03+	c #4D4740",
"a3+	c #4F4840",
"b3+	c #4F4841",
"c3+	c #48413C",
"d3+	c #403B36",
"e3+	c #433E39",
"f3+	c #46433D",
"g3+	c #42423D",
"h3+	c #3E413E",
"i3+	c #3E413B",
"j3+	c #44433B",
"k3+	c #544848",
"l3+	c #504545",
"m3+	c #4E4142",
"n3+	c #544747",
"o3+	c #4F4444",
"p3+	c #4B4441",
"q3+	c #47443E",
"r3+	c #53524D",
"s3+	c #676A66",
"t3+	c #5D6260",
"u3+	c #4B4A49",
"v3+	c #4C4542",
"w3+	c #4F4844",
"x3+	c #544E48",
"y3+	c #534E47",
"z3+	c #4F4943",
"A3+	c #4C4741",
"B3+	c #4E4B43",
"C3+	c #4F4640",
"D3+	c #4D403B",
"E3+	c #474139",
"F3+	c #463F3D",
"G3+	c #44403E",
"H3+	c #413D3B",
"I3+	c #433D3C",
"J3+	c #423C3A",
"K3+	c #3C3837",
"L3+	c #3C3736",
"M3+	c #3C3735",
"N3+	c #3E3936",
"O3+	c #3E3B39",
"P3+	c #423F3B",
"Q3+	c #3E3B38",
"R3+	c #463C3B",
"S3+	c #4C4543",
"T3+	c #54514F",
"U3+	c #575858",
"V3+	c #58595B",
"W3+	c #585759",
"X3+	c #5A5558",
"Y3+	c #5D5558",
"Z3+	c #575351",
"`3+	c #554F4D",
" 4+	c #5A5451",
".4+	c #5E5652",
"+4+	c #524947",
"@4+	c #4A4444",
"#4+	c #3B3434",
"$4+	c #3E3333",
"%4+	c #3D3C37",
"&4+	c #443F3A",
"*4+	c #413937",
"=4+	c #3B3433",
"-4+	c #3C3433",
";4+	c #3A3232",
">4+	c #393231",
",4+	c #393232",
"'4+	c #3E3434",
")4+	c #3B2F30",
"!4+	c #3B2E30",
"~4+	c #413637",
"{4+	c #5B5152",
"]4+	c #6C6668",
"^4+	c #5E5B5D",
"/4+	c #5E5959",
"(4+	c #5E5551",
"_4+	c #615754",
":4+	c #615855",
"<4+	c #605853",
"[4+	c #68635F",
"}4+	c #66605B",
"|4+	c #706566",
"14+	c #766A68",
"24+	c #70665F",
"34+	c #686260",
"44+	c #615D61",
"54+	c #4F4C4C",
"64+	c #675C56",
"74+	c #6E5F5A",
"84+	c #6B5C5A",
"94+	c #655B54",
"04+	c #645A54",
"a4+	c #605651",
"b4+	c #5F514E",
"c4+	c #574A46",
"d4+	c #574945",
"e4+	c #5B4D4A",
"f4+	c #AFADAC",
"g4+	c #776D6C",
"h4+	c #625351",
"i4+	c #5F524F",
"j4+	c #615953",
"k4+	c #5D5650",
"l4+	c #5E5852",
"m4+	c #66605A",
"n4+	c #656261",
"o4+	c #5A585D",
"p4+	c #5E5459",
"q4+	c #625456",
"r4+	c #695B59",
"s4+	c #77716B",
"t4+	c #7A7871",
"u4+	c #7C7871",
"v4+	c #7C7771",
"w4+	c #7C7671",
"x4+	c #7E7974",
"y4+	c #86847D",
"z4+	c #83817A",
"A4+	c #807D75",
"B4+	c #837A75",
"C4+	c #877978",
"D4+	c #89807F",
"E4+	c #837779",
"F4+	c #887E81",
"G4+	c #88827E",
"H4+	c #8C8480",
"I4+	c #928A87",
"J4+	c #938D8B",
"K4+	c #8C7A79",
"L4+	c #8E7E79",
"M4+	c #8A8886",
"N4+	c #7C7A7D",
"O4+	c #928479",
"P4+	c #907D7A",
"Q4+	c #8F827D",
"R4+	c #7D6C6A",
"S4+	c #806B6A",
"T4+	c #8C7B75",
"U4+	c #8D7D78",
"V4+	c #918985",
"W4+	c #8E8A88",
"X4+	c #848182",
"Y4+	c #828581",
"Z4+	c #7E8079",
"`4+	c #807B74",
" 5+	c #82746D",
".5+	c #81726B",
"+5+	c #877771",
"@5+	c #8C7D78",
"#5+	c #8C7E78",
"$5+	c #897E79",
"%5+	c #8C827E",
"&5+	c #807771",
"*5+	c #867A72",
"=5+	c #857973",
"-5+	c #837D72",
";5+	c #7E7F77",
">5+	c #7E8388",
",5+	c #6A7072",
"'5+	c #6C6B5F",
")5+	c #807568",
"!5+	c #867C70",
"~5+	c #80776A",
"{5+	c #7B7568",
"]5+	c #847E71",
"^5+	c #888278",
"/5+	c #8A7F7D",
"(5+	c #877E79",
"_5+	c #807974",
":5+	c #837D78",
"<5+	c #7A6966",
"[5+	c #7E6767",
"}5+	c #846A6C",
"|5+	c #846E6E",
"15+	c #816F68",
"25+	c #7B6A63",
"35+	c #87756E",
"45+	c #816F6A",
"55+	c #7F706B",
"65+	c #807570",
"75+	c #7D7B79",
"85+	c #777F7D",
"95+	c #736E67",
"05+	c #777172",
"a5+	c #8F898A",
"b5+	c #8C8485",
"c5+	c #898183",
"d5+	c #877F80",
"e5+	c #888182",
"f5+	c #87827F",
"g5+	c #827970",
"h5+	c #80776D",
"i5+	c #817C72",
"j5+	c #827F76",
"k5+	c #878580",
"l5+	c #8F908D",
"m5+	c #8E8F8E",
"n5+	c #888482",
"o5+	c #857B7A",
"p5+	c #847F7B",
"q5+	c #877F76",
"r5+	c #898478",
"s5+	c #898579",
"t5+	c #868175",
"u5+	c #827D72",
"v5+	c #878276",
"w5+	c #868275",
"x5+	c #827F73",
"y5+	c #85786D",
"z5+	c #82796C",
"A5+	c #7F796D",
"B5+	c #757269",
"C5+	c #757570",
"D5+	c #757371",
"E5+	c #75716E",
"F5+	c #78736D",
"G5+	c #837D79",
"H5+	c #7A7470",
"I5+	c #7C7672",
"J5+	c #7A726D",
"K5+	c #7C746E",
"L5+	c #79726B",
"M5+	c #7A766E",
"N5+	c #867A76",
"O5+	c #877F7C",
"P5+	c #898080",
"Q5+	c #8D8B8D",
"R5+	c #8D898D",
"S5+	c #8E868A",
"T5+	c #8D8682",
"U5+	c #8F8983",
"V5+	c #8E8780",
"W5+	c #8E857F",
"X5+	c #918581",
"Y5+	c #897D78",
"Z5+	c #887F7B",
"`5+	c #7E7F7F",
" 6+	c #706966",
".6+	c #786865",
"+6+	c #72685F",
"@6+	c #737366",
"#6+	c #7C776D",
"$6+	c #796D6B",
"%6+	c #756868",
"&6+	c #736566",
"*6+	c #6F6060",
"=6+	c #766566",
"-6+	c #725E61",
";6+	c #715C5F",
">6+	c #796568",
",6+	c #887779",
"'6+	c #8B7F80",
")6+	c #897C78",
"!6+	c #8A7C77",
"~6+	c #8A7A76",
"{6+	c #8A7C76",
"]6+	c #8B7F79",
"^6+	c #877B6F",
"/6+	c #817E7E",
"(6+	c #5F5957",
"_6+	c #8A7C6F",
":6+	c #8B7A6E",
"<6+	c #88766A",
"[6+	c #89756A",
"}6+	c #89766B",
"|6+	c #8A796C",
"16+	c #8E7C71",
"26+	c #917F76",
"36+	c #9D8C86",
"46+	c #A08F8A",
"56+	c #AA9B96",
"66+	c #AB9B97",
"76+	c #947F79",
"86+	c #C8C3C0",
"96+	c #978683",
"06+	c #856D65",
"a6+	c #7D6A62",
"b6+	c #806E65",
"c6+	c #93867D",
"d6+	c #9B8C88",
"e6+	c #9C8C88",
"f6+	c #9B8D89",
"g6+	c #9D8F8B",
"h6+	c #958680",
"i6+	c #80726A",
"j6+	c #877E7B",
"k6+	c #737071",
"l6+	c #5D4F53",
"m6+	c #6E5354",
"n6+	c #7D5F5B",
"o6+	c #7C6C62",
"p6+	c #867068",
"q6+	c #8A736B",
"r6+	c #7B615D",
"s6+	c #7A6260",
"t6+	c #7C6362",
"u6+	c #816661",
"v6+	c #866A65",
"w6+	c #896A64",
"x6+	c #876964",
"y6+	c #80615E",
"z6+	c #81625F",
"A6+	c #795956",
"B6+	c #7E5A58",
"C6+	c #7E5856",
"D6+	c #7A5B58",
"E6+	c #80685F",
"F6+	c #7A7376",
"G6+	c #574545",
"H6+	c #6E554C",
"I6+	c #7D5A50",
"J6+	c #7C5651",
"K6+	c #73504C",
"L6+	c #6A4944",
"M6+	c #6F4F4B",
"N6+	c #634543",
"O6+	c #6A4644",
"P6+	c #7C534E",
"Q6+	c #7D5450",
"R6+	c #724F4A",
"S6+	c #775651",
"T6+	c #715653",
"U6+	c #5C4644",
"V6+	c #634E49",
"W6+	c #74514B",
"X6+	c #76534B",
"Y6+	c #734C46",
"Z6+	c #754E48",
"`6+	c #76544F",
" 7+	c #7A5651",
".7+	c #73504B",
"+7+	c #71514D",
"@7+	c #725451",
"#7+	c #75564E",
"$7+	c #795751",
"%7+	c #8A8083",
"&7+	c #676263",
"*7+	c #5D4B42",
"=7+	c #7A5A50",
"-7+	c #816157",
";7+	c #7B5A50",
">7+	c #7B5B51",
",7+	c #7D5E58",
"'7+	c #7F5E57",
")7+	c #795F57",
"!7+	c #7E5D55",
"~7+	c #714E4C",
"{7+	c #6F4E4C",
"]7+	c #6C514E",
"^7+	c #75544A",
"/7+	c #7A574C",
"(7+	c #77534A",
"_7+	c #75554C",
":7+	c #75544C",
"<7+	c #7A534B",
"[7+	c #7A5650",
"}7+	c #805C56",
"|7+	c #76504C",
"17+	c #76514E",
"27+	c #775551",
"37+	c #867F7C",
"47+	c #685C58",
"57+	c #454243",
"67+	c #6B5D5B",
"77+	c #877571",
"87+	c #857370",
"97+	c #89746B",
"07+	c #846D6B",
"a7+	c #7F6B6B",
"b7+	c #816B63",
"c7+	c #7F6B62",
"d7+	c #79685E",
"e7+	c #7E6B61",
"f7+	c #7A675D",
"g7+	c #8B7068",
"h7+	c #7D695E",
"i7+	c #7A6960",
"j7+	c #746B62",
"k7+	c #7A7972",
"l7+	c #676461",
"m7+	c #685D59",
"n7+	c #7D6B65",
"o7+	c #7B6A65",
"p7+	c #796964",
"q7+	c #786661",
"r7+	c #7B655F",
"s7+	c #79655E",
"t7+	c #7A6760",
"u7+	c #74615A",
"v7+	c #7C6960",
"w7+	c #79665E",
"x7+	c #78655E",
"y7+	c #796C6A",
"z7+	c #796668",
"A7+	c #776560",
"B7+	c #76625D",
"C7+	c #75615A",
"D7+	c #79665F",
"E7+	c #75625C",
"F7+	c #765E59",
"G7+	c #735E58",
"H7+	c #766360",
"I7+	c #847976",
"J7+	c #888782",
"K7+	c #6F6B66",
"L7+	c #7D645A",
"M7+	c #7C6A5D",
"N7+	c #7A665C",
"O7+	c #79615C",
"P7+	c #7C615D",
"Q7+	c #785C58",
"R7+	c #725653",
"S7+	c #6F5453",
"T7+	c #725454",
"U7+	c #71554F",
"V7+	c #6D4E48",
"W7+	c #684E46",
"X7+	c #684D47",
"Y7+	c #674E48",
"Z7+	c #684E49",
"`7+	c #644943",
" 8+	c #5B453A",
".8+	c #6B4B40",
"+8+	c #69483C",
"@8+	c #B8B0AB",
"#8+	c #D5D1CD",
"$8+	c #E9E8E5",
"%8+	c #D9D5D2",
"&8+	c #A39590",
"*8+	c #B6ADAA",
"=8+	c #C0BCBB",
"-8+	c #DCDBD8",
";8+	c #E2E1DE",
">8+	c #A79C99",
",8+	c #664A40",
"'8+	c #837167",
")8+	c #7D766D",
"!8+	c #643C32",
"~8+	c #633D33",
"{8+	c #593B32",
"]8+	c #5F3C35",
"^8+	c #6A3E36",
"/8+	c #613C32",
"(8+	c #683E34",
"_8+	c #623831",
":8+	c #623931",
"<8+	c #6D3E35",
"[8+	c #64352E",
"}8+	c #6C392F",
"|8+	c #65332D",
"18+	c #5D352C",
"28+	c #6D493B",
"38+	c #6B615E",
"48+	c #412D29",
"58+	c #6F372E",
"68+	c #723D32",
"78+	c #733C30",
"88+	c #6E372E",
"98+	c #816A69",
"08+	c #564748",
"a8+	c #68362D",
"b8+	c #6D382F",
"c8+	c #6D3B30",
"d8+	c #6B3B2F",
"e8+	c #794839",
"f8+	c #704737",
"g8+	c #633C2F",
"h8+	c #6A352B",
"i8+	c #643631",
"j8+	c #806259",
"k8+	c #5D463F",
"l8+	c #6B342F",
"m8+	c #503936",
"n8+	c #663C38",
"o8+	c #613935",
"p8+	c #593534",
"q8+	c #563433",
"r8+	c #5F3B39",
"s8+	c #613A37",
"t8+	c #673C38",
"u8+	c #59332E",
"v8+	c #58332F",
"w8+	c #703B37",
"x8+	c #683733",
"y8+	c #56342F",
"z8+	c #59453F",
"A8+	c #746961",
"B8+	c #574A47",
"C8+	c #4B302F",
"D8+	c #53302C",
"E8+	c #58312E",
"F8+	c #593A31",
"G8+	c #57362E",
"H8+	c #5F3833",
"I8+	c #64453D",
"J8+	c #603B39",
"K8+	c #6C554F",
"L8+	c #897C70",
"M8+	c #60554C",
"N8+	c #573934",
"O8+	c #673B36",
"P8+	c #62352E",
"Q8+	c #4F2E26",
"R8+	c #645047",
"S8+	c #41302D",
"T8+	c #6C443E",
"U8+	c #C4BDBA",
"V8+	c #F8F9F7",
"W8+	c #998280",
"X8+	c #7D635F",
"Y8+	c #F2EFED",
"Z8+	c #917C79",
"`8+	c #84716D",
" 9+	c #643A2E",
".9+	c #70584A",
"+9+	c #675F54",
"@9+	c #44332E",
"#9+	c #6B382C",
"$9+	c #783E30",
"%9+	c #6A3529",
"&9+	c #623E32",
"*9+	c #643025",
"=9+	c #71382C",
"-9+	c #71372B",
";9+	c #643E35",
">9+	c #776159",
",9+	c #4F413D",
"'9+	c #72382A",
")9+	c #75392C",
"!9+	c #7D402F",
"~9+	c #864A37",
"{9+	c #804E3B",
"]9+	c #6F4031",
"^9+	c #775649",
"/9+	c #867466",
"(9+	c #523B32",
"_9+	c #563633",
":9+	c #562A27",
"<9+	c #6E2F2A",
"[9+	c #5D433A",
"}9+	c #706256",
"|9+	c #71362E",
"19+	c #67392F",
"29+	c #877666",
"39+	c #5A4C40",
"49+	c #68504A",
"59+	c #77302B",
"69+	c #A08B88",
"79+	c #F3F0EF",
"89+	c #DDD6D5",
"99+	c #845551",
"09+	c #B6A4A1",
"a9+	c #9C8683",
"b9+	c #B2A1A1",
"c9+	c #584841",
"d9+	c #7C665C",
"e9+	c #675B54",
"f9+	c #6A3225",
"g9+	c #5C3D35",
"h9+	c #6F635B",
"i9+	c #6E3327",
"j9+	c #703528",
"k9+	c #713629",
"l9+	c #75392A",
"m9+	c #763C2E",
"n9+	c #734033",
"o9+	c #6A372E",
"p9+	c #715449",
"q9+	c #827166",
"r9+	c #60473A",
"s9+	c #726654",
"t9+	c #4C3E36",
"u9+	c #65463C",
"v9+	c #867261",
"w9+	c #58473A",
"x9+	c #70605D",
"y9+	c #402C2B",
"z9+	c #6F2B24",
"A9+	c #7E5451",
"B9+	c #DAD2D2",
"C9+	c #BAA6A4",
"D9+	c #804943",
"E9+	c #DAD0CF",
"F9+	c #A18A86",
"G9+	c #DDD8D6",
"H9+	c #765853",
"I9+	c #66413C",
"J9+	c #5D4643",
"K9+	c #4C2C2A",
"L9+	c #782F27",
"M9+	c #6B5A52",
"N9+	c #4D2827",
"O9+	c #4E4340",
"P9+	c #562C29",
"Q9+	c #732F29",
"R9+	c #836F69",
"S9+	c #684D41",
"T9+	c #807261",
"U9+	c #54423B",
"V9+	c #5E2E2B",
"W9+	c #886F64",
"X9+	c #574038",
"Y9+	c #792F26",
"Z9+	c #755A56",
"`9+	c #B2A3A0",
" 0+	c #8A605C",
".0+	c #9B7D7A",
"+0+	c #EFECEA",
"@0+	c #BFB3B1",
"#0+	c #E0D9D7",
"$0+	c #F7F5F4",
"%0+	c #9F918E",
"&0+	c #7F6354",
"*0+	c #6E5D50",
"=0+	c #4E2826",
"-0+	c #6E665D",
";0+	c #533733",
">0+	c #5A3431",
",0+	c #6F4E44",
"'0+	c #846F64",
")0+	c #57403B",
"!0+	c #69413E",
"~0+	c #762F26",
"{0+	c #7F3327",
"]0+	c #7B3127",
"^0+	c #722E25",
"/0+	c #722F25",
"(0+	c #46302D",
"_0+	c #BDAEAA",
":0+	c #7F4B45",
"<0+	c #CDC1BE",
"[0+	c #D1C9C8",
"}0+	c #71443E",
"|0+	c #A28D8A",
"10+	c #CDC5C5",
"20+	c #67514A",
"30+	c #722D24",
"40+	c #7D3528",
"50+	c #826757",
"60+	c #6C5E50",
"70+	c #62463B",
"80+	c #786E62",
"90+	c #785A54",
"00+	c #6E4C45",
"a0+	c #4F3A36",
"b0+	c #56413C",
"c0+	c #753F39",
"d0+	c #B9AEAB",
"e0+	c #825E5A",
"f0+	c #9D837F",
"g0+	c #EEE9E7",
"h0+	c #E5DFDE",
"i0+	c #B9ACA9",
"j0+	c #938681",
"k0+	c #614E46",
"l0+	c #7F3529",
"m0+	c #712E25",
"n0+	c #83675C",
"o0+	c #68574F",
"p0+	c #6D4E44",
"q0+	c #785A50",
"r0+	c #89776B",
"s0+	c #533B34",
"t0+	c #4D3836",
"u0+	c #5D3E37",
"v0+	c #846C66",
"w0+	c #58453F",
"x0+	c #927673",
"y0+	c #EAE4E4",
"z0+	c #70403A",
"A0+	c #CAC0BE",
"B0+	c #F5F2F0",
"C0+	c #9D817E",
"D0+	c #732C24",
"E0+	c #7A4E48",
"F0+	c #C4BAB6",
"G0+	c #C9C4C0",
"H0+	c #6C5955",
"I0+	c #66382D",
"J0+	c #6F5F5A",
"K0+	c #544440",
"L0+	c #8A786B",
"M0+	c #553E37",
"N0+	c #816966",
"O0+	c #7B6B66",
"P0+	c #7D5754",
"Q0+	c #D8D1D0",
"R0+	c #6F3934",
"S0+	c #998281",
"T0+	c #ECE9E8",
"U0+	c #B09E9C",
"V0+	c #754B48",
"W0+	c #886965",
"X0+	c #715C5A",
"Y0+	c #502A28",
"Z0+	c #564442",
"`0+	c #725148",
" a+	c #593E39",
".a+	c #543432",
"+a+	c #4D3736",
"@a+	c #614037",
"#a+	c #5E4944",
"$a+	c #742E25",
"%a+	c #732E25",
"&a+	c #5A2D23",
"*a+	c #625755",
"=a+	c #D4CECD",
"-a+	c #734C48",
";a+	c #896E6B",
">a+	c #E3DEDE",
",a+	c #6C3831",
"'a+	c #AFACAA",
")a+	c #4C3937",
"!a+	c #85605D",
"~a+	c #69504E",
"{a+	c #672B23",
"]a+	c #534341",
"^a+	c #75514D",
"/a+	c #8B726D",
"(a+	c #4B3735",
"_a+	c #5E3E35",
":a+	c #7A645B",
"<a+	c #59443F",
"[a+	c #652922",
"}a+	c #632620",
"|a+	c #6C3E39",
"1a+	c #A99E9B",
"2a+	c #E4DFDE",
"3a+	c #917874",
"4a+	c #724540",
"5a+	c #CBC3C0",
"6a+	c #765953",
"7a+	c #C1B7B6",
"8a+	c #907A77",
"9a+	c #E0E0E0",
"0a+	c #7B7372",
"aa+	c #612C23",
"ba+	c #80605A",
"ca+	c #614B48",
"da+	c #765852",
"ea+	c #8B7870",
"fa+	c #574039",
"ga+	c #592923",
"ha+	c #836E6A",
"ia+	c #6D2D24",
"ja+	c #63453B",
"ka+	c #836F66",
"la+	c #662A25",
"ma+	c #713B34",
"na+	c #78504B",
"oa+	c #95807E",
"pa+	c #A08B89",
"qa+	c #733C36",
"ra+	c #A69390",
"sa+	c #947C78",
"ta+	c #7F6461",
"ua+	c #DEDCDC",
"va+	c #A39895",
"wa+	c #523329",
"xa+	c #5C4E47",
"ya+	c #62453A",
"za+	c #806D62",
"Aa+	c #52443E",
"Ba+	c #6C564B",
"Ca+	c #847A6C",
"Da+	c #52443A",
"Ea+	c #55423D",
"Fa+	c #74352F",
"Ga+	c #8A6561",
"Ha+	c #9A8380",
"Ia+	c #AFA09F",
"Ja+	c #F6F7F4",
"Ka+	c #774C49",
"La+	c #9F8A87",
"Ma+	c #896D69",
"Na+	c #DEDADA",
"Oa+	c #8E7976",
"Pa+	c #F7F8F8",
"Qa+	c #AFA6A4",
"Ra+	c #866F68",
"Sa+	c #6E3025",
"Ta+	c #6C2F24",
"Ua+	c #857567",
"Va+	c #5A463C",
"Wa+	c #6A5049",
"Xa+	c #887E76",
"Ya+	c #692A23",
"Za+	c #6B271E",
"`a+	c #71403C",
" b+	c #836260",
".b+	c #CCC3C1",
"+b+	c #7E6260",
"@b+	c #A39392",
"#b+	c #D7D2D0",
"$b+	c #C0B8B6",
"%b+	c #7B4F4C",
"&b+	c #6F2C28",
"*b+	c #665354",
"=b+	c #6C463F",
"-b+	c #574747",
";b+	c #846158",
">b+	c #8F7971",
",b+	c #614640",
"'b+	c #453433",
")b+	c #695048",
"!b+	c #5F514F",
"~b+	c #7A5451",
"{b+	c #97807F",
"]b+	c #D0CAC9",
"^b+	c #CAC2BF",
"/b+	c #D8D0D0",
"(b+	c #D0CCC9",
"_b+	c #D4D0CF",
":b+	c #A08E8C",
"<b+	c #69302C",
"[b+	c #623F36",
"}b+	c #5A4647",
"|b+	c #55474A",
"1b+	c #652F2C",
"2b+	c #735F60",
"3b+	c #4F4345",
"4b+	c #63342B",
"5b+	c #58403D",
"6b+	c #4B3B39",
"7b+	c #6B5149",
"8b+	c #645654",
"9b+	c #6F362B",
"0b+	c #723830",
"ab+	c #784039",
"bb+	c #947976",
"cb+	c #AD9E9B",
"db+	c #E5E1E0",
"eb+	c #634F4B",
"fb+	c #71615F",
"gb+	c #D7D5D3",
"hb+	c #A09A98",
"ib+	c #5F5250",
"jb+	c #462F2C",
"kb+	c #3D2C27",
"lb+	c #4E3E38",
"mb+	c #403B3A",
"nb+	c #302F30",
"ob+	c #3D2827",
"pb+	c #442A28",
"qb+	c #3A3739",
"rb+	c #3E2B26",
"sb+	c #3D2B29",
"tb+	c #392A28",
"ub+	c #413F3D",
"vb+	c #5A443E",
"wb+	c #725F59",
"xb+	c #432923",
"yb+	c #412824",
"zb+	c #3B2623",
"Ab+	c #54423C",
"Bb+	c #523027",
"Cb+	c #492823",
"Db+	c #4D2821",
"Eb+	c #5C4440",
"Fb+	c #877B7A",
"Gb+	c #A09695",
"Hb+	c #DBDAD9",
"Ib+	c #858282",
"Jb+	c #7D7978",
"Kb+	c #F5F5F5",
"Lb+	c #AEACAC",
"Mb+	c #473F3E",
"Nb+	c #D5D5D5",
"Ob+	c #989796",
"Pb+	c #342C2B",
"Qb+	c #2B2726",
"Rb+	c #2F2D2A",
"Sb+	c #312F2B",
"Tb+	c #302C2A",
"Ub+	c #312D2A",
"Vb+	c #2F2C2A",
"Wb+	c #322D2B",
"Xb+	c #36302F",
"Yb+	c #3E3935",
"Zb+	c #3B3734",
"`b+	c #54524F",
" c+	c #42413E",
".c+	c #3F3A39",
"+c+	c #403B39",
"@c+	c #413C39",
"#c+	c #423D39",
"$c+	c #433E3A",
"%c+	c #46403D",
"&c+	c #3E3B37",
"*c+	c #3F3C38",
"=c+	c #4A423E",
"-c+	c #443C39",
";c+	c #4E4A4A",
">c+	c #453E38",
",c+	c #4D463E",
"'c+	c #58514D",
")c+	c #584F4B",
"!c+	c #504742",
"~c+	c #4C443E",
"{c+	c #514841",
"]c+	c #574C45",
"^c+	c #5E514B",
"/c+	c #544B43",
"(c+	c #4E443C",
"_c+	c #4C413A",
":c+	c #4E433D",
"<c+	c #69635E",
"[c+	c #55524F",
"}c+	c #46423E",
"|c+	c #443E39",
"1c+	c #483F3B",
"2c+	c #4A3F41",
"3c+	c #3F3C3B",
"4c+	c #3D3A37",
"5c+	c #3F3D38",
"6c+	c #463E3C",
"7c+	c #4C4544",
"8c+	c #554D4B",
"9c+	c #4A4541",
"0c+	c #504A46",
"ac+	c #554F4B",
"bc+	c #5F5956",
"cc+	c #534E4A",
"dc+	c #39312D",
"ec+	c #352B2A",
"fc+	c #443934",
"gc+	c #393330",
"hc+	c #37312D",
"ic+	c #38302F",
"jc+	c #473B3B",
"kc+	c #473C3A",
"lc+	c #3F3935",
"mc+	c #352D2B",
"nc+	c #322928",
"oc+	c #4F4D4A",
"pc+	c #433C3A",
"qc+	c #403735",
"rc+	c #413634",
"sc+	c #4C413C",
"tc+	c #584B45",
"uc+	c #5D4E48",
"vc+	c #5E5049",
"wc+	c #5F514A",
"xc+	c #5C4E45",
"yc+	c #5C4D43",
"zc+	c #5C544A",
"Ac+	c #4F4B45",
"Bc+	c #53403B",
"Cc+	c #554A3F",
"Dc+	c #5A4D45",
"Ec+	c #63554E",
"Fc+	c #625750",
"Gc+	c #665C54",
"Hc+	c #595047",
"Ic+	c #5A514A",
"Jc+	c #625853",
"Kc+	c #605753",
"Lc+	c #554E4A",
"Mc+	c #5C5552",
"Nc+	c #4B413F",
"Oc+	c #463A38",
"Pc+	c #5E4F47",
"Qc+	c #574B43",
"Rc+	c #51443D",
"Sc+	c #574841",
"Tc+	c #7E7A76",
"Uc+	c #DEDDDD",
"Vc+	c #7F807A",
"Wc+	c #A6A6A3",
"Xc+	c #E8E8E7",
"Yc+	c #898782",
"Zc+	c #EFF0EE",
"`c+	c #D3D1D1",
" d+	c #9E9B99",
".d+	c #77746B",
"+d+	c #68605B",
"@d+	c #63625A",
"#d+	c #606356",
"$d+	c #676C5D",
"%d+	c #656D60",
"&d+	c #51544C",
"*d+	c #5A5852",
"=d+	c #655D57",
"-d+	c #6B655D",
";d+	c #746D67",
">d+	c #78716D",
",d+	c #78726E",
"'d+	c #848278",
")d+	c #89877E",
"!d+	c #89867F",
"~d+	c #7F7B73",
"{d+	c #7A756E",
"]d+	c #7F7A76",
"^d+	c #817B76",
"/d+	c #79726D",
"(d+	c #7B7470",
"_d+	c #7D7672",
":d+	c #756E6B",
"<d+	c #827F7A",
"[d+	c #85807C",
"}d+	c #827A79",
"|d+	c #817875",
"1d+	c #817A79",
"2d+	c #847C78",
"3d+	c #888178",
"4d+	c #797C7B",
"5d+	c #5F5C5B",
"6d+	c #6B6154",
"7d+	c #81786B",
"8d+	c #867F77",
"9d+	c #888075",
"0d+	c #8A847B",
"ad+	c #8C867A",
"bd+	c #888073",
"cd+	c #827868",
"dd+	c #837C6D",
"ed+	c #878273",
"fd+	c #877F6F",
"gd+	c #897E70",
"hd+	c #8C8376",
"id+	c #887E73",
"jd+	c #887D77",
"kd+	c #8E8783",
"ld+	c #8A8583",
"md+	c #85827F",
"nd+	c #827C77",
"od+	c #7E7671",
"pd+	c #827874",
"qd+	c #837673",
"rd+	c #807470",
"sd+	c #807772",
"td+	c #827C75",
"ud+	c #847F79",
"vd+	c #807370",
"wd+	c #877A77",
"xd+	c #837373",
"yd+	c #7E766B",
"zd+	c #7A7162",
"Ad+	c #78746A",
"Bd+	c #676863",
"Cd+	c #616158",
"Dd+	c #6C6B5D",
"Ed+	c #7D6D67",
"Fd+	c #82766F",
"Gd+	c #7E726C",
"Hd+	c #7B7167",
"Id+	c #80766C",
"Jd+	c #867B71",
"Kd+	c #8C8077",
"Ld+	c #898179",
"Md+	c #434343",
"Nd+	c #615D58",
"Od+	c #746E67",
"Pd+	c #766F68",
"Qd+	c #79736C",
"Rd+	c #7B776F",
"Sd+	c #756F68",
"Td+	c #686159",
"Ud+	c #767369",
"Vd+	c #77756C",
"Wd+	c #776F68",
"Xd+	c #767269",
"Yd+	c #73766D",
"Zd+	c #717870",
"`d+	c #717773",
" e+	c #6E706A",
".e+	c #77686A",
"+e+	c #79696B",
"@e+	c #776C68",
"#e+	c #79786E",
"$e+	c #76746C",
"%e+	c #717067",
"&e+	c #737169",
"*e+	c #6D6D65",
"=e+	c #6E625D",
"-e+	c #776C67",
";e+	c #7D7771",
">e+	c #898682",
",e+	c #86827D",
"'e+	c #827B77",
")e+	c #7F716C",
"!e+	c #73645D",
"~e+	c #85736D",
"{e+	c #87746F",
"]e+	c #84716B",
"^e+	c #8E817A",
"/e+	c #8A7967",
"(e+	c #8A7D6A",
"_e+	c #8A8778",
":e+	c #73766C",
"<e+	c #867764",
"[e+	c #89786B",
"}e+	c #8D7D74",
"|e+	c #8F8A82",
"1e+	c #8D8177",
"2e+	c #867772",
"3e+	c #786A64",
"4e+	c #8C807B",
"5e+	c #8B837D",
"6e+	c #877F7B",
"7e+	c #7D6C68",
"8e+	c #826F69",
"9e+	c #89766E",
"0e+	c #89756B",
"ae+	c #857167",
"be+	c #9A8D87",
"ce+	c #B3ADA8",
"de+	c #D0CDCA",
"ee+	c #E1E0DF",
"fe+	c #ECEDEC",
"ge+	c #828074",
"he+	c #C4C3BE",
"ie+	c #BCB6B1",
"je+	c #9D948A",
"ke+	c #EAEAE6",
"le+	c #D9D8D5",
"me+	c #A49E95",
"ne+	c #8A7E72",
"oe+	c #746F5E",
"pe+	c #797866",
"qe+	c #848A7A",
"re+	c #62645B",
"se+	c #7C685E",
"te+	c #755F56",
"ue+	c #7B675C",
"ve+	c #7A6762",
"we+	c #7C6964",
"xe+	c #837265",
"ye+	c #87766A",
"ze+	c #857569",
"Ae+	c #7C6D62",
"Be+	c #7A6B61",
"Ce+	c #877870",
"De+	c #806966",
"Ee+	c #7D6A69",
"Fe+	c #706261",
"Ge+	c #7B6C67",
"He+	c #816E6B",
"Ie+	c #786863",
"Je+	c #84857F",
"Ke+	c #5B483E",
"Le+	c #725D50",
"Me+	c #7B6054",
"Ne+	c #735C52",
"Oe+	c #7D6559",
"Pe+	c #7C6656",
"Qe+	c #786252",
"Re+	c #7B6957",
"Se+	c #83715E",
"Te+	c #776755",
"Ue+	c #6B5A4B",
"Ve+	c #6F5E51",
"We+	c #7C6660",
"Xe+	c #806A65",
"Ye+	c #7D6966",
"Ze+	c #7D6B69",
"`e+	c #73615C",
" f+	c #7B6662",
".f+	c #7C6661",
"+f+	c #7A615F",
"@f+	c #7C615C",
"#f+	c #796757",
"$f+	c #786857",
"%f+	c #857C71",
"&f+	c #6D6962",
"*f+	c #544F45",
"=f+	c #675E4D",
"-f+	c #735C50",
";f+	c #725B51",
">f+	c #745B53",
",f+	c #765D56",
"'f+	c #776056",
")f+	c #776156",
"!f+	c #705950",
"~f+	c #675349",
"{f+	c #69554B",
"]f+	c #6D5A4F",
"^f+	c #6E584D",
"/f+	c #705A51",
"(f+	c #6F584F",
"_f+	c #6C564E",
":f+	c #736460",
"<f+	c #786D63",
"[f+	c #847B72",
"}f+	c #8B8881",
"|f+	c #7F817E",
"1f+	c #7A6B65",
"2f+	c #826A67",
"3f+	c #816466",
"4f+	c #775C5D",
"5f+	c #7A6661",
"6f+	c #83746B",
"7f+	c #7D6F68",
"8f+	c #7C7068",
"9f+	c #7F6F68",
"0f+	c #6B5551",
"af+	c #6F5853",
"bf+	c #867873",
"cf+	c #786764",
"df+	c #7C6360",
"ef+	c #81645E",
"ff+	c #6E524D",
"gf+	c #80605C",
"hf+	c #81605D",
"if+	c #81615C",
"jf+	c #7B5A51",
"kf+	c #795A4E",
"lf+	c #76594B",
"mf+	c #725B4D",
"nf+	c #80756B",
"of+	c #6E6B63",
"pf+	c #614E4B",
"qf+	c #7B5C52",
"rf+	c #7D6453",
"sf+	c #80645A",
"tf+	c #80645E",
"uf+	c #7F665F",
"vf+	c #7F625E",
"wf+	c #755956",
"xf+	c #725B56",
"yf+	c #7C6560",
"zf+	c #7B5C59",
"Af+	c #7A5A55",
"Bf+	c #8C716D",
"Cf+	c #97837E",
"Df+	c #AD9E99",
"Ef+	c #6C5C55",
"Ff+	c #C8C3C1",
"Gf+	c #BFB7B7",
"Hf+	c #AFA4A3",
"If+	c #6F615E",
"Jf+	c #68362F",
"Kf+	c #693A31",
"Lf+	c #5F352D",
"Mf+	c #6B3C34",
"Nf+	c #6B3B33",
"Of+	c #693831",
"Pf+	c #7F766E",
"Qf+	c #4A3E3C",
"Rf+	c #683930",
"Sf+	c #69362C",
"Tf+	c #68362E",
"Uf+	c #57312C",
"Vf+	c #814C40",
"Wf+	c #7B473C",
"Xf+	c #683830",
"Yf+	c #67382F",
"Zf+	c #683731",
"`f+	c #6A5754",
" g+	c #64342E",
".g+	c #664845",
"+g+	c #724641",
"@g+	c #633C38",
"#g+	c #5F3C37",
"$g+	c #68403A",
"%g+	c #67433C",
"&g+	c #6A4038",
"*g+	c #65463E",
"=g+	c #7C695F",
"-g+	c #5B403A",
";g+	c #6A3F3C",
">g+	c #52342F",
",g+	c #583932",
"'g+	c #57332D",
")g+	c #5C3934",
"!g+	c #5C3733",
"~g+	c #816867",
"{g+	c #6B5C5C",
"]g+	c #462F30",
"^g+	c #5D302C",
"/g+	c #512823",
"(g+	c #522823",
"_g+	c #59332F",
":g+	c #644A47",
"<g+	c #9A8F8E",
"[g+	c #BBB5B3",
"}g+	c #D3D0CF",
"|g+	c #C3BDBC",
"1g+	c #69514F",
"2g+	c #725755",
"3g+	c #F3F2F3",
"4g+	c #B5AEAD",
"5g+	c #685251",
"6g+	c #593733",
"7g+	c #645450",
"8g+	c #6E594D",
"9g+	c #766E64",
"0g+	c #7C3C2F",
"ag+	c #5E4A47",
"bg+	c #5B3733",
"cg+	c #6D322C",
"dg+	c #70574B",
"eg+	c #817668",
"fg+	c #483A32",
"gg+	c #685757",
"hg+	c #432929",
"ig+	c #968583",
"jg+	c #E6E4E5",
"kg+	c #B2A8A7",
"lg+	c #7C6160",
"mg+	c #E6E1DF",
"ng+	c #CDC9C8",
"og+	c #897A6F",
"pg+	c #6C5A50",
"qg+	c #777169",
"rg+	c #6B3125",
"sg+	c #643C33",
"tg+	c #564E49",
"ug+	c #763529",
"vg+	c #83796C",
"wg+	c #4F3F37",
"xg+	c #836763",
"yg+	c #655854",
"zg+	c #815F59",
"Ag+	c #C8C0BD",
"Bg+	c #856B68",
"Cg+	c #F0EDEB",
"Dg+	c #BFBCB7",
"Eg+	c #797773",
"Fg+	c #83766C",
"Gg+	c #514D48",
"Hg+	c #EDEBE9",
"Ig+	c #8A706C",
"Jg+	c #F9F6F5",
"Kg+	c #937B79",
"Lg+	c #B3A5A4",
"Mg+	c #E3E3E2",
"Ng+	c #BAB5B4",
"Og+	c #988783",
"Pg+	c #846561",
"Qg+	c #763F37",
"Rg+	c #6F291D",
"Sg+	c #6D2F24",
"Tg+	c #6F3025",
"Ug+	c #715751",
"Vg+	c #453333",
"Wg+	c #5F2D23",
"Xg+	c #71524F",
"Yg+	c #836F70",
"Zg+	c #513837",
"`g+	c #5B2A27",
" h+	c #6B2F2B",
".h+	c #682C29",
"+h+	c #6D2C28",
"@h+	c #6C2F2A",
"#h+	c #784844",
"$h+	c #9B8683",
"%h+	c #97807C",
"&h+	c #F0ECEC",
"*h+	c #C6BDBC",
"=h+	c #A48E8D",
"-h+	c #805C59",
";h+	c #713E39",
">h+	c #682821",
",h+	c #6C2C24",
"'h+	c #413332",
")h+	c #87746C",
"!h+	c #5D3733",
"~h+	c #775751",
"{h+	c #503736",
"]h+	c #685A4F",
"^h+	c #582B29",
"/h+	c #6F403B",
"(h+	c #9D8C89",
"_h+	c #A08784",
":h+	c #9C8481",
"<h+	c #F2EEEE",
"[h+	c #998582",
"}h+	c #7A4C47",
"|h+	c #753B33",
"1h+	c #695049",
"2h+	c #433634",
"3h+	c #482724",
"4h+	c #6C312C",
"5h+	c #6B6054",
"6h+	c #DCD7D6",
"7h+	c #9F8784",
"8h+	c #9A8480",
"9h+	c #FDFAFB",
"0h+	c #BAAEAB",
"ah+	c #BEB5B2",
"bh+	c #6F3B35",
"ch+	c #473836",
"dh+	c #462823",
"eh+	c #735750",
"fh+	c #7D7068",
"gh+	c #763830",
"hh+	c #6B322D",
"ih+	c #6D5F57",
"jh+	c #826561",
"kh+	c #CEC9C7",
"lh+	c #9C8684",
"mh+	c #978381",
"nh+	c #F2EFEE",
"oh+	c #856A65",
"ph+	c #BCB1AF",
"qh+	c #9D8683",
"rh+	c #815B56",
"sh+	c #74362E",
"th+	c #7F6258",
"uh+	c #6C5A53",
"vh+	c #412823",
"wh+	c #7C5C58",
"xh+	c #BDB4B1",
"yh+	c #98807E",
"zh+	c #F0EDEC",
"Ah+	c #D0C8C8",
"Bh+	c #866C68",
"Ch+	c #BCB2B0",
"Dh+	c #734843",
"Eh+	c #483A39",
"Fh+	c #72564F",
"Gh+	c #886B6C",
"Hh+	c #6E5F5E",
"Ih+	c #422928",
"Jh+	c #6E4542",
"Kh+	c #A59A97",
"Lh+	c #E8E7E5",
"Mh+	c #8B6E6C",
"Nh+	c #D3CDCB",
"Oh+	c #775552",
"Ph+	c #E0DAD9",
"Qh+	c #6F554F",
"Rh+	c #817472",
"Sh+	c #4C3E3D",
"Th+	c #6D645C",
"Uh+	c #897373",
"Vh+	c #917E7B",
"Wh+	c #988685",
"Xh+	c #714D4B",
"Yh+	c #B6AAA9",
"Zh+	c #847B78",
"`h+	c #514342",
" i+	c #6B302B",
".i+	c #483731",
"+i+	c #756F6C",
"@i+	c #7B625F",
"#i+	c #BFB7B6",
"$i+	c #A59897",
"%i+	c #E6E2E1",
"&i+	c #E1DBDB",
"*i+	c #D6D0CF",
"=i+	c #745D54",
"-i+	c #877D78",
";i+	c #554544",
">i+	c #6F4038",
",i+	c #8B7C73",
"'i+	c #6B6963",
")i+	c #593633",
"!i+	c #765F53",
"~i+	c #84796E",
"{i+	c #A49491",
"]i+	c #7F635F",
"^i+	c #E0DCDA",
"/i+	c #D5CDCC",
"(i+	c #845E5A",
"_i+	c #6B544B",
":i+	c #5B4948",
"<i+	c #683E36",
"[i+	c #88786E",
"}i+	c #5E362A",
"|i+	c #7D6759",
"1i+	c #8C7473",
"2i+	c #69332D",
"3i+	c #D1CCC9",
"4i+	c #B2A5A4",
"5i+	c #765350",
"6i+	c #753E38",
"7i+	c #75342D",
"8i+	c #59332A",
"9i+	c #584947",
"0i+	c #67372C",
"ai+	c #6F382F",
"bi+	c #7A392F",
"ci+	c #74322C",
"di+	c #6B635D",
"ei+	c #60372D",
"fi+	c #60392E",
"gi+	c #866E61",
"hi+	c #652F2B",
"ii+	c #58352F",
"ji+	c #7E6565",
"ki+	c #806C6F",
"li+	c #4D3030",
"mi+	c #69322C",
"ni+	c #654C49",
"oi+	c #B0A6A5",
"pi+	c #715351",
"qi+	c #D6D1D1",
"ri+	c #7A6461",
"si+	c #EBEBEC",
"ti+	c #BCB9B8",
"ui+	c #716361",
"vi+	c #59463E",
"wi+	c #3D3433",
"xi+	c #372B28",
"yi+	c #4F2D29",
"zi+	c #412924",
"Ai+	c #523834",
"Bi+	c #503730",
"Ci+	c #6E5D54",
"Di+	c #6F6460",
"Ei+	c #402827",
"Fi+	c #564749",
"Gi+	c #5C4F52",
"Hi+	c #3D2C2C",
"Ii+	c #452827",
"Ji+	c #492A28",
"Ki+	c #D1D1D0",
"Li+	c #AAA7A6",
"Mi+	c #D2D1D1",
"Ni+	c #BFBCBB",
"Oi+	c #D3D2D2",
"Pi+	c #888786",
"Qi+	c #4D4846",
"Ri+	c #39332F",
"Si+	c #37302D",
"Ti+	c #38312D",
"Ui+	c #36302C",
"Vi+	c #383231",
"Wi+	c #37302F",
"Xi+	c #3B3530",
"Yi+	c #443E38",
"Zi+	c #433C38",
"`i+	c #4C4440",
" j+	c #504B4D",
".j+	c #413E41",
"+j+	c #3A3732",
"@j+	c #413837",
"#j+	c #433636",
"$j+	c #3B3834",
"%j+	c #3C3934",
"&j+	c #393631",
"*j+	c #3B3731",
"=j+	c #3B3330",
"-j+	c #393530",
";j+	c #393430",
">j+	c #38312F",
",j+	c #3A3331",
"'j+	c #302A2A",
")j+	c #302D2A",
"!j+	c #383330",
"~j+	c #3A3437",
"{j+	c #30302E",
"]j+	c #35352F",
"^j+	c #3A3330",
"/j+	c #3D3432",
"(j+	c #393632",
"_j+	c #3A3834",
":j+	c #37332F",
"<j+	c #383430",
"[j+	c #35312E",
"}j+	c #373432",
"|j+	c #3C3833",
"1j+	c #3E3835",
"2j+	c #403F3E",
"3j+	c #3F3735",
"4j+	c #423432",
"5j+	c #3E2F2E",
"6j+	c #382E2C",
"7j+	c #352A29",
"8j+	c #362B2A",
"9j+	c #352C2B",
"0j+	c #362E2D",
"aj+	c #362F2E",
"bj+	c #382D2A",
"cj+	c #413835",
"dj+	c #3A302C",
"ej+	c #473B39",
"fj+	c #3C3330",
"gj+	c #433935",
"hj+	c #403733",
"ij+	c #4A423D",
"jj+	c #4B4440",
"kj+	c #423A38",
"lj+	c #5B534D",
"mj+	c #5E554F",
"nj+	c #574F49",
"oj+	c #4D4943",
"pj+	c #544F48",
"qj+	c #524E4A",
"rj+	c #514D44",
"sj+	c #565755",
"tj+	c #515454",
"uj+	c #474040",
"vj+	c #423C38",
"wj+	c #383632",
"xj+	c #3E3A37",
"yj+	c #4E4A45",
"zj+	c #46413C",
"Aj+	c #393533",
"Bj+	c #423A36",
"Cj+	c #504B46",
"Dj+	c #4D4845",
"Ej+	c #484542",
"Fj+	c #4B4845",
"Gj+	c #615E5D",
"Hj+	c #C4C3C2",
"Ij+	c #CDCDCC",
"Jj+	c #C6C3C1",
"Kj+	c #BDB9B6",
"Lj+	c #7C706A",
"Mj+	c #7F7670",
"Nj+	c #7E7570",
"Oj+	c #7C726E",
"Pj+	c #7A6E68",
"Qj+	c #7B7069",
"Rj+	c #776B67",
"Sj+	c #7B706B",
"Tj+	c #7B6F69",
"Uj+	c #7B746B",
"Vj+	c #7A756C",
"Wj+	c #76756D",
"Xj+	c #6E6D66",
"Yj+	c #7F766F",
"Zj+	c #807A74",
"`j+	c #857F7A",
" k+	c #837C78",
".k+	c #857E7C",
"+k+	c #857D7B",
"@k+	c #847C7A",
"#k+	c #867F7D",
"$k+	c #868482",
"%k+	c #847C76",
"&k+	c #898486",
"*k+	c #868486",
"=k+	c #787971",
"-k+	c #7A7273",
";k+	c #7F7173",
">k+	c #7C7676",
",k+	c #797673",
"'k+	c #7A7672",
")k+	c #7A7370",
"!k+	c #7E7773",
"~k+	c #7E7873",
"{k+	c #807970",
"]k+	c #837971",
"^k+	c #7F756F",
"/k+	c #807873",
"(k+	c #85817E",
"_k+	c #868380",
":k+	c #817A76",
"<k+	c #817670",
"[k+	c #827A74",
"}k+	c #827A73",
"|k+	c #817871",
"1k+	c #786B65",
"2k+	c #7C6C66",
"3k+	c #71605C",
"4k+	c #6C5C57",
"5k+	c #6D5C59",
"6k+	c #635756",
"7k+	c #5E5E52",
"8k+	c #6F695D",
"9k+	c #7D6D6D",
"0k+	c #726467",
"ak+	c #68675F",
"bk+	c #6B7163",
"ck+	c #7B6E6D",
"dk+	c #7B706E",
"ek+	c #7D7471",
"fk+	c #807674",
"gk+	c #7D7271",
"hk+	c #787067",
"ik+	c #787068",
"jk+	c #716B64",
"kk+	c #777570",
"lk+	c #434242",
"mk+	c #605857",
"nk+	c #6B605D",
"ok+	c #665D5A",
"pk+	c #685E5C",
"qk+	c #6C6361",
"rk+	c #6F6564",
"sk+	c #676462",
"tk+	c #757170",
"uk+	c #6D6360",
"vk+	c #746761",
"wk+	c #72655F",
"xk+	c #6E635D",
"yk+	c #776D67",
"zk+	c #79716C",
"Ak+	c #7C7370",
"Bk+	c #706F67",
"Ck+	c #727671",
"Dk+	c #757B7B",
"Ek+	c #717272",
"Fk+	c #7A7067",
"Gk+	c #7B766F",
"Hk+	c #88847D",
"Ik+	c #7B736F",
"Jk+	c #8C8881",
"Kk+	c #8F8A84",
"Lk+	c #8C8781",
"Mk+	c #837F78",
"Nk+	c #7F7C74",
"Ok+	c #827F77",
"Pk+	c #8E8A86",
"Qk+	c #8C8A81",
"Rk+	c #8B8B82",
"Sk+	c #848782",
"Tk+	c #838684",
"Uk+	c #78746E",
"Vk+	c #74706B",
"Wk+	c #726E69",
"Xk+	c #75706B",
"Yk+	c #807C76",
"Zk+	c #807C77",
"`k+	c #7E7B76",
" l+	c #7F7975",
".l+	c #838079",
"+l+	c #807C75",
"@l+	c #7A736E",
"#l+	c #777470",
"$l+	c #767673",
"%l+	c #717571",
"&l+	c #7C7268",
"*l+	c #7B766A",
"=l+	c #7A766B",
"-l+	c #7A746B",
";l+	c #827E74",
">l+	c #7D7774",
",l+	c #F3F4F2",
"'l+	c #F3F3F3",
")l+	c #DEDCD9",
"!l+	c #938B82",
"~l+	c #C9C6C1",
"{l+	c #D2D0CD",
"]l+	c #A29A95",
"^l+	c #8D8279",
"/l+	c #8E8279",
"(l+	c #8C7E76",
"_l+	c #887A74",
":l+	c #887874",
"<l+	c #887B71",
"[l+	c #8A7E74",
"}l+	c #7D827E",
"|l+	c #707875",
"1l+	c #706B63",
"2l+	c #74655F",
"3l+	c #817672",
"4l+	c #857B78",
"5l+	c #827775",
"6l+	c #867E7C",
"7l+	c #837573",
"8l+	c #7B7170",
"9l+	c #807978",
"0l+	c #877D7F",
"al+	c #837B74",
"bl+	c #7F7170",
"cl+	c #867474",
"dl+	c #89827B",
"el+	c #8A7E73",
"fl+	c #888785",
"gl+	c #847878",
"hl+	c #876F6A",
"il+	c #877068",
"jl+	c #846D64",
"kl+	c #866C64",
"ll+	c #866D64",
"ml+	c #8A7268",
"nl+	c #8A6E65",
"ol+	c #896C63",
"pl+	c #886C64",
"ql+	c #78685A",
"rl+	c #7C6D60",
"sl+	c #786E5E",
"tl+	c #716056",
"ul+	c #7D6562",
"vl+	c #876C6B",
"wl+	c #876D6C",
"xl+	c #8C7775",
"yl+	c #847068",
"zl+	c #877164",
"Al+	c #877167",
"Bl+	c #836E66",
"Cl+	c #806D63",
"Dl+	c #897F78",
"El+	c #858684",
"Fl+	c #726966",
"Gl+	c #786967",
"Hl+	c #907A75",
"Il+	c #8B7670",
"Jl+	c #89726C",
"Kl+	c #8C756F",
"Ll+	c #8E7872",
"Ml+	c #8D7972",
"Nl+	c #90827C",
"Ol+	c #90837C",
"Pl+	c #8E7F77",
"Ql+	c #918A85",
"Rl+	c #8C7670",
"Sl+	c #8E7771",
"Tl+	c #8F7A73",
"Ul+	c #8C746D",
"Vl+	c #8D756D",
"Wl+	c #907D75",
"Xl+	c #90817C",
"Yl+	c #91847F",
"Zl+	c #90837E",
"`l+	c #8C7974",
" m+	c #907F7A",
".m+	c #8A837A",
"+m+	c #8A8A84",
"@m+	c #7C8184",
"#m+	c #706F70",
"$m+	c #7C6B62",
"%m+	c #867366",
"&m+	c #827169",
"*m+	c #8D7C74",
"=m+	c #8C776F",
"-m+	c #8F807C",
";m+	c #8E7B76",
">m+	c #907C75",
",m+	c #8F7974",
"'m+	c #86736E",
")m+	c #7F6E6A",
"!m+	c #8C7976",
"~m+	c #907E76",
"{m+	c #8F7B75",
"]m+	c #917B77",
"^m+	c #907E7A",
"/m+	c #8E827F",
"(m+	c #918A8B",
"_m+	c #787775",
":m+	c #6B5F59",
"<m+	c #7B6B5F",
"[m+	c #77665D",
"}m+	c #88746F",
"|m+	c #A89E9B",
"1m+	c #B9B2B2",
"2m+	c #B7B2B2",
"3m+	c #B8B2B2",
"4m+	c #B9B3B2",
"5m+	c #BBB3B2",
"6m+	c #BCB3B2",
"7m+	c #B9B2B1",
"8m+	c #BAB2B2",
"9m+	c #BAB2B1",
"0m+	c #BBB2B1",
"am+	c #B6ACAC",
"bm+	c #A39695",
"cm+	c #A29695",
"dm+	c #A19695",
"em+	c #9E9695",
"fm+	c #A29795",
"gm+	c #A79996",
"hm+	c #A19E9C",
"im+	c #9F9694",
"jm+	c #A09593",
"km+	c #8E7D7B",
"lm+	c #8C7D7C",
"mm+	c #958987",
"nm+	c #A09694",
"om+	c #9E9694",
"pm+	c #9F9695",
"qm+	c #9F9594",
"rm+	c #9E9594",
"sm+	c #9D9594",
"tm+	c #9D9493",
"um+	c #614941",
"vm+	c #AAA3A0",
"wm+	c #9E9290",
"xm+	c #725A56",
"ym+	c #6E4E47",
"zm+	c #6F5048",
"Am+	c #6D4B45",
"Bm+	c #6B4841",
"Cm+	c #5E413B",
"Dm+	c #60433D",
"Em+	c #5D3F3B",
"Fm+	c #5D423E",
"Gm+	c #674843",
"Hm+	c #63453F",
"Im+	c #5C443D",
"Jm+	c #5E443E",
"Km+	c #664F4B",
"Lm+	c #66605F",
"Mm+	c #505153",
"Nm+	c #4B3E39",
"Om+	c #5A413B",
"Pm+	c #573B37",
"Qm+	c #563A36",
"Rm+	c #583D39",
"Sm+	c #583F3B",
"Tm+	c #59423F",
"Um+	c #59413C",
"Vm+	c #5B413C",
"Wm+	c #5E3E3A",
"Xm+	c #5D3E3C",
"Ym+	c #5A3D3A",
"Zm+	c #5F4742",
"`m+	c #6A4C47",
" n+	c #634745",
".n+	c #5F4441",
"+n+	c #624642",
"@n+	c #664743",
"#n+	c #694A47",
"$n+	c #684C46",
"%n+	c #664843",
"&n+	c #684A44",
"*n+	c #60473F",
"=n+	c #634840",
"-n+	c #554342",
";n+	c #593730",
">n+	c #623E36",
",n+	c #663E36",
"'n+	c #5E3D34",
")n+	c #603F37",
"!n+	c #634037",
"~n+	c #613F35",
"{n+	c #5C3932",
"]n+	c #643E3A",
"^n+	c #6B423E",
"/n+	c #63403C",
"(n+	c #61403D",
"_n+	c #60413D",
":n+	c #5D3F38",
"<n+	c #60413A",
"[n+	c #5B3D37",
"}n+	c #593E37",
"|n+	c #776864",
"1n+	c #868382",
"2n+	c #534A48",
"3n+	c #434040",
"4n+	c #634643",
"5n+	c #684B45",
"6n+	c #624641",
"7n+	c #664C44",
"8n+	c #654E48",
"9n+	c #654F49",
"0n+	c #69514A",
"an+	c #6B524C",
"bn+	c #6B544E",
"cn+	c #6B554F",
"dn+	c #664A44",
"en+	c #644841",
"fn+	c #644641",
"gn+	c #654A44",
"hn+	c #664D47",
"in+	c #624943",
"jn+	c #644742",
"kn+	c #674E47",
"ln+	c #846D60",
"mn+	c #8F7D74",
"nn+	c #766D6C",
"on+	c #443C3B",
"pn+	c #543E36",
"qn+	c #624237",
"rn+	c #68443A",
"sn+	c #67453B",
"tn+	c #6B463C",
"un+	c #684138",
"vn+	c #6B443B",
"wn+	c #5A3C36",
"xn+	c #5A3A35",
"yn+	c #5E3A35",
"zn+	c #5B3B37",
"An+	c #654740",
"Bn+	c #684742",
"Cn+	c #65453F",
"Dn+	c #63433F",
"En+	c #5F423E",
"Fn+	c #6D4A43",
"Gn+	c #6D4945",
"Hn+	c #4B322F",
"In+	c #5D3532",
"Jn+	c #643533",
"Kn+	c #683735",
"Ln+	c #6A3B35",
"Mn+	c #643B37",
"Nn+	c #ACA19E",
"On+	c #E5E4E2",
"Pn+	c #663B35",
"Qn+	c #5E3935",
"Rn+	c #5F3934",
"Sn+	c #673A35",
"Tn+	c #693A35",
"Un+	c #6A3A35",
"Vn+	c #6A3A36",
"Wn+	c #683834",
"Xn+	c #622F2B",
"Yn+	c #877971",
"Zn+	c #534541",
"`n+	c #582A27",
" o+	c #ADA4A2",
".o+	c #A39694",
"+o+	c #7B5A57",
"@o+	c #68352F",
"#o+	c #836E67",
"$o+	c #5B4B4A",
"%o+	c #62302D",
"&o+	c #502927",
"*o+	c #837B76",
"=o+	c #4E3533",
"-o+	c #653F36",
";o+	c #40302E",
">o+	c #6A2C29",
",o+	c #6D362F",
"'o+	c #805F5C",
")o+	c #694742",
"!o+	c #733327",
"~o+	c #847970",
"{o+	c #483D37",
"]o+	c #612A23",
"^o+	c #683730",
"/o+	c #765955",
"(o+	c #6C453C",
"_o+	c #8E7F76",
":o+	c #7A6156",
"<o+	c #67302B",
"[o+	c #7C332C",
"}o+	c #7C3427",
"|o+	c #7F3428",
"1o+	c #552725",
"2o+	c #735C53",
"3o+	c #827770",
"4o+	c #4B3934",
"5o+	c #704C43",
"6o+	c #84756C",
"7o+	c #452A24",
"8o+	c #6C382D",
"9o+	c #8F7A75",
"0o+	c #684844",
"ao+	c #642D23",
"bo+	c #8D726E",
"co+	c #6E4C43",
"do+	c #8C807A",
"eo+	c #775E50",
"fo+	c #733427",
"go+	c #783327",
"ho+	c #7C3529",
"io+	c #532724",
"jo+	c #4A3632",
"ko+	c #714D45",
"lo+	c #5F5D58",
"mo+	c #77332C",
"no+	c #78342C",
"oo+	c #6B2E22",
"po+	c #734641",
"qo+	c #C3B8B7",
"ro+	c #684745",
"so+	c #725752",
"to+	c #453B3B",
"uo+	c #BDB3B2",
"vo+	c #75403A",
"wo+	c #785D50",
"xo+	c #85786A",
"yo+	c #563F37",
"zo+	c #79352B",
"Ao+	c #4E3834",
"Bo+	c #625B58",
"Co+	c #74413B",
"Do+	c #937572",
"Eo+	c #BDB0AE",
"Fo+	c #E9E5E4",
"Go+	c #7C6361",
"Ho+	c #642821",
"Io+	c #887C7C",
"Jo+	c #483C3D",
"Ko+	c #5A2926",
"Lo+	c #653632",
"Mo+	c #C4BABA",
"No+	c #89706E",
"Oo+	c #4E423F",
"Po+	c #662B28",
"Qo+	c #7B574E",
"Ro+	c #563B37",
"So+	c #763029",
"To+	c #76322B",
"Uo+	c #4B3835",
"Vo+	c #8D7C7C",
"Wo+	c #826764",
"Xo+	c #897573",
"Yo+	c #63261D",
"Zo+	c #6A3226",
"`o+	c #734F47",
" p+	c #C3BBBB",
".p+	c #FBFEFC",
"+p+	c #B7ADAA",
"@p+	c #7F605B",
"#p+	c #6F4A3D",
"$p+	c #867567",
"%p+	c #4D3F39",
"&p+	c #7A534A",
"*p+	c #826760",
"=p+	c #563835",
"-p+	c #7A625E",
";p+	c #847A79",
">p+	c #4B3837",
",p+	c #74534A",
"'p+	c #7D6860",
")p+	c #897878",
"!p+	c #5B5453",
"~p+	c #5C2921",
"{p+	c #D3CECD",
"]p+	c #F1EEEE",
"^p+	c #5F261B",
"/p+	c #632F24",
"(p+	c #724F43",
"_p+	c #877A72",
":p+	c #5E3530",
"<p+	c #A59895",
"[p+	c #66362D",
"}p+	c #612C22",
"|p+	c #5F3125",
"1p+	c #6D493C",
"2p+	c #827062",
"3p+	c #79584D",
"4p+	c #806C62",
"5p+	c #553B36",
"6p+	c #755249",
"7p+	c #7B665E",
"8p+	c #6A2F24",
"9p+	c #857270",
"0p+	c #3B2723",
"ap+	c #66342F",
"bp+	c #75534F",
"cp+	c #938482",
"dp+	c #BBB5B5",
"ep+	c #5E251C",
"fp+	c #735148",
"gp+	c #643833",
"hp+	c #C6BEBB",
"ip+	c #BFB6B5",
"jp+	c #957F7B",
"kp+	c #78514C",
"lp+	c #6F4B43",
"mp+	c #836D68",
"np+	c #443635",
"op+	c #745A4D",
"pp+	c #84766B",
"qp+	c #503D38",
"rp+	c #4C2924",
"sp+	c #78605A",
"tp+	c #827976",
"up+	c #473734",
"vp+	c #643F37",
"wp+	c #5F231C",
"xp+	c #8B7F7D",
"yp+	c #AEA6A4",
"zp+	c #673834",
"Ap+	c #724A45",
"Bp+	c #453736",
"Cp+	c #79594D",
"Dp+	c #4F3B35",
"Ep+	c #786058",
"Fp+	c #7E7672",
"Gp+	c #582D24",
"Hp+	c #642922",
"Ip+	c #8E7574",
"Jp+	c #60241D",
"Kp+	c #793029",
"Lp+	c #8B8076",
"Mp+	c #564B45",
"Np+	c #6A443F",
"Op+	c #D8D2D0",
"Pp+	c #BFB9B7",
"Qp+	c #938381",
"Rp+	c #764D47",
"Sp+	c #463A37",
"Tp+	c #836E65",
"Up+	c #503A37",
"Vp+	c #692F2C",
"Wp+	c #7E5855",
"Xp+	c #5A4E4C",
"Yp+	c #69271F",
"Zp+	c #703B38",
"`p+	c #846562",
" q+	c #9A8987",
".q+	c #C3BCBB",
"+q+	c #F8F6F5",
"@q+	c #5D241C",
"#q+	c #793127",
"$q+	c #715043",
"%q+	c #8A7F71",
"&q+	c #544A42",
"*q+	c #CCC5C2",
"=q+	c #C7C6C4",
"-q+	c #908D8C",
";q+	c #632B22",
">q+	c #413836",
",q+	c #7A352B",
"'q+	c #78342B",
")q+	c #54403E",
"!q+	c #792F28",
"~q+	c #826A5F",
"{q+	c #443332",
"]q+	c #7A5652",
"^q+	c #462F29",
"/q+	c #643429",
"(q+	c #544946",
"_q+	c #938480",
":q+	c #9C9696",
"<q+	c #BDB9B9",
"[q+	c #E2DFDF",
"}q+	c #A49793",
"|q+	c #5C251C",
"1q+	c #8C8278",
"2q+	c #95827F",
"3q+	c #49413D",
"4q+	c #6B4C46",
"5q+	c #692A25",
"6q+	c #752C26",
"7q+	c #7A382C",
"8q+	c #7A372C",
"9q+	c #544542",
"0q+	c #7F6659",
"aq+	c #78655D",
"bq+	c #5E4238",
"cq+	c #514745",
"dq+	c #988482",
"eq+	c #BEB5B4",
"fq+	c #A59894",
"gq+	c #60241B",
"hq+	c #72554D",
"iq+	c #81786D",
"jq+	c #494039",
"kq+	c #633024",
"lq+	c #7A382A",
"mq+	c #775C51",
"nq+	c #693226",
"oq+	c #6F3428",
"pq+	c #6C3125",
"qq+	c #6E382C",
"rq+	c #7D5E54",
"sq+	c #7D6E69",
"tq+	c #483331",
"uq+	c #76635A",
"vq+	c #6B4F44",
"wq+	c #544A48",
"xq+	c #5D3025",
"yq+	c #66473A",
"zq+	c #887669",
"Aq+	c #622D23",
"Bq+	c #63261B",
"Cq+	c #744B46",
"Dq+	c #A59594",
"Eq+	c #BCB1AE",
"Fq+	c #8E7672",
"Gq+	c #672A21",
"Hq+	c #7B5751",
"Iq+	c #90817E",
"Jq+	c #594C4A",
"Kq+	c #78574E",
"Lq+	c #85786C",
"Mq+	c #4A3F38",
"Nq+	c #7B382D",
"Oq+	c #693529",
"Pq+	c #653326",
"Qq+	c #673327",
"Rq+	c #7D392C",
"Sq+	c #7A392C",
"Tq+	c #78382B",
"Uq+	c #7C5E51",
"Vq+	c #8B7E72",
"Wq+	c #58463F",
"Xq+	c #74372A",
"Yq+	c #72372A",
"Zq+	c #71362B",
"`q+	c #75382B",
" r+	c #6A352A",
".r+	c #6D372B",
"+r+	c #6D362B",
"@r+	c #6C3529",
"#r+	c #6D372A",
"$r+	c #643327",
"%r+	c #67352A",
"&r+	c #817574",
"*r+	c #423435",
"=r+	c #513332",
"-r+	c #672D2A",
";r+	c #6A2C2A",
">r+	c #562D2B",
",r+	c #5F463C",
"'r+	c #72372B",
")r+	c #6B4E4A",
"!r+	c #493D3A",
"~r+	c #583329",
"{r+	c #6E524B",
"]r+	c #4D3E3B",
"^r+	c #4B312B",
"/r+	c #645454",
"(r+	c #777273",
"_r+	c #453F42",
":r+	c #746259",
"<r+	c #5C4A42",
"[r+	c #534B47",
"}r+	c #524B4C",
"|r+	c #382A28",
"1r+	c #442F29",
"2r+	c #463029",
"3r+	c #5B5854",
"4r+	c #403D3B",
"5r+	c #342927",
"6r+	c #3C2C28",
"7r+	c #3C2E2B",
"8r+	c #3C2D29",
"9r+	c #3E2E2B",
"0r+	c #443430",
"ar+	c #402F2D",
"br+	c #40302C",
"cr+	c #3C302C",
"dr+	c #372F2B",
"er+	c #453935",
"fr+	c #574A49",
"gr+	c #504A49",
"hr+	c #423632",
"ir+	c #4B3B35",
"jr+	c #52423C",
"kr+	c #52453E",
"lr+	c #4D3E38",
"mr+	c #513D38",
"nr+	c #57453F",
"or+	c #53413C",
"pr+	c #4F3C37",
"qr+	c #533D37",
"rr+	c #523C36",
"sr+	c #4F3B36",
"tr+	c #4C3B39",
"ur+	c #483837",
"vr+	c #453531",
"wr+	c #4C3A35",
"xr+	c #483833",
"yr+	c #463833",
"zr+	c #493B34",
"Ar+	c #473731",
"Br+	c #483832",
"Cr+	c #443532",
"Dr+	c #4B4139",
"Er+	c #6A5F5D",
"Fr+	c #837D80",
"Gr+	c #4C443F",
"Hr+	c #483D36",
"Ir+	c #4F4039",
"Jr+	c #52413B",
"Kr+	c #493D38",
"Lr+	c #51423B",
"Mr+	c #52413C",
"Nr+	c #55453F",
"Or+	c #53433D",
"Pr+	c #4E3E39",
"Qr+	c #52403B",
"Rr+	c #493936",
"Sr+	c #3F3332",
"Tr+	c #463632",
"Ur+	c #3C312F",
"Vr+	c #595753",
"Wr+	c #363230",
"Xr+	c #423936",
"Yr+	c #3C312E",
"Zr+	c #403734",
"`r+	c #453734",
" s+	c #4C3C38",
".s+	c #52403C",
"+s+	c #534741",
"@s+	c #4B3C37",
"#s+	c #4D3D3A",
"$s+	c #4D3F3D",
"%s+	c #493736",
"&s+	c #493836",
"*s+	c #503F3D",
"=s+	c #544341",
"-s+	c #513F3E",
";s+	c #513E3E",
">s+	c #55413F",
",s+	c #574442",
"'s+	c #514040",
")s+	c #4E3F3E",
"!s+	c #4B3E3D",
"~s+	c #5A5654",
"{s+	c #6E7070",
"]s+	c #696769",
"^s+	c #534F4E",
"/s+	c #47342F",
"(s+	c #44312C",
"_s+	c #43342F",
":s+	c #3A2F2B",
"<s+	c #41302A",
"[s+	c #41302B",
"}s+	c #48332D",
"|s+	c #48322C",
"1s+	c #4D3831",
"2s+	c #49372F",
"3s+	c #4A3B33",
"4s+	c #473831",
"5s+	c #41342E",
"6s+	c #40312C",
"7s+	c #3C2E29",
"8s+	c #3D322C",
"9s+	c #635C51",
"0s+	c #3A312C",
"as+	c #3E362F",
"bs+	c #3D332D",
"cs+	c #41332E",
"ds+	c #42352F",
"es+	c #41332D",
"fs+	c #493931",
"gs+	c #4D3C34",
"hs+	c #45352F",
"is+	c #43352E",
"js+	c #4B3C33",
"ks+	c #41342D",
"ls+	c #40322B",
"ms+	c #43332C",
"ns+	c #3F312A",
"os+	c #3E312A",
"ps+	c #46362E",
"qs+	c #4C3A31",
"rs+	c #493831",
"ss+	c #45342E",
"ts+	c #493730",
"us+	c #503E35",
"vs+	c #503E34",
"ws+	c #4A3830",
"xs+	c #42312C",
"ys+	c #3F332B",
"zs+	c #3F3830",
"As+	c #63645A",
"Bs+	c #4E4F46",
"Cs+	c #3E3F35",
"Ds+	c #434036",
"Es+	c #51463F",
"Fs+	c #50443D",
"Gs+	c #51463D",
"Hs+	c #51493F",
"Is+	c #524C42",
"Js+	c #4E483D",
"Ks+	c #524A3F",
"Ls+	c #5E5448",
"Ms+	c #584F43",
"Ns+	c #4D443B",
"Os+	c #433C34",
"Ps+	c #3E3832",
"Qs+	c #4B403D",
"Rs+	c #4C453D",
"Ss+	c #52473F",
"Ts+	c #55483E",
"Us+	c #5D4F43",
"Vs+	c #625449",
"Ws+	c #63584E",
"Xs+	c #514541",
"Ys+	c #493E3C",
"Zs+	c #534845",
"`s+	c #534844",
" t+	c #544C46",
".t+	c #585851",
"+t+	c #656766",
"@t+	c #626263",
"#t+	c #5A5652",
"$t+	c #59534C",
"%t+	c #585451",
"&t+	c #54524B",
"*t+	c #5A5850",
"=t+	c #55524B",
"-t+	c #5A5951",
";t+	c #595750",
">t+	c #57554D",
",t+	c #59564F",
"'t+	c #5B5950",
")t+	c #605D54",
"!t+	c #636057",
"~t+	c #626159",
"{t+	c #61625A",
"]t+	c #5B5C56",
"^t+	c #545853",
"/t+	c #4E504B",
"(t+	c #52504A",
"_t+	c #5E554D",
":t+	c #625852",
"<t+	c #615654",
"[t+	c #59504E",
"}t+	c #5B5550",
"|t+	c #615A55",
"1t+	c #5D5651",
"2t+	c #5B5852",
"3t+	c #615759",
"4t+	c #625E5A",
"5t+	c #64625B",
"6t+	c #70716F",
"7t+	c #727A7B",
"8t+	c #636969",
"9t+	c #5A5A54",
"0t+	c #5A5851",
"at+	c #585A53",
"bt+	c #61625C",
"ct+	c #61615A",
"dt+	c #626058",
"et+	c #605E56",
"ft+	c #646158",
"gt+	c #615E56",
"ht+	c #5B5951",
"it+	c #5F5C54",
"jt+	c #67645A",
"kt+	c #646056",
"lt+	c #655E55",
"mt+	c #6A645B",
"nt+	c #6A655D",
"ot+	c #615E58",
"pt+	c #5E5F5A",
"qt+	c #5E635D",
"rt+	c #5E615B",
"st+	c #726B63",
"tt+	c #786D65",
"ut+	c #776B63",
"vt+	c #6E6961",
"wt+	c #6F6961",
"xt+	c #6F6861",
"yt+	c #665F56",
"zt+	c #6A635A",
"At+	c #6A675E",
"Bt+	c #66665D",
"Ct+	c #696960",
"Dt+	c #67665D",
"Et+	c #646157",
"Ft+	c #787369",
"Gt+	c #86837F",
"Ht+	c #898A89",
"It+	c #7E7D7B",
"Jt+	c #7A6F6D",
"Kt+	c #78736F",
"Lt+	c #7B7771",
"Mt+	c #7E7670",
"Nt+	c #7E7B73",
"Ot+	c #7D7A72",
"Pt+	c #77736D",
"Qt+	c #817A73",
"Rt+	c #7A736D",
"St+	c #87807A",
"Tt+	c #87817C",
"Ut+	c #817872",
"Vt+	c #7D716B",
"Wt+	c #7F726B",
"Xt+	c #776E63",
"Yt+	c #736D60",
"Zt+	c #7A7368",
"`t+	c #79716A",
" u+	c #746F68",
".u+	c #757064",
"+u+	c #807F6C",
"@u+	c #888882",
"#u+	c #8C8F91",
"$u+	c #727064",
"%u+	c #7C7468",
"&u+	c #867A6C",
"*u+	c #7E7669",
"=u+	c #7F7A70",
"-u+	c #737167",
";u+	c #756F65",
">u+	c #7E776D",
",u+	c #786E68",
"'u+	c #847B76",
")u+	c #847E7A",
"!u+	c #7B7169",
"~u+	c #7B736C",
"{u+	c #756F6D",
"]u+	c #716D6D",
"^u+	c #6A6765",
"/u+	c #6A645A",
"(u+	c #6F685E",
"_u+	c #766F65",
":u+	c #7B756E",
"<u+	c #777066",
"[u+	c #70685F",
"}u+	c #6E675E",
"|u+	c #736B64",
"1u+	c #6B6259",
"2u+	c #685D54",
"3u+	c #7D7C75",
"4u+	c #838680",
"5u+	c #7D7D78",
"6u+	c #6D6C65",
"7u+	c #67655D",
"8u+	c #746F66",
"9u+	c #6A6159",
"0u+	c #716C68",
"au+	c #756861",
"bu+	c #857B71",
"cu+	c #847A6E",
"du+	c #7F7367",
"eu+	c #7D7268",
"fu+	c #696766",
"gu+	c #6D625F",
"hu+	c #76635F",
"iu+	c #76645F",
"ju+	c #877470",
"ku+	c #877775",
"lu+	c #857474",
"mu+	c #7C6B6A",
"nu+	c #857F78",
"ou+	c #8F8F8D",
"pu+	c #919090",
"qu+	c #444243",
"ru+	c #655E57",
"su+	c #72665E",
"tu+	c #71645D",
"uu+	c #71655D",
"vu+	c #6E645C",
"wu+	c #6E655D",
"xu+	c #716B61",
"yu+	c #6E695F",
"zu+	c #6E695E",
"Au+	c #736A60",
"Bu+	c #766C63",
"Cu+	c #786F64",
"Du+	c #7B7268",
"Eu+	c #786E63",
"Fu+	c #71655B",
"Gu+	c #76675E",
"Hu+	c #796B62",
"Iu+	c #7D7067",
"Ju+	c #7E7267",
"Ku+	c #817569",
"Lu+	c #817468",
"Mu+	c #7C6E63",
"Nu+	c #7C7165",
"Ou+	c #7B7066",
"Pu+	c #766A60",
"Qu+	c #776B61",
"Ru+	c #7A7569",
"Su+	c #7B766B",
"Tu+	c #86786F",
"Uu+	c #858376",
"Vu+	c #716D61",
"Wu+	c #6C6257",
"Xu+	c #7A7168",
"Yu+	c #7A7269",
"Zu+	c #80786C",
"`u+	c #7F766B",
" v+	c #81756A",
".v+	c #7F7469",
"+v+	c #7C7166",
"@v+	c #796D61",
"#v+	c #81766A",
"$v+	c #797067",
"%v+	c #797166",
"&v+	c #7D776D",
"*v+	c #817B72",
"=v+	c #81786F",
"-v+	c #7D7167",
";v+	c #807267",
">v+	c #80776E",
",v+	c #7B6D65",
"'v+	c #7B6D66",
")v+	c #7A726A",
"!v+	c #786F61",
"~v+	c #898A87",
"{v+	c #84857E",
"]v+	c #7F8071",
"^v+	c #81806F",
"/v+	c #868276",
"(v+	c #877F77",
"_v+	c #89877D",
":v+	c #837F74",
"<v+	c #837B6F",
"[v+	c #8D8679",
"}v+	c #8A8377",
"|v+	c #868176",
"1v+	c #817D72",
"2v+	c #7E786E",
"3v+	c #7C746B",
"4v+	c #80716A",
"5v+	c #857F76",
"6v+	c #84827B",
"7v+	c #85837B",
"8v+	c #837C71",
"9v+	c #8E857B",
"0v+	c #8F897E",
"av+	c #8B857D",
"bv+	c #888079",
"cv+	c #898481",
"dv+	c #8A847F",
"ev+	c #897A70",
"fv+	c #89857D",
"gv+	c #8B8B81",
"hv+	c #8F8D8D",
"iv+	c #8D8C86",
"jv+	c #8C8A85",
"kv+	c #8A867F",
"lv+	c #8A8880",
"mv+	c #8C8A83",
"nv+	c #8E8D87",
"ov+	c #8B867D",
"pv+	c #8B8178",
"qv+	c #8D8A83",
"rv+	c #8C8981",
"sv+	c #867C72",
"tv+	c #868680",
"uv+	c #7A7973",
"vv+	c #6E6860",
"wv+	c #7F7165",
"xv+	c #857275",
"yv+	c #8C737B",
"zv+	c #8D837F",
"Av+	c #908A89",
"Bv+	c #827569",
"Cv+	c #80786F",
"Dv+	c #847D74",
"Ev+	c #877E74",
"Fv+	c #897C6F",
"Gv+	c #8E8478",
"Hv+	c #8D8176",
"Iv+	c #897B70",
"Jv+	c #8A7D71",
"Kv+	c #8C8274",
"Lv+	c #8D8173",
"Mv+	c #8B7E70",
"Nv+	c #8C8074",
"Ov+	c #8C887F",
"Pv+	c #8A8A82",
"Qv+	c #7C7066",
"Rv+	c #87766B",
"Sv+	c #867468",
"Tv+	c #806F62",
"Uv+	c #7D6C61",
"Vv+	c #897E75",
"Wv+	c #7D6F63",
"Xv+	c #8D847B",
"Yv+	c #7C736C",
"Zv+	c #8A7D76",
"`v+	c #8D8078",
" w+	c #867670",
".w+	c #88746D",
"+w+	c #8E8C84",
"@w+	c #8A7569",
"#w+	c #806B5F",
"$w+	c #826E61",
"%w+	c #826F61",
"&w+	c #8E7E75",
"*w+	c #8C7B72",
"=w+	c #87766E",
"-w+	c #8E7C74",
";w+	c #827B66",
">w+	c #8E857A",
",w+	c #8E8581",
"'w+	c #898174",
")w+	c #7F7869",
"!w+	c #807366",
"~w+	c #887666",
"{w+	c #897869",
"]w+	c #877C6F",
"^w+	c #7E7064",
"/w+	c #8C8279",
"(w+	c #8E837A",
"_w+	c #8C7C75",
":w+	c #87766C",
"<w+	c #777773",
"[w+	c #7D756B",
"}w+	c #86786B",
"|w+	c #817264",
"1w+	c #87796D",
"2w+	c #8D7D6F",
"3w+	c #897B6C",
"4w+	c #847568",
"5w+	c #857568",
"6w+	c #897568",
"7w+	c #867161",
"8w+	c #807262",
"9w+	c #817266",
"0w+	c #877A6F",
"aw+	c #8F8477",
"bw+	c #6C6156",
"cw+	c #6D6055",
"dw+	c #76685D",
"ew+	c #857869",
"fw+	c #8B7A6C",
"gw+	c #7E695C",
"hw+	c #826D60",
"iw+	c #897E77",
"jw+	c #85756D",
"kw+	c #77655C",
"lw+	c #6D5A51",
"mw+	c #7D665B",
"nw+	c #836C63",
"ow+	c #7A685C",
"pw+	c #776558",
"qw+	c #888681",
"rw+	c #676664",
"sw+	c #6E5F59",
"tw+	c #735F57",
"uw+	c #836861",
"vw+	c #775D55",
"ww+	c #7C635D",
"xw+	c #846965",
"yw+	c #76655E",
"zw+	c #7B6B61",
"Aw+	c #8B8684",
"Bw+	c #766964",
"Cw+	c #8F7F77",
"Dw+	c #8C7C73",
"Ew+	c #8B756F",
"Fw+	c #8F837B",
"Gw+	c #8D827B",
"Hw+	c #746660",
"Iw+	c #826F67",
"Jw+	c #7F736A",
"Kw+	c #8B7B70",
"Lw+	c #856F6A",
"Mw+	c #867269",
"Nw+	c #816A63",
"Ow+	c #89756F",
"Pw+	c #84746E",
"Qw+	c #84726D",
"Rw+	c #908581",
"Sw+	c #8C7873",
"Tw+	c #8D746F",
"Uw+	c #886F6B",
"Vw+	c #8A776C",
"Ww+	c #8A7368",
"Xw+	c #8F817F",
"Yw+	c #8F7F7A",
"Zw+	c #7F7166",
"`w+	c #84746D",
" x+	c #84706F",
".x+	c #8A7576",
"+x+	c #887372",
"@x+	c #847066",
"#x+	c #826B61",
"$x+	c #7D625A",
"%x+	c #867569",
"&x+	c #928B88",
"*x+	c #8C8684",
"=x+	c #736660",
"-x+	c #7B6A61",
";x+	c #79655F",
">x+	c #7D6964",
",x+	c #7E6E67",
"'x+	c #7A5E55",
")x+	c #7E6F61",
"!x+	c #7A6559",
"~x+	c #7F6E69",
"{x+	c #7F6C6A",
"]x+	c #7E6963",
"^x+	c #7F6A64",
"/x+	c #78615B",
"(x+	c #715750",
"_x+	c #7E645D",
":x+	c #725B57",
"<x+	c #75645F",
"[x+	c #68433B",
"}x+	c #68423B",
"|x+	c #63433C",
"1x+	c #6D4A40",
"2x+	c #6E4C42",
"3x+	c #6A493F",
"4x+	c #6A483F",
"5x+	c #65483F",
"6x+	c #63413E",
"7x+	c #714647",
"8x+	c #704A44",
"9x+	c #69483E",
"0x+	c #6D4940",
"ax+	c #66443B",
"bx+	c #5E443D",
"cx+	c #63463E",
"dx+	c #7C564E",
"ex+	c #805951",
"fx+	c #6F4A42",
"gx+	c #6B473F",
"hx+	c #744E44",
"ix+	c #744D43",
"jx+	c #6F4C42",
"kx+	c #63524B",
"lx+	c #583C36",
"mx+	c #5A3B35",
"nx+	c #603D35",
"ox+	c #68473E",
"px+	c #6E4940",
"qx+	c #5C3C33",
"rx+	c #69463D",
"sx+	c #6A4E42",
"tx+	c #5D4138",
"ux+	c #593B37",
"vx+	c #603F3A",
"wx+	c #613E39",
"xx+	c #6B453D",
"yx+	c #644038",
"zx+	c #69443A",
"Ax+	c #70493F",
"Bx+	c #68433C",
"Cx+	c #67453C",
"Dx+	c #66483F",
"Ex+	c #817067",
"Fx+	c #57433C",
"Gx+	c #60423A",
"Hx+	c #69433D",
"Ix+	c #633C34",
"Jx+	c #70463D",
"Kx+	c #6B443C",
"Lx+	c #734940",
"Mx+	c #784942",
"Nx+	c #794A46",
"Ox+	c #66433C",
"Px+	c #593E31",
"Qx+	c #65433A",
"Rx+	c #613D37",
"Sx+	c #624238",
"Tx+	c #543D35",
"Ux+	c #603E35",
"Vx+	c #6A463D",
"Wx+	c #714F45",
"Xx+	c #6D4B41",
"Yx+	c #624138",
"Zx+	c #5D3E36",
"`x+	c #6D493F",
" y+	c #6F4B41",
".y+	c #6D483F",
"+y+	c #704B42",
"@y+	c #7F6E65",
"#y+	c #595049",
"$y+	c #5E3E36",
"%y+	c #6D473D",
"&y+	c #68453B",
"*y+	c #664138",
"=y+	c #70463B",
"-y+	c #6D4337",
";y+	c #633F35",
">y+	c #6D473C",
",y+	c #71443A",
"'y+	c #6A3E34",
")y+	c #65423B",
"!y+	c #674039",
"~y+	c #653834",
"{y+	c #564744",
"]y+	c #573933",
"^y+	c #613930",
"/y+	c #633B32",
"(y+	c #53312B",
"_y+	c #64372F",
":y+	c #6B3F37",
"<y+	c #693F37",
"[y+	c #5F3A32",
"}y+	c #61423D",
"|y+	c #5D4542",
"1y+	c #44403F",
"2y+	c #5D4844",
"3y+	c #674A42",
"4y+	c #694740",
"5y+	c #694943",
"6y+	c #6F5B52",
"7y+	c #5D3F39",
"8y+	c #66433D",
"9y+	c #573632",
"0y+	c #533530",
"ay+	c #5B3A35",
"by+	c #69453C",
"cy+	c #644138",
"dy+	c #5A3734",
"ey+	c #613E38",
"fy+	c #5A3A36",
"gy+	c #614541",
"hy+	c #7A6A69",
"iy+	c #5F4641",
"jy+	c #6C413B",
"ky+	c #613834",
"ly+	c #6D423C",
"my+	c #5A3630",
"ny+	c #593432",
"oy+	c #603835",
"py+	c #5F3834",
"qy+	c #53312E",
"ry+	c #5D3835",
"sy+	c #5C362E",
"ty+	c #654039",
"uy+	c #53332E",
"vy+	c #654D4C",
"wy+	c #633E35",
"xy+	c #523B35",
"yy+	c #7A665D",
"zy+	c #674D42",
"Ay+	c #81776B",
"By+	c #796C67",
"Cy+	c #6F352B",
"Dy+	c #6D342C",
"Ey+	c #4A4040",
"Fy+	c #655553",
"Gy+	c #4C3633",
"Hy+	c #644C49",
"Iy+	c #623D32",
"Jy+	c #5E342B",
"Ky+	c #80716D",
"Ly+	c #785851",
"My+	c #4D3935",
"Ny+	c #4B3F3D",
"Oy+	c #705954",
"Py+	c #4C3331",
"Qy+	c #654F4C",
"Ry+	c #725B53",
"Sy+	c #4E3630",
"Ty+	c #50342E",
"Uy+	c #634338",
"Vy+	c #52322D",
"Wy+	c #75544E",
"Xy+	c #4A3633",
"Yy+	c #614338",
"Zy+	c #817269",
"`y+	c #4F4240",
" z+	c #65524F",
".z+	c #593329",
"+z+	c #7D6358",
"@z+	c #786963",
"#z+	c #4A322F",
"$z+	c #624D4A",
"%z+	c #7B655D",
"&z+	c #73655F",
"*z+	c #50312C",
"=z+	c #724D40",
"-z+	c #8E7B71",
";z+	c #76554E",
">z+	c #796461",
",z+	c #573430",
"'z+	c #6A493C",
")z+	c #847067",
"!z+	c #79372E",
"~z+	c #64524E",
"{z+	c #593228",
"]z+	c #7D6059",
"^z+	c #604B48",
"/z+	c #7A645A",
"(z+	c #503B34",
"_z+	c #51312A",
":z+	c #654237",
"<z+	c #503734",
"[z+	c #624136",
"}z+	c #50403F",
"|z+	c #796C65",
"1z+	c #623930",
"2z+	c #5F4A47",
"3z+	c #635350",
"4z+	c #7A3529",
"5z+	c #7A5850",
"6z+	c #4D3632",
"7z+	c #5B3431",
"8z+	c #6A473B",
"9z+	c #514341",
"0z+	c #4B2A24",
"az+	c #79635B",
"bz+	c #806A5D",
"cz+	c #7A6D65",
"dz+	c #4E332F",
"ez+	c #6F5956",
"fz+	c #542B23",
"gz+	c #665351",
"hz+	c #7A564E",
"iz+	c #78615E",
"jz+	c #715141",
"kz+	c #4F423F",
"lz+	c #472923",
"mz+	c #61514D",
"nz+	c #80695D",
"oz+	c #796962",
"pz+	c #5B4A47",
"qz+	c #80665F",
"rz+	c #7C5D56",
"sz+	c #6F5B57",
"tz+	c #634D4C",
"uz+	c #7A3427",
"vz+	c #7B3428",
"wz+	c #77605D",
"xz+	c #75342B",
"yz+	c #807368",
"zz+	c #60504C",
"Az+	c #7F665A",
"Bz+	c #4F322F",
"Cz+	c #60382F",
"Dz+	c #81635B",
"Ez+	c #5C4945",
"Fz+	c #6D443C",
"Gz+	c #7E6059",
"Hz+	c #70463A",
"Iz+	c #886E67",
"Jz+	c #5D4645",
"Kz+	c #7B3529",
"Lz+	c #6E5049",
"Mz+	c #7E382D",
"Nz+	c #694E41",
"Oz+	c #806862",
"Pz+	c #52322F",
"Qz+	c #64392F",
"Rz+	c #7F5F57",
"Sz+	c #5A4642",
"Tz+	c #5A2824",
"Uz+	c #6F453E",
"Vz+	c #80645F",
"Wz+	c #4B3633",
"Xz+	c #80645D",
"Yz+	c #6E4538",
"Zz+	c #5C4744",
"`z+	c #733429",
" A+	c #7A3327",
".A+	c #72544C",
"+A+	c #484341",
"@A+	c #683E38",
"#A+	c #846A66",
"$A+	c #5E4E4D",
"%A+	c #826860",
"&A+	c #53322E",
"*A+	c #673A2F",
"=A+	c #744942",
"-A+	c #4A3332",
";A+	c #532A26",
">A+	c #77625F",
",A+	c #6A4136",
"'A+	c #856C67",
")A+	c #584745",
"!A+	c #79342C",
"~A+	c #715048",
"{A+	c #70524F",
"]A+	c #847E7C",
"^A+	c #4B2726",
"/A+	c #6E433D",
"(A+	c #897470",
"_A+	c #61504F",
":A+	c #774B44",
"<A+	c #85665F",
"[A+	c #483633",
"}A+	c #673831",
"|A+	c #80635D",
"1A+	c #72493E",
"2A+	c #88726F",
"3A+	c #544746",
"4A+	c #7D3026",
"5A+	c #793528",
"6A+	c #715348",
"7A+	c #7D7062",
"8A+	c #513E38",
"9A+	c #725655",
"0A+	c #4F4B4B",
"aA+	c #4C2826",
"bA+	c #5F3E34",
"cA+	c #776F65",
"dA+	c #57564E",
"eA+	c #7F6660",
"fA+	c #5E4D4C",
"gA+	c #735244",
"hA+	c #8B796B",
"iA+	c #544B44",
"jA+	c #80645C",
"kA+	c #795E58",
"lA+	c #603126",
"mA+	c #7A5447",
"nA+	c #833227",
"oA+	c #7E3026",
"pA+	c #7D3629",
"qA+	c #6E5043",
"rA+	c #776C5B",
"sA+	c #765A58",
"tA+	c #8C8582",
"uA+	c #4F4947",
"vA+	c #4D2926",
"wA+	c #5E3F33",
"xA+	c #797163",
"yA+	c #5A574D",
"zA+	c #786F63",
"AA+	c #45322B",
"BA+	c #5A4B48",
"CA+	c #6D4B3E",
"DA+	c #897465",
"EA+	c #5D514A",
"FA+	c #633A31",
"GA+	c #7B635D",
"HA+	c #795146",
"IA+	c #907A76",
"JA+	c #5A4C4B",
"KA+	c #6D3427",
"LA+	c #6D3426",
"MA+	c #6B3427",
"NA+	c #6B3326",
"OA+	c #6E3629",
"PA+	c #693327",
"QA+	c #673326",
"RA+	c #6B3327",
"SA+	c #703326",
"TA+	c #793728",
"UA+	c #7E3327",
"VA+	c #813A2A",
"WA+	c #823A2B",
"XA+	c #713528",
"YA+	c #6E3529",
"ZA+	c #6E362A",
"`A+	c #64392D",
" B+	c #674B3F",
".B+	c #6C6152",
"+B+	c #4B3932",
"@B+	c #68433A",
"#B+	c #867268",
"$B+	c #787267",
"%B+	c #64352A",
"&B+	c #5A3C34",
"*B+	c #6A493E",
"=B+	c #50443F",
"-B+	c #6E5955",
";B+	c #705146",
">B+	c #594D4D",
",B+	c #532F26",
"'B+	c #512D25",
")B+	c #633428",
"!B+	c #4C2C25",
"~B+	c #4E322A",
"{B+	c #58453C",
"]B+	c #595147",
"^B+	c #3D322E",
"/B+	c #472C26",
"(B+	c #462D26",
"_B+	c #543732",
":B+	c #4E4540",
"<B+	c #4C2E27",
"[B+	c #502A27",
"}B+	c #5B4F4E",
"|B+	c #6C605E",
"1B+	c #57372F",
"2B+	c #432824",
"3B+	c #4F3D38",
"4B+	c #40342F",
"5B+	c #3C312B",
"6B+	c #3D302B",
"7B+	c #3E2E29",
"8B+	c #44332C",
"9B+	c #47362E",
"0B+	c #3D2D29",
"aB+	c #3C2B28",
"bB+	c #5F4E43",
"cB+	c #786D62",
"dB+	c #55514C",
"eB+	c #3C322D",
"fB+	c #392F2A",
"gB+	c #3F352D",
"hB+	c #433830",
"iB+	c #463A33",
"jB+	c #493C36",
"kB+	c #4D3F38",
"lB+	c #4A3E36",
"mB+	c #382E29",
"nB+	c #423734",
"oB+	c #3D2E2E",
"pB+	c #3D3131",
"qB+	c #493833",
"rB+	c #433230",
"sB+	c #4B3B37",
"tB+	c #483B37",
"uB+	c #5A534E",
"vB+	c #453D37",
"wB+	c #453931",
"xB+	c #41362E",
"yB+	c #40362F",
"zB+	c #4E3F38",
"AB+	c #55413E",
"BB+	c #4F3B38",
"CB+	c #55403C",
"DB+	c #503C34",
"EB+	c #4A3831",
"FB+	c #48362F",
"GB+	c #4E3D35",
"HB+	c #59443C",
"IB+	c #59473F",
"JB+	c #53443D",
"KB+	c #493932",
"LB+	c #513E34",
"MB+	c #523F36",
"NB+	c #4F3E35",
"OB+	c #42342E",
"PB+	c #41322D",
"QB+	c #3E3029",
"RB+	c #5B5A55",
"SB+	c #434543",
"TB+	c #44322D",
"UB+	c #42332D",
"VB+	c #3F332E",
"WB+	c #3B302E",
"XB+	c #3E312F",
"YB+	c #3F3531",
"ZB+	c #3D312D",
"`B+	c #53423B",
" C+	c #514441",
".C+	c #4D4240",
"+C+	c #463C3A",
"@C+	c #453A38",
"#C+	c #473B3A",
"$C+	c #534740",
"%C+	c #4C463E",
"&C+	c #4F463F",
"*C+	c #706B60",
"=C+	c #6B7065",
"-C+	c #595752",
";C+	c #544948",
">C+	c #554B4A",
",C+	c #534946",
"'C+	c #594B48",
")C+	c #5D4E4C",
"!C+	c #564946",
"~C+	c #5A4A48",
"{C+	c #4B3B3A",
"]C+	c #504241",
"^C+	c #524241",
"/C+	c #514E4C",
"(C+	c #383635",
"_C+	c #312727",
":C+	c #382B2A",
"<C+	c #352B28",
"[C+	c #483936",
"}C+	c #392E2E",
"|C+	c #352B2B",
"1C+	c #3A2C2A",
"2C+	c #3B2C2B",
"3C+	c #3D2D2C",
"4C+	c #3D302C",
"5C+	c #3C312D",
"6C+	c #625C5F",
"7C+	c #4E494C",
"8C+	c #46342F",
"9C+	c #45342F",
"0C+	c #3D312C",
"aC+	c #503F3A",
"bC+	c #3E332E",
"cC+	c #4F403A",
"dC+	c #574D48",
"eC+	c #6D6D6C",
"fC+	c #59504B",
"gC+	c #514E46",
"hC+	c #585148",
"iC+	c #5E514C",
"jC+	c #5D544F",
"kC+	c #5C4E4C",
"lC+	c #655857",
"mC+	c #5E514E",
"nC+	c #605246",
"oC+	c #604C43",
"pC+	c #6A5F58",
"qC+	c #6C5858",
"rC+	c #7E6D6A",
"sC+	c #6F605D",
"tC+	c #6A5859",
"uC+	c #665453",
"vC+	c #665A53",
"wC+	c #5E504B",
"xC+	c #5F544F",
"yC+	c #5E544E",
"zC+	c #685A54",
"AC+	c #64584F",
"BC+	c #665A4E",
"CC+	c #777168",
"DC+	c #7B807E",
"EC+	c #6C675E",
"FC+	c #737265",
"GC+	c #6A6859",
"HC+	c #716C5E",
"IC+	c #726E5F",
"JC+	c #777262",
"KC+	c #716C5C",
"LC+	c #726F5F",
"MC+	c #6F6E5E",
"NC+	c #756F61",
"OC+	c #736D61",
"PC+	c #716A5D",
"QC+	c #756E60",
"RC+	c #70685A",
"SC+	c #796E5C",
"TC+	c #7F7463",
"UC+	c #7E786C",
"VC+	c #7A766F",
"WC+	c #72655A",
"XC+	c #72685C",
"YC+	c #696357",
"ZC+	c #676358",
"`C+	c #6B685B",
" D+	c #6A675B",
".D+	c #646256",
"+D+	c #676558",
"@D+	c #68615B",
"#D+	c #6D5F59",
"$D+	c #817C75",
"%D+	c #7F796F",
"&D+	c #7B7669",
"*D+	c #797566",
"=D+	c #726C5E",
"-D+	c #797062",
";D+	c #7B7363",
">D+	c #7B7161",
",D+	c #7E7464",
"'D+	c #83796E",
")D+	c #857E73",
"!D+	c #83786F",
"~D+	c #867C74",
"{D+	c #878178",
"]D+	c #86817B",
"^D+	c #746D65",
"/D+	c #7C7776",
"(D+	c #807B76",
"_D+	c #827873",
":D+	c #777173",
"<D+	c #6F706E",
"[D+	c #7E756C",
"}D+	c #797168",
"|D+	c #7B756C",
"1D+	c #787069",
"2D+	c #7A716A",
"3D+	c #857D75",
"4D+	c #7E776F",
"5D+	c #7B7670",
"6D+	c #82867E",
"7D+	c #7E8179",
"8D+	c #79766C",
"9D+	c #7F7B6F",
"0D+	c #817F70",
"aD+	c #7A796A",
"bD+	c #757263",
"cD+	c #867D76",
"dD+	c #7F746D",
"eD+	c #8D8882",
"fD+	c #88837A",
"gD+	c #7C7567",
"hD+	c #7C7366",
"iD+	c #857A6D",
"jD+	c #766A5E",
"kD+	c #747267",
"lD+	c #726C5F",
"mD+	c #887F72",
"nD+	c #8A847A",
"oD+	c #86837C",
"pD+	c #7E7A72",
"qD+	c #7A7568",
"rD+	c #847C6D",
"sD+	c #888174",
"tD+	c #877D70",
"uD+	c #77695D",
"vD+	c #75675C",
"wD+	c #7A6B62",
"xD+	c #6F6659",
"yD+	c #726F64",
"zD+	c #717873",
"AD+	c #747876",
"BD+	c #736B65",
"CD+	c #756D67",
"DD+	c #7B766E",
"ED+	c #7A776E",
"FD+	c #7A776F",
"GD+	c #7D7B71",
"HD+	c #7B7A6F",
"ID+	c #78786C",
"JD+	c #78796E",
"KD+	c #6D6F64",
"LD+	c #717165",
"MD+	c #757466",
"ND+	c #7E776B",
"OD+	c #736C69",
"PD+	c #6D6965",
"QD+	c #706860",
"RD+	c #7B6C60",
"SD+	c #837468",
"TD+	c #89827E",
"UD+	c #878281",
"VD+	c #83817E",
"WD+	c #7C7C77",
"XD+	c #85837F",
"YD+	c #7F7D78",
"ZD+	c #7E7A74",
"`D+	c #808177",
" E+	c #7B776D",
".E+	c #82786F",
"+E+	c #89887E",
"@E+	c #888F86",
"#E+	c #878984",
"$E+	c #888380",
"%E+	c #898382",
"&E+	c #868080",
"*E+	c #878380",
"=E+	c #87817D",
"-E+	c #8B8481",
";E+	c #8D8A88",
">E+	c #8B8989",
",E+	c #8B8483",
"'E+	c #8A7E7E",
")E+	c #8D8483",
"!E+	c #847473",
"~E+	c #887D7C",
"{E+	c #8A7D7F",
"]E+	c #8A797D",
"^E+	c #47403F",
"/E+	c #544C48",
"(E+	c #544643",
"_E+	c #544745",
":E+	c #534645",
"<E+	c #584949",
"[E+	c #605050",
"}E+	c #5C4D4C",
"|E+	c #5D4E4D",
"1E+	c #625653",
"2E+	c #70696B",
"3E+	c #77777B",
"4E+	c #656268",
"5E+	c #61585B",
"6E+	c #655A59",
"7E+	c #6F6565",
"8E+	c #6B6664",
"9E+	c #6A6664",
"0E+	c #6A6563",
"aE+	c #706A67",
"bE+	c #736E6D",
"cE+	c #6E6B62",
"dE+	c #706B62",
"eE+	c #726A62",
"fE+	c #70655D",
"gE+	c #6E6F70",
"hE+	c #636665",
"iE+	c #6B6762",
"jE+	c #786B66",
"kE+	c #6E6260",
"lE+	c #6F6461",
"mE+	c #716760",
"nE+	c #746D64",
"oE+	c #777269",
"pE+	c #736F66",
"qE+	c #726A61",
"rE+	c #827B79",
"sE+	c #868285",
"tE+	c #7C797A",
"uE+	c #746B69",
"vE+	c #766C69",
"wE+	c #756C6A",
"xE+	c #776D6B",
"yE+	c #726662",
"zE+	c #7C7572",
"AE+	c #78706D",
"BE+	c #706864",
"CE+	c #716A65",
"DE+	c #6E7470",
"EE+	c #6E716C",
"FE+	c #777068",
"GE+	c #82766D",
"HE+	c #72675F",
"IE+	c #796F66",
"JE+	c #76736B",
"KE+	c #7B6F66",
"LE+	c #8D837E",
"ME+	c #8C847A",
"NE+	c #807F70",
"OE+	c #868074",
"PE+	c #90867F",
"QE+	c #908D86",
"RE+	c #8F8883",
"SE+	c #887F79",
"TE+	c #8D8373",
"UE+	c #8C8270",
"VE+	c #8C7F6D",
"WE+	c #877264",
"XE+	c #8E8278",
"YE+	c #928E89",
"ZE+	c #858884",
"`E+	c #6A6A6C",
" F+	c #716467",
".F+	c #877979",
"+F+	c #8E8582",
"@F+	c #908984",
"#F+	c #8D7A7B",
"$F+	c #8F7C7D",
"%F+	c #938A85",
"&F+	c #8F877E",
"*F+	c #908880",
"=F+	c #92867E",
"-F+	c #90857A",
";F+	c #8E8677",
">F+	c #908D81",
",F+	c #92918D",
"'F+	c #91918E",
")F+	c #908F89",
"!F+	c #8E8A7F",
"~F+	c #918E85",
"{F+	c #908E85",
"]F+	c #928E86",
"^F+	c #928D84",
"/F+	c #90887E",
"(F+	c #928E84",
"_F+	c #908D83",
":F+	c #908A81",
"<F+	c #928C84",
"[F+	c #928D85",
"}F+	c #8F877D",
"|F+	c #918980",
"1F+	c #90887F",
"2F+	c #8F867B",
"3F+	c #92887D",
"4F+	c #908275",
"5F+	c #908479",
"6F+	c #908A87",
"7F+	c #827D7D",
"8F+	c #8C7D7A",
"9F+	c #917F79",
"0F+	c #92867D",
"aF+	c #90867D",
"bF+	c #8E837C",
"cF+	c #91867F",
"dF+	c #918A82",
"eF+	c #928B85",
"fF+	c #908B84",
"gF+	c #8F8981",
"hF+	c #8A837B",
"iF+	c #92897D",
"jF+	c #948E82",
"kF+	c #938A80",
"lF+	c #91857E",
"mF+	c #8D8179",
"nF+	c #8F8278",
"oF+	c #8F8378",
"pF+	c #8C7B70",
"qF+	c #908A85",
"rF+	c #8E867D",
"sF+	c #90877D",
"tF+	c #90847B",
"uF+	c #868781",
"vF+	c #807973",
"wF+	c #897C76",
"xF+	c #8B827B",
"yF+	c #897D72",
"zF+	c #8A796E",
"AF+	c #8C7E74",
"BF+	c #8A7A73",
"CF+	c #8C857C",
"DF+	c #897E72",
"EF+	c #837067",
"FF+	c #84776D",
"GF+	c #8A7A71",
"HF+	c #8A7A70",
"IF+	c #737370",
"JF+	c #8F8580",
"KF+	c #8D8277",
"LF+	c #8E8578",
"MF+	c #8C8174",
"NF+	c #8A7A6E",
"OF+	c #8C7B6F",
"PF+	c #918175",
"QF+	c #93837A",
"RF+	c #8F7E74",
"SF+	c #8C8173",
"TF+	c #898075",
"UF+	c #87857E",
"VF+	c #8C8784",
"WF+	c #928883",
"XF+	c #8F837A",
"YF+	c #90847D",
"ZF+	c #928A84",
"`F+	c #8E8781",
" G+	c #92897F",
".G+	c #8D837A",
"+G+	c #90887B",
"@G+	c #8F8678",
"#G+	c #91887B",
"$G+	c #8F8A88",
"%G+	c #7D7F7D",
"&G+	c #5E5C57",
"*G+	c #76695E",
"=G+	c #8C8681",
"-G+	c #8A8078",
";G+	c #87746E",
">G+	c #897F79",
",G+	c #8C827B",
"'G+	c #867973",
")G+	c #897E7C",
"!G+	c #887C79",
"~G+	c #877270",
"{G+	c #876F70",
"]G+	c #6C5D5D",
"^G+	c #887573",
"/G+	c #8B7674",
"(G+	c #8A7572",
"_G+	c #8B7472",
":G+	c #90888B",
"<G+	c #87797E",
"[G+	c #867779",
"}G+	c #887878",
"|G+	c #8D7F7F",
"1G+	c #8E7F7F",
"2G+	c #8D8080",
"3G+	c #8B7B7C",
"4G+	c #908485",
"5G+	c #918384",
"6G+	c #8D7F7D",
"7G+	c #8A7F74",
"8G+	c #8B756C",
"9G+	c #8B796D",
"0G+	c #817E7A",
"aG+	c #7E746A",
"bG+	c #8D7B6D",
"cG+	c #907C6F",
"dG+	c #8A766C",
"eG+	c #87726B",
"fG+	c #8E7C73",
"gG+	c #8A786E",
"hG+	c #8A7B70",
"iG+	c #86746B",
"jG+	c #8D8075",
"kG+	c #908579",
"lG+	c #8E8075",
"mG+	c #857065",
"nG+	c #8F8280",
"oG+	c #918483",
"pG+	c #8F8481",
"qG+	c #908483",
"rG+	c #8F7D7D",
"sG+	c #887674",
"tG+	c #8F8281",
"uG+	c #8F807F",
"vG+	c #8F7D7A",
"wG+	c #8E7A72",
"xG+	c #8E7970",
"yG+	c #807E79",
"zG+	c #8B7D74",
"AG+	c #89776E",
"BG+	c #88756D",
"CG+	c #8A736A",
"DG+	c #75645B",
"EG+	c #8B7571",
"FG+	c #836964",
"GG+	c #7E6D62",
"HG+	c #796C5E",
"IG+	c #7D685E",
"JG+	c #877973",
"KG+	c #886F65",
"LG+	c #846A62",
"MG+	c #806960",
"NG+	c #7F6860",
"OG+	c #7F6B5E",
"PG+	c #826B5C",
"QG+	c #846B5B",
"RG+	c #7E5F53",
"SG+	c #52514F",
"TG+	c #67514C",
"UG+	c #756159",
"VG+	c #6E5A53",
"WG+	c #6A504D",
"XG+	c #7B6560",
"YG+	c #7B625D",
"ZG+	c #796358",
"`G+	c #756358",
" H+	c #7C6E65",
".H+	c #7B685E",
"+H+	c #7F6967",
"@H+	c #785D59",
"#H+	c #7A5E5A",
"$H+	c #7B6868",
"%H+	c #7F7275",
"&H+	c #615356",
"*H+	c #684E4F",
"=H+	c #7D5857",
"-H+	c #795955",
";H+	c #765754",
">H+	c #775956",
",H+	c #7C5E5A",
"'H+	c #7C605C",
")H+	c #6F5952",
"!H+	c #69554E",
"~H+	c #886C5F",
"{H+	c #82675D",
"]H+	c #74514C",
"^H+	c #6E4F4C",
"/H+	c #744F4A",
"(H+	c #6E514B",
"_H+	c #71524B",
":H+	c #715045",
"<H+	c #676055",
"[H+	c #564840",
"}H+	c #604842",
"|H+	c #6B4C4A",
"1H+	c #5B403E",
"2H+	c #5A423F",
"3H+	c #5E4341",
"4H+	c #644744",
"5H+	c #69473E",
"6H+	c #6C4B44",
"7H+	c #5E3F3B",
"8H+	c #5F433E",
"9H+	c #573931",
"0H+	c #583B34",
"aH+	c #573733",
"bH+	c #5F3D39",
"cH+	c #5C3D38",
"dH+	c #897672",
"eH+	c #6D6263",
"fH+	c #533F3E",
"gH+	c #734B45",
"hH+	c #714F46",
"iH+	c #724E47",
"jH+	c #7E564E",
"kH+	c #815751",
"lH+	c #6F534C",
"mH+	c #7E5C56",
"nH+	c #6C514C",
"oH+	c #7E5B53",
"pH+	c #755751",
"qH+	c #71534E",
"rH+	c #70514A",
"sH+	c #775349",
"tH+	c #765C53",
"uH+	c #4B3C35",
"vH+	c #564238",
"wH+	c #5A443D",
"xH+	c #654A46",
"yH+	c #60463F",
"zH+	c #6E4F47",
"AH+	c #684940",
"BH+	c #61443B",
"CH+	c #60433A",
"DH+	c #62433B",
"EH+	c #644340",
"FH+	c #654341",
"GH+	c #684340",
"HH+	c #603C39",
"IH+	c #5F3C39",
"JH+	c #64403D",
"KH+	c #5A4038",
"LH+	c #523A34",
"MH+	c #573B34",
"NH+	c #553934",
"OH+	c #523732",
"PH+	c #583A34",
"QH+	c #563A34",
"RH+	c #563D36",
"SH+	c #454041",
"TH+	c #675250",
"UH+	c #866966",
"VH+	c #785954",
"WH+	c #7A5B55",
"XH+	c #6E5150",
"YH+	c #674E4C",
"ZH+	c #674F4C",
"`H+	c #6B5250",
" I+	c #694D4B",
".I+	c #634847",
"+I+	c #654A48",
"@I+	c #6F514F",
"#I+	c #694944",
"$I+	c #573E38",
"%I+	c #61443C",
"&I+	c #67443D",
"*I+	c #6A453E",
"=I+	c #70584D",
"-I+	c #4B3D39",
";I+	c #5B4439",
">I+	c #6A493B",
",I+	c #6F493D",
"'I+	c #68483E",
")I+	c #6A4840",
"!I+	c #6D4B42",
"~I+	c #604038",
"{I+	c #5F413A",
"]I+	c #624640",
"^I+	c #5F4741",
"/I+	c #5A413D",
"(I+	c #5D413D",
"_I+	c #5B423D",
":I+	c #674F4A",
"<I+	c #6A4B47",
"[I+	c #6C4A47",
"}I+	c #6E4A46",
"|I+	c #694841",
"1I+	c #69534E",
"2I+	c #593932",
"3I+	c #604039",
"4I+	c #65413A",
"5I+	c #653A34",
"6I+	c #6A3B37",
"7I+	c #623531",
"8I+	c #663C37",
"9I+	c #60332F",
"0I+	c #60322F",
"aI+	c #653B33",
"bI+	c #6D4D45",
"cI+	c #847265",
"dI+	c #453E37",
"eI+	c #5C312E",
"fI+	c #5A2F2D",
"gI+	c #5C2F2B",
"hI+	c #5F433C",
"iI+	c #523D38",
"jI+	c #512F2C",
"kI+	c #5B4338",
"lI+	c #625245",
"mI+	c #3D2B25",
"nI+	c #7E5F59",
"oI+	c #62504E",
"pI+	c #492D2C",
"qI+	c #68372D",
"rI+	c #533936",
"sI+	c #643933",
"tI+	c #5E352C",
"uI+	c #65382E",
"vI+	c #745654",
"wI+	c #6C372E",
"xI+	c #603D36",
"yI+	c #7F5D53",
"zI+	c #887B6D",
"AI+	c #473F37",
"BI+	c #745E52",
"CI+	c #675045",
"DI+	c #7D6152",
"EI+	c #5B4D45",
"FI+	c #85746F",
"GI+	c #765655",
"HI+	c #4A3231",
"II+	c #806256",
"JI+	c #5B423C",
"KI+	c #684D43",
"LI+	c #897D74",
"MI+	c #5E4039",
"NI+	c #513F39",
"OI+	c #763A2D",
"PI+	c #693D34",
"QI+	c #7F6759",
"RI+	c #594D44",
"SI+	c #544544",
"TI+	c #715453",
"UI+	c #684337",
"VI+	c #7E665A",
"WI+	c #533E3A",
"XI+	c #65423E",
"YI+	c #623328",
"ZI+	c #78382D",
"`I+	c #6D352C",
" J+	c #74392C",
".J+	c #74433A",
"+J+	c #574943",
"@J+	c #84706D",
"#J+	c #564647",
"$J+	c #4F3330",
"%J+	c #745855",
"&J+	c #4D3433",
"*J+	c #755F53",
"=J+	c #857872",
"-J+	c #4B3A38",
";J+	c #63403E",
">J+	c #513D3A",
",J+	c #5C3227",
"'J+	c #754C44",
")J+	c #4B2E2A",
"!J+	c #6B4037",
"~J+	c #574A42",
"{J+	c #544546",
"]J+	c #4F3431",
"^J+	c #4B3231",
"/J+	c #624035",
"(J+	c #71544B",
"_J+	c #603F3C",
":J+	c #745B5B",
"<J+	c #4C3938",
"[J+	c #7D695D",
"}J+	c #584A44",
"|J+	c #534546",
"1J+	c #48302F",
"2J+	c #6C483C",
"3J+	c #523F3A",
"4J+	c #5C3E3C",
"5J+	c #725B5C",
"6J+	c #493937",
"7J+	c #552824",
"8J+	c #573935",
"9J+	c #857473",
"0J+	c #503432",
"aJ+	c #765856",
"bJ+	c #6E493E",
"cJ+	c #523F3B",
"dJ+	c #593F3F",
"eJ+	c #735E60",
"fJ+	c #463736",
"gJ+	c #583835",
"hJ+	c #512927",
"iJ+	c #503535",
"jJ+	c #704C40",
"kJ+	c #806A61",
"lJ+	c #624645",
"mJ+	c #7A6768",
"nJ+	c #463838",
"oJ+	c #532F27",
"pJ+	c #78554E",
"qJ+	c #7C6A5F",
"rJ+	c #826D6C",
"sJ+	c #534445",
"tJ+	c #423E3D",
"uJ+	c #623934",
"vJ+	c #6C4F4E",
"wJ+	c #4A3130",
"xJ+	c #512E25",
"yJ+	c #694B42",
"zJ+	c #826F68",
"AJ+	c #72362F",
"BJ+	c #71392E",
"CJ+	c #644746",
"DJ+	c #473837",
"EJ+	c #432E2B",
"FJ+	c #7C6B60",
"GJ+	c #594D46",
"HJ+	c #524444",
"IJ+	c #503330",
"JJ+	c #6C4E4B",
"KJ+	c #6F4C41",
"LJ+	c #6D332D",
"MJ+	c #6E342C",
"NJ+	c #6B362C",
"OJ+	c #6E352D",
"PJ+	c #684948",
"QJ+	c #786667",
"RJ+	c #423434",
"SJ+	c #7C5851",
"TJ+	c #5E524A",
"UJ+	c #664A46",
"VJ+	c #714E42",
"WJ+	c #4C3A39",
"XJ+	c #6C4C43",
"YJ+	c #4B3630",
"ZJ+	c #7A6767",
"`J+	c #493530",
" K+	c #806E62",
".K+	c #554846",
"+K+	c #4E2D25",
"@K+	c #624744",
"#K+	c #462D2B",
"$K+	c #715248",
"%K+	c #806E69",
"&K+	c #7B6D5F",
"*K+	c #66463C",
"=K+	c #837063",
"-K+	c #5B4F48",
";K+	c #4F3432",
">K+	c #5A2A27",
",K+	c #422C2A",
"'K+	c #694235",
")K+	c #82726B",
"!K+	c #7A5D4F",
"~K+	c #8A7C6D",
"{K+	c #493B33",
"]K+	c #5A3127",
"^K+	c #796051",
"/K+	c #76705C",
"(K+	c #3E3129",
"_K+	c #65473D",
":K+	c #857266",
"<K+	c #6A372C",
"[K+	c #743A2F",
"}K+	c #74392F",
"|K+	c #62352B",
"1K+	c #5D3E39",
"2K+	c #5A4C4C",
"3K+	c #493028",
"4K+	c #5C3429",
"5K+	c #6B3529",
"6K+	c #6E362B",
"7K+	c #643F35",
"8K+	c #6C3C2D",
"9K+	c #6F4B3B",
"0K+	c #7C685A",
"aK+	c #7B6D64",
"bK+	c #463935",
"cK+	c #593127",
"dK+	c #552E25",
"eK+	c #755D4C",
"fK+	c #7F7361",
"gK+	c #483B32",
"hK+	c #7D706D",
"iK+	c #55332E",
"jK+	c #6B6257",
"kK+	c #593026",
"lK+	c #75655B",
"mK+	c #5D352B",
"nK+	c #62352C",
"oK+	c #5C4442",
"pK+	c #635457",
"qK+	c #493E40",
"rK+	c #69362D",
"sK+	c #5B3228",
"tK+	c #433F40",
"uK+	c #5F4037",
"vK+	c #654D44",
"wK+	c #5E372C",
"xK+	c #6E4634",
"yK+	c #6A4F40",
"zK+	c #75665B",
"AK+	c #686059",
"BK+	c #3E2C27",
"CK+	c #4E433B",
"DK+	c #504C42",
"EK+	c #332F29",
"FK+	c #383333",
"GK+	c #4F3129",
"HK+	c #514544",
"IK+	c #453530",
"JK+	c #4C3833",
"KK+	c #503A36",
"LK+	c #503935",
"MK+	c #523A36",
"NK+	c #543A35",
"OK+	c #4A3532",
"PK+	c #463332",
"QK+	c #40302F",
"RK+	c #372D2C",
"SK+	c #3C2B29",
"TK+	c #412F2C",
"UK+	c #49332D",
"VK+	c #46312C",
"WK+	c #4D2D2B",
"XK+	c #333133",
"YK+	c #372928",
"ZK+	c #382928",
"`K+	c #3A2A29",
" L+	c #3D2D2D",
".L+	c #433734",
"+L+	c #453432",
"@L+	c #3D3530",
"#L+	c #39322D",
"$L+	c #3C342F",
"%L+	c #3D342F",
"&L+	c #342E2D",
"*L+	c #3F2D2A",
"=L+	c #3F2E2C",
"-L+	c #392A27",
";L+	c #3E2C2A",
">L+	c #47372F",
",L+	c #5D5C5D",
"'L+	c #3E3C3E",
")L+	c #3C3432",
"!L+	c #403331",
"~L+	c #423533",
"{L+	c #3B3534",
"]L+	c #524341",
"^L+	c #504444",
"/L+	c #4C4242",
"(L+	c #3A3534",
"_L+	c #575853",
":L+	c #555856",
"<L+	c #504F4F",
"[L+	c #574E4D",
"}L+	c #5C4D4A",
"|L+	c #5C4D4B",
"1L+	c #5A4B49",
"2L+	c #574948",
"3L+	c #4F4543",
"4L+	c #594A48",
"5L+	c #534842",
"6L+	c #47413F",
"7L+	c #4A443F",
"8L+	c #4D4741",
"9L+	c #4A4440",
"0L+	c #4A3F3C",
"aL+	c #45403C",
"bL+	c #453D39",
"cL+	c #585857",
"dL+	c #575B5C",
"eL+	c #4C4A49",
"fL+	c #493E39",
"gL+	c #4B423C",
"hL+	c #4D443F",
"iL+	c #534A45",
"jL+	c #48403B",
"kL+	c #48423D",
"lL+	c #49423D",
"mL+	c #544D48",
"nL+	c #514B46",
"oL+	c #48433E",
"pL+	c #504944",
"qL+	c #4E4642",
"rL+	c #4F4A4B",
"sL+	c #4B4447",
"tL+	c #4E4546",
"uL+	c #534947",
"vL+	c #5A534C",
"wL+	c #625B57",
"xL+	c #5D5654",
"yL+	c #5F5856",
"zL+	c #5F5855",
"AL+	c #64605D",
"BL+	c #6A6058",
"CL+	c #808382",
"DL+	c #72726F",
"EL+	c #686360",
"FL+	c #695D5A",
"GL+	c #736763",
"HL+	c #7D7370",
"IL+	c #75716F",
"JL+	c #756563",
"KL+	c #816D6C",
"LL+	c #7C6D6C",
"ML+	c #796A69",
"NL+	c #7B6C6B",
"OL+	c #7C6F6F",
"PL+	c #776B69",
"QL+	c #7A6B6B",
"RL+	c #756668",
"SL+	c #756568",
"TL+	c #746365",
"UL+	c #6F6261",
"VL+	c #6B6561",
"WL+	c #665D5E",
"XL+	c #6B6367",
"YL+	c #737073",
"ZL+	c #656365",
"`L+	c #645C5B",
" M+	c #6B5F58",
".M+	c #655C56",
"+M+	c #645A56",
"@M+	c #695D58",
"#M+	c #6B615D",
"$M+	c #6D6460",
"%M+	c #6C625E",
"&M+	c #71635E",
"*M+	c #73685E",
"=M+	c #72665C",
"-M+	c #72655C",
";M+	c #5E5354",
">M+	c #59534D",
",M+	c #595550",
"'M+	c #5D5450",
")M+	c #5C5650",
"!M+	c #57514B",
"~M+	c #59524C",
"{M+	c #5B5350",
"]M+	c #747473",
"^M+	c #777A7B",
"/M+	c #646664",
"(M+	c #5F5C56",
"_M+	c #615B58",
":M+	c #695F5A",
"<M+	c #766F6A",
"[M+	c #666057",
"}M+	c #686259",
"|M+	c #6B665C",
"1M+	c #6B645A",
"2M+	c #706A60",
"3M+	c #706A61",
"4M+	c #6F6866",
"5M+	c #656464",
"6M+	c #575D5C",
"7M+	c #565455",
"8M+	c #705F62",
"9M+	c #816D6E",
"0M+	c #7F6E6D",
"aM+	c #7E746F",
"bM+	c #7B746C",
"cM+	c #7D726A",
"dM+	c #77756B",
"eM+	c #717166",
"fM+	c #747569",
"gM+	c #787468",
"hM+	c #7B7166",
"iM+	c #473B38",
"jM+	c #493C3A",
"kM+	c #453737",
"lM+	c #382B2B",
"mM+	c #332929",
"nM+	c #312929",
"oM+	c #322C2C",
"pM+	c #3E3334",
"qM+	c #453A3A",
"rM+	c #473D3C",
"sM+	c #4F4343",
"tM+	c #4B4142",
"uM+	c #4F4747",
"vM+	c #4B4545",
"wM+	c #504848",
"xM+	c #594F4F",
"yM+	c #5F5253",
"zM+	c #645754",
"AM+	c #6F706F",
"BM+	c #676365",
"CM+	c #685E60",
"DM+	c #655C58",
"EM+	c #5C5450",
"FM+	c #5B4E4D",
"GM+	c #5F4F4E",
"HM+	c #655A55",
"IM+	c #625856",
"JM+	c #6E6361",
"KM+	c #645C57",
"LM+	c #5A534F",
"MM+	c #5F5652",
"NM+	c #615753",
"OM+	c #615652",
"PM+	c #625552",
"QM+	c #5A5955",
"RM+	c #5B5655",
"SM+	c #6E5F60",
"TM+	c #726460",
"UM+	c #6B5F5D",
"VM+	c #665856",
"WM+	c #675A57",
"XM+	c #675C59",
"YM+	c #6A635E",
"ZM+	c #706760",
"`M+	c #7A777A",
" N+	c #7F7D84",
".N+	c #716D73",
"+N+	c #736A6A",
"@N+	c #7C6E6C",
"#N+	c #7A6E6E",
"$N+	c #7C6F6B",
"%N+	c #7E706B",
"&N+	c #776E6E",
"*N+	c #737776",
"=N+	c #707072",
"-N+	c #736366",
";N+	c #867575",
">N+	c #877B7C",
",N+	c #827777",
"'N+	c #817372",
")N+	c #7C7576",
"!N+	c #797473",
"~N+	c #7F7C79",
"{N+	c #7E7B78",
"]N+	c #807875",
"^N+	c #807473",
"/N+	c #837C7A",
"(N+	c #8A8A88",
"_N+	c #8B8B8C",
":N+	c #8A888A",
"<N+	c #8D8585",
"[N+	c #8D8686",
"}N+	c #908685",
"|N+	c #8E8383",
"1N+	c #867F7E",
"2N+	c #888181",
"3N+	c #8F8880",
"4N+	c #88827C",
"5N+	c #7A7678",
"6N+	c #817D7B",
"7N+	c #878179",
"8N+	c #857773",
"9N+	c #80706B",
"0N+	c #7E716C",
"aN+	c #7E736F",
"bN+	c #7A6C69",
"cN+	c #8C8982",
"dN+	c #86817C",
"eN+	c #86756E",
"fN+	c #847D6F",
"gN+	c #837E75",
"hN+	c #857874",
"iN+	c #827571",
"jN+	c #837670",
"kN+	c #847C72",
"lN+	c #897E73",
"mN+	c #8A8175",
"nN+	c #857D71",
"oN+	c #837E72",
"pN+	c #868487",
"qN+	c #7E777D",
"rN+	c #7A6D72",
"sN+	c #8E8784",
"tN+	c #908B8A",
"uN+	c #918E8B",
"vN+	c #918C85",
"wN+	c #8E8276",
"xN+	c #8D8073",
"yN+	c #908885",
"zN+	c #786662",
"AN+	c #8D7A77",
"BN+	c #8C7975",
"CN+	c #8C7A75",
"DN+	c #84706E",
"EN+	c #918780",
"FN+	c #898787",
"GN+	c #625F61",
"HN+	c #887572",
"IN+	c #887B77",
"JN+	c #887272",
"KN+	c #887071",
"LN+	c #826E6F",
"MN+	c #88797B",
"NN+	c #847474",
"ON+	c #8A756D",
"PN+	c #87736E",
"QN+	c #877067",
"RN+	c #83766D",
"SN+	c #878481",
"TN+	c #7A7574",
"UN+	c #8C7D72",
"VN+	c #81756B",
"WN+	c #887A72",
"XN+	c #877D72",
"YN+	c #8B7C72",
"ZN+	c #928C8A",
"`N+	c #8D8178",
" O+	c #8F827A",
".O+	c #8E837D",
"+O+	c #8D7F74",
"@O+	c #8A7C72",
"#O+	c #8B8074",
"$O+	c #8A7D72",
"%O+	c #8F857A",
"&O+	c #91877E",
"*O+	c #8F867C",
"=O+	c #90857C",
"-O+	c #7A807D",
";O+	c #5E605D",
">O+	c #6E5A5B",
",O+	c #856C6C",
"'O+	c #86716E",
")O+	c #8E8379",
"!O+	c #8F8177",
"~O+	c #887F78",
"{O+	c #867D73",
"]O+	c #84776B",
"^O+	c #877367",
"/O+	c #665E5C",
"(O+	c #756566",
"_O+	c #7D6B6D",
":O+	c #807172",
"<O+	c #857878",
"[O+	c #847A7A",
"}O+	c #7D7574",
"|O+	c #847676",
"1O+	c #817272",
"2O+	c #77696A",
"3O+	c #726465",
"4O+	c #716362",
"5O+	c #716563",
"6O+	c #746164",
"7O+	c #70676A",
"8O+	c #6F7072",
"9O+	c #726D72",
"0O+	c #7D6C72",
"aO+	c #857273",
"bO+	c #857876",
"cO+	c #877D7B",
"dO+	c #887E7E",
"eO+	c #88807F",
"fO+	c #8B8180",
"gO+	c #918C8A",
"hO+	c #908E8E",
"iO+	c #8E8B8C",
"jO+	c #8F8989",
"kO+	c #8D8780",
"lO+	c #908882",
"mO+	c #818680",
"nO+	c #787575",
"oO+	c #91847D",
"pO+	c #8F877C",
"qO+	c #8C7B76",
"rO+	c #908881",
"sO+	c #8D7971",
"tO+	c #88706A",
"uO+	c #928A8C",
"vO+	c #8B7E80",
"wO+	c #8F7F7D",
"xO+	c #908681",
"yO+	c #90857F",
"zO+	c #928C82",
"AO+	c #92867C",
"BO+	c #92887F",
"CO+	c #908079",
"DO+	c #8E7E76",
"EO+	c #8F7F76",
"FO+	c #8F7D77",
"GO+	c #8B918F",
"HO+	c #777D7D",
"IO+	c #65595B",
"JO+	c #7E6967",
"KO+	c #7D6664",
"LO+	c #765E5C",
"MO+	c #7A605E",
"NO+	c #7C6969",
"OO+	c #7B6D6E",
"PO+	c #8C8182",
"QO+	c #918887",
"RO+	c #887A7B",
"SO+	c #857374",
"TO+	c #887578",
"UO+	c #89777B",
"VO+	c #8D7F82",
"WO+	c #908787",
"XO+	c #928987",
"YO+	c #796B67",
"ZO+	c #90827F",
"`O+	c #817674",
" P+	c #847671",
".P+	c #807369",
"+P+	c #8E8C88",
"@P+	c #766767",
"#P+	c #7F6965",
"$P+	c #796464",
"%P+	c #846B69",
"&P+	c #82635F",
"*P+	c #7D6762",
"=P+	c #7D625E",
"-P+	c #735850",
";P+	c #725E52",
">P+	c #74665C",
",P+	c #7A6B64",
"'P+	c #7D6962",
")P+	c #7A6258",
"!P+	c #79675D",
"~P+	c #725F51",
"{P+	c #705E53",
"]P+	c #806D60",
"^P+	c #7B6A5C",
"/P+	c #7B685C",
"(P+	c #898081",
"_P+	c #6B6468",
":P+	c #605052",
"<P+	c #6E5D56",
"[P+	c #6B5148",
"}P+	c #6B564E",
"|P+	c #6A544F",
"1P+	c #6A504C",
"2P+	c #664641",
"3P+	c #6A4841",
"4P+	c #64433C",
"5P+	c #563731",
"6P+	c #5A3B34",
"7P+	c #5B403C",
"8P+	c #61463D",
"9P+	c #756156",
"0P+	c #553C36",
"aP+	c #60443D",
"bP+	c #563B35",
"cP+	c #5D413B",
"dP+	c #613F3B",
"eP+	c #65433F",
"fP+	c #5F3F38",
"gP+	c #60443A",
"hP+	c #5E453B",
"iP+	c #5C433B",
"jP+	c #66463E",
"kP+	c #5D4037",
"lP+	c #5D4137",
"mP+	c #776054",
"nP+	c #8D8579",
"oP+	c #676159",
"pP+	c #634F45",
"qP+	c #6A5043",
"rP+	c #674C40",
"sP+	c #63493E",
"tP+	c #644C41",
"uP+	c #694D42",
"vP+	c #644E43",
"wP+	c #675145",
"xP+	c #654B40",
"yP+	c #684E44",
"zP+	c #7A5C55",
"AP+	c #6F534F",
"BP+	c #715350",
"CP+	c #624843",
"DP+	c #5E4642",
"EP+	c #654D49",
"FP+	c #6A4F49",
"GP+	c #654A43",
"HP+	c #654B43",
"IP+	c #6F5347",
"JP+	c #6F5047",
"KP+	c #898175",
"LP+	c #595249",
"MP+	c #503430",
"NP+	c #593F3A",
"OP+	c #6A4D46",
"PP+	c #62453F",
"QP+	c #5A3F3B",
"RP+	c #583E39",
"SP+	c #654843",
"TP+	c #6B4C47",
"UP+	c #494746",
"VP+	c #8B847C",
"WP+	c #8B837C",
"XP+	c #8F8581",
"YP+	c #93877E",
"ZP+	c #90857E",
"`P+	c #836D67",
" Q+	c #89706F",
".Q+	c #8C817F",
"+Q+	c #828983",
"@Q+	c #696A69",
"#Q+	c #6F5E5E",
"$Q+	c #6D5954",
"%Q+	c #7C625F",
"&Q+	c #7E6663",
"*Q+	c #725D5A",
"=Q+	c #75605D",
"-Q+	c #785F5C",
";Q+	c #705750",
">Q+	c #6D5A53",
",Q+	c #734D47",
"'Q+	c #79544C",
")Q+	c #7D5A52",
"!Q+	c #846059",
"~Q+	c #664945",
"{Q+	c #73514C",
"]Q+	c #684640",
"^Q+	c #724F49",
"/Q+	c #6F4C47",
"(Q+	c #6C4844",
"_Q+	c #85857B",
":Q+	c #6A4E4D",
"<Q+	c #71584C",
"[Q+	c #6D4F4A",
"}Q+	c #78554F",
"|Q+	c #664943",
"1Q+	c #6E524C",
"2Q+	c #5C3F3B",
"3Q+	c #694C4A",
"4Q+	c #6B4E45",
"5Q+	c #74544A",
"6Q+	c #725046",
"7Q+	c #60443E",
"8Q+	c #61423C",
"9Q+	c #6E4A42",
"0Q+	c #72706B",
"aQ+	c #47312F",
"bQ+	c #614744",
"cQ+	c #5E423E",
"dQ+	c #5B3B38",
"eQ+	c #684845",
"fQ+	c #684A46",
"gQ+	c #5F3E36",
"hQ+	c #684943",
"iQ+	c #6F4C44",
"jQ+	c #68463F",
"kQ+	c #5D3D35",
"lQ+	c #624C44",
"mQ+	c #72625F",
"nQ+	c #4D3331",
"oQ+	c #643731",
"pQ+	c #55322B",
"qQ+	c #5A372F",
"rQ+	c #693C36",
"sQ+	c #55322D",
"tQ+	c #532F2B",
"uQ+	c #5A3F36",
"vQ+	c #534948",
"wQ+	c #674940",
"xQ+	c #8B7B71",
"yQ+	c #60544F",
"zQ+	c #50322B",
"AQ+	c #693830",
"BQ+	c #6D5046",
"CQ+	c #7F7062",
"DQ+	c #483830",
"EQ+	c #5D4239",
"FQ+	c #60453B",
"GQ+	c #63453D",
"HQ+	c #77564A",
"IQ+	c #876658",
"JQ+	c #6D4F45",
"KQ+	c #573C34",
"LQ+	c #77554B",
"MQ+	c #79574C",
"NQ+	c #4F342E",
"OQ+	c #563E34",
"PQ+	c #5B3D33",
"QQ+	c #725D54",
"RQ+	c #7F7C6E",
"SQ+	c #58544B",
"TQ+	c #53352D",
"UQ+	c #5A3930",
"VQ+	c #54342E",
"WQ+	c #807B6B",
"XQ+	c #4F473E",
"YQ+	c #8C8071",
"ZQ+	c #593930",
"`Q+	c #846D61",
" R+	c #643B31",
".R+	c #7F6658",
"+R+	c #625247",
"@R+	c #534C50",
"#R+	c #6D392E",
"$R+	c #774135",
"%R+	c #774237",
"&R+	c #743F34",
"*R+	c #68372C",
"=R+	c #773C31",
"-R+	c #72392F",
";R+	c #6E4E48",
">R+	c #533836",
",R+	c #713A30",
"'R+	c #733E33",
")R+	c #634239",
"!R+	c #847364",
"~R+	c #615348",
"{R+	c #4B413A",
"]R+	c #552C2A",
"^R+	c #633F36",
"/R+	c #867D6D",
"(R+	c #686559",
"_R+	c #57382F",
":R+	c #816E62",
"<R+	c #6F5F58",
"[R+	c #613E34",
"}R+	c #7C6F60",
"|R+	c #5B554B",
"1R+	c #60403C",
"2R+	c #877C7F",
"3R+	c #575259",
"4R+	c #8C7D7B",
"5R+	c #5F5655",
"6R+	c #6B312C",
"7R+	c #6C4745",
"8R+	c #593A38",
"9R+	c #75372E",
"0R+	c #65564C",
"aR+	c #695149",
"bR+	c #4A413D",
"cR+	c #552B2B",
"dR+	c #603D38",
"eR+	c #7E6C65",
"fR+	c #6A5D5B",
"gR+	c #5F3A34",
"hR+	c #806F72",
"iR+	c #584E54",
"jR+	c #763126",
"kR+	c #786862",
"lR+	c #4D4747",
"mR+	c #5B3A39",
"nR+	c #75362E",
"oR+	c #5E3B39",
"pR+	c #817069",
"qR+	c #81746D",
"rR+	c #6C332C",
"sR+	c #83706E",
"tR+	c #594E50",
"uR+	c #744943",
"vR+	c #48342F",
"wR+	c #6B312D",
"xR+	c #78372D",
"yR+	c #624E4E",
"zR+	c #8C7875",
"AR+	c #665C57",
"BR+	c #69463B",
"CR+	c #564C4A",
"DR+	c #714A42",
"ER+	c #44302D",
"FR+	c #77362D",
"GR+	c #6E332E",
"HR+	c #78352D",
"IR+	c #7F3B30",
"JR+	c #6A5756",
"KR+	c #504040",
"LR+	c #643F3C",
"MR+	c #685A55",
"NR+	c #664037",
"OR+	c #6A615B",
"PR+	c #584D4A",
"QR+	c #3F2D2D",
"   .  +  @  #  $  $  %  @  &  *  =  %  -  ;  -  =  >  ,  '  )  !  ~  {  ]  ^  /  (  _  :  <  :  [  }  |  '  1  2  3  3  4  3  |  |  _  _  3  5  3  >  <  6  7  8  5  _  9  5  3  }  [  0  a  b  1  ]  }  >  >  c  >  >  >  6  0  3  3  d  0  3  6  e  0  3  2  3  3  6  6  3  >  f  g  6  0  0  0  g  2  [  h  c  i  i  j  k  l  }  3  3  7  5  3  5  5  3  m  d  5  5  n  3  d  m  o  _  :  >  >  p  0  6  >  ,  0  >  >  >  0  >  ,  0  >  6  >  q  r  s  t  u  f  f  <  e  g  >  p  v  0  0  6  g  g  g  g  0  0  >  6  6  6  3  >  6  <  w  0  3  x  _  m  x  y  d  2  3  2  _  _  1  h  ,  z  j  :  g  A  B  p  a  0  p  6  g  g  f  B  p  0  B  C  C  g  g  f  6  0  0  p  n  n  3  <  w  3  3  n  >  j  e  6  2  2  2  ,  D  g  h  3  m  6  <  E  <  6  3  d  6  3  6  6  0  6  <  j  g  0  g  6  6  <  <  6  6  :  /  F  G  <  H  :  G  I  J  K  E  F  6  L  j  j  M  g  G  G  g  f  0  0  >  0  B  ,  n  }  >  3  7  7  >  f  f  f  f  f  6  w  d  6  e  N  O  K  G  :  e  e  j  J  P  K  <  A  >  2  >  >  Q  q  :  F  E  R  _  3  2  4  _  3  }  F  2  }  5  m  '  S  T  ;  U  ",
"V  W  X  Y  Z  `   . .. +. @. #. $. %. &. *. =. -. ;. >. ,. '. ). !. ~. {. ]. ^. /. (. _. :. <. [. }. |. 1. 2. 3. 4. 5. 6. 7. 8. 9. 0. a. b. c. d. e. f. g. h. i. j. k. l. m. n. o. p. q. r. s. t. u. v. w. w. x. y. z. A. B. C. D. E. F. G. H. I. J. K. L. M. N. O. P. Q. R. S. T. U. V. W. X. Y. Z. `.  + .+ ++ @+ #+ $+ %+ &+ *+ =+ =+ -+ ;+ >+ ,+ '+ )+ `. T. !+ ~+ {+ ]+ g. ^+ /+ :. (+ _+ :+ <+ [+ }+ |+ 1+ 2+ 3+ 4+ 5+ 5+ 6+ 7+ 8+ 9+ 0+ a+ b+ c+ d+ e+ f+ g+ h+ i+ j+ k+ 2+ l+ <+ m+ n+ o+ [+ p+ q+ r+ s+ t+ u+ v+ w+ x+ y+ z+ A+ B+ C+ D+ E+ F+ G+ H+ I+ J+ K+ L+ M+ c. N+ O+ P+ Q+ R+ S+ T+ U+ V+ W+ X+ Y+ Z+ `+  @ .@ +@ i+ @@ #@ $@ %@ &@ *@ =@ -@ ;@ >@ ,@ '@ )@ <+ !@ ~@ {@ ]@ ^@ /@ '+ (@ _@ :@ <@ [@ }@ |@ 1@ 2@ 3@ 4@ 5@ 6@ 7@ 8@ 9@ 0@ a@ b@ c@ d@ e@ f@ g@ g@ e@ G. h@ i@ s+ j@ k@ l@ m@ n@ o@ p@ q@ r@ s@ t@ u@ v@ w@ x@ y@ z@ A@ B@ f. C@ D@ E@ F@ G@ H@ I@ J@ K@ L@ M@ N@ l+ O@ P@ Q@ R@ S@ T@ U@ V@ W@ X@ Y@ V. Z@ `@  # .# +# @# ## $# %# &# *# =# -# ;# t@ ># ,# '# )# !# ~# {# ]# ^# /# (# _# :# B. <# [# }# |# 1# 2# K+ m. 3# 4# 5# 6# 7# 8# 9# 0# a# b# c# d# ",
"e# f# g# h# i# j# k# k# l# m# n# o# p# q# r# s# t# u# v# w# x# y# z# A# B# C# D# E# F# G# H# I# J# K# L# M# N# O# P# Q# R# S# T# U# V# W# X# Y# Z# P# `#  $ .$ +$ @$ @$ #$ $$ %$ &$ *$ =$ -$ ;$ >$ ,$ '$ )$ !$ ~$ {$ {$ ]$ ^$ /$ ($ _$ :$ <$ [$ }$ |$ 1$ 2$ 3$ 4$ 5$ 6$ 7$ 8$ 9$ 0$ a$ b$ c$ d$ e$ f$ g$ h$ i$ j$ k$ l$ m$ n$ o$ p$ q$ r$ s$ t$ u$ v$ w$ x$ y$ z$ A$ B$ C$ D$ E$ F$ G$ H$ w$ I$ J$ K$ L$ M$ N$ O$ P$ Q$ R$ S$ T$ U$ V$ W$ X$ Y$ Z$ `$  % .% +% @% #% $% %% &% *% =% -% ;% >% ,% '% )% !% ~% {% ]% ^% /% (% _% ^% :% <% [% }% |% 1% 2% 3% 4% 5% 6% 7% 8% 9% 0% a% b% c% d% e% f% g% h% i% j% k% l% m% n% o% p% q% r% s% t% u% v% w% x% Q+ y% z% A% B% C% J$ D% E% F% G% H% I% M$ J% K% L% M% N% O% P% Q% R% S% T% U% V% W% X% Y% Z% `%  & .& +& @& @& #& $& %& && *& =& -& ;& >& ,& '& )& !& ~& {& ]& ^& /& (& _& :& <& [& }& |& 1& 2& <$ 3& Y% 4& 5& 6& 7& 8& 9& 0& a& b& W$ c& r% d& e& f& g& h& i& j& k& l& m& n& c$ o& p& q& r& s& t& u& v& w& x& y& z& A& B& C& D& E& F& G& H& I& J& K& L& M& N& O& P& Q& R& S& T& U& V& W& X& Y& Z& `&  * .* +* @* #* $* %* &* ** =* ",
"-* ;* >* ,* '* )* !* ~* {* ]* ^* /* /* >* ~* (* _* :* <* [* }* |* 1* 2* 3* 4* 5* 6* 7* 8* 7* 9* 0* a* b* c* d* e* f* g* h* h* i* j* k* l* m* n* l* o* h* p* q* r* s* f* t* u* v* w* x* y* z* A* B* C* D* E* F* G* H* I* J* K* L* M* N* M* M* O* P* B* Q* F* R* S* T* U* Q* V* W* X* Y* Z* `*  = .= += @= #= $= %= &= *= == -= ;= >= ,= '= )= )= != ~= {= ]= ^= /= (= _= := <= [= }= |= 1= 2= 3= 4= 5= 6= 7= 8= 9= 0= a= b= c= d= e= f= 7= g= h= i= j= k= 4= l= m= n= o= p= q= r= s= t= u= u= v= w= x= y= z= A= B= C= D= E= F= G= H= I= F= J= K= L= M= N= O= P= 5* Q= R= S= T= H= i* U= U= V= W= X= Y= Z= `=  - .- +- @- #- $- %- $- &- *- =- -- ;- >- I* Z* e= ,- != '- )- !- ~- {- ]- ^- /- (- _- :- <- [- }- |- X* 1- 2- 3- 4- 5- 6- 7- 8- 9- 0- a- b- c- d- e- f- g- h- i- j- k- l- m- n- e* o- p- q- r- g* s- t- u- v- w- x- y- z- A- l* o* B- C- D- }- E- F- G- H- I- J- n= K- L- M- N- O- P- Q- R- S- T- ;- U- A= }= V- W- X- Y- Z- V-  = `-  ; .; +; @; #; $; %; &; *; H= *; h* t* =; &; -; ;; >; ,; '; ); !; ~; {; ]; ^; /; (; x- 4* _; :; <; [; <; O= }; |; 1; 2; 3; 4; 5; 6; 7; ",
"8; 9; 0; a; b; c; d; e; f; g; h; i; j; k; l; m;  = n; o; p; q; r; s; s; t; u; d; v; w; x; y; z; x; A; b; B; C; D; E; F; u; G; H; I; d; d; d; J; f; K; L; L; [; M; m; N; l; O; P; Q; R; S; T; U; V; |; W; X; Y; Z; k; `; Z;  > .> +> @> @> #> $> %> &> *> => -> ;> >> ,> '> )> !> ~> {> ]> ^> ^> /> P= 5; (> _> :> <> [> }> |> 1> 2> 3> 4> 5> 6> 7> 8> 9> 5> 6; N= ^> 0> h; a> b> c> h; d> e> f> g> h> i> .> j> ^> k> l> m> n> m> /> ;> o> P; 6* p> q> o> r> s> t> u> i> v> w> x> y> l> /> z> A> B> B> C> C> X; D> E> F> G> H> G> I> 5> J> K> L> M> *> N> O> P> Q> z> R> R> S> T> U> V> W> B= X> Y> Z> `> q;  , ., +, @, #, $, j> %, M; &, *, =, -, ;, H; J; >, b> [; Q; ,, ', ), !, ~, 5* Y; e> {, ], ^, /, Q> (, e; >> O= _, :, <, [, 4* }, H; |, #> 1, 0; 2, ], |, y; 3, 4, 5, 6, 7, $> &> L> 8, 9, 0, a, L> /, b, c, d, &> a, e, d, &> L> f, g, h, i, j, 7; k, l, m, n, o, p, q, r, s, n- t, 4* u, i> ,, l- v, w, x, x, y, 5; N= ;> X; $, M; z, A, B, M> &> C, /> D> D, P; X; W> E, F, G, H, I, J, K, L, M, N, N= O, P, y; {, m; U> U> .> M> Q, f, Q> R, S, T, y; J; v; d; U, @> T, N> ",
"8; V, W, i, X, Y, Z, B> `, d;  ' .' G, S> +' @' #' $' %' &' *' =' k; -' H; ;' >' z; v; +> )> ,' >' '' )' c; E; a; )' i; `, F; !' A; ~' {' ]' )' {' ^' t; ;> O, k> /' (' P; _' q> :' <' [' }' |' 1' C> 2'  > .' F, 3' H, 4' 5' 6' 7' 8' 9' 0' c, 4, 7' ],  > a' b' c' d' e' f' g' 3, 6' h' i' i' ;' j' k' => Z, l' P, m' n' o' p' q' r' J> s' 2' t' 6' M> i' ,' u' @> u' v' w' x' C; y' z' A' Q, Z; l; ], w; |, z; z; O> /, B' C' i' C' 3' V> #, D' q> E' F' G' H' I' l; m> J' K' L' |, E, `; M' m> N' O' s' #, i' P' 2' Q' R' X; S' R' +> ]' @> T' U' x' V' O> x; W> W' X' Y' Y' H, V> Z' `'  ) .) +) S> Z; X' @) G, J> i' R, `, #) $) ], ,' %) y' ~' #> 3, 0' &) *) =) ;' b, -) ;) ;' ,' J; +> i' c' {, &> Q> R, ,' |, >) ,) ') )) !) ~) I> >> {) ]) ^) /) G; ]) () Y, ]) X, _) :) <) [) }) |) C' *) 1) 2) 3) 4) 5) 3, +> 6) 7) %> y; |, 8) d; &) 9) 0) C, a) b) c) d) e) f) g) h) i) j) k) l) m) n) o) p) q) r) s) =) t'  > .' .' t)  > e> k) u) v) w) x) y) x) z) 5* A) i> _, B) C) D) B) o) E) F) G) H) I) V; J) Q> S, K) L) k' k; `;  ' M) N) +> *> ^' +> y) >) J; O' k> O) P) Q) R) ",
"8; S) ^' T) U) V) -> G, 6; Q, W) e> #, X) Y) u, Z) `)  ! &' .! B) P; k' ,' )' {) ;, () +! @! #! 2, $! +! %! &! *! ^' B> c> b> ]) =! -! ;! >! $! ,! '! )! !! a> /) i; i; ~! {! 0, ]! ^! /! (! _! 1' Q> 6) *> M> M> j, L> e' $) ]' 8' :! <! [! }! |! 1! ^' K> 2! s) C' v; 3! 4! U' S, j, 5! /, {, 6) 6! c' 7! 8! 9! 0! a! b! c! d! e! C) f! 6! 6! Q, C' c' ;) g! h! i! W) d, 3, j! O> k! l! l! +> M> C' ], y; a; x' m! n! 0' 1) d; y; x; ;' #) 2, f! o! p! q! r! s! t! I> :> u! v! a' .' [; w! ]* x! y! z! A! N' X, =, !! ]) () B! *! +! C! D! E! F! G! H! I! J! K! L! M! >> N! O! l> U, P! Q! R! S! T! ,) U! V! => m; W! 6' *> f, X! y; ~' Y! Z! `!  ~ .~ +~ @~ #~ P> 2, #> N> N> S, y; b, 3, $~ `, %~ &~ u) C' l> {' *~ =~ -~ ;~ >~ ,~ '~ x, u; )! )~ !~ ~~ Y, ~~ {~ ]~ ^~ /~ (~ _~ :~ <~ [~ }~ @! J! |~ 1~ 2~ `! 3~ 4~ K! $! 5~ 6~ 7~ '! 8~ u; W, '! 9~ ,> 5; 0~ a~ b~ c~ d~ e~ f~ g~ h~ 4' i~ E> x, X; J) ], ;' H; G; ,' 2! ;) C' 2' C' C, j' y) j~ k~ T) l~ m~ n~ B- o~ >* p~ p~ q~ r~ o! s~ t~ u~ v~ w~ x~ y~ => 5! y) 1! z~ A~ B~ C~ D~ 0> -, E~ a> F~ l> x! k> G~ H~ A~ I~ J~ >, K~ ",
"L~ M~ N~ b> C~ N= => S' P= F; 0) ^~ =! #> e; O; O~ P~ Q~ R~ S~ -' T~ U~ Y, V~ W~ ;, b> U, G; W~ x> 0! i, X~ 9~ Y~ Y~ Z~ `~  {  { .{ )~ +{ @{ $! #{ Z~ ${ #! U, ;, K; (, k> L; B> j, %{ &{ *{ ={ => g, {' -{ #! $! !! ;{ >{ G! ,{ >{ '{ ){ 9) !{ ~{ 0) i, |) h; l> I; C; {{ ]{ b; {' ]) ;, u; ]) |) W, >) =) ^{ =) ;, /{ ({ _{ :{ <{ => 8) F; )> [{ 6) 6) [{ L) 6) Q, K> w; d, 1, 7) 0' v' %! ]' (, 0! >) }{ #~ 4~ 4~  ~ B; {' W, g, J! |{ D; 1{ l' k' W> 2{ 3{ 4{ t! Y' W; 5{ >> 6{ S> 7{ V) 5{ J' U, '! 8{ ^) 9{ }~ J! 0{ a{ b{ $! @! c{ d{ e{ f{ g{ 0{ 0{ ]~ h{ i{ j{ f; P, x> /) ~~ K> k{ l{ m{ n{ 1' M) e; 8) e; 2, ]) {' !' a{ o{ p{ d{ q{ r{ s{ r{ t{ d{ u{ v{ {' J! o{ w{ &) g, E; X~ x{ y{ O! z{ k> 0! ^~ b; p{ A{ -, B{ C{ D{ E{ *) P> P> !! F{ g; &) i, c; G{ Z! H{ I{ J{ `! #~ K{ @! Y, *! J! x{ h, L{ M{ N{ +{ -! ,! ;! O{ h, !~ l' !! b; Z! @! *! P{ Q{ R{ S{ T{ 7> C) M' &~ 6' k) x) i; ;, ]) +! 7~ C! O{ G{ U, |) U, ,> ^' U, l> j, U{ m> V{ >> y) y) Y; Q; -' y~ 1; W{ X{ (' Y{ [- Z{ `{  ] .] +] ^' 5! M; y) -, @] }; #] 2; >, ,> U) $] 5{ >> w! w! C~ %] `~ &] m~ ^) ]> ",
"*] V= S, I; ]' a; ~' ]' %! E; ~~ =] -] W, (, ;] >] ,] '] )] !] O; ~] {] ]] {) %~ => C' C> ^] m; f! =) 0; i, g, !' 0; F; (, P, *) K; H; e; '' (, ;, Z, /] J> J> N; 7{ S' V> l; m> j, (] _] :] <] (> Z~ [] u; B! Z~ }] =] |] 1] 2] 4~ 3] 4] I! 5] X~ +~ (~ 8{ T) 6] $! W, 7] 8] '! ]) |) ]) /) #! 9] X, T) f! H, (, >) 0] a] b] c] d] P, B! e] $! +! K! X, f] =, W, () '! =~ g] g] |~ Z! L{ 2~ ~~ $! C! N{ x{ ]~ 2~ I! x{ K! *! h] $! Y~ 2~ #~ p{ -{ C> Y; i] j] k] l] ]* L; m] n] o] p] l; >) {) W~ P> J! g, ^~ ]' &) i, a; F{ q] f; x; %! U' +~ r] A; !' !' &) E; ;{ f; s] ~! O; ;, #! M> t] u] v] w] x] y] l' }] G; G; B! B! [] K! 0) /~ v{ z] 0{ /~ 0{ !~ A] B] c{ t{ C] D] r{ E] |] v{ p{ v{ {' (, f! H, 6) u' C; {~ z] +! F] 3$ G] H] ;, H; C' f, =) i' '> i' =) +> y; %> !> I] c, f' J] F; ], *> *) f; ]' 0' K) V' () W, {' !' c; )' ^' H; Z, C; m! v{ =~ K] L] M] N] i> O] U{ F; G~ P] T, Q] T) V{ J' R] S] T] 7~ U] V] ,> ^> k> W] F~ j> N~ X] Y] Y' Z] Z] }, `] x~ <; Y; O] O=  ^ E, W; .^ +^ @^ #^ 6* $^ b> l; 5; %^ &^ 6> t, *^ 4> @) E> }, '* 9> E> =^ 6> -^ {* Z] y) 1, J; +> ",
"*] V, A; ;^ i, o{ E; 5] Z! )' H; 0! o{ ^' %~ >^ ,^ '^ )^ !^ ~^ 7{ {^ ]^ ^^ W; z{ (, |, /^ 9! e; *> ,' *> (^ Q> H; m; S' m; _^ q] c; :^ <^ 2, 0; {) P> y> O, *) [^ m; i; 8) R, f! B> }^ |^ 1^ 2^ 6; 3^ x, J> => #, f! ;, )' 4^ 5^ +~ U' 6^ u' N> T, @> c, ^' #, N' y) y) ,> h; U, >) 6) h; >, k> ,> >) j, 6) {' 7^ O, 8^ 9^ 0^ a^ B- 8~ Y, Y, @! '! ~~ b^ &! }~ ]~ w{ 9) L{ c^ d^ K{ @~ e^ 8] K! +{ f^ w{ J! A; A' V' +! h] ^) g^ h; M) y) z~ @! H; p) ,, h^ i^ j^ k^ /' n] l^ m^ Z' ;> X; J) f; #> V' A; X! J; n^ *~ o^ O> p^ q^ a; r^ s^ t^ u^ v^ e^ |{ @~ @~ w^ B; ^~ u; x^ y^ 0! f; 8) z^ A^ B^ )] k* ~~ =] 2, ]* /' W; C^ ^> F; X, 0; {' v' +! Y, }) f] Y, +! G{ t{ D^ E^ E^ F^ G^ p{ I! b; 8) t) G, I> t' $) Q> => a> b> H^ I^ J^ K^ L^ n] i; P! f! H, x! 5! M! W, =~ &) =~ [! &) M^ G{ g, A; 0; 2, N^ U' r] y' +~ V' O^ 8] () 0; ]' R, 8) t' *> I; I; M) P^ Q^ R^ S^ ,* Y; ,> h] T^ P] z~ U^ w, >^ 5; x) V^ W^ X^ d> Y^ O= ;> ;> 6; N= E, &, Z^ ^* O= C~ `^ 2; `] H] `] E' B) m) p)  / m) ./ +/ @/ #/ $/ {* 6> T> <> J) e> }, 9> =' G, l; e> &, E, n> E, 2! %/  > &~ Z; &/ */ V>  > ",
"=/ -/ Z, '' 8{ (, 7^ ]) {' G; => H; !' k> m; P; ;/ >/ ,/ '/ )/ W' !/ ~/ Q; Z' ;, B! K; q] (, }] ]' V' 0; ^' Z, {/ ;] B> /' ~! v! C; :^ F{ ;{ o{ -{ g, ;, O, f! ;] ;] ]/ 5{ u; 5{ $, ^/ // (/ _/ Z; &~ k; &~ J) C> J> Z, ]' E; :/ w' L{ `! O^ c; =~ <! =~ !! #! )' g^ )> 6) ,' 8) |, '' J; G~ %~ e; Q> +> E; e^ !! W' </ [/ }/ |/ 1/ j, (, ^' F; #! Y~ 8~ Y~ 0) =~ C; G{ e^ 2/ J{ 2~ #> z; f, 0; +! U] '' |, )' %) C; }{ V' ]' |) G; b> 6) l> 3/ ;> H> u, 4/ 5/ 6/ 7/ 8/ P; /] v! *> ^' K; P! 2, 8] %! i, F{ (, *) '' N^ ~' ~' 1) '' P> &) I! 9/ @~ `! 0/ L{ p{ a/ J! {' 2, $] b/ y> ]] z{ c/ d/ e/ f/ d* e] 0! f, f, (, O, [; O; z{ 0; g, g, '! g; C; v' &) A; &) P> g/ b; 0{ 1{ h/ b; O^ &) b; W, >, l; i/ O; ;, %~ A) (* $, j/ k/ l/ m/ <> m; j> H; M) 6) l> m; M! i, X~ ^~ 4^ g] 2~ |~ 7^ n/ }] ^~ 0) &) ]~ =! o{ b; 0; () &) G~ 6] u; F; M) #, 8~ i, W, /> o/ p/ q/ r/ s/ 1' O] m> Q, >, z, t/ 6> u/ =' v/ w/ '> M) O' c> k> j, N~ K> M; H; x) O) W; `^ x! x/ N= 6* ~* c* f> H] o> T> y/ z/ A/ B/ C/ D/ E/ x~ I, o! w! A~ m> w! F/ 4; 5; ]* 6! G/ => t; #, K> O) ^> O) M; w, k; l; X] ",
"=/ H/ #, 8) j> ^' (, W~ M! i; e; >> i; P! P! ^* I/ J/ K/ L/ M/ N/ 5; O/ P; 5! ^' ;, ]/ b/ Z, 5{ *) u; u; g, X, 6] K; l> l> ;, ;, 0; e; P/ 3/ (, y> H; $] W; L; n] ~] V{ x> Q/ P, B> R/ S/ T/ U/ f! f! x, j' ;' y; (, F{ c; a; C; V/ H! g{ e^ C! w{ _~ M{ a{ g, E; ^~ 4^ W, !' 2, ;{ A; ]' C; i, P> L' :^ :^ o{ J> :' W/ X/ Y/ Z/ `/ Q, ^' Z, e; (, F; Z, Z, u' V' 0; #> I; k! k! *~ y; {,  ( 5! 6! {, Q' .( ,' %! c; x' %! ;{ c; ]' J; C> /] +( C' H, o! @( #( $( %( &( *( /' j, d; g, ;{ !! }] !~ =( V/ V/ a{ q] >) h; H; 5! /^ H; (, g; x{ -( 0/ ]{ h, N{ ;( 0{ i, 0! /^ 2' #, k> B> m; >( ,( '( )( H] ;, J> k' 0; J! ]) {) e] {' 0{ 9) I! 8] b; E; O^ !' 7^ a; !( ~( {( 0' *~ ~' *> ,' ;{ o{ ]) 0! >> W; 0! ;{ G; p] <; >> ]( ^( /( (( N; z{ `, *> +> v; 8) H, 8) ]' C; Y! :/ b; k! `! p^ {' K! {' $! }] ^~ J! a{ i, >) ^> ^' ,> /> `, 5! /' (> /) @! 8{ w! _( :( <( [( }( |( H] k; o! r' 1( 6> o] 2( w, s' 3( g^ f; 1, #! R, ^' d; d; 2, 0; h] M) E, C~ O= M; N= Z] 4( D' 5* 5( 4; s~ L^ @) i> 6( 7( 8( 9( H] D> x, ^> 0( -> B- D' ,* a( r; %] b( V) ]* Y; <; @) y~ O] r; W; c( ^> X{ ",
"=/ d( {, Q, e; #! #! 0! M! f; !' k> @) x, *) W; e( f( g( h( O/ y, i( j( ~* q] |, t; $] y> Z, ;, i; 0! F{ P> !' l> e; F; U, F; *) ;, *) M! +( z{ +( X; ~! c( W; $] M! 3/ W~ y] k( [; l( m( n( o( => =) `, F; 0; }] '' u; !' A; g; ]~ 2~ {~ x{ L{ |{ p( X~ =! {' E; W, W, {' 1) !' i, E; c; =~ ^~ F{ !! {' F{ I; M' q( r( s( t( u( 5* a; )' A; ]' {' !' }] W, T' O^ (, 8) P! d; k! k! a; y; Q> f, R, P! {, {, *> d; P> 1) y; v( 2, !' 8) /' f! H; '' x; Y' w( x( y( z( A( B( 5; L; O, C( o{ !' D( a{ a{ v{ a/ 0{ B; c; (, |, P! v! {) !' k! E( -( ]{ E( v{ G{ e^ a{ 0! F( %~ j, >) P! 8, s] G( H( I( '/ n> 6) V> O; u; J( !! 2, K( A; J! N{ o{ :^ E; N^ $~ S, I; C' L( M> u; ~' 7^ M( +( ^' f; u! M( ;] ;, M( (, ;{ () X; 5; >, N( O( P( ~* `, f! z{ R, Z, >) x! ;] *) K( V~ e^ Q( |{ u^ H{ R( X~ }) #! M( u; X, J! h, x{ i, F; S, 6! l; 2( S( >^ >^ /] W, d, C> T( U( V( W( X( Y( f> 4( <; Z( `(  _ ._ a) ;> 6! :) +_ ]' W^ #! >> f! P, ,> 0; Y, () >> N= Z] Y; l; N= k> |; 4; @_ #_ y~ d- O] >^ a( $_ %_ &_ *_ H] w, :' Y; B~ <; @_ 4; ,* =_ N= J~ K> $] (> L; -_ <> #_ <> 4( ;_ ]* x) >_ ",
"=/ ,_ |) +> `, O! a> U, #! ]' i, x/ ~/ @) Z, (' '_ )_ !_ ~_ 5( c( {_ ]_ <; P! P! Q/ V{ t; O! {/ {/ u; ]) u! u; P, P, ^_ 8{ l~ `, i; i; ;] {/ k> M! C^ {^ ;_ /_ W; L; B> $, y> l> -> (_ __ :_ <_ .> .> P! G; G; 6] [{ )' 0! G; |) O^ _) U' %) T' V' x' %! 6] x! >> T) [_ i; l> (, G~ 0; ;, T^ J; #! J; 0; i, =! t; P; }_ |_ 1_ 2_ 3_ a> l~ l~ l> $, 4_ j; a> 9] Y, ;, H; #, #! W, >! 0) y{ e] Z~ W, Z~ W^ 7] *! &) @! 7^ Y~ 5_ '! y{ B! 6_ B! {/ e; {~ 7_ 8_ 9_ 0_ a_ B> P, b_ c_ [_ #{ #! i; x! a> ]' !! F{ 8] g{ h, o{ Y, d_ o{ {~ h, >{ e_ f_ J{ J! X~ X~ @! Z~ i; ~] >> T) G; 0! s] y> g* g_ h_ i_ (* u; %~ V{ Q/ /) W] k> O, >) U, Z~ !! 7^ d_ .{ .{ Z~ ]) 8~ G; ]) =] -{ j_ .{ k_ l_ l> 4_ L^ -' k> n> m> O, x! W] m_ ]) n_ o_ p_ 7_ }] e; M! f! ^' a> >> y^ P, 8~ i, ^~ 0) 4^ ^~ g; O{ }) *! >> %~ #, a> Y~ >! 8] 0) X, >) V) (* >^ /_ -> `; k> #! `, O) q_ r_ s_ t_ u_ A) i> G, E, J)  ' F> ._ v_ J> J; v' J] N> *> x! ^> V) L; n> B> a> T^ G~ J; Z] G, E, O) ;, n> Y; P; 4( Y' P= &~ [; O/ w_ x_ y_ 1/ z_ &/ A_ o) k; Z; l; G, E> m; #, C, j, ]* c( -' r; B_ B- 4( n> =) M) '> G/ ",
"C_ M~ h; '> Z, $] >> |) h] G~ () N! D_ E_ Z' -^ F_ G_ H_ I_ o* {^ J_ K_ ,* -> l; -> (' n> $, :> -> {/ `^ 5{ l> y> O, k> #! W, F; *) O, [^ C^ @] /' W; {^ 2( 7{ <; <; n> <; L_ [; _; M_ N_ O_ P_ Q_ z/ => => i; >> R_ y) F; >) M) d; )> )> |) S, S_ ,' ;' k> T_ n> ;> n> m> /> O) >) f! k> b> Q, j> j> k> ^~ y{ B> f> E* U_ V_ W_ X_ 3; /> e> ;> r; `; t/ C~ >, j> #, O) 6! [{ Y_ #! 8{ Z_ `_ b^ Y~ l> 0(  { b> j> B! B! l~ F; *!  : .: +: +: N! i;  : @: #: $: %: &: $, ]] W~ J' N! P, O; N; E, j> 6) l> >) +! 9) *: =! y{ A; J! I! =: 9) X~ ~{ }) X, [! }{ W, ^' ^' l> F; h; |) !! l> 0! S= -: ;: >: j* /] [^ /] (> N= Z; l; ,: o! E, f! /) ]) /) B! ${ Q/ J' J' #! K( ': [] $! >! B! T) C~ ): o! k; 9> '* @) 5* ;> 5{ +] 8{ !: ~: {: ]: #! H; 0! l> ^' G~ P, O, a> #! b> +> R_ X, l~ Z, () h] V] C^ N; ;> Q, ;' F; 0; i, N' O; <> (' (' ;> /> U^ x! x! n> D' ^: /: (: _: `] O; }; l> >> 8{ 0> ): _, D> Z; >) -, L) +> 8) M) M) J) X; E, #, 0> z~ () 6) n> P; Z] 0- 6; -' ): P; u/ T> :: D, <: [: }: |: 1: 2: >* N= ,) 1' i/ k; r' }, .> t/ S' S' K> Z] 3: q> '* 5* &~ 2; f! M) y; J; W) ",
"L~ 4: )' #> 6) Z, *> y) 0> 6) ^' O; 5: 6: 7: K^ 8: 9: 0: a: b: $] 4_ 4( 5; m> f! [; N; B> ;> 7{ 5; B> l> 0; !' 0; a; P> ]' g, P> z{ G; Z, /^ l> P! m> `, z{ *) f! z{ ]* 4( L_ [; :: c: d: e: f: g: t/ '' |) $) y; |) v; S, v; $> W^ 7] }{ )' G~ (, h] z~ a> %/ C, ;' i' 6) +> )> w; H; *> M) 8) |, i; e; I; u; /' &( h: i: j: u( F= /> C' J> S' => C> 6' M> '' g; ]' |) $~ 1, 7] !' () ]) a> () ,> `, j, `, #, C' H; k> j, P! f! >> ^> w! $] E, 3^ &, k: l: m: n: o: => /^ {) /) ;> #, z{ L> w; +> N> c; A; m! p: @~ G{ %! #> x; ~' U' |{ |{ Q( Z! #~ A' 1, ,' () P> {' 8] 8] E; ;{ g; F; q: r: s: n{ r- X' k' 8) f! 5! t) U> t: 2( u: Z, `, `, *> '' Z, P, (, B! {) 2, {' E; g; G~ 8) 2' M; 2' e> Q, J> v: !/ Q; [; *> ;, E, w: x: y: z: j, f; () |) 2, h] '' d; a; |) 6) )> d> 1, T^ ^~ @> g, |) ;, [^ /] &> Q) w; |, (, >) m; [; $, C> #, h; 6! 0! Z, E> 6> A: B: C: S^ Y; ^> E~ Y, *! &) y) C~ /' C' >) 0! U, *> 0; !' ~' 8) W> H, C' &> %> @> h] g^ @] {^ -' 1; r; 4; k; P; 9> 5> >* f> D: E: F: G: H: r- 6* Z^ i) C) .> N= I: `; n> /> A~ &/ 6' E, p] J: p! a' ;) 6) 6! w; 8) C' e> ",
"K: d= L: |) w) G/ M: N: O) => O: w, P: Q: ~^ R: S: T: U: V: 5( ;, P, {/ Q, G~ j, m> W; W; ;> 7{ J> E, /) g; C; 4^ I! A; A; :^ c; !( ]' A; f; y> 3/ 6) 1, E; {( L' |, |, $, N/ P! T_ W: X: Y: Z: `: M) w^ T' U' v' Y! {{ :/  < g' 5^ 4~ #~ X~ 4^ 7^ 4^ k! J! c, _) .< u' #~ Q( 3] D; !' A; 0; D( 7] !' ~' c; 3/ '* +< @< #< $< %< ~^ >) ]' |) )' E; E; >! O^ C; (~ C; b; g] O^ Z! m! k! !> $> L) 6! e> C, Q> `, a, i' => >> ;' z, C' e> K> ;, E, F> &~ f* &< *< =< -< M) n^ p^ u; B> O) ;< Y! Q( R( @~ Y! R( >< ,< p: w' 2) %> '< 3, 8' Z! q{ )< !< 3] Z! &) %! )' {' E; |{ Z! O^ B; &) M) ~< {< ]< ^< /< f> X' ,' A; E; g; F; *) Z, ]' &) d, (< _< _< ,' I; {' =~ #> ~' a; :/ %! *> K> S' i' a; a; N^ ^' {/ _^ W; B> *> #, H> :< << [< 3> w, |, o{ A; E; +_ &) A; b; 7] X, 7] [! _) 4^ |~ g] >! k! F{ e; 1) f' I] 5) }< d; ;' z, f! Z, ;' C> >) +> !' F; |< 1< 2< 3< 4< 5< E' 7; u) J> 6' C, ;) ^) K! V~ o{ e^ e^ C; C; 6< 7< N^ |, d; d; %! 8< 4~ o{ g; U, ~] C~ O= 1; r; `; G, 7; w, k; H] r- 9< 0< a< b< c< d< x) e< 1( A~ O: n~ ;> O) Y_ f< O: 2' => g< h< i< j< {, S, $~ k< /> Z^ w, ",
"l< m< [- n< h* C= o< p< o( q< r< s< _/ t< u< v< w< x< y< z< A< B< C< _; {* +, U= D< D< ~^ h> E< F< G< g> w- w, H<  ^ 6> w- {* '* 9> a- a- I< f> g> s~ b- @] w! >^ L^ k; i> x] J< K< L< M< N< O< [- `; 0> ]> U{ A! O: P< b( M; O: Q< Q< R< S< w) C, T< u) n~ X{ n~ M; a> Q] T^ U< j, 2; a- 6; E, V< W< W< Z^ w- X< Y< Z< `<  [ .[ S^ I: A~ F~ `~ J~ c> A~ %] >, A~ 7_ W< b( F~ A! *, P) +[ @[ c- #[ $[ %[ N: X] 7; a- =' T_ &[ *[ a- 6> r~ W< '* A/ t, R= =[ -[ ;[ >[ ,[ */ G/ H; o! w- ]* F; '[ Y, '[ V] T^ )[ ![ ~[ {[ U^ ][ g- ^[ 1< j~ /[ ([ m~ _[ n~ O) :[ c- ][ O] k; a- }, r; ): 1' <[ [[ }[ |[ I' R= i> 2; C~ ^> O= P= ;> -> C^ J~ Z( C) j) j) 3^ &/ #, b( P< ]> x) 1[ X{ 7* U= x~ 2[ 3[ R_ C~ N= -' I< 5* k* C) s~ /< 4[ 5[ 6[ 7[ n< 6> E, ): T_ 8[ Y; '* '* 6> F/ 9[ 9* 0[ a[ b[ ]> c[ d[ e[ w, .> %/ H< &^ F>  _ f[ g[ :: :; t, :: i> @; ): i> 9( R= h[ i[ j[ k[ l[ m[ n[ o[ p[ q[ n[ 6' g^ Z, ,> 1! Q) e> C, r[ -, L) %[ l- 7* >, w/ s[ k) t[ 1( ~* n- u[ n< v[ Q: w[ x[ y[ I) z[ A[ B[ C[ D[ V: E[ @, F[ G[ H[ I[ y- J[ U= K[ n- $; g[ 3> E/ P* L[ M[ N[ [- O[ n- r, P[ Q[ R[ ",
"S[ T[ U[ V[ W[ X[ Y[ Z[ `[  } .} +} @} #} $} %} &} *} =} -} ;} >} ,} '} )} !} ~} {} ]} {} )} ^} /} ~} (} _} :} <} [} }} |} 1} ,} 2} 3} 4} 5} 6} 1} 7} 8} 9} 0} a} ,} b} c} d} e} f} g} h} i} j} k} l} m} n} o} p} q} n} u< r} s} t} u} v} w} x} y} z} A} B} C} D} C} E} F} G} H} <} [} I} [( J} K} a} 3} L} L} M} 6} N} O} P} Q} R} S} T} U} T} V} ={ W} ={ X} 3} 3} Y} U; V} X} Z} `}  | .| +| @| t< #| $| %| &| *| =| r/ r/ W} A} L} W} H} -| ;| L/ w] >| l. ,| '| L/ )| !| ~| 3} {| |' ]| W} ^| /| (| _| u> :| <| [| }| || v< 1| X} p} _| 2| r} 3| 0} 4| 5| 3| n{ 6| 7| ,} ,} 8| 9| '} 0| a| b| c| d| e| [} 2| ^| p} f| g| 9} M} h| i| P_ L} z} A} *| j| #| k| l| m| n| o| U; Z> I} p| q| W} r| s| q} t| 4} [( 9} u| q| K} v| w| x| y| c} e| l} z| A| B| b} 7} C| z| _} J} &' K} D| [} E| 0} A| e| F| 8| G| 3} n{ f/ H| I| J| K| f} '} '} 1} {} c} L| M| N| O| P| Q| R| W( S| T| U| V| W| X| Y| Z| `| $|  1 .1 +1 @1 #1 $1 ]| %1 &1 K} [} A} i| s} *1 =1 -1 ;1 >1 1} ,1 '1 )1 '1 N| !1 !1 ~1 {1 ]1 ^1 /1 (1 _1 :1 <1 [1 }1 |1 11 21 31 41 51 61 71 81 91 01 a1 b1 c1 d1 e1 f1 g1 h1 i1 ",
"w  j1 k1 l1 m1 n1 o1 p1 q1 r1 s1 t1 u1 v1 w1 x1 y1 z1 A1 B1 C1 D1 E1 F1 G1 H1 I1 J1 K1 L1 M1 N1 O1 P1 Q1 R1 S1 S1 T1 U1 V1 W1 X1 Y1 Z1 `1  2 .2 +2 @2 #2 $2 %2 &2 *2 =2 -2 ;2 ;2 >2 ,2 '2 )2 !2 ~2 {2 ]2 ^2 /2 (2 _2 :2 <2 [2 }2 |2 12 22 32 42 52 62 72 82 92 02 a2 b2 c2 d2 e2 f2 g2 h2 i2 j2 k2 l2 m2 n2 o2 p2 q2 r2 s2 t2 u2 v2 w2 x2 y2 z2 A2 B2 C2 D2 E2 F2 G2 H2 I2 J2 K2 L2 M2 N2 O2 P2 Q2 R2 S2 T2 U2 V2 W2 X2 O2 Y2 Z2 `2  3 .3 /1 +3 @3 #3 $3 %3 &3 *3 =3 -3 ;3 >3 ,3 '3 )3 !3 ~3 {3 E2 ]3 ^3 /3 (3 _3 :3 <3 [3 }3 1  |3 5  13 23 33 43 53 63 73 83 93 03 a3 b3 c3 d3 e3 f3 43 g3 h3 i3 ,  j3 k3 l3 m3 n3 o3 p3 %2 q3 r3 r3 s3 t3 u3 v3 w3 x3 y3 z3 w3 A3 B3 C3 D3 E3 F3 G3 H3 I3 J3 #} K3 L3 M3 N3 O3 P3 v3 Q3 R3 S3 T3 U3 V3 W3 X3 Y3 Y3 Z3 `3  4 .4 +4 @4 #4 $4 %4 &4 *4 =4 -4 ;4 >4 ,4 '4 )4 !4 ~4 {4 ]4 ]4 ^4 /4 (4 _4 :4 <4 [4 }4 |4 14 24 34 44 54 64 74 84 94 04 a4 b4 c4 d4 e4 f4 g4 :3 h4 i4 j4 k4 l4 m4 n4 o4 p4 q4 r4 s4 t4 u4 v4 %  w4 x4 y4 z4 A4 B4 C4 D4 E4 F4 G4 H4 I4 J4 K4 L4 M4 N4 O4 P4 72 Q4 R4 S4 R4 T4 U4 V4 W4 X4 Y4 Z4 `4  5 .5 +5 @5 #5 $5 t( %5 &5 ",
"<  *5 =5 -5 ;5 >5 ,5 '5 )5 !5 ~5 {5 ]5 ^5 /5 (5 _5 :5 <5 [5 }5 |5 15 25 l{ 35 45 55 65 75 85 55 55 95 05 a5 b5 b5 c5 d5 e5 f5 g5 h5 i5 j5 k5 l5 m5 n5 o5 p5 q5 r5 s5 t5 u5 v5 w5 5[ x5 y5 z5 A5 B5 C5 D5 E5 F5 G5 H5 I5 J5 K5 75 L5 M5 )_ N5 O5 P5 Q5 R5 S5 T5 U5 V5 W5 X5 Y5 Z5 `5  6 .6 +6 @6 #6 .6 $6 %6 &6 *6 =6 -6 ;6 >6 ,6 '6 )6 !6 ~6 {6 ]6 ^6 ^6 /6 (6 _6 :6 <6 [6 }6 |6 16 26 36 46 56 66 76 Z@ 86 96 06 a6 b6 c6 d6 e6 f6 W. g6 h6 i6 Y. j6 k6 l6 m6 n6 o6 p6 k+ q6 r6 s6 K@ t6 u6 v6 w6 x6 y6 z6 A6 B6 C6 D6 E6 F6 G6 H6 I6 J6 K6 L6 M6 N6 O6 P6 Q6 :5 R6 S6 T6 U6 W5 V6 U6 W6 X6 Y6 Z6 `6  7 .7 +7 @7 #7 $7 %7 &7 *7 =7 -7 ;7 >7 ,7 '7 v6 )7 -7 !7 ~7 {7 ]7 ^7 /7 (7 _7 :7 <7 [7 }7 |7 17 =7 27 /6 37 47 57 67 77 87 97 07 a7 b7 c7 d7 e7 f7 g7 h7 i7 j7 k7 l7 m7 n7 o7 p7 q7 r7 s7 t7 u7 v7 w7 x7 y7 z7 A7 B7 z7 C7 D7 E7 F7 G7 H7 I7 J7 K7 L7 M7 N7 L7 Z@ O7 P7 Q7 R7 S7 Y$ T7 U7 V7 W7 X7 Y7 Z7 `7  8 .8 +8 @8 #8 $8 %8 &8 *8 !6 =8 -8 O5 ;8 $: >8 ,8 '8 )8 !8 ~8 Q5 {8 ]8 ^8 /8 ]8 (8 _8 :8 <8 [8 }8 |8 18 28 38 48 58 68 78 88 98 08 a8 b8 c8 d8 e8 f8 g8 h8 i8 j8 k8 l8 ",
"m8 n8 o8 p8 q8 r8 l( s8 s8 t8 u8 v8 w8 d% x8 y8 z8 A8 B8 C8 D8 E8 F8 G8 H8 I8 J8 K8 <& L8 M8 N8 G# O8 P8 Q8 R8 S8 T8 U8 V8 W8 X8 Y8 Z8 `8  9 .9 +9 @9 #9 $9 %9 G& `% &9 *9 =9 -9 ;9 >9 T7 ,9 '9 )9 !9 ~9 {9 ]9 ^9 /9 (9 _9 :9 <9 [9 }9 _9 |9 19 19 29 39 49 59 69 79 0& 89 99 09 a9 b9 c9 d9 e9 f9 g9 h9 i9 j9 k9 l9 m9 n9 o9 p9 q9 r9 i: N% s9 t9 u9 v9 w9 Z{ x9 y9 w9 z9 A9 B9 C9 C9 D9 E9 F9 G9 H9 I9 J9 K9 d9 L9 M9 N9 O9 P9 S$ T$ Q9 R9 S9 T9 U9 V9 W9 X9 Y9 Z9 `9  0 .0 +0 @0 #0 $0 i5 %0 &0 *0 =0 -0 ;0 >0 ,0 '0 )0 !0 ~0 {0 ]0 ^0 /0 (0 _0 :0 <0 [0 }0 |0 10 20 30 40 50 60 70 80 90 00 a0 b0 c0 d0 e0 f0 g0 h0 i0 e9 j0 k0 /! l0 m0 O9 n0 o0 p0 q0 r0 ^0 s0 K& t0 u0 w$ v0 w0 x0 y0 a] z0 A0 B0 C0 C0 D0 #< E0 F0 G0 H0 I0 J0 K0 O$ L0 M0 N0 O0 P0 Q0 R0 S0 T0 U0 V0 W0 X0 Y0 Z0 ,( `0  a .a +a .) @a #a 10 $a %a &a *a ,9 =a -a ;a >a ,a 'a )a !a ~a {a ]a ^a /a (a _a :a <a [a }a |a 1a 2a 3a 4a 5a 6a 7a 8a 3a 9a 0a aa ba ca da %9 ea ]& L8 fa ga ha ia ja ka la ma na oa pa qa ra sa ta ua va wa xa ya za Aa oa Ba Ca Da Ea Fa Ga Ha Ia Ja Ka La Ma Na Oa Pa Qa Ra Sa Ta Ua ",
"Va Wa L= I[ :; 4; j* k* ,* k* D' I: O] w- n> N= }, p> Xa R: )/ o- S= q- Ya Za K< I= `a  b .b +b e! C* @b E< #b $b %b Q- &b o_ *b o, =b o* g* H= -b ;b >b ,b 'b 8^ T= ~^ .! T= w[ )b +, B= !b t* Xa $b ~b *; 3> i* *; =; Xa }- {b ]b P* O* ^b /b (b _b :b <b b$ [b }b O< != |b 1b 2b [= 3b Ua 4b 5b 6b 7b 8b 9b Z* 0b 3- ab bb %- cb db w= eb fb eb gb hb ib jb c/ kb lb lb J* U* mb K* nb ob pb qb rb sb tb ub vb wb xb yb zb Ab Bb _= Cb Db Eb Fb Gb Hb Ib Jb Kb b= Lb Mb Nb g= Ob O< V= Pb Qb Rb Sb Tb Ub Vb Wb Xb Yb Zb `b  c .c +c @c #c $c 3- %c &c &c B= !; z= jb gb *c =c 'b -c ;c >c ,c 'c )c !c ~c {c ]c t] ^c u= /c (c _c ]c 0b xb :c <c [c }c |c 1c 2c 3c 4c 5c 6c 7c 8c 9c 0c ~c ac bc cc dc ec Y- fc gc w= J= {b y= hc S{ T| ic jc kc @b lc mc nc fb oc pc qc rc <_ sc tc uc vc /= s& wc xc yc zc Ac Bc Cc Dc Ec Fc Gc Hc h* =b |- Ic Jc pc q; s~ ,, H[ Kc .! S~ D< D: x- u[ Lc G< Mc K[ Nc }- Oc Pc (b Qc Oc G= Rc Sc Tc Uc Vc gb Wc q' F= h> d* 6> ^; s, u[ ~* Y' 6> X] J> K> v/ j, }, d* 6> E, w, 8> s) &/ Z; $[ T_ I< D' 6> 2[ o> q( ~* W< A~ F/ Xc Yc Zc `c p< q> G, `, ",
" d .d <; ~! [; T) l> O) >) G; G; |) 8{ U< +! f] )' a> M; G, P= @] ;> N= U) U) ^> 6; q> -^ ,* 6; n> [; Z; [; T~ '* 8> +d @d pb #d 9( '* m> f! Z; 9> }, t[ N~ M; M; O) N~ 3^ z, z, G~ O' z, P= /> N= N= #, (, '> C, C' k> /> z, U^ t/ l; i' ;' >) z{ o) $d %d &d *d %b D: *^ !/ Z; &/ w, `; ): '* ): 9> ;> 6; 6> G, I< .> n> n> &/ N~ Q, 8) i' Q, i' K> N= k' 2( P; `] 4> Q; 5; m> j> $, >* =d -d ;d >d S> G, ^> j, ;> -' #, C> >, m> /' /> &/ &/ #, /> O) %^ L) K> ;> X; ): Y' o) )* !/ q> P; 5* Y; k; <> 3: <> Q; A( E{ Mc ,d S7 'd 8} q; =' P= x, w, P= /> #, v: B( l; K> #, #, >) M) >, j, /> D> Y' r' Y] m> O) t/ l; 7{ Y] }, r' Y' Z; Z] E> )d B> H] !d ~d {d ]d ^d Mc @) ,* ;> @) o! x, m> `, M; M; E, N= E, M; P= M; t[ l; o! =' 4> @) |) =, M) N= 9> v: B) 6; P= x, A( I> `] i( M/ g> S= /d (d _d t! f> N! Z; W> >, 6! C> f! *) `, f! #, >, m> f, ,' 0' w; C' m> /> 6; w, f! >> O) O) E, W; #, U^ ;> 5; ,: )* Y' 2( :d <d [d }d |d 1d B) P: 2d 5; => R, #> () 6) H; 1, ]' #> u' x'  ~ z' T' d; ;, 6) '> W, g; T, )' |) R, 8) ;, Z, +> J; d; j, (, o{ i, J; 3d 4d 5d 6d k^ 5; O! f; ",
"l< 7d n> z{ >> N' k> l> G~ /) 0! G~ X, R] M^ }) f] X, >, #, O) ^> m> F~ 6] j> ^' #, l; '* Y' 3^ >, C' s) J> {/ l; =' 8d 9d 0d b< Mc X; G~ #! $, ;> O) '> '> h; G~ G~ [{ g^ ad g^ i, 7] '> z, O: ,> ^' a> }{ g; =, =, +> 6) 6! >, => O, Z, 0; J; >) U> v[ bd b$ cd dd 8> J) V> `, h; V] j, /> E, O) R_ V] y) %^ C> e> L) h; J; y) d> -, () |) J; ,' ,> '> R, P! /' J> P= E, H; #! h] j, ed fd gd hd id J: e> W^ ,> >> j, 0> 6) >, >> >> '> y) 6! [{ z~ 1! [{ J] g^ U{ ,> ,> j> N~ X; '* /' V) U) N= ;> /' k> >> E, J> r' ~* 'c i5 jd kd d* n> ^> j, ^' Z, ,> ;' H; `, ^' g^ 1! )> g^ T, g^ ^' z, u) Q, C> f! (, h] +> 0> #, #, N~ O) k> j, &, e> f, {/ k* ld }( md K+ ^d x~ Z' -' j, h' 3^ K> M) J; h; '> '> y) G~ J; R_ U{ y) k> #, O) C' >) =~ k! #> O' z, O, f! s' [{ ], J) J) a- p] i( j( H= nd od pd 7/ f> x> m> V> C' >, m; f! e; i; `, 8) G~ #! |) k! y' $~ J; 6) 6! j, >) j> ^' >) H; ,> i; >, ^> 5; Y; Z' Y' w, n> qd D, rd sd td 7[ 7: Q; ud l; M) y; +_ 8] )' |) k! E; V' 8] m!  ~ vd z' W, !' W, g; &) v' y' C; 7] 0; G; 3/ Z, 7] #> P> a; C; /~ i, O' wd xd yd pd D< }, T) y> ",
"L~ zd @] Q, j, F; ^' G; i, !' ]) #! X, [! f] >! (~ '! 6! l> H; >) U, 8{ () G~ h] |) j, ]* l; >) F; 6) Q> C' b> X; i> Ad Bd Cd Dd x~ ]* 8{ #! m> V) G; W^ 8] }{ %! k! +_ +_ Ed 4^ X~ {{ $~ ^' J; |) V] h] 4^ 8] g] :! =~ () () l> P! >) '' {' () ^' H, Fd Gd Hd Id Jd E> L) y) u; ^~ k! '' y) 8) ^' )' g; _) 1! ], ^' '> $~ _) =~ T, =, 7] }{ )' () W, 7] )' +> j, ^' h; ^' )' +! =~ !! F/ Kd Ld hd Md u, Q, 7] ^' ;, ^' '> '' >) T) ^' 1, A' J] @> )> !> A' 9' 4^ _) }{ $~ )' h] d; >) (, U, ]) F; b> >> U, |) ;, C> 6; P; Nd Od Pd Qd p~ m; z{ k> 6) 5{ f, 1) W, T^ g; %! Rd p( X~ `! {{ 1, 1, 6) C' f! B> `, U, )> ad |) J; )' ]' P> !' h; C' L> j> `; Q; S~ Sd Td Ud Vd O, N= M) Q, /> Z, )' g; W, 7] X, K) _) !> G/ >) 6) >> `, 6) |) 7] O^ 1, #> ad )> ^' '' $~ 7' ,' >) z, N~ (' u/ Wd (b Yc Xd Yd S^ &( M! [; Z' C> Q, =) `, => k> #, >> H; !' X~ #~ `! 8] g^ F; >) ^' *> a> U, h; (, '' k> j, >> y, /' j, => n> 5; P; C) gc Zd -. `d Wd ~* Y' $] ;, |) _) a; !' E; _) e^ C; C; E( 0/ 4] 3] A; K! =~ (~ #~ :/ G{ C; T, g^ `, 3/ I; 1, () Z, A; 0) J( I; M> y-  e .e +e D< C) P! 3/ ",
"l< @e U^ K> z{ z{ 0; i, f] W, G~ 0; U, +! ]' >! g] !' y) () F; ]' (, W, g; J! }{ T, |) B> L; i; |, )' M) K; 0! t/ 9> ^c #e !. $e H] `^ B! ]) ^' C~ ,> 0) X~ X~ G{ m! #~ 5^ (~ 5] w' %e _) 6) |) '> g^ E; >! g] #~ H{ J! ]) G; ^' ;, U, i, o{ A; Z, S' P: &e *e =e -e E, '> f] ;e *: Q( o{ g; '' |) &) 2~ >e .~ &) c; K! v' #~ G{ O^ +! =~ 8] ^~ =~ =~ v' %! @> g^ }] 7] =~ g; C; J! M! 4; ,e 'e (: A[ )e C> G; ;, K; 0! 7] i, () 8{ '' O^ +~ Rd k! a; +~ :/ x' p( I{ 2~ =~ ^~ &) O^ x{ k! ^~ }] g, =~ Y, W, +! 6] H; m> '* !; !e ~e [} k* =) i; {/ 0; 0! e; (, K! {e b; {~ `! 4~  ~ ]e 1~ <! }{ H; Z, u; 0! Z, 7^ E; k! V' P> E; C; ^~ i, Z, k' H; a> r; A) ^e /e (e _e k; 6] 0( J; M) j, 0; v' y' C; k! g, m! #~ :e )> *) () () R, =, }{ 0) O^ %! x' 4, %! {' g; v' &) v; I; Y_ O' <e ;_ 9> L= [e }e |e I' ld O! -> qd => #, =) j, f! /' O, #, 0! !' >! b; 8] G{ )' l> ;, G~ W, *! U, () ^' (, P! i; 0! `, B> #, >> [; W; [; l; 1e 2e 3e >d {* 6* `; ]* *) W, C; !' f; i, k! [! J! g, I! 4e 3]  ~ g, !' ^~ }~ `! `! H! x{ x' J; `, ;, |) S, e; y> #! +! -{ 3/ C> 5e 6e 7e 8e E/ Z] H; )' ",
"=/ 9e /> j, z{ l> (, ]' @> |) (, e; #! Y, %! >! J! (, g^ g^ g^ (, K; () ^~ :^ E; @> [{ 8) i; {) 0e ]' f! ae *> &~ 5* be ce de n, x- l> .{ G; >> $, N' ^~ I! Q( b; |{ I! Q( X~ *~ w' 5^ v' 0; u; ]' =~ G{ 2~ 4~ G! 2~ C; o{ I; '' i; T) /~ |{ J! G; z{ p] ee R! fe P: C~ }] 8] 0{ d{ g{ o{ g; A; 8] g] -( 4e p: b; /~ e^ @~ m! :^ :^ K! ^~ E; >! 4^ J! 4^ &) E; C; E; 4^ v' g, Y, *~ ;, 5; ge he ie je +< H, /) B! i; f; T^ *! }] X, g; V' U' X~ |{ ke le vd me `! I{ 2~ b; p^ R( ne -( 2~ /~ $! a{ |{ i, a{ J! 8{ f; %~ @) jb oe pe R~ qe *) R, #! '' #! !' }] K! 0) C! V~ H! re se te K{ 5^ =~ 2, W, }] [] k( }] p^ Y! :^ v( :^ e^ 2~ 4^ W~ N; $) +! ;> &( ue ve we xe x, F; b> ]' '> M; e] 2~ 9/ 2~ y' B; b; Q( H{ 7' |, |, () 0; 4^ >! 8] J! )' O^ ye %! J! X~ #~ Y! T' u' @> 6) $] N; m> u[ ze -% Ae Be ld [^ -' z_ &~ j, 7{ ]* O, m> f! E, ;, W, &) :^ g, 8] W, 8{ >! X~ a; Y, () (, P! ;, #! l> O! O! f! H; h; O, (' c( >^ gc Ce De Ee 5> F/ ;> j, 0; C; Y! ^~ }] ]) ^~ }{ g, E; U' u{ ne #~ C; 7^ ]) ^~ y' J{ ]e |~ E; F; (, M! F; F; 0! 0! d; g, -{ e; J> K= Fe Ge He *; P= ;, ]) ",
"=/ Ie `, >) %~ a> |) '' ]) F; *) f; |) 8{ W^ v' E; e] G; !' )' '' 3/ f; W, o{ V' u' ,' f! *> I; Y, ]' f! %~ >) D> u/ Je Ke Le %1 H] O! B! G; >> B> f! W, #~ #~ b; J! I! #~ =! B; 3] `! m! I; W~ F{ J! e^ 2~ Q( g] ]~ &) b; i, #! m> G; 0) w{ N{ U, B> q> Me Ne Oe Pe ,' {' =! w{ C] g{ ]~ g; &) &) O{ =: A{ R( v^ 6< R( B; G{ b; ]~ {~ }] g, o{ +! ^~ X~ %! &) G{ g, !' &) F{ ]' ]' J; Qe Re Se Te _/ &( %~ !' ~' *> G; 0; |, () =, )' Y! @~ U' O^ Z! Ue Ve u^ G{ I{ H{ O^ We E(  ~ x{ e^ K! 7^ V~ V~ e^ w^ J! 5_ 2, N; i/ Xe U0 Ye D| j( Ze P! d; ]' ;{ p^ E; +! ^~ ^~ J( -( >e `e h/ v^ &) V' ;{ J! p^ }] [] $! g, G{ b; C! e^ C; B; 8] *) B( R, U, @) *( S~  f .f 21 9> (, [_ u; >> m; ]) m! Q( O^ m! 2~ o{ e^ v' #> x; F; *! i, =! X~ Y! N^ A; N^ 8] ^~ 2~ Z! T, m! =~ %! N> C' B> m; /' T{ +f @f #f $f L_ L; n] v: S' /> O; L^ 2( => P! #, `, 0! &) G{ x{ =~ Y, 8{ U] ]~ W, P> (, F; H; Z, %f H; 4_ f! j, i; N' m> s; o~ A) &f *f =f -f o> 6; l; /' |, :^ O^ k! 2, ;, A; C; ;^ E; 2~ g] G{ G{ p^ !' i, b; w{ h, /~ '! D( )' l> O, 0! !! !! 0; 0; K( J( ]' M; [- ;f >f ,f P* Z; =) f; ",
"=/ 9e k> H; %~ >) '> O! /) F; #! |) 7] *! ^~ (~ W, f; a> 0! ;, J; !' 3/ #! E; g; @> H; m; #, Z, (, P> H; O, >) r' i( 'f )f !f g| p~ {/ Z, Z, z{ n> k' ;, 0) >! E; 0) 0) [! &) G{ `! C; O^ #> P> J; Y, i, ]~ 2~ `! b; V~ i, ]' u; t; W~ h] C! ^~ F; H, 4> ~f w% {f :: y; C; ;e J! ;! E( ]~ g; a; g; o{ 2~ A{ G! m! m! +~ C; &) &) A; ]' ;{ /~ w{ 8] Z! g] 8] c; {' ^~ D( @> '' ]' Z, #! e[ ]f ^f /f (f o) P! #! P> #! z! @> ]' g; !> O^ Z! 4~ w' m! U' Q( +~ s^ Y! U' H{ y' F{ b; |{ e^ G{ ^~ 7^ E; _f D( B; {' u; ;, m; u/ Xe :f <f K} [f ~! =) () ]' 0; c; ^~ {' f; }] =! :/ #~ >{ 4~ D; P> 2, ;{ ^~ o{ ^~ !' 2, {' ^~ b; Y! g, !! k( =! *> Z' =) 0( <> }f |f 1f 2f 3f 9> H; O! F; O, M; [! G{ O^ !' E; T' i, V' }{ g; g; W^ =~ &) {' &) A; ~' c; A; G{ E; A; @> d; :^ C; _) y; =) /' ;_ 2( ~^ 4f 5f 6f z( ,: $, ;_ A) L^ O; z{ X; k' => ;> O, `, #! &) O^ E; !' H; O! () ]) 0! 0! /) h; j, k> j> P! O; f! j, /] ;> 5; :> <; 7f :b 8f 9f 0f P: P; 7{ N; G; ^~ J! g, 3/ {) i, J! C; 2~ G{ v{ @~ 5] !' 7^ g, g, o{ b; a{ '! F{ (, ;, f; G; 3/ M( i; G; i, x{ 0) #, 9- af bf 91 (( 5; i; {' ",
"=/ 7d l; m; /' >) ^' O! ^' *! 8{ h] f] =~ i, =~ X, u; O, t; [^ Z, g^ F; B! (, '' F; O, X; #, *> |) y; 8) k> l> v: Q; cf df ef ff h> n> b> d; m; `; => 0! h] i, i, T^ !' W, g^ 8] I! Y! }{ '' *> ^' #! !! {' Y! Q( E; P> '' #> l> t; x> W, =( K! F; Z; 7f gf hf if Mc w; J! !' Y, K! C; V' 1, d; ]' K! 8] jf #~ X~ H{ p( V' |) '' /] i; ;< |) 0) }{ 4^ 0) |) !( f; G~ !' g; J; Q, i; F; P= kf lf mf U/ Y] f! ]) 1) y; h] T, '' 1, ad T, v' X~ J{ I{ v' Y! u' a; c; O> 8' A' We nf |{ r] u' %! X, {' W, () A; u; >> Z, X; u/ of J0 pf qf }f $] C> R, ]' #> ]' g; ]' 0; P> 0; 0; N^ {{ m! :/ rf I; *~ |{ b; :^ P/ y> f; ]' %! sf F{ u; 2, Y, >, W> /^ tf -^ ue uf 2$ vf wf M' `, H; |) m> f! )' ~' A; ]' #> $~ 7] 0; ]' xf yf K! 0) }{ g; %! N^ a; O^ D; Z! ]~ P> d; H; (, A; ]' e; X; l; !/ X' w[ zf Af Bf 2: n> `^ ;_ u/ 5; P; N; /' O; O) /> => ;, F; !' ]' 0; G; m; ~! !' f; W~ G; ;, z{ ;> /' X; P! /_ /_ [; 7{ qd >^ W; 5; R> Cf A9 Df Ef q( Ff @) P! () 8] &) i, {' c; !' !' &) w{ ]~ 0{ g] ]~ W, ]) !! f; F{ Y! O^ 0) W, ^' #! a> (, l> {/ K; l> E; I! k! ,> @, Gf Hf If X( P; M! K( ",
"8; Jf B> M; `^ U, 8~ ,> G~ Y, #! ^) 7] 0) i, ^~ yf /) /] O, B> >> U, h; !! /) Z, Z, `, M; C^ O, >) Q> O, j, (, Z; o! Kf Lf Mf 6} ue k; `, j, /' Y; O) ^' 0; (, U, '> 0> +> h] g; 4^ {{ @> `, O, B> l> B! W, V' V' sf a; 3, A; Z, >> U, }{ &) #! H; x, S> Nf Of Pf P: w; &) ]' I; =] |) A; 6) >) ], W, %! y' C; +! +_ =~ 1) 6) >) => {) (, F; #> 1, () '' ,' *) >) l> 0; G~ ^' X; Z' #, [; |b M& Qf Rf r' Q, () f, S_ |) +> e; F; '> %! 0) E; w{ p( jf g] O^ #> ,' C, $> ]' '' n! m! V' S, |) h; Y, '> g^ S, 0! k> `, Z' u/ fc Sf Tf 5} P: /] H, 5! 6) g^ #> a; a; I; Z, e; 6) ]' A' :/ 6^ Uf ]' a; Y! ]~ {' L! 0! P! l> '> ]' (, ,' d; (, `, Vf Wf k> Q; Wd K^ Xf Yf 6f p! C> k> d; H; N= *) '' S, ,' 6) 6) S, f, u; %) <! i, 8{ V' $> ,' (, y; E; E; 4^ 0) '' =) W> `, '' Z, i; >) E, 2( '* g: Zf `f Ae |( @) j;  g E_ v: Z; X; 7{ L^ P= E, W; [^ `, J; 2, f; M) /' B> () Y, [] 8{ () >> C> y, 7{ m; qd ,: N; !/ o~ !/ (' <; Q; .g T& +g @g <d Ff W; f; u; }] !! {' i, !' 0; P> :^ g, =( 2~ Z! (~ h] M! %~ y> I; +! E; E; F; 0! 8{ #! P, {/ i; P! e; !' =! {' *> #g $g %g &g |( 4( b> {' ",
"8; *g `^ >> N! x! G; G; !' ~~ W, 7] *! }] )' i, T^ #! (, >) b> a> () h] A; G~ (, `, E, /' @) (' >) C' /] M; l> 6; 5* Nd C$ O} =g -g o~ [; ^> {/ f! #, >> f! i; u! l> l~ F; =, 7] K! g; !' k> m> /' 8) !' V' m! k! ~' V' 8' u' d; >) 7] }{ ]' y> k' ;g 4> >g ,g 'g H] r) X! (^ y> H; M) ], #) M> {, N> <! `! e^ k! %) u' c; A; 0; J; |, ,' +> v; N> !' 6) y; `, j, => *> Z, *) W> W> i; X; Pb 2$ )g U/ => H; `, L> v; v; ^' *) J; g^ x' a; ]' &) <! p( y' &) d; *> j, ], '' e^  ~ Q( |) V' )> 7] 0; !! y; `, H; O, 5; R> A) 1b !g ~g {g p~ z{ t) 5! H; H; 9! #> 1! v; (, 3/ g; 8' 8' :/ ]g ^g N> :^ A; A; () L' /g Z, |, ,' d; R, d; F; 8) f! t) z; B> u/ =' T{ (g _g :g #, 1) j, 6) ^' f! m; `, '' 6) d; *> *> 8) A; <! :/ K) c, v; _< 6) Z, P> W, g, %! }{ (, m; J> 6) |) d; `, M; f! 2( >^ o> <g [g }g |g n] T~ o~ 1g !/ ;> H, k' m; m> O) z{ N/ *> 1, #! Z, 8) => i; f; e; t; /) *> *) f! N; Z' J) O; ;g X; Y; @) @) (' Z; x, 2g 3g 4g (| E_ u/ m> |) !' K( {) !' 0! i; !! o{ D( B; @~ I! 8] (~ 9] ]] ~! >> g; 8] ;{ G; l> ;, () U, l> M! 5g $, *) !! Y~ F{ 0e 6g 7g 8g 9g 0g /' l> @! ",
"C_ ag O! K> ]* C~ 5{ !! A; V~ p^ 8] 9{ g, J; M) ,> ^' {' F; l~ W^ 0) 0) A; ,' l> V) `, f! 8, B> Q, C' C' ^> m> @) +< vc L0 bg g| d* (' W; k> ^> 6] >) l> >> i; ;, 0! () E; w{ $~ ;, 0; W, J; ;' *> I; 1) *~ Y! |{ D; *~ u' g; #> F; y) ^' i; m; l; 8/ Vd cg dg eg fg 3' L> f, /' m> l> Z, i' 2' f, c; %e ]{ gg m! A' U' 5] ;( o{ J! f; f, I; |, ,' *> |, R, H; C' R, *> 8) 8) L> j, (, O) k= hg ;[ t! 5{ 5! t) z; 1) 1) 0; e; A; 8] Z! V' g; =~ +_ _) @> ]' () h; >) c' P> L{ te 8] 8) )' _) %! '' H; Z, f, ,> f! q> q( )* ig jg kg 5| 3: k' C' k> H; (, !( !' h] #> ]' P> k! 5^ p: +~ p( g^ ]' /g !' 1) |) *~ lg d_ u; (, Z, e; ^' >) O, k' q] j_ %~ z_ k> X_ mg ng og pg 5] Q' #, K! Z, W> H; )' h] %! 7] f; |, %) 3] m! N> b, ;) a, ,' (, G; '' a; %! @> R, f! M) Z, |, ,' 8) => z{ 7{ ~! o> qg rg sg Vd y] =_ 3: :' L_ l; `, {/ G; '' !' 2, 9! I; i, Y, 0; *> z; (, B> 5; L_ [^ Z, (, P! /' J> #, N; N; f! [; 7{ Z' /' m; O, V* tg ug vg Y{ qd /' 0; P> 2, v! *) => J> () 8{ wg b; `! s^ A; b; xg e] K; >) +! C! 7^ C' M; t; l> b> l> `^ W; n> R, '' l~ H; yg zg Ag Bg Cg R= #, ^' 0; ",
"Dg Eg B> X; Z' S' 8) (^ z; P> *~ k! E; |) ,' ;) ,> 0; A; >) ,> ,> #! ]) '' x; >> m> f! z{ => X; /' i; h; g^ X; R> ~) Fg Gg Hg Ig f~ `; k'  ' K> `^ J; y; ;' w; 3, a; O^ T' x' 3, R, ^' ]' '' d; M) f; G; &) >! >! W, #! g; 0) h] G; `, C> `, J> f! ;> P: J- Jg Kg Lg Y' i' S_ #! W, @! g, =! &) 9{ H! Mg Ng >{ 4^ z~ !> 1, y; j, K> 0! F; #> 0; '' I; L' H; d; d; y; S, )> %> 6) d; C, .> Og Pg Qg %| C> Rg s) u; Y, W, K! D( 2~ 9) x{ s^ s^ Q( 8< 5^ O^ O^ =! G; /> x, Z, 0{ w{ ^' J) d; h] ^' ^' G~ >) J) C> l; Vd Sg E{ Xb Tg Ug <} >* {/ F; #! )~ ]) }] ;e +{ Z~ i, O^ (~ G! Q( I! (~ W^ '! J! /~ {' J! |] /~ .{ Y~ Y~ ]) !! (, j> z{ ;> 2, Vg /_ <d L; Wg Xg Yg og *, |{ H, 5{ E] v{ Q> () h] Z~ f] m~ i; M! =~ X~ X~ V' 0' M> Zg 1) c; ]) a; T' n! u' I; {, Q, `, *> 6! C' f, J> l; 5; D< `g  h .h *_ O, +h [f u/ ;_ j> a> {/ B! 8{ 5_ Y, e; e; u; }] W, () !' 7^ O, 5; L_ (' O! l> /' B> N= Z] -' O; N= w! n] /' -' ;_ -> @h j$ #h $h |; !/ W; ^' P> <^ 0! e; #, J> ^> ^' z; A; k! f' )> ;' X, N^ #> n^ G~ g, y; )d 2' S' C> C> 5! f! H, V> /, w; 6' i' $) n[ %h &h *h =h f~ 3' J> ",
"-h ;h r' o] *^ :' 5; 2' W) i! >h [{ #, #, 6' &> y; U, F; M; #, #, V) b> g^ h; /> I: Z] 9> r; r; 4; C^ V] ,h V) P; 1/ 'h )h !h T! ~h z/ z/ i) {h F, ]h ^h /h )> I] %> a; 4, %! -, O: y) M) *> ;, #, ]* U) U] (h _h #! 8{ }) :h b^ d< x/ x/ <h B~ ;> .] Pe [h }h |h (| *^ ], A; *! X, b^ G~ '' -, c, yf 5^ K{ 1h J{ :e 4, d, e> =' Y; c> U< P] W^ '[ h; >> l~ W^ E~ 2h X, W^ =, 9] '[  ^ 7> 3h 4h 5h 6h J> j'  ' #, ;' M) ;' ]' K) @> %! 3, c, u' 2) I] )' 1) z; }] F; 6) v; v' 4^ 0; >, )' G~ ^' u; G~ '> Q, Z, >) `; +< 7h 8h 9h 0h _! Q= 8{ '! K! ;! 9{ ah V/ {~ F; W, 0) y' #~ y' Q( #~ <! 4^ g{ g{ h, 9) G! m! A; ]) Z, >> B> S' /> 5; 5> 6! b> &( bh Fd x= ch dh eh W< 7] #,  : fh z] '> G~ M) j, T^ gh X^ *> -, T^ yf E! ~{ %! #> $~ i, T, _) K) }{ 8' hh %^ 3^ A~ ih j~ ^> @] %] W< I: jh kh lh mh nh E, k* Q= 2( O, ,> ^' T) 0! ^' '[ 7] h] j, {/ V] z~ 7] >! 7~ 0> &~ l; m> b> A~ Y; Y; M; => (' W; #, V) m> >> l; D, C> oh ph qh rh 3; :' B> h; 0( /) a> j> Z^ Z] C~ l~ U, h] T^ sh xf -, d> th c, [{ t[ 1( 1( S' D> E' =^  ' uh E> r' vh R' wh g- g< xh yh zh Ah Bh y} Ch Dh Eh ",
"e# Fh Gh y= <_ Hh q< 8^ ^b Lc Ih Jh f) f) m[ X) .> d- n- r, 3> 9< M* 9- Kh m* K= `- Lh =; oc q; T= n< ]; Mh =b Lg Nh Oh Ph Qh Rh Sh Th Uh Uh Ch `> t~ Vh G< /; Wh Xh 9- 2[ n- e* Yh E< X< I[ Q= X_ l] Zh F[ `h f- i> ed  i k- I< .i +i @i e! #i 3* D* $i %i &i *i D| lb g[ w- =i V; -i F< ;i >i ,i 'i )i c- !i sh ~i {i ]i ^i /i D< u* (i _i A- :i Mh *; Zh l* <i [i J< q; 9- }i |i 1i *' 2i 3i 4i  ] ', v_ y/ I, f~ i) v_ -~ &^ g- 5i 6i 7i X] X] 8i &^ .> %^ 6) e> R' 9i 0i Q< N~ %^ ai %^ v/ h' bi &[ X] w, F/ t, E/ K^ ci di ei fi }( 5* }, '* l; &/ &/ Q, h' i) C) E>  ' gi |< |< zg ai 7; 8) Y_ '> Y_ U! R' */ F, E> H> J: hi ii ji ki li 7> mi ni oi pi qi ri si ti t, ui vi wi xi m- yi zi Ai z/ Bi Ci ,) e~ O[ Di Ei Fi ][ ,, Gi a- Hi v_ Ii F> Ji e~ $/ Ki I= f* K< Xa Li ~b ;b o< T| Mi Ni Oi Pi ,, *; K^ Qi S> 7> o> Ri Vd d* ', f> v> Za Si K= .^ Ti 3d Ui ', m[ Vi Wi Xi li Yi f) u_ )e D: }f +< Zi +< S> `i  j Eh .j +j @j W} ji /i )/ :; D- g* Pe q; R= #b #j .i X_ _; :; $j $j Xa q, A/ A) %j ^e `| S{ -< $b o( &j (b *j =j Gh -j ;j o< >j 7/ ,j 'j )j !j ~j {j /} ]j _! ",
"^j /j (j _j :j <j [j }j |j 1j 2j R| I| 3j 4j 5j |1 6j 7j 8j 8j 9j 0j aj bj cj dj ej fj gj hj ij jj kj /} lj jj mj nj oj pj qj rj sj tj uj vj tj wj xj yj zj Aj Bj Bj Cj Dj k} Cj Ej Fj Gj lj /} k} Hj yj B| n{ ]j Ij Jj =1 Kj qf L| y| Lj Mj Nj Oj Pj Qj Rj Sj Tj Uj )( Vj 6} Wj z| Xj Yj |[ Yj l} &1 $e Zj `j !|  k Nh .k +k 1} @k e| R~ w] F| #k $k Pj Pj %k &k ]} *k *k Dj Dj =k L| -k ;k >k ,k 'k )k A} p} ]| t} j| !k &| ~k _/ {k 7[ 7[ ]k H} <_ ^k /k 7/ U/ {k (k _k :k [> 7[ 7[ t_ *| *| +1 @1 *| )| <k 5| 3} 5} [k }k |k 1k 2k *k _} K} -1 3k s} 4k 5k 6k 7k 7k 8k 9k 0k ak T! bk ck ak 0k dk n} 6h ek fk gk hk ik +1 y} jk v< kk lk Y} mk nk ok pk qk rk sk tk uk 31 vk wk xk ff yk yk zk zk Ak Bk Ck Dk Ek Fk yc Gk Hk Ik si bj Jk Kk Lk Lk Mk Nk Ok Pk Qk Rk Sk Tk Uk Vk Wk Xk Yk Zk `k  l .l +l @l #l $l %l Vj &l *l =l -l {} ~} ;l >l ,l 'l 3j )l !l #/ ~l {l ]l ^l /l (l _l :l <l [l }l |l 1l 2l 3l 3l 4l 5l 6l 7l 8l 9l 0l al bl cl dl el fl fl gl hl il jl kl ll ml nl ol pl ql sj vj rl sl tl ul vl wl xl yl zl d! Al Bl Cl Dl El Fl Gl Hl Al Il Jl Kl Ll Ml Nl Ol Pl <3 ",
"Ql Rl Sl Tl Ul Vl Wl Xl o2 Yl Zl `l  m .m +m @m #m $m %m &m *m ng =m -m ;m e& >m ,m 'm )m !m ~m {m ]m ^m /m (m _m :m <m [m }m |m 1m 2m 3m 4m 5m 6m 7m 8m 9m 0m am bm cm dm em fm gm hm im jm km lm mm nm om pm qm rm pm sm tm um vm wm om /2 xm ym zm Am Bm Cm Dm Em Fm Gm Hm Im Q2 Jm Km Lm Mm Nm Om Pm Qm Rm Sm Tm Um Vm Wm Xm Ym Zm `m  n Fm .n +n @n #n -2 $n %n &n *n =n -n N3 P3 ;n >n ,n 'n )n !n ~n Um {n ]n ^n D3 /n (n D3 _n :n <n V[ [n }n |n 1n 2n 3n Vm 4n 5n 6n 7n 8n 9n 0n an bn cn dn bn en fn pj gn hn in jn kn ln mn nn on pn Rl qn rn sn om tn un vn wn xn yn zn An Bn Cn Dn En Fn Gn Hn In Jn Kn Ln Mn Nn On Pn tm Qn sm Rn Sn Tn Un Vn Wn Xn Yn Zn `n  o .o +o @o #o $o %o &o *o =o -o ;o >o ,o 'o )o !o ~o {o ]o ^o /o (o _o :o :# <o [o }o |o 1o 2o 3o 4o 5o 6o 7o 8o 9o 0o ao bo co do eo c. yn fo go ho io jo ko ko lo mo no oo po qo ro O1 so to uo vo wo xo yo zo Ao 0@ Bo Co Co Do Eo x@ p@ Fo Go Ho Io Jo Ko Lo Mo No Oo Po 6m Qo Ro So To Uo Vo Wo Xo f2 Yo Zo `o Q1  p .p +p @p #p $p %p &p *p =p -p z. ;p >p ,p 'p v. )p !p ~p {p ]p ^p /p (p _p :p <p [p ",
"}p |p 1p 2p i9 3p 4p b& 5p 6p 7p 8p 9p 0p ap #a bp cp dp ep fp gp hp ip jp kp lp mp K9 np op K9 pp qp rp sp tp pp up vp 18 wp xp yp zp Ap Bp Cp Dp Ep Fp Gp Hp Ip Jp Kp Lp Mp Np Op Pp Qp Rp Sp Tp Up Vp Wp Xp Yp Zp `p Up  q .q +q [0 @q #q S$ $q %q &q *q =q -q ;q >q ,q 'q )q .+ !q ~q {q ]q ^q /q (q _q :q <q [q }q |q 1q 2q 3q 4q 5q 6q 7q 8q 9q 0q aq bq cq dq eq fq gq j% hq iq jq kq lq mq ,@ nq oq pq qq rq sq tq :p S. uq vq wq xq yq zq xq zq Aq Bq Cq Dq Eq Fq Gq Hq Iq Jq Kq Lq Mq Nq Oq Pq Qq Rq Sq Tq Uq Vq Wq Xq x5 Yq Zq `q  r .r +r @r #r $r %r &r *r =r -r ;r >r ,r 'r `p )r !r ~r {r ]r ^r /r (r _r :r <r [r }r l5 |r 1r 2r 3r 4r 5r 6r 7r 8r 9r 0r ar br cr dr er fr gr hr ir jr kr lr mr 30 M< nr or pr qr rr sr >7 -[ u0 tr ur vr wr xr =8 yr zr Ar Br Cr Dr 8& Er Fr Gr Hr Ir Jr Kr Lr Mr Nr Or Pr Qr Rr Sr l% Tr Ur r@ Vr Wr V@ Xr Yr Zr `r  s .s +s @s #s $s %s &s *s =s -s ;s >s ,s 's j8 )s !s ~s {s ]s ^s /s (s _s :s <s [s }s |s dq 1s 2s 3s 3s 4s @7 5s 6s 7s 8s 9s 0s as bs cs ds es fs gs hs is js ks `f ls ms ns os ps qs rs ss ts us vs ws xs ys zs As ",
"e# Bs Cs Ds Es Fs Gs Hs Is Js Ks Ls Ms Ns Os Ps Qs Rs /  Ss Ts Us $* Vs Ws Xs Ys Zs `s  t .t +t @t #t $t %t &t *t =t -t ;t >t ,t 't <g Is )t !t ~t {t ]t ^t /a /t (t _t :t <t [t }t |t 1t 2t 3t 4t s8 5t 6t 7t ~t 8t Ag 9t 0t at bt ct dt et ft gt ht it L# jt kt lt mt nt ot pt qt rt #9 jt st tt ut vt wt xt 19 yt zt At Bt C/ Ct Dt Et Ft Gt Ht It Jt Kt Lt Mt Nt Ot %$ Pt Qt Rt St Tt Ut Vt Wt Xt Yt Zt `t  u .u +u @u 3$ #u $u %u &u *u =u -u &u A$ ;u >u ,u 'u )u !u ~u {u ]u ^u /u E8 (u E8 _u :u <u G& [u lf }u |u /% 1u 2u 3u 4u 5u 6u 7u 8u 9u 5% 0u au bu cu du qg eu fu gu hu ~t td iu ju ku lu mu y9 K% nu ou n' pu qu ru su tu uu vu /u wu xu yu zu Au Bu Cu Du Eu Fu Gu Hu Iu Ju Ku Lu Mu Nu Ou Pu Qu Ru Su Tu Uu Vu Wu Xu Yu Zu `u Z8  v .v +v @v #v $v %v &v *v =v -v ;v G& >v ,v 'v )v Dt !v ~v {v ]v ^v /v (v _v :v <v [v }v |v 1v 2v 3v 4v 5v 6v 7v 8v 9v 0v av bv cv dv ev fv gv hv iv jv kv $v lv mv ua nv ov pv qv rv sv tv uv vv T8 wv xv yv zv Av Bv Cv '$ Dv Ev Fv Gv Hv Iv Jv Kv Pf Lv Mv Nv Ov Pv Qv Rv Sv Tv !c )c ,e Uv Vv Wv Z: Xv Yv .g Pb Zv `v uc  w 2> ",
"=/ ;* #_ c< Z^ P= n> ~* $/ p~ =' q> f> -' '* I' .w +w @w #w &: $w D_ K^ k^ <{ %w .i |* &w $w *w =w X_ ,* -w ;w >w !* B- ,w o* I[ `] 5* ): ,[ ,[ z: Q= K[ X< l] =j 1* %b 'w )w !w ~w {w ]w ^w /w (w U= 9> o! f> ~* 7> c< _w Z( 9> z: :w C- <w m* l* f* n< x- K< [w }w Si =b h* |w 1w 1i t* 9- 2w 3w 4w ]b 5w 6w v* 7w 5b 8w 9w 0w aw bw cw pc lc E= dw B* cw 'b cw D= B= W* ew fw  , gw kb kb hw iw @e jw kw .= -c lw -c hb 5b hb kb 5b {c 9; mw f= f= nw s# nt ow pw qw Je rw sw $c tw ]c Zv (- uw Cf vw ww xw yw zw Aw Bw Cw Dw Ew Fw }_ Li M* C= lw K= [: r< w[ n- s, g[ E/ Lg 1* E= P* Gw Hw #: pd Iw Jw Kw Lw Mw Nw Ow Pw Qw Rw G( Sw Tw Uw Vw dw m' Ww Xw Lh Yw Zw `w  x .x +x @x #x }- {b 1w +x $x }- O* Pw %x &x Mh $x *x =x -x ;x >x ,x 'x )x !x ~x  , &c {x ]x T* Q* ^x /x Bw @= yw .g  | |f E/ (x </ eb Sw Vh C= {b r< _b _x :x ;c hb <x [x }x Bw |x M~ 1x 2x Z/ 3x u* 9* K[ .! Mc z: v> ~b S~ |f H= /b P* S= F< 4x -i ed }, w- w[ n< :; |i D- D* 5x 6x 7x }* =; +b C* T* 8x .= gw 9x 0x q# ax bx A| {* j< X) Z] b> M) >) L) h; j, /> J> N~ h; '[ j, Z] ;> n> #, U^ F> 9> 6> I< ",
"C_ ag y> 6) 0! i; P! /' >^ ]* H, 2( Y{ cx ~/ mk ~o dx ex D| fx (' 2( Vd *^ I< 6; l; `; t/ E, ): '* l; ^' j> Z] 6; f! J) K> Y] `; K> j, O) O) U^ @] #] Z] 1; >^ -^ qe >* x] M, {_ X( gx hx ix k} f)  > (^ jx z{ >> l> F; G~ )' ^' 2, F; O' kx z, &> M> C' V> I> o] o> `] `; e> K> Z; `; D> S'  ' lx 8> Mc q> m; 5_ e] q> mx nx ox ^< px 7> P; u/ o! x, => #, /> &, N~ x) N~ b> O: &, n> 9> J) ;> O] Q_ qx !] P; X; J) v/ ;> '* `] =' H] I[ I[ rx sx I[ t, A/ tx ux 41 vx 6; M; M; O] r; ^> N= ;> w! V) J; a> ,> f! M) 7] 6) P= b' wx C) }, /> /> E, X; n> @) 7{ v: [; M; `; !/ Vd ud i( i( }f xx yx zx Ax Bx Zi f> f> x] Cx P= >, 6) *> ;' ;' Dx z, ;, =) Ex c' y> !! C' o! ~* C~ U{ => m> m> `; M; h' 3' D> k' 9> x, M; m; g< Fx Gx Hx Ix f* i> ): Z' x, J> 9> X' <> p~ C) U> C) d* Ff P: w- u[ 4> H, #, 6; P; m> '> O' 7; Jx f> P: 8> @; Kx s~ sx K^ 9( *^ {* x= Lx Mx Nx Md Ox U{ g< Px Ri X; @) '* P; p] `; I< 6> F/ Qx -~  > h' Rx -) -~ D> N; P= K> 5; p] _, o! Q; C) S' Y; f> s/ $/ ~^ s/ I[ Sx Tx Ux jk z{ v; a, >) 8] x{ #~ 4^ *! W, '[ W, +! 4~ Vx &) a> @] w, z, g^ W, >! 8] >! ",
"*] Wx (, '> 3/ y> x! /' (' 7{ 2( L^ Y{ ~/ Xx #| Yx V. Zx /k >* 3: G, M' E> &~ `, f! X; f! #, #, C> >) Z, O, ;, >) F; F{ A; F; ,' 0' %! 7] @> |) F; >> P! >> $, @) =_ @) 4( 3: <> &( `x  y .y +y T{ =) f; b/ %~ /) F; |) 7] X, G; @y I; #y $y %y &y $> V' d; t) `, C> *) *> 1, '' j, >, O) j, M) %^ Z; D, '* >> K! P, z_ *y =y -y jk `/ I< => P! k( () |) &) )' )' 7] {' Y, 9] 7] 1! G~ f! e> O, ;> s) vh k' H; ]' %! }{ f, X; X; w, n> Y; =' P: Y' Z] `; _, ;y >y ,y q- K> G~ () #! 5{ b> b> 5{ W~ #! ^~ 7^ A; &) G{ H{ %! )' S, n^ C' ^' @> |) y; 0; T) `, >> i; [; f! => k' `; l; N; 5; :' 'y )y !y #1 ~y Q; 4( 2( Y; /> M) j> *> Y, g; l> =) ^' G; () +> |, {) d; *> C' *> G~ ,' Q, =) M; P! `, *> ;> ;> -> /' N; f! R, .' Ew {y ]y dk s/ Cx N= X; z{ C> E, X; M; 2' ;' #> 6) %^ P! C> '> y) => i; '' V] >> #! +! $~ &/ 2; l; n> j, O) P= =' Q; M' 9> p] p~ $b ^y /y (y -f F/ 1< Xi A) =' U> v: &~ => => 6' z, E, N~ O' %> v; |) $> 7' j' w, L; P! ;' C, h' J) U> 7{ n> => &~ Z; =' P: &( o] s~ _y :y <y Ef n> ^' S_ %! #~ k! :h }] P/ i, G{ )' 8] `! jf k! =~ X, f, `, () e^ H! L{ d{ ",
"[y 4: C; 0) 2, G~ z! f! B> Y; (' c( (' D, qx N] }y |y 1y 2y q> ld P; @) 4( -' K; i; #, O, 0! `, O, j> ;, f! j> #! Y, 7^ /~ ]~ o{ C; k! I! w' &) '' P! k' M! O, n] ;_ v: 2( ^^ L^ k; 3y y$ 4y _! ~* l> #! M( [^ /) Z~ i, +! )' }] 5y P> O) 6y 7y 8y 3, b; {' P> A; #! f; '' @> I; 5{ G; a> Y, () >> k' 2( '* /' ;, O, z_ 9y 0y ay by ]_ <; $, J' !' O{ g] I! !' ^' W, $! =] C; 8{ '> ,> L; 5; W; Z; f! W> f! }] g, &) @> e; V) Z; E, E, Y; o! Q; [; `, O, `; cy dy ey I[ M; ^' *! K! >) l> 5{ 5{ J' +! =~ 7^ K! X~ m! 4~ >! &) g; 7] X, )' m! *~ V' {' G; ]) G; i; i; m; %~ O; S' B> t; ;> 2( fy gy Jl *'  _ 4( >^ qd X; C' j> i; !( {' V' ,> f, ,> (, Z~ 0; 3/ ;] P! R, (, e; 2, f; ;' hy ^] ;] /] `, /' ;> [; X; @) ;> H; Z; Dw iy jy ky T{ Cx 0- 6; m; m> %] >) >) 8) G~ @> () H; >> F; G{ &) e; y> H; G~ |) h] h] 6) /> k> B> ^' () l> C> }, w! H; j, I< p~ Q: ly my 'l `j @) %/ v_ => U^  > 7{ J) &/ j, M) 6! >) Q> X, G{ x' [! _) c, L) {/ /] H; J; [{ ;' h; m> n> m> L; X; s) 1( '* }, 9> '* vc ny oy py 4( z{ 1) X~ (~ +! '! ]) ^' E; =~ 8] )' k! #~ #~ p( 4^ F; i; }] 2~ 4~ G! g] ",
"qy 8= k! (~ !' #!  : >> i; C~ [_ m> >> r' ;i p, ry sy ty 2y ld j( a( A) L^ [; e; ^' >) B> O, $, $] B> ;> j, c> /) F; W, D( E; p^ x' b; E( u^ A; ^' m; <e k' n> L; (' !/ u/ uy O/ d* vy }% wy 8} P; V) ]] %~ /_ Q/ W~ '' '[ }] {' Y! W, C> $[ xy yy :) {' d_ F{ W, W, d; (, W, h] 0! O, ;, #! 6) %~ >^ Q; 5* E, >> [^ u/ zy Ay By r} (( q> ]* Z~ i, C! #~ G{ /) O! G; #! }] '' 0! `, >> O; k' B> n> $, => `, }] a{ K! ]' P! ;> `; 4( <> <> M/ Cy P; [; Z' s~ Dy Ey Fy !] W' N; ;, u; >> x! P, i; W~ @> y' 8] &) k! X~ x{ G{ _) i, !' 8{ ]) E; A; {' F{ k( #! u; `, H; O; 7{ N/ W; /_ %~ O; t: Gy Hy Iy 9< t, `; ;> (' B> H, {/ W~ |, ;e '! ,> C' G; G; #! 0; 2, ;, *> |) !' v! (, |, O, <e m; f! %~ /' /' N= N; 5; (' Z] *) [; Jy Ky Ly @| T{ '* k; <> ,: B> x) X; k' C> 5{ P> J; `, m> ]) w{ E; e; /] j, ,> (, U, (, `, C~ O= i; U, V] >, J) Z] |; e; 6) I< Pe A/ My Ny Oy ^k C~ ;' Py N= j, &/ 7{ O) 6' >> k> 5{ Q, x; }{ y' %) <! k! a; ,> -> /] d; #! 7] |) 0> b> C~ k> $, => C> X] 9> Y; @) o! Qy Ry Sy @g a( 7{ Z, g, ^~ )' |) @> )' U, () g, i, &! 0) 4^ yf i, h; H; 0; }{ G{ X~ E; ",
"qy Ty B; +_ @> 0; Z, O, m> $, Uy m> l> [; &( =; Vy Wy Xy Yy ld {_ 1g A) Q; ~! `, j, `, B> B> :> /' B> -> M; /> [^ i; 8) !! |) A; _) 5] J! i, -{ (, B> /_ f! `, /' !/  g Q; q> sx R= Zy `y  z {g X' r; <e [; /' $] /] {( G~ e; 2, }{ G~ ;, l~ .z +z +! }] k( {) !' F; (, (, u; U, H; B> /] z{ H; f! w! >^ ,* 5; t; @z Vd #z $z jy Qd %z B) ;> x! X, :h 4^ =~ () M! u! !! !' Z, /' G, S' k' X; z{ ;_ %~ B> `, () ^~ i, `, N; >^ O/ j( &z M/ M, Y( A) i/ A) ~^ *z =z 5j S~ u/ !/ M! 6] >> j, P! K; K; d; &) k! ]' E; v' 8] w{ yf *! {) ;, #! C; g; ]' (, (, ;, P/ ;, 5! m; [; f! #, B> 7{ 7{ 7f -z ;z >z 9( G< G, i; -> X; m; W] 5{ 0! !' F; >) K> P! P, U, ]' ]' R, `, >) ]) k( J; >) Uy 7{ m> >) P! [; -' `; !/ 1g 3: w, t; !/ ,z 'z )z f| ~) ,* G, Y; ;_ /' /> ]* /' N~ `, ,> y) N~ m; l> 7~ X, j> t; >, M) f; >) !z >, >, N= /] 6) m~ j> E, '* 4( k> >, k; p~ sx ~z {z Uk |f 0> O' &^ M; m~ z, E, y) ;' K> B> 3/ *> #> u' y' y' x' #> ,' z, B> %~ ;' )' }{ X, U, >) B> O, {/ N= m>  ' Z; ): G, 5> ]z ^z /z (z [f Y; 6) A; g; ]' () !> =~ U, ]) '' )' W^ E; b; >! 7^ b> H; G; 8{ 0; h] |) ",
"K: 8= i, !> _) g^ >) X; n> [; 7{ B> M! <> Vd q( _z wr :z Yy >* 4* o~ A) ~* m; O, ;, Q, P! >> O! ^' >> N= U{ U{ m; `, 8) 0! |) a; $~ :^ i, 0) g, () =) >> -, ^' => @) 5; `; 8> r, E: <z [z }z Z> u/ i/ qd G, m; B> P! d; W, !! 2, ]' #! K( x{ M{ 9{ K! '' f; s] d; b> {) >> e; 3/ M) #, /] |z H; 8) k> )* ld i/ N; 1z Vd 2z 3z 4z <} sx g- w, $] J; V' Y, () d; u; #! '' |) Z, /' N; X; B> #, O, O; m> ;> O, #> b; !' B> qd 5z j( K_ 6z g> !] 7z Vd E_ j( -e 8z 9z 5j /< k; ]* k> /) >> >) l> #! G; I; !' (, {) g, G{ o{ +! g; !' 0! ]] !! @> a; #! 0! G; `, ;] B> ~! m; ]* j, j, M) => [; 4> 0z az bz E/ H] o! m; ]* /' z{ >) P! y> f; ^' ^' x) `, t; ]) {' (, f! m; O, F; f; F; Z, $, M; j' c' Z' 2( Y' l; @) cz >^ M; N; <d 'f Oa dz  ] 6: ~* ): r; [; ;> tf k> => /> => z, A! U^ l; => 8{ F; O, i; /> H; Z, b> T) 0> v, ;> k' y) Q] ;> l; '* <; => C> 4( i> 9( ez fz gz v* x) -, hz R_ )[ 1) 6! G/ +> d, l> G; '' #> N^ m! {{ T' 8' ad -, c> 5{ g^ +_ v' X, 0! l> 0! >> m> ;> /' l; '* !/ r' '* iz A^ jz kz 0g ,* #, (, W, !' 2, +_ 7] I; () ^' I; |) &) W, 9] B! ^> >> ,> 0> ;, ^' +> ",
"V2 tw X, U] g; () b> H, W; /' N; O! #! Y; *^ 5: lz Ap mz nz s~ c* @) !/ P; Y' f! '> g^ >) 8) 6) $~ ,> Q, Q< 0> j, ;, j, ;, >) ,' S, E; 0) m! G{ }{ J; |) ]> 6) >, J> Y' )* a) oz pz iz qz rz X} O/ ud !/ !/ sz B> >> ;, ;, (, ^' '' e; @y h, g{ ah tz F; q] uz z; ;, B> z{ H; {) H; `, i; O, |, Q, N= @) vz :d /] S( 7f wz xz yz W} s/ 1( w, [^ d; A; a> 8) `, F; |) %! zz !> e> S' K> Z, 6! >> =) >) H; O, '' 8] g; G; [; cz Q= s- I[ d* q; E< 1' -^ Az Bz Cz Dz Ij E/ o! 7{ K; W~ `, Q, l> 5{ b> F; !' Z, f; g; 8] =! A; I; (, #! P, u; {' #> #! P! 3/ O, /] => 5! G, Ez m> /' %~ X; /' )* Fz Gz Hz (b H] I> k' 7{ L_ v: M; M; s] *) J; w) P) => ,: 0! Z, *) E, m; /' k> ;, h; J; x) Iz Jz H, U> Y; J> l; '* ld @) n> {! ue Kz Lz Mz f| qx o> 6; G, Z; M; %] 6! j, [; v: O) b( Z^ D> l; Q/ t; k' {/ N= m; => 5{ {/ U^ b- n> %~ >, c> O] E, @) ~* z{ L; -^ c* G< Nz Oz Pz }- b> y) ai /> z! () A~ ^' 8) W) 6) 6) ]' g; &) v' v' H{ Rd 4, z~ ^) W^ Qz [) U] H; P, (, h] '> `, /' 8, Z' r; <> Y] '* Rz 09 Sz Tz Y( P: X; >> (, W, Z~ W^ 0! G; '' #! u; ]' a; 0; G~ #! ^> k> >) 0> i; B> =) ",
"Rm Vb F{ g; g, u; U~ -> W; W; ,: L; f! G, +< fg Uz tp Vz ~^ 6* P: @) `; I< w, k> ,> ,> ^' h; '[ X^ ^) X^ L: >) R_ >> {/ f! 8) P! '' W, Wz m! %! _) T, T, y) d> ;' Q, f! w, 1( Xz Yz Zz [q `z m} x~ uy E_ ld =_ /' j, i; t; `, ;, |, u; l' N{ e_  A b; E; *) y> ^' P, i; M! (, 0! O, m; m; m; m; l; u/ Wd x~ o~ k' Y{ .A +A @A #A +1 Eh `; N= t; ;, ]' 0; e; {) 5{ 8~ X, sh sh L: g! y) Z, ,> ^' >> 6) l> O, Z, i, () l> #, 1( w- $A ed ed /; ,, r; s; P: 'w %A &A )( *A &( B( M! i; %~ B> e; O, {/ (, c; () 0; !! ^~ 8] i, L' ;, F; (, e; y> u; Z, f; >> B> H, H; 8) #, M( O, k' /_ =A !/ Ff -A ;A >A }( r, 5> O; (' 5; J) >) H; ae R, +> [{ %^ M; /_ O, i; L; => k' -> B> (, X, 6) ,> 6i %/ [; l; k' `; [; @) o~ o! Z; L^ nz ,A 'A )A !A *_ 4> .> G, G, n> &/ K> A~ Y; W; ^> n~ e[ C) ;> T) (, `, B> [; /_ /' `, Q, v, }, Z] 7{ L; ^> M; Y' u/ 4( `, J> H] :: H[ ~A {A ]A ~b tf k> 9> (* ^' ^' C' i; ;, `, 8) |) )' g; k! <! y' x' V' ]' 6) k> >, h; G~ T) K; K; Z, 6) J; ^' `, [; X' k; B( N; `] ^A /A (A /| !d 3: => M) (, #! G; G; e] a> F; F; i, 9{ i, ^' m> H; O! 4_ 5{ z, H, %~ W; ",
"-* 9e L! !! }] ;, S( N; $, N; qd 7{ N; Wd m/ h: _A :A <A [A 5* q> 4( a- J[ U^ `, i; `, >) ^' F; Q] F; ad E~ G; h] ^' Z, '' ^' _^ i; i; 7^ C; {' &) g; )' |, '> +> M) #, E, t/ }A |A 1A 2A 3A r/ p] o~ 1g o~ W; Ez X; O, $, 5! y^ !! =! j_ @! !~ c{ x{ =! W~ Z, G; t; M! /] ;, O, /' B> => 9, N; @) Ff x~ t, 2( /' 2( 5: 4A 5A 0# 6A x~ `; n> t; ;, A; ]' 0! i; $] ^' !' 7] U] H~ S, 6) O, l> l> T) h; H; O, i; 0; Y, ^' h; 7A O: 8A :[ a- `h F/ P= $, V; /< 9A 0A aA bA ~* k' 0! /) /] z{ i; K; z{ f; !' h] !' n/ () 1, E; f; |z ^' h; G; y> y> i; t; i; B> B> i; *) `, K; i; >> `, O; 7{ ud cA dA eA dd [- _, @) (' ;> /> >) 8) O, y> Z, z, &~ <h => `, K; L; z{ k' /' %~ l> ^' h; Q, U> G, k' X; W> Y; [; v: u/ k; E, !/ fA gA hA iA jA qx q> g- Z; Y; ;> /> 5! O= -' 5; >, &, n> P; M; z! G~ N= X; Y' W; n> => y) Q< &~ n> 7{ -> ,> /> Y' x~ Q; m; H, 4* Q= Oc kA lA >l .b (* Z' P; ]* #! J; >) /] l> j, ;, Z, I; A; 0) p( 8< 8] #> S, 8) l; [; L; => i; m> *) >) d; *> *> M; O; Y' l; U> S' =' O< mA nA >d >* @) C> ^' !! H; G; ;, T) h; |) g; X, =~ %! |, k> j> /' ;] `^ O) /' /' K; ",
"C_ oA {) 0! {) y> O; [; $] (' u/ >^ qd nz pA qA rA L@ sA 6: V; 4( &~ tA uA C~ k> {/ H; >) >) `, >) ;, U, 8{ u; #! (, f; 1) G~ *) H; Z, W, E; V~ &) )' 1, W, F{ >) => %~ =A n> 5* t, vA wA xA )k *^ !/ o~ L_ ;_ c( O; B> >> P! y> K! C! 7^ Y, Y, J! v' ^~ y> =) i; %~ $, $] B> L; N; /' f! %~ => l; A) 7f O/ -^ L; 2( Wd +A yA zA u< P: -' [_ .: 5_ ^~ P> 2, `, t; ]) '' P> () '! g; U, W~ 6) 3/ i; l> `, ;, ;, (, b> H; T) ,> *> hh O) n> Z] w! `, x! r; $/ AA BA CA X< Z; X; 0! }] k> f! 8, O; O, `, Z, 0; f; v! 0; ~' A; ^' s] k> ,> U, H; *) H; ;] /] ;> B> O, B> N/ <e /] `, ;, z{ l; )* DA EA Yd Gw FA U= s~ z_ !/ l; K> Z, P! P! *) Q, `; 2( k' M) f! n] K; X; 5; Uy (> O, -, U{ Z' v: X; f! f! O; Y' v: u/ @) M; 2( nz GA HA IA JA ~^ Q; N= ;> m; E, w! ;_ Y; -' => b> j> n> P; ]* l> l> Z; n> ;> B> /> m> 6) ]> w, 4; L_ ;> M; Z] r; H] {* Z' B( ld K_ KA LA MA gz o< ]* l; P: (' O! H; j, `, O! ;, #! 0; '' &) 8] y' :e v' V' @> f, [; {!  g z_ X; C> `, j, >) >) Z, {/ 7{ l; J> w, C~ 6; (= NA OA >d :: q> => l> i; >) G; >) f, R, >) ^' A; %! T, M> j, ^> %~ K; >> `^ z{ z{ e; ",
"8; PA P> g; c; y> O; N; n] >^ @) >^ qd QA RA SA TA UA VA 6: D' B_ WA XA _, 4( 4_ O, O, C' P! %~ O, O, W~ }] B! 0! d_ f; 0; ]) e; >) Z, () We {' b; &) V' o{ !! 0! i; F( O; -> Y; Hi YA ZA `A  B sx {! sz L^ ;_ [; W; [^ ]* K; Z, 8] 9{ Z~ d; 6) c; 2~ 2~ u; i; $, L; B> n] W; /] N; ~! m; $, >> O, )* &( _, '* L; =_ Xx .B +B @B <} K_ (' {/ d_ ^~ C! i, G~ H; {/ B! A; c; Y, >! w{ W, /) () e; M! $, >> l> i; H; O! t; k> H; R, $) Z, $] B> %~ %~ V{ /_ Pc bd #B $B s, P= O, l' e] O, /' ae m; k> i; Z, Z, R, R, ^' R_ %B  ^ e[ T_ z) 0- O= O! `, ~! Z' Z' 7{ [; Z' N; m; %~ *) O, [^ n> Y' &B *B =B -B ;B >B `h p] ]^ X' W> #, z{ H; Z, &/ }, @) O; j> H; [^ O; l; (' ]* :> /] L) n~ @) X' N/ z{ X; Z' Y; Y' 2( k; /> 3' Zi qw ,B 'B )B D< f> O= E, Z' /' ;> l; `, => k> ^' j> [; M' B> 5{ >> X; x, M; H, C' k> {/ C~ D> -' o~ -> j, Z] G, p] u/ P; 2( !B ~B f) {B ]B Ud |f Z] Z; u, 6; x! >> Z, >, ;, y> Z, '' A; @> b; =~ 8] +! ]' #> Z, => O] Q; q> S' &/ 5! [; O, R, 0; >) m; [; ;> Z' [; 9> fd ^B /B o} >* X' 5! 0; e; h; *> 6) R, H; i; `, !' V' a; M) i' 5! C> ;, e; k> Z, F; |) ",
"Rm /- x; )> P> P! k' Z' 7{ ^^ <> P; o~ 9( (B _B :B <B [B hk H] s~ $[ ,, ud s; L; Z' N; X; 5; O; f! j, u; 5{ `, Z, (, v( Z, j, C> (, A; W, A; m! b; A; :^ A; *> %~ m> k' l; [; 1( }B |B l0 1B n{ s/ -' t; $, X; j, => ~! M! e; I; O^ A; e; C> ,' O> Z! 2B o{ *> C' n> W> k' [; k' l; W; [^ k> H; /' ;_ P; 3B x, z_ x~ qx 4B 5B 6B 7B 8B ;> 8~ d_ ^~ V/ 0) +! F; ^' F; +! @! {' 0) 0) j, ]* `, `, &~ E, => >) i; H; H; z{ => *) `, H; P! O; X; m; O; 9B ,* F< 0B aB &1 x- K> O, i; Z, 2, bB cB dB eB fB Ku gB hB iB jB kB lB mB nB oB pB qB rB sB tB 0p uB [t vB wB xB yB zB AB 5! S' 7{ Z' *( BB CB }g DB EB FB n- <> -> /' X; X; B> >> >) 3^ t/ -' X; &~ S' J> k' N; n> b> {/ $, C~ /> 2( =A O, B> L; @) /' P; >^ C^ k> k> >* GB HB pe IB D< r' &~ w! -' C^ /' 9> /> /> ,> h; j> /' G, H; U, ^' J> H> t/ J) x) C> X; 8) 2' Z; 2( [; N~ }, G, o! A) '* x, !/ j( JB KB LB MB ]b 2[ Hi -~ P= >> j, C> f! => m> G; |) () V' x' $~ $~ +! 3, '< #, l; P= 5* M' &~ 2! S' G, E, 8) z; S, J; `, hh 6) H; &~ NB OB PB jk :: J: F, +> O> g^ 6) j, 8) hh ;' M> !' k! 1, ,' u) l> g^ G~ ^' 6) )> 7' [{ ",
"qy 9c P' QB i' i' X; G, v: )* o! Q; -^ ~^ RB SB TB UB X[ mk n< ,, 4x F< >^ {^ 4; 6> ,, Y; E, M; j, h; >) ;> o] &~ >) q] E, c< 6i )> !> $~ z~ v' g; ^) () ^' @] 2( o! T> D, '* a) VB WB XB YB ZB `B Y; w! n> t/ &~ J> G, m> Z, +> I] d; z{ j, d>  C +~ Q( C; 6) _w 9> &~  > Y] )* 5; 5; B> M) M) f! 5; 5; w,  > .C v[ px +C @C #C $C =j w! }; x! *! f] h] U, ^) g; g^ 7] -, *> a> |) P= >^ O; m> 3^ E> s) ;' ^' C' m; W> `; G, => l> 8) B> m> M; [; i/ M/ /< %C &C *C G< c; =C -C ;C >C ,C 'C )C !C ~C {C ]C ^C /C (C _C :C <C :C <C <C <C [C /C (C }C |C 1C 2C 3C 4C 5C N% 6C 7C 8C 9C :' 0C aC bC cC dC eC ,, V; 7{ E, 6' >, ;> O; l> Q, /> Z; [; ;> l) H> */ Q, #, &, -, G~ j, /> }, 2( 7{ X; C' X; >^ `; v: [; m> U~ i; D, fC r& gC 41 t! a) P= @) P; ): Y' o> 5* ): 0> P) K> 4( )* O= U{ &, bi i) hC 7; iC 2; 1( h' J) `; n> _w _w =' `] i> q> y/ H> W> o! jC kC lC mC nC oC pC qC hh O= r; 9> I< I< }, h' d> rC c, $> [{ {[ P] sC P' Vf E> b- 1( a) C) t/ `; '* a) =^ i' Y_ ;' 6) Jz -, J; 3^ tC uC vC 5} [: wC xC N~ N) /h yC e[ .> &^ N:  ' v/ wh k) Ii ', T_ V< D> ,, 2[ zC AC BC ",
"Dg Kg 4x CC ui DC F< H[ f) `> *j EC I' FC GC HC IC JC N2 &' o( KC gk !| oc ;b Bz |f R[ =j 3> Mc I[ 6> 6> H] (b w[ ,, i( R= Y< F< 2[ J[ `h Jx e- F[ l* c< 7* /; 9( D< uf LC D< R= MC I- NC OC PC B[ mi QC hk jC RC SC mi m' /< xC TC e- 1' o> }, Jz 3[ U^ ^* UC VC K< f* 5( Q= R= *w Mc =' `: 8> t, $/ 0g L= +, 'w ]b /x WC XC YC ZC L/ `C -b 1* n< Zh n< v* +, 6> ,[ n- u[ o> U= `: 2[ r; N= I~ e[ z/ C) 1[ ,h e[ o~ ,, ', U= `: d- a- 5* 4; 6> >* Y( K^ (x  D .D +D @D #D $D %D &D *D =D -D ;D >D ,D 'D )D !D ~D {D {D {D {D {D {D ~D {D {D ~D ~D ~D ]D ,D ^D /D (D _D :D <D [D }D ;z |D Cs 1D 2D 3D 4D 5D 1' x- B) ^{ 6D 7D n[ 8D =^ e< Ox -> -' [; 7; 9D &~ .> =' I, 3^ 2! l) p[ 0D aD G> g< n[ bD I, yi cD 5> =' x- u[ *' dD eD fD gD )| hD L= (b }( s< Lg 'w Lg p< I[ iD oh $b s< =j 3> Pe ed ji t~ /< ~b 7x RC 9< /< K^ Pc r, *' }( Bz o( jD hD d~ ;i ;j kD lD mD #f nD Yv oD pD F< H= hD E: Kc Ch *' Pc A/ _, m) E' q; q* Jx qD rD u_ f[ sD tD uD vD @; +, s, Lc w[ ;i Kx 7> Kx ', o> f> D< wD xD yD zD f| s} [( (f KC Pc <| <_ tc AD tc +1 %| W( BD CD &1 5} ]j !} 1} f/ DD ED (} ",
"FD GD 8e HD Ae ID JD KD LD MD ND OD Bl PD QD RD SD TD UD VD WD XD YD ZD `D  E .E +E @E #E $E ND Bl Vk %E Il &E *i d! *E rl =E -E ;E >E ,E ,E L, mC 'E )E !E a: ~E {E ]E ^E /E ED (E _E :E <E [E }E il |E 1E 2E 3E il il 4E 5E uk 6E 7E Ud 8E el 9E 0E jj aE bE F| cE #w cE R~ dE cE Wj Wj &1 ]j eE fE '} Fy gE )E hE iE c4 jE kE lE mE nE oE pE qE rE xj (j |j sE tE ;k uE vE jj wE xE D| i_ IB eE $k K} yE U; zE D| 8} $e L} f| L/ AE [( by <} a} 8| BE CE DE EE FE GE HE IE JE !D KE ~D ~D ~D ~D LE LE LE ~D ~D ~D ~D ~D ~D ~D ~D ~D ~D ~D ~D ~D ~D ~D ~D ~D {D {D {D {D {D ]D ME NE OE PE QE RE SE w< %* TE UE VE pk WE XE YE ZE `E  F .F +F @F #F $F %F &F *F =F -F $l ;F >F ,F 'F )F !F ~F {F ]F ^F /F (F _F :F <F [F }F |F 1F 2F 3F 4F 5F 6F Bl 7F 8F 9F 0F aF bF $E cF dF eF fF gF hF iF jF Bl Yk kF lF mF nF oF pF qF 7F ND rF sF tF uF vF wF xF ID yF zF AF BF CF DF EF FF GF HF IF JF KF LF MF NF OF PF PD QF 8e 8e RF d1 SF TF UF VF WF XF YF ZF `F  G .G +G @G #G Uk $G %G &G *G =G (j -G ;G >G ,G 'G )G 5n !G ~G {G ]G ^G /G (G _G :G <G [G W[ }G Fm 1k |G 1G 2G 3G 4G 5G 6G ",
"5  7G 8G 9G 0G aG bG cG dG eG fG gG hG 9@ iG jG kG lG mG nG oG pG qG rG sG t+ tG uG vG wG xG }+ yG zG AG BG CG DG EG FG GG HG IG JG KG LG MG NG OG PG QG 7G RG SG TG UG VG WG )A XG YG ZG `G  H .H ;: +H @H #H $H %H &H *H =H -H ;H >H ,H 'H )H !H S4 ~H {H ]H ^H /H (H _H :H <H [H }H |H 1H 2H 3H 4H Em 5H vm 6H 7H 8H 9H 0H aH bH cH dH eH fH gH hH iH bx wm k4 k4 cm am jH kH lH xn mH nH oH pH qH rH sH nA tH Pn uH vH wH sH xH yH zH AH /B BH CH DH EH FH GH HH IH JH KH LH LH LH LH LH LH LH LH LH LH LH LH LH LH LH LH LH LE ~D ~D ~D ~D ~D ~D LE LE LE LE ~D ~D ~D ~D ~D !D ~D !D ]D MH NH OH PH QH RH SH TH Mn UH VH WH XH YH ZH `H  I Ho .I +I @I #I $I %I &I *I =I -I ;I >I 36 ,I 'I )I !I ~I {I )I ]I ^I /I (I )u _I :I <I [I No }I |I a. 1I 2I 3I 4I yr 5I _@ m@ [@ 6I 7I 8I 9I 0I aI bI cI +# dI eI fI gI p@ -+ hI lh iI jI wG z+ kI lI mI nI *p oI pI qI rI sI tI uI vI wI xI yI sy P7 zI AI BI CI DI 5@ EI FI 9@ GI HI II JI KI LI MI NI OI PI QI RI SI Td TI UI VI WI XI YI ZI `I  J .J +J @J #J $J %J Tq &J *J =J -J ;J >J ,J 'J )J D9 !J ^B (0 ~J {J ]J ^J /J (J _J :J ",
"|  <J [J }J |J 1J 2J 3J 4J 5J 6J 7J 8J 9J 0J aJ bJ cJ dJ eJ ,& fJ '& gJ hJ iJ jJ kJ lJ mJ nJ oJ &{ pJ qJ 5J rJ sJ tJ uJ vJ 4q !J wJ xJ yJ zJ AJ BJ BJ CJ DJ EJ FJ (0 GJ HJ np IJ JJ KJ LJ MJ kp NJ OJ PJ QJ RJ SJ TJ UJ *r PI VJ WJ XJ YJ ZJ `J  K .K +K @K #K $K %K &K *K =K -K bq ;K >K ,K r@ 'K G_ i@ )K !K ~K {K ]K ^K /K (K _K :K <K [K }K |K 1K 2K 3K 4K ,C 5K 6K 7K 8K 9K 0K up aK bK cK dK eK fK gK j] hK iK jK kK 69 lK mK nK oK pK qK rK sK tK uK vK LH LH LH LH LH LH LH LH uK uK LH LH LH LH LH LH LH LH LH LH LH LH LH LH LH LH LH LH LH LH LH LH LH LH LH LH LH LH LH LH wK wK LE ~D {D xK yK zK AK BK CK DK EK >r FK GK jr HK IK JK KK LK MK NK OK PK QK RK LI SK TK UK VK WK XK YK mr mr ZK `K  L .L +L @L #L $L %L &L @r *L =L w9 -L R0 ;L >L mJ ,L 9K 'L )L !L ~L 6K {L ]L ^L /L (L &{ _L :L <L mJ [L }L s$ |L 1L 2L :s 3L 4L z9 x9 5L 6L 7L 8L 9L 0L aL bL cL dL eL fL gL {% hL iL y9 jL kL rJ lL mL =u nL oL pL qL rL sL tL uL vL wL xL yL zL 2e AL BL CL DL EL FL GL HL IL JL KL LL ML NL OL PL QL N$ RL SL TL UL VL WL XL YL ZL `L  M .M _9 +M @M #M $M %M &M YL *M ",
"e# =M s= 4: be -M {c ;M >M ,M Ab *x 'M )M !M ~M {M L< ]M ^M /M K* ac (M _M ^= :M Lv <M [M }M ]z |M 1M o# <z 2M ~t 3M 4M 5M DA 6M Os 7M 7M 8M 9M 0M aM bM cM dM eM fM gM hM tx iM jM kM lM >g mM nM oM pM qM rM sM tM uM vM wM xM yM zM AM 9t BM CM DM EM FM GM HM IM JM KM LM MM NM OM PM QM OM RM SM TM UM VM WM XM /t YM ZM `M  N .N +N @N #N $N %N &N *N =N -N ;N >N ,N 'N )N !N ~N {N ]N ^N /N (N _N :N <N [N }N |N 1N 2N 3N 4N 5N 6N 7N 8N JH JH JH 9N 0N 0N uK LH LH LH uK aN bN 9N 9N 9N bN uK uK uK uK LH LH LH LH LH LH LH LH LH uK uK uK uK uK uK LH LH LH LH LH LH LH LH LH LH LH LH LH cN cN cN JE dN eN fN gN |D hN iN jN kN lN mN nN oN pN qN rN sN tN uN vN wN xN yN zN AN BN CN DN EN FN &< GN HN IN JN KN LN MN NN ON PN QN RN SN TN 1M UN VN WN XN {= 2= YN ZN `N  O _B .O +O D[ @O #O Rz $O %O &O *O =O -O ;O >O o# ,O 'O )O !O ~O /= {O ]O Gs ^O /O (O _O [= :O <O [O Ob }O |O 1O 2O 3O 4O 5O [c 6O 7O 8O 9O ;f |k 6f 0O aO bO <c cO dO dO eO fO Sv gO hO iO v= jO kO lO |b _c |b mO nO oO pO Re qO _M rO sO @= tO uO 'b pc mb :x gb vO _= Kf wO xO yO zO ec RA AO Th ",
"-* BO 5; `: J) t/ Z; &~ E, >) h] G; #, Z; o! *^ 7: H[ p] 5; jx i' ^> k; ~* x~ ~) !d Mc u, CO B) 4> o! q( hk DO EO FO GO HO QC wC H[ F< T{ +< o> Kx Kx g) cD .' |< 1( x, D> D> CO QC Jd 9( i> `] s~ Q; s~ `: 8[ '* q> v> 6> z/ u, QA IO JO jh u, Yi KO LO MO NO OO PO QO =c Xe P* RO SO TO UO Xa g* SO |x 7- VO WO +i S= fg ~^ _; r- X_ q; M* XO YO g* f* t* e* u, H[ /i DO F< N[ F< ZO `O  P .P +P @P #P $P [d kb z^ ib 8^ %P &P *P =P -P uK JH 9N 9N 9N 9N 9N 9N 9N 9N 9N 9N 9N 9N 9N 9N 9N 9N 9N 9N 9N 9N 9N 9N 9N 9N aN uK JH JH JH 9N 9N 9N 9N 9N 9N 9N 9N uK uK LH LH LH LH LH LH LH LH LH LH uK uK JH uK LH cN ;P >P ,P :s 'P )P >* H[ /{ !P ~P {P ]P ^P /P (P w} Q: t, x- wC H[ `] D> Z^ D> D> 8> a) 1( I: Y' 6{ 9D yC L; =' 6> ~* Y]  > e< X] =^ r' i> ,[ C) E' I< %/  '  ' 8! _P :P <P [P }P |P 1P P* s/ 4( n> X] v_ F> `] i> )b Ai g) 1' 7> 5> t, 2P 3P D, Z' [; Z; `;  ' E> E> g< p! j< 9i 1< a- q> f> g) s/ Zi 4P 5P 6P 7P 8P [A 1' ;i .C S> m) D) m) u, )e Xi E> e> .> D> J> 2( 7{ Y; p] Px x~ 4( 9P yC G/ W^ Z^ Cx =' ^; ,[ C) U> C) Qx }, 0P Zi ^{ aP bP cP `a P: ~* 5* '* ",
"C_ ag t; x! ^' 0! 0! ^' a> A; >! {~ 0) +! G; ;> Y' 5; k> y> c; +! W, W] k> m> Y; c( C~ j, => k> C^ $, >^ 5: D, q' C{ dP n| Q= 2( o! Y' n> Z; W; i; j, f! 7^ &) G{ {~ =( &) 8{ U^ t, H] }, @] Z] N= ;> /> C' ,> /' /' ;> m> ;> 7{ L_ sx eP ~* f! 9> fP gP hP iP 7[ @) I~ jP D' k> hh N~ 8) ,' _< w; C, Z; Mc g> N! T) E, `; t; ;, z{ V) M; a- 6; =' `; 2; ;> ;> 6; P; q> Q; `] !/ !/ ]_ kP lP mP cE Lg k; k* `; e> |, nP oP pP qP rP sP 9N 9N 9N 9N 9N 9N 9N 9N 9N 9N 9N 9N 9N 9N 9N 9N 9N 9N 9N 9N 9N 9N 9N 9N 9N 9N 9N 9N 9N 9N 9N 9N 9N 9N 9N 9N 9N 9N 9N 9N 9N 9N 9N 9N 9N 9N 9N 9N LH LH JH 9N 9N 9N 9N 9N aN uK 0N 0N tP uP vP wP :w l> F/ k* P; g- i> xP yP &F +< J) F; 0; L> 8) '' :/ Rd %! @> A' ye %! {' W, g! zP sh b> K> O: b> ^' v' <! 4, K) 1, j, 0> -, J; -, T, >! !> d, e< AP BP Ar CP Y| 1' i> 4( W] U, G~ J; y) ,> Q, z, K> O= k; j, '[ ,> k; G, *> +! 0) f] ]) |) 6) h; ,> ,> y) 6) J; >, ]* ;> Y; [; f> x~ DP EP FP GP ~* 9> Zi 4> M' h' >, Z; => X] h' M) G~ a> ^' g^ >> K; k> `; HP A> H; F; N> IP m! ^' bi JP Y] &~ t[ V> KP LP O: W; T> 5' MP NP OP ^e -^ 2( n> /> ",
"C_ PP Q/ `_ $! B! QP *! W, 0; )' 8] ]e A{ =! #! m> t; `_ d_ D( ]~ 5~ J' `_ k> T) 5{ 8~ U, i; 5{ {/ V{ ~] 7{ ]* RP SP TP UP VP m; B> T~ ]/ x! P, x> J' !! 9~ i, t{ 9{ WP +! l> j> A~ b> G~ >) C^ N= B> H; d; F; y> k> => ;> $, W; c( -^ x~ ~! [] m> XP YP ZP (j rx (, G~ 9P 3; `, j, 8) L> z; 1, }< C' G, 4> I> &! >! `, P= K; ]] C> 6) ,' u) S' H> `; `, {/ 5{ (* |; {^ k; w! ~! `P a(  Q .Q +Q @Q Pe !! .: #Q $Q %Q &Q *Q =Q rP -Q bN 9N 9N 9N 9N 9N 9N 9N 9N 9N 9N 9N 9N 9N 9N 9N 9N 9N 9N 9N 9N 9N 9N 9N 9N 9N 9N 9N 9N 9N 9N 9N 9N 9N 9N 9N 9N 9N 9N 9N 9N 9N 9N 9N 9N 9N 9N 9N 9N 9N 9N 9N 9N 9N 9N 9N 9N 9N 9N 9N 9N 9N uK ;Q >Q ,Q 'Q )Q :> %~ >) V) !Q ~Q !E 4> M) }{ '' M) Z, F; p( {{ x' k! %) M^ yf 4^ y' 4) K) :) C, 2' N) X^ =~ `! Z! 4~ `! |~ i, b^ 0) f] {Q d^ A{ ]Q =~ O' ^Q /Q (Q _Q Ya Y; w! -> :Q <Q =~ {' W, %f /) 8~ T) j; (> 8{ 9{ b^ ;, #, %! 7~ |] 6~ =! [Q _h +! ^) 9~ h] (, G; x! Uy Uy B> (> Y{ k* }Q |Q 1Q xk }; O) V; s; $] #! Y~ l> 5{ k> C~ #! l~ #! !! W^ #! 3/ x! w! W! X! J; V] 9' IP g; Y~ )' ad ;' +> '> >> 5; wx &, ^* G, t) 2Q 3Q 4Q ^e )* x, 5; O] ",
"*] 7d M! *> Z, i; G; ^' z; z; sf |{ se 5Q q{ E( 0; 3/ Z~ #! R, R, B! ;, jx Z' >) l> l> >) e; H; j, O, K; 5; K; ~x 6Q 7Q vg <; %~ H, N/ b/ K> *> Z, d; ]' ^~ {~ 0{ L{ ]~ |) *) !' =( g{ 8Q =] #! ^' {( .< C; 0; 9Q }] ]) Z, |, 0! T~ o~ u/ <e 2, `^ 0Q N7 aQ If bA l> Z, bQ ^* u; 0; i; m> f! >, h; E, P; q> G, 9{ tz k> k> W~ *) Q, !' {' %> C' H, m> a> 5{ ]* <; !/ L_ 5; O] z{ 5; Vd cQ dQ eQ fQ G< R, 8* gQ hQ iQ jQ kQ 9N 9N 9N 9N 9N 9N 9N 9N 9N 9N 9N 9N 9N 9N 9N 9N 9N 9N 9N 9N 9N 9N 9N 9N 9N 9N 9N 9N 9N 9N 9N 9N 9N 9N 9N 9N 9N 9N 9N 9N 9N 9N 9N 9N 9N 9N 9N 9N 9N 9N 9N 9N 9N 9N 9N 9N 9N 9N 9N 9N 9N 9N 9N 9N 9N 9N uK kQ lQ mQ nQ oQ 9> C' 1( pQ qQ 3f x~ Q, 7] +! 0> C' x; v' U' T, %> c, !> +_ :e Ve `e rQ u' n^ y; K) {{ k! <! V' X~ H{ yf E; '' 7] 4, A' Rd g] G{ T, sQ tQ uQ vQ wQ |i N= G, D, m> g^ )' (, f, *) i; j, >> [; k> 0; 5y g, z; 2' S, F; i, %! 7] sh d> `, f! C' ,> C' M; X; [; [; => v: W' 9> xQ yQ zQ #F 6> S' d* Q; N; ,> -, >) l> U> k' 8) O' '' Q, >) *) `, >) 6] G{ R( ^~ U, 4, AQ g; +! =! m! g; |) J; b> -> v: @] BQ k; C' aO CQ DQ |( p] t/ Y] 9> ",
"Rm EQ O, X; X; %~ t; H; 6) |) y; N^ h/ re L{ b; }] /) ^' Z, *> s] O, B> m; k' f! >> ;, 8) ;, 0! l> ;, O, B( 7{ E= FQ GQ 5< p] y, Z' N; Z' W> H, =) Q, '' i, J! o{ J! m! i, {) K! _f D! D! V~ }] F{ K( p^ 2, P/ L! {) F; G; l> k> /_ n] o~ E_ X' P; HQ IQ ;+ JQ 6z P; <; #_ /' Y, f] j> N= N= $, j> j> Y; q> v: l> l> /' P, Z, H; i; Z, F; '> C~ [; [; 6) b> O, P; Wd <d X' l; => D, Wd KQ LQ MQ :} 4> NQ OQ PQ QQ JH RQ bN 9N 9N 9N 9N 9N 9N 9N 9N 9N 9N 9N 9N 9N 9N 9N 9N 9N 9N 9N 9N 9N 9N 9N 9N 9N 9N 9N 9N 9N 9N 9N 9N 9N 9N 9N 9N 9N 9N 9N 9N 9N 9N 9N 9N 9N 9N 9N 9N 9N 9N 9N 9N 9N 9N 9N 9N 9N 9N 9N 9N 9N 9N 9N 9N 9N 9N 0N SQ KH TQ UQ VQ WQ /; I> XQ YQ ZQ T> Z, |) |) C, 6' x; T' O^ O^ d; h; 7' u' T' `Q  R 9/ ~' z; w; >h +> c; :/ v' w' Rd V' c; #> )> I] N> 8' y' @> +> A, .R +R @R #R $R w, o! &( =' C, W) C' z{ i; j, J; -, #, $, X; l> Z, J> 3' Z; o~ m; +> )> ~i G/ `; N/ C' ,> J) Y' !/ !/ k; 3^ l; v: Z( %R &R *R /E H[ o> O/ ,* [; b- L) 6' K> Z; /' `, wh 6' 3^ X; B> Q, j, N' X~ v' X, 0; #> =R }{ g^ () |) *> Q, Z; }, `] '* )Q -R @) ): !; )$ ;R >R Wd Q; 9> Y' ",
"Rm zd B> N; v: /_ B> |, #! g^ #! c; m! Z! g, ]' {( i; H; u; l> K; k> => B> ,R /] M! t; i; t; ;, O! /] ~! i/ !/ *j 'R )R !R I> k' y, Z' Z' M' U> m; M; l> Y, !' k( !' i, *! B! {' P> d_ g, K! =] 7^ 2, !! ;] y^ Q/ ]] ;, ;, ;, $, W; L; Y{ ~R }f D, }O tr {R ]R ld P: p] H] Z' ]) W^ 0> }, Y; [; `^ j~ a- 3: z_ l; j, l> l> Z, => N; =) C, &/ <h <> 7{ E, >, M; u/ ^R vz @) ]* [; i( 7z Zv /R (R _R !v :R <R [R 9N 9N 9N 9N 9N 9N 9N 9N 9N 9N 9N 9N 9N 9N 9N 9N 9N 9N 9N 9N 9N 9N 9N 9N 9N 9N 9N 9N 9N 9N 9N 9N 9N 9N 9N 9N 9N 9N 9N 9N 9N 9N 9N 9N 9N 9N 9N 9N 9N 9N 9N 9N 9N 9N 9N 9N 9N 9N 9N 9N 9N 9N 9N 9N 9N 9N 9N 9N 9N 9N 9N 9N 9N 9N bN }R |R 1R 2R 3R 4R 5R Ai t) *> M) J> x, Q> T' v' 4^ W, () )> k! O^ w' ,< H{ |) `, Q, j' L> I; w' 6R 0/ {{ %! V' )' 0; 3, A' U' Q( =~ G~ k) Ih @d 7R 8R F= ~* u/ 7: Vd i' L) M) m> `^ k> J; Q< #, 4( 2( l; /' L; w, I< Cy y, 6) 4^ zz s' v: B( ], 6) >) -' P; Q; @) N= n> <; k; 9R 0R aR 4} m' ,, ]^ O/ k; &/ t[ e> u) Q, ^> >> s' 3^ Z; l> l> b> N~ M) ]' g^ h] %> [{ xf T^ 6) 6) '> K> &~ Y' o] o! 4( jP <h [; m- bR N8 cR w} A) 5; Z] /' ",
"8; Ie L; 5; l; L; f! Z, F{ i, u; ;^ 8] e^ ;{ c; F{ i; P, 0! {) 3/ Z, ;, O, ae m; K; B> i; %~ |z f! z{ N; i/ z_ lb dR eR fR P; W; Z' W; =A X; B> t; j, Z, 2, {) ;< 0; !' #! !! }] I; !! !' ]) I; K! X, '' ;] 9, B> /] M! u; H; %~ k' [^ 9B &z gR 7z Fs hR iR jR P; k; '* O/ 2( j, 6! ^> O] @) [; @] kR F> &( o~ 7{ m> M! $] B> O; [; z{ C> U^ r~ P; (' ;> /> m> !/ j( lR ~/ C^ `; P: Qi mR nR oR pR qR QQ JH sP 9N 9N 9N 9N 9N 9N 9N 9N 9N 9N 9N 9N 9N 9N 9N 9N 9N 9N 9N 9N 9N 9N 9N 9N 9N 9N 9N 9N 9N 9N 9N 9N 9N 9N 9N 9N 9N 9N 9N 9N 9N 9N 9N 9N 9N 9N 9N 9N 9N 9N 9N 9N 9N 9N 9N 9N 9N 9N 9N 9N 9N 9N 9N 9N 9N 9N 9N 9N 9N 9N 9N 9N 9N 9N sP JH TQ rR sR tR uR vR x[ a) K> 6! N~ X; Z, 4^ `! x{ 7] '' g; %) r] Q( 3] T' ]' |, >) |, d; P> Z! wR ]{ w' X~ %) K) (, N> %> O^ %e }~ G~ g! xR yR zR AR q, d* q> i( 5: e[ Q, >) #, => f! V] Q< >) n> 5; X; [^ AB j, &/ 5; => ,' 4^ BR Dx Z' Z' +> 6) ^> 6* ,* A) qd ): n> c( !/ 8O CR DR {| 4x ed <; L_ `; K> 2! Q, O) >, l> F; P) %^ => b> 0; l> J) d; |) 0; ^' N> d; X, T, G; J; '> 8) M; G, @) Y; 4( ^; ][ 9> 7> bR [& ER ~d Y{ L; Q/ M( ",
"-h FR ~! k' B> m; K; P> }] k( 3/ !' b; w^ ;{ D( [] 0! f; !! 2, 3/ f; /) B> z{ M! %~ m; L; AB ;_ ~! n] =A i/ L^ wb GR HR @g 3: (' >^ W; 7{ X; k' %~ B> /] e] (, #! ]) B! 0! F{ {' 0; 0; #! #! *) (, h] |) O, <e _^ k' O, f, 8) O, O, {/ [^ u/ 7f j( IR JR KR 1| ~* Q; k* 4( [; j, R_ @] 6; ~* X' @] x) }, 4> P; @) /_ ~! Uy Ez S( L; z{ 2' O= 0- <> P; ]* m> B~ @) M/ ^R :d e[ 3^ p] ^R Cf LR MR NR TQ 9N 9N 9N 9N 9N 9N 9N 9N 9N 9N 9N 9N 9N 9N 9N 9N 9N 9N 9N 9N 9N 9N 9N 9N 9N 9N 9N 9N 9N 9N 9N 9N 9N 9N 9N 9N 9N 9N 9N 9N 9N 9N 9N 9N 9N 9N 9N 9N 9N 9N 9N 9N 9N 9N 9N 9N 9N 9N 9N 9N 9N 9N 9N 9N 9N 9N 9N 9N 9N 9N 9N 9N 9N 9N 9N 9N 9N 9N 9N 9N kQ OR PR QR l/ %z 5* O= #, ^> m> 0! ^~ 4~ I! k! A; k! H{ +~ 9/ RR U' 0' d; |, )' k! Y! 4e SR le TR 5^ y' K) 1, 8' N^ *~ #~ G{ 1) #y UR VR WR XR n< s~ =' vz YR 8> J) #, C~ L; $] c> 3[ >, Z] [; m; ZR F( j, C' i; 8) F{ C; |! `R z{ /' J; |) $, k; {* A)  S @) x, >^ <> UN .S +S L/ G< `; |; ,: l; 6' i' C> H, f! ], #> P) z, C' (, }] {/ O; H; A; 0; u; #! P> ]' }{ ]) (, () |) 6) f! l; X' u/ ~* I< _, &( rd @S #S $S L_ L^ L; B> ",
"Va %S {/ O, => f! e; 1) F{ l' e] {' B; e^ o{ W, P, y> 2, F{ !! y> y> O! O, O, K; ~] t; ae %~ O; O; B> N; i/ i/ _O 6K &S *S 5( ~! ~! [^ k' => P! y> /' /] P, ;, |, R, P, 5{ !! #! *> M) Z, ^' P! m; e; *> #, B> k' <e O; ae *) f! 5! W] [_ 2( !/ q> =S -S N+ ;S u/ q> 6; k; W' /' &, E, T_ S> D, /> O) _, Wd o~ Y{ ~! B> ]* (' L^ @) B> l; 6; F/ #_ ]^ <; ;> V) k; x~ ue -^ O= O) T> >S ,S 'S )S rP !S 9N 9N 9N 9N 9N 9N 9N 9N 9N 9N 9N 9N 9N 9N 9N 9N 9N 9N 9N 9N 9N 9N 9N 9N 9N 9N 9N 9N 9N 9N 9N 9N 9N 9N 9N 9N 9N 9N 9N 9N 9N 9N 9N 9N 9N 9N 9N 9N 9N 9N 9N 9N 9N 9N 9N 9N 9N 9N 9N 9N 9N 9N 9N 9N 9N 9N 9N 9N 9N 9N 9N 9N 9N 9N 9N 9N 9N 9N 9N 9N sP bN KH ~S {S ]S k; G; ^' i; G; c; C; R( H{ y' &) y' H{ >< p: ^S /S 0' P> P> A' T' u^ (S 4] _S u^ 4^ i, 1, 1, I] A' H{  ~ >! P> z, ii :S <S [S R= ~* 6> 7z }S _, &/ 2; N= ;> $, ,> |S &, Y; ,: %~ K; u; Z, i; y> R, P> 8] <) [{ X; O; ^' y) k' Q; q> A) u/ `; => !/ ld 1S 2S j[ [( I[ Z] xi X; l; C, i' .( K> /] |, #> O' >, C' #! #! H; O; H; ~' P> b/ y> 0' :e =, |) u; G; '> b> >> ;> W; @) `] `; o! 7h 3S 4S 5S I' +< P: R> P: ",
"Va 6S 0! B> L; O, i; x; 0; W~ {) u; F{ i, K! #! P, P/ f; F{ ]) P, /] b/ jx m; O; /] B> m; m; N/ L; P! y, i( 7S 8S >q 9S 2| p~ %~ W; /_ n] /' O, ~! <e P! `, f! *) *) t; `^ ;, >> 8) j, O, j, >) B> *) k> `, `, Z' 2( N; /' /' ~! m; Q/ [_ (' L^ P: >] 6J 0S aS o~ ,* @) q> u/ W; x) ^> 4; P: 4> N= K> `] vz cz bS L; {/ (* ]* <; L^ @) P= n~ I: {* L_ ;_ X; w! P; M/ cS ud C' N~ +< dS eS fS rP bN 0N 9N 9N 9N 9N 9N 9N 9N 9N 9N 9N 9N 9N 9N 9N 9N 9N 9N 9N 9N 9N 9N 9N 9N 9N 9N 9N 9N 9N 9N 9N 9N 9N 9N 9N 9N 9N 9N 9N 9N 9N 9N 9N 9N 9N 9N 9N 9N 9N 9N 9N 9N 9N 9N 9N 9N 9N 9N 9N 9N 9N 9N 9N 9N 9N 9N 9N 9N 9N 9N 9N 9N 9N 9N 9N 9N 9N 9N 9N 9N 9N 9N 9N 9N KH gS hS iS F; +! ^' () A; 4^ 2~ z' %! i, 5^ 3] le jS g' j! 0' #> ^~ x' ~' k! 4e kS lS U' J! Y, ]' 8) d, rC Ue 4] 4~ c; Q, mS nS oS UE ~^ ,* 5> }f |g w- V< F/ 3; -> $] ^> kR B~ 4( ;_ /' $] k( {' () >> 8, K; Y, X, ], l; O; (, ], l; P; >* ld P; P= U> 3: !d pS qS rS i_ $/ 5; F~ N= k' C> Wf a, U{ `, I; F; O, /' => #! 0; |, O; L; I; e; AB M( y; M^ $~ '> G; `, 6) l> l> C~ $] c( ): K> X; i/ Li sS tS EC H[ *^ uS Wd ",
"-* vS P! ~] /] z{ P! Q> u; e] ]] P, k( {' !' 0! 3/ {/ P/ u; ]) G; e; q] z{ /' N; Uy ]* N; =A L; k' N/ (' ld ue wS xS WH q| yS Y; ~! x^ V{ %~ L; =A x^ $] B> >) `, /' O, f! O; %~ c' f! f! *) B> [; i; i; i; O, B> L; /_ /' L; 7{ N; (> n] ^^ D, sx IN zS AS BS P: o) c( o~ Cy sz C~ @] '* u/ D, Z; P= g< Vd 2d ^^ ]* $, L; :> -' n] L; /' }; 2; 4; <> N; E, w! ,* P: CS  g $, Fc C% DS ES 9N 9N 9N 9N 9N 9N 9N 9N 9N 9N 9N 9N 9N 9N 9N 9N 9N 9N 9N 9N 9N 9N 9N 9N 9N 9N 9N 9N 9N 9N 9N 9N 9N 9N 9N 9N 9N 9N 9N 9N 9N 9N 9N 9N 9N 9N 9N 9N 9N 9N 9N 9N 9N 9N 9N 9N 9N 9N 9N 9N 9N 9N 9N 9N 9N 9N 9N 9N 9N 9N 9N 9N 9N 9N 9N 9N 9N 9N 9N 9N 9N 9N 9N 9N 9N 9N 9N aN rP FS GS HS B; #> w; d; W, b; ye @> O^ V' IS JS 8< 7) 7) A' C; 7] )' 0' T' %e le vd T, }{ A' y) `, C, Q) 9' KS Rd F{ 3^ LS CR MS #d fg ,* ): x~ (( k* Cx ): B- 7{ G, x) P< ^> 4( <; [; [^ e; h; h; #Q f! *) K! 1, c' @) 5; `^ N~ .> Y; >* M, O/ r; @) P; 7h NS lC OS PS D< [; i; -' G, X; N; X; Q, `, >) ,> B> Y' E, U, ]) ,> f! H; Z, B> ;_ P! () =, |) f! ;> M; k> $, m> V) W; -> I: ^> j, N= QS RS SS TS *^ u/ )* <> ",
"-* US Y; S( 5; U> H, f! P! Z, $, O, 0! #! ]) l> {/ ^> ;, {/ M! i; O, =) C> %~ O; /_ Y; S( AB [; k' N/ (' ld ~R gO VS WS AE 4* `; /' B> O, /' O; ]* B> => E, Q, M; k' O, `, X; m; `, >> k> ;] <e %~ e; `, /' /_ m; B> N; k' W; [; Z' $] L; P; cD D: XS 40 v] I} -^ 9> W; Q; @) sz $] ^> `; P; Q; X; C~ 9> ~* i/ 2( ;> N! $, :> (' {^ $, [; 3; 6; ): <> ;_ => n> {* O/ Wd YS :; ZS `S  T .T aN 9N 9N 9N 9N 9N 9N 9N 9N 9N 9N 9N 9N 9N 9N 9N 9N 9N 9N 9N 9N 9N 9N 9N 9N 9N 9N 9N 9N 9N 9N 9N 9N 9N 9N 9N 9N 9N 9N 9N 9N 9N 9N 9N 9N 9N 9N 9N 9N 9N 9N 9N 9N 9N 9N 9N 9N 9N 9N 9N 9N 9N 9N 9N 9N 9N 9N 9N 9N 9N 9N 9N 9N 9N 9N 9N 9N 9N 9N 9N 9N 9N 9N 9N 9N 9N 9N sP +T kQ dN @T #T $T %T 3^ x) )' &T ;' 0' _) #~ *T `! 0' '< )' () =, ad &T 7) c, c, %! g^ +! 7] J; ^' z, L) 3, =T v' 6) Hi -T ;T >T ,T e! >* ,* Wd *_ o! 9> O] =i @) ): x) 'T C~ L^ 7{ N; /' /' O) h; N' Q, ^' &) sC L) G, Z; n> /> 3^ r; h> )T ld 4; )* u/ D, 9R !T ~T %k ~^ I< ;> Q; 9> Z; X' 2( S' X; O, O) Z; =' Z; G; F; b> l; P= Q, k> O, j> ^' G/ Y_ X; >^ 5; -' @) Z; <; >^ ): I: E, n> I< {T ]T ^T z( <> 2( ]* Uy ",
"C_ /T F/ L^ <> G, n> P= O, >) `^ ^> l> >) 6) {/ ]* Z] $, L; -> ;> /' B> 6; 5; W; W; Y] [; ~! N; G, l; ;_ x~ }f ci (T ^I _T H] [; => f! `, M; m> m> N= V) U) C^ l; X; N= j, j, /] P! >) k> $, t; M! P, >> => 5; ]* [; 9> Z; G, l; G, k' Uy -^ S> :T 4= <T [T AE <> H, %~ )* x, N; ]* ^> `; <; 5; m> k> Z' p] ;_ -' #, O, ~] /' /' /' `, #, E, n> '* @) B> ^> ;> P; M/ P: L= }T >Q 0N 9N 9N 9N 9N 9N 9N 9N 9N 9N 9N 9N 9N 9N 9N 9N 9N 9N 9N 9N 9N 9N 9N 9N 9N 9N 9N 9N 9N 9N 9N 9N 9N 9N 9N 9N 9N 9N 9N 9N 9N 9N 9N 9N 9N 9N 9N 9N 9N 9N 9N 9N 9N 9N 9N 9N 9N 9N 9N 9N 9N 9N 9N 9N 9N 9N 9N 9N 9N 9N 9N 9N 9N 9N 9N 9N 9N 9N 9N 9N 9N 9N 9N 9N 9N 9N 9N 9N 9N 9N 9N 9N 9N 9N |T 1T 2T 3T 4T 5T /h S, #, 6! 4, y' 6T .~ 3, b, 7] {) L) Jz /h 7T T< 6! Y_ >) 8T '[ U, ]) /> 5i N) 8' T, G/ J[ 9T 0T aT bT mb v> '* i( cT G, s~ <; w! Y; I: z, D~ <; o~ G, M; 6' #, ,> s' &, v/ 6! X, zP t[ M' H> Z; /> Z; p~ g> dT 4* Cx 4( '* k; DA gK eT fT o( Ff 4( Q; I< =' p] @) G, /' N= C~ [; =' w, j> b> P= Y; N= &/ N= C~ A! O: s' O: @) P; k* i> f> i> p~ c* s~ _, w- ~* r, gT hT iT jT Mc Q= 4; s~ ",
"kT ;* 6* ~* f> 5* r; w, <; O] ,* Y; P= O) Z^ w, '* 6; 7_ Y; r; E, ][ 6; s~ q> 4( D' r; O] 4( ]^ 4( ): 5; >* ~^ lT mT I+ CA >* 5; @) [; .> P= E, n> `; ;> N= l; n> m> ;> J) &/ #, ^' '[ #! j> N' ^) l~ A~ Z] k; -' 5; n> Z] `; G, p! Y' O] q> Lc nT oT pT qT rT f> X' <e I> E> [; ]* 5{ Y; k; n> >, >> k; H] ~* e[ b( A~ ]* V) O) e> u) &/ e> 3^ 6> Y; /> >, }, P: sx 6b sT tT KH 9N 9N 9N 9N 9N 9N 9N 9N 9N 9N 9N 9N 9N 9N 9N 9N 9N 9N 9N 9N 9N 9N 9N 9N 9N 9N 9N 9N 9N 9N 9N 9N 9N 9N 9N 9N 9N 9N 9N 9N 9N 9N 9N 9N 9N 9N 9N 9N 9N 9N 9N 9N 9N 9N 9N 9N 9N 9N 9N 9N 9N 9N 9N 9N 9N 9N 9N 9N 9N 9N 9N 9N 9N 9N 9N 9N 9N 9N 9N 9N 9N 9N 9N 9N 9N 9N 9N 9N 9N 9N 9N 9N 9N 9N TQ uT @T vT wT xT 6g 1< }, Z( `R yT zT AT BT T< b( X; O: CT &[ ]i g- *[ K~ D~ X{ b( J~ J~ g- `: DT sC xf ET $; FT Sf GT HT IT ,[ 2[ f> +< Cx V; w, e[ 5* d- yC b- <; -^ ~* _w T< M: %/ 9D Hi $[ :[ R_ b( 9> f> _, c< d- V; U= Q= E< t* )b p~ k* +, 9R JT KT LT 6h *_ d* Mc U= D: 4x ,, f> !/ I: I: P: Mc /; 0- e[ F/ ,[ 9[ Cx s~ w- a- #[ g- `h x~ x[ Q_ g* ~^ ~^ i* K= T{ E/ 9( 9( Gw MT NT OT PT $| 2> !| _b ",
"QT RT ST V} TT UT (| >[ VT WT >d XT ]k YT (f !| @g ZT (| `T  U `T .U u> #| o} *S +U +U @U #U (z $U %U &U {g || *U O| =U -U %U -< S^ o( -b %b QC py ;U s< Jd jC $f }( ~d _: Lg D< :; n< g> h> q- >U ,U H= |f s< o( -< Lg %b N] [> tc UT 'U )U !U Xb ~U {U ]U !E N] ;j K_ Pc E< ;b @b L= n< R= *; $R n< uf 7/ r< h* 9- %; =b 0] ^U /U (U ^U _U _U hb 1* hD <- :U vx #^ <U [U KH 0N 9N 9N 9N 9N 9N 9N 9N 9N 9N 9N 9N 9N 9N 9N 9N 9N 9N 9N 9N 9N 9N 9N 9N 9N 9N 9N 9N 9N 9N 9N 9N 9N 9N 9N 9N 9N 9N 9N 9N 9N 9N 9N 9N 9N 9N 9N 9N 9N 9N 9N 9N 9N 9N 9N 9N 9N 9N 9N 9N 9N 9N 9N 9N 9N 9N 9N 9N 9N 9N 9N 9N 9N 9N 9N 9N 9N 9N 9N 9N 9N 9N 9N 9N 9N 9N 9N 9N 9N 9N 9N 9N 9N 9N 9N sP JH FS }U |U 1U hc Aw `} 2U hD Nc Wh r* L[ 7x r< p< Gh 3U 9b BD 4U zw 3U ^k S^ %b 5U ^k ~k r/ t! $b uf A[ Y} 6U 7U 8U 9U || u> 0U `C 5< t! `a G= Q* Jd rc %b N] UT aU /| !| U| (x @g >d +| %| Rc ^k t! bU zE #| k| AD cU %| Y} _! {g W} V} n} dU eU fU gU c| Fy $B f| u| 3} L} hU kD ky by V} iU jU ff g| _| cU kU X} X} L/ T} by by lU kD nD xE ff mU nU K} e| R~ #F |} oU -l pU qU rU sU gU tU uU vU wU xU ",
"yU zU AU BU CU DU EU FU GU HU IU BU JU KU LU MU NU OU PU QU RU Y2 YD SU TU YD vl UU VU ,3  3 ;3 -} WU XU YU ZU 5n `U `2  V .V 9U Fj [j +V qE @V ql +V pE #V $V %V &V *V =V -V ;V >V ,V ,V ;V 'V )V )V !V {j ~V {V M| xj qE {j {1 ]V ^V sj &V /V (V EU _V :V <V [V }V l} }} 9| w] |V 1V |} c} c} 2V k} Pj 3V ;V zj 4V Nj 4V R| 5V 6V 7V wE N} 0j +l sE d| 8V AR jj 9V 0V uK 9N 9N 9N 9N 9N 9N 9N 9N 9N 9N 9N 9N 9N 9N 9N 9N 9N 9N 9N 9N 9N 9N 9N 9N 9N 9N 9N 9N 9N 9N 9N 9N 9N 9N 9N 9N 9N 9N 9N 9N 9N 9N 9N 9N 9N 9N 9N 9N 9N 9N 9N 9N 9N 9N 9N 9N 9N 9N 9N 9N 9N 9N 9N 9N 9N 9N 9N 9N 9N 9N 9N 9N 9N 9N 9N 9N 9N 9N 9N 9N 9N 9N 9N 9N 9N 9N 9N 9N 9N 9N 9N 9N 9N 9N 9N 9N 9N sP bN aV bV cV dV eV fV YD gV hV iV jV U2 kV lV mV nV oV pV qV rV sV tV uV O2 EU vV `2 wV xV wV yV zV AV BV CV DV EV FV GV HV d! IV JV KV LV MV Pk NV OV HV PV QV RV SV TV TV UV VV WV XV YV ZV `V  W .W +W @W #W $W %W DQ &W *W =U =W -W ;W >W oR ,W Wo 'W )W !W ~W {W ]W ^W /W (W _W =U :W Un <W [W Im }W |W <n 1W 2W qj 3n 3W 4W 5W 6W 7W 8W 9W :m 0W om aW _W bW cW mm dW eW fW gW hW iW jW kW lW mW 3. ",
"1  nW oW pW oW qW rW sW tW uW vW wW xW yW zW AW BW cq CW DW EW FW GW HW IW JW KW LW MW NW OW PW QW RW SW TW UW VW WW XW YW ZW `W  X ,/ .X ,/ +X XH @X WI #X F+ $X %X &X *X =X -X ;X >X ,X 'X )X !X ~X {X ]X ^X /X (X xn _X :X <X [X G9 }X |X 1X 2X 3X 4X 5X 6X 7X *X 8X 9X 0X @I aX bX cX dX eX fX gX hX iX jX kX Sl lX mX nX oX pX qX rX sX tX uX vX wX xX yX zX AX JH 9N 9N 9N 9N 9N 9N 9N 9N 9N 9N 9N 9N 9N 9N 9N 9N 9N 9N 9N 9N 9N 9N 9N 9N 9N 9N 9N 9N 9N 9N 9N 9N 9N 9N 9N 9N 9N 9N 9N 9N 9N 9N 9N 9N 9N 9N 9N 9N 9N 9N 9N 9N 9N 9N 9N 9N 9N 9N 9N 9N 9N 9N 9N 9N 9N 9N 9N 9N 9N 9N 9N 9N 9N 9N 9N 9N 9N 9N 9N 9N 9N 9N 9N 9N 9N 9N 9N 9N 9N 9N 9N 9N 9N 9N 9N 9N 9N 9N 9N 9N kQ BX CX DX EX FX GX HX IX JX KX LX MX NX OX PX QX RX SX TX UX VX WX XX YX ZX `X  Y .Y +Y @Y #Y $Y %Y &Y *Y =Y -Y ;Y >Y ,Y 'Y )Y ,Y !Y ~Y {Y $Y ]Y ^Y /Y (Y _Y :Y <Y [Y }Y |Y 1Y 2Y 3Y 4Y 5Y 6Y 7Y 8Y 9Y 0Y aY 4K bY cY dY  P eY fY gY hY iY jY kY lY mY nY oY pY qY rY sY tY uY [Y vY wY xY yY zY AY BY CY DY EY FY GY 3o HY IY JY KY LY MY NY OY PY QY RY SY TY UY VY WY XY YY ZY `Y  Z ~u .Z +Z [9 ",
"@Z #Z $Z %Z &Z *Z =Z -Z ;Z >Z ,Z 'Z )Z !Z ~Z {Z ]Z ^Z ry !9 /Z (Z _Z :Z <Z [Z }Z |Z 1Z 2Z 3Z 4Z 5Z 6Z 7Z 8Z 9Z 0Z aZ bZ cZ dZ eZ fZ gZ hZ iZ !g jZ kZ lZ mZ S$ Up c9 o0 nZ Kp *q oZ pZ qZ rZ f( sZ tZ uZ vZ ,5 wZ xZ yZ zZ AZ =0 BZ CZ DZ EZ FZ GZ 88 8r HZ IZ JZ KZ LZ MZ NZ OZ PZ QZ RZ SZ TZ Jp UZ VZ WZ [s XZ %r YZ ZZ `Z  ` .` oL +` @` #` 59 @` Zp $` %` &` *` sP 9N 9N 9N 9N 9N 9N 9N 9N 9N 9N 9N 9N 9N 9N 9N 9N 9N 9N 9N 9N 9N 9N 9N 9N 9N 9N 9N 9N 9N 9N 9N 9N 9N 9N 9N 9N 9N 9N 9N 9N 9N 9N 9N 9N 9N 9N 9N 9N 9N 9N 9N 9N 9N 9N 9N 9N 9N 9N 9N 9N 9N 9N 9N 9N 9N 9N 9N 9N 9N 9N 9N 9N 9N 9N 9N 9N 9N 9N 9N 9N 9N 9N 9N 9N 9N 9N 9N 9N 9N 9N 9N 9N 9N 9N 9N 9N 9N 9N 9N 9N 9N =` -` ;` >` ,` '` )` !` ~` LM {` ]` ^` /` (` _` :` <` [` }` |` 1` 2` 3` 4` 5` 6` 7` 8` 9` 0` a` b` c` d` e` f` g` h` i` j` k` l` m` n` zh o` p` q` r` s` t` u` v` w` p` x` y` z` A` B` C` D` E` F` G` H` I` J` K` L` M` N` O` P` Q` R` S` T` o` U` V` W` X` Y` Z` ``   .. .+ .@ .# .$ .% .& .* .= .&e - .; .> ., .' .) .! .~ .{ .] .^ ./ .( ._ .: .< .[ .} .| .1 .2 .wa 3 .4 .5 .6 .7 .8 .Kz gO Wx ",
"*] Cs Oc >b 9 .}- |- 0 .Rc r( a .b .5b ]= WC c .d .e .f .g .T* ]x h .>j 5x x= 5U i .)w )w <x t= 9b v= be |b j .k .Fs l .(] qa m .Wx ,_ Wx n .7= Jf o .p .q .r .s .t .u .v .w .x .y .z .A .B .C .D .E .F .G .J- H .=[ Is n= I .5= J .oM |c l( K .L .M .N .O .P .Q .@D R .S .T .U .V .W .X .)t Y .FN Z .` . .....+..@..#..$..%..&..*..=..-..;..,t >..qv Gt ,..'..QQ TQ 9N 9N 9N 9N 9N 9N 9N 9N 9N 9N 9N 9N 9N 9N 9N 9N 9N 9N 9N 9N 9N 9N 9N 9N 9N 9N 9N 9N 9N 9N 9N 9N 9N 9N 9N 9N 9N 9N 9N 9N 9N 9N 9N 9N 9N 9N 9N 9N 9N 9N 9N 9N 9N 9N 9N 9N 9N 9N 9N 9N 9N 9N 9N 9N 9N 9N 9N 9N 9N 9N 9N 9N 9N 9N 9N 9N 9N 9N 9N 9N 9N 9N 9N 9N 9N 9N 9N 9N 9N 9N 9N 9N 9N 9N 9N 9N 9N 9N 9N 9N 9N bN KH *` )..!..^b `- q' ~..oc }- 9- ~b 2g {..md ]..|x O* ', 9D I< o] ^..m- 8> `h l- c< @; Kx s, hi i> ~* z: =i w- =i ,* {^ /..(.._..:.._i <..[..}..|..1..@h 2..G= h* K= 3..4..5..6..7..-b l* s, Jh 9[ 4_ w! l- v_ ed `] o) l; N= ]> &, ): s~ d* I[ r- e! D_ {_ B- ][ b* =' p~ 5( 8..]; U= C= !] R= Li X< Q= /; 9..0..a..%1 lw u- b..a) :: H] /; Pe n* m* Cx a- ^; Kh +, 5* 6; 2; .> ~* F/ $[ F/ w- ): ",
"Rm EQ V) C^ V) B~ <h O] (' <; @) ]* w> c..d..e..f..g..a_ >* U= h> D_ sx $/ I[ <; {^ <; #_ |; 5; >^ C~ c> l~ F~ /..h..i..j..k..r; n> => C> K> Z; `; `; s~ M/ 7z $/ Fd :: :T D:  1 l..MO m..S{ n..9- vi t, A/ pD uD g) _, s~ k; 6> o.._, p] @) o! p] h> 6z 5( p..|; $, x) 'T yC I: Q; k; Cx D' ^; i> *w Q= i> 1i -b `| q..r..s..BD h: Y< /b $b (b $/ 1w K= t..u..JH bN 9N 9N 9N 9N 9N 9N 9N 9N 9N 9N 9N 9N 9N 9N 9N 9N 9N 9N 9N 9N 9N 9N 9N 9N 9N 9N 9N 9N 9N 9N 9N 9N 9N 9N 9N 9N 9N 9N 9N 9N 9N 9N 9N 9N 9N 9N 9N 9N 9N 9N 9N 9N 9N 9N 9N 9N 9N 9N 9N 9N 9N 9N 9N 9N 9N 9N 9N 9N 9N 9N 9N 9N 9N 9N 9N 9N 9N 9N 9N 9N 9N 9N 9N 9N 9N 9N 9N 9N 9N 9N 9N 9N 9N 9N 9N 9N 9N 9N 9N 9N 9N 9N SQ rP v..w..6) l> L; W; Uy W; [; {* =h x..Oa y..J= I< bi U! Q, 2' s' z, t[ R' ;' hh A, Q' Z; Z' S' K> l~ 9{ >! 5~ #{ ]~ :~ :~ 1h z..yf 0) 7] T^ ih j> O] :; =' Y; Z; hi 2i :J 6. A..1* 7* $[ 7> @] 8~ A! 6i t[ %/ 3^ &/ j, '' _) z~ J; j> M; I< ): ): <; W; 0> 0> n~ >, ^> M; A~ w, }, ,, 1g f> f> q> H] =' _U B..C..D..J[ R] {e #, 8> C> => 9> ][ /> U^ u) >, z, z, M) J; $~ Q) ;, m~ }{ i, W, l~ ",
"=/ zd l> c> j> ^> C> X; n> [; 5* Y; ]* @_ yw E..zR gE *w 9> w- ,, `] H] '~ o] k> j, C~ ;> #, /> z{ |) g] p: k! S, O' F..G..%^ ], #> n^ N> H..B' C, Q> ;) J> ,: N; k' 5! 5! S' x[ I..J..K..2: G> t/ Q, 4' %/ L..N~ 2' Q, *> ,' ^' K> J> J>  ' a, */ Z; Y; i; i; (, D; A' M..)> M) C' C' k> #, Q, S' W; m> M; <; D_ a! N..O..(y tc 2P 4> o! `] _, ): #, P..Q..KH bN 9N 9N 9N 9N 9N 9N 9N 9N 9N 9N 9N 9N 9N 9N 9N 9N 9N 9N 9N 9N 9N 9N 9N 9N 9N 9N 9N 9N 9N 9N 9N 9N 9N 9N 9N 9N 9N 9N 9N 9N 9N 9N 9N 9N 9N 9N 9N 9N 9N 9N 9N 9N 9N 9N 9N 9N 9N 9N 9N 9N 9N 9N 9N 9N 9N 9N 9N 9N 9N 9N 9N 9N 9N 9N 9N 9N 9N 9N 9N 9N 9N 9N 9N 9N 9N 9N 9N 9N 9N 9N 9N 9N 9N 9N 9N 9N 9N 9N 9N 9N 9N 9N 9N 9N SQ TQ R..S..T..=> H; P! => t) 4( y[ `b U..V..r, &~ .> g- I< Z( k- e[ l- |< U! e> zg W..Ii H> s) M> -, J! k! }) :^ U' %) m! Rd X..X~ W, ~' $~ @> !! -> c* F> &~ J> I, 3h Y.._p Z...| f* G< Px 6; x! V< m- 2[ F/ I: @] %] k~ 0( h; z, E, }, o! :' 9> Y; &~ O' W) u) %^ &, .> b- E, C) 4> &( f> x~ !d sx H] `.. +..+.++.), :) @+.N~ l) -) C> Z; 1( N= O: Q) g^ =, A; /~ 9) =: m! D( }~ w{ K! !' 0) ",
"*] 6S Z, h; F; j> f! O, -> 4( 4* ~* 4( q> `v #+.(o $+.;> () 8{ +! =, W, {[ +! W^ X, z~ F; ]' 1, N^ |{ p: %+.U' j! _< ;' S, J] 8' U' @> _) A; (, S, d; L) M) ;, 0! y) 8{ ^' M) ,[ &+.EJ *+.r- M; $] {/ C' 2' M> O' g! g^ h; !' h] j, n> X; C> Q,  ' E, G, E, /' H, {, j' =+.t/ 5; t/ E, e[ 9> I< ~* P: ~* -> ~/ !d N[ -+.;+.>+.'U 1' I< }, ): O= }; ,+.'+. T 9N 9N 9N 9N 9N 9N 9N 9N 9N 9N 9N 9N 9N 9N 9N 9N 9N 9N 9N 9N 9N 9N 9N 9N 9N 9N 9N 9N 9N 9N 9N 9N 9N 9N 9N 9N 9N 9N 9N 9N 9N 9N 9N 9N 9N 9N 9N 9N 9N 9N 9N 9N 9N 9N 9N 9N 9N 9N 9N 9N 9N 9N 9N 9N 9N 9N 9N 9N 9N 9N 9N 9N 9N 9N 9N 9N 9N 9N 9N 9N 9N 9N 9N 9N 9N 9N 9N 9N 9N 9N 9N 9N 9N 9N 9N 9N 9N 9N 9N 9N 9N 9N 9N 9N 9N 9N 9N 9N )+.!+.~+.f, L> => #, f; t; Q; {+.]+.^+.w, A; ^' tf C^ C~ J~ l> ^> %f }{ () S, G/ =+.#, 7] &) X~ A; a; 3, A; k! v' H{ Rd M^ X, Z, e; W, @> ]' >) >> ^> S, D( 8) /+.(+._+.:+.fg jP -' !/ .: Z~ F~ w, /..k~ #Q b^ <+.<+.[+.T^ 8~ P, a> O! L; l> T) X, f] k! i, h] W^ h; b> f! /' 5; -' ]* (' 4( Q; k; w* lf }+.ky /> |+.|+.*! #> =~ Y, T) a> () ^~ =~ o{ x{ =( 1+.2+.3+.4+.g{ 6~ >! h] 0; +_ ",
"*] 7d H, K> J) [; <> P; !/ ,* _, r~ 5; f> b .5+.6+.7+.L; =] 9{ ]~ !{ G! E! 4^ T^ ]) '> ]) ]' m! m! y' (S 8+.@~ x' 9+.V' Q( ){ 0+.G! 9) ]e M{ @! 7~ '! '! #! 8~ Z~ *! 5~ 6~ a+.b+.c+.d+.e+.f+.d_ M! g+.Uy /) %f 9~ _h _h ^) 5_ T^ b> C~ $, l> tf `^ ]* W; <h N= X;  ' 3^ `( 5* r; ): O] jP 5* Cx c* p~ h+.i+.j+.0P >* 3N k+.l+.2* v> /..2; s; w! m+.n+.-D bN 9N 9N 9N 9N 9N 9N 9N 9N 9N 9N 9N 9N 9N 9N 9N 9N 9N 9N 9N 9N 9N 9N 9N 9N 9N 9N 9N 9N 9N 9N 9N 9N 9N 9N 9N 9N 9N 9N 9N 9N 9N 9N 9N 9N 9N 9N 9N 9N 9N 9N 9N 9N 9N 9N 9N 9N 9N 9N 9N 9N 9N 9N 9N 9N 9N 9N 9N 9N 9N 9N 9N 9N 9N 9N 9N 9N 9N 9N 9N 9N 9N 9N 9N 9N 9N 9N 9N 9N 9N 9N 9N 9N 9N 9N 9N 9N 9N 9N 9N 9N 9N 9N 9N 9N 9N 9N 9N 9N JH u..o+.:x v: )* G, t; [_ '* p+.q+.r+.m> G{ 7] k> [^ m> >) J; 6) () +! /~ 7] g^ 0> P! A; 0{ @! F; *> M> ], $> @> y' T, Q) M) 5! O; f! C, C' i; {/ A~ '> ~~ $] F= s+.t+.u+.v+.tf C^ <; l_ w+.k~ >> c> W^ *! 9] }) X, 8~ 8{ Z~ Z~ z! #! {/ b> 8{ +! G{ 4^ ]) $! ]) #! b> `^ ;> ]* W; ]* ;> 6; <> P; E: x+.y+.z+.y) y' g] Y, K! ]~ '! G; ,> 8{ =! ]~ i, 1! Y, j_ g] I{ |~ i, () Y, () u; T, ",
"l< A+.cD r' ,[ =' H] H] A) qe D' c[ -> *^ B+.C+.D+.E+.D, F( P! `, ^' ]' 8] )' >> F( => ;, {) ~'  < {{ F+.4e @~ E( e^ ,{ te G+.D^ H+. A I+.A{ ]~ V/ {~ *! G; 0! y> P, .{ !~ 9{ Y^ J+.N5 K+.L+.[] C^ |; 5; h] tz *! f] 9] Z, U, @+.^) %f N! T) T) !z O! B> H; Q, M; J) z,  ^ M; E, => ^> /> N= I: Cx B- M+.n] ]^ R= {* hT N+.O+.P+.!* 0- Q+.#_ V; R+.S+.=` bN 9N 9N 9N 9N 9N 9N 9N 9N 9N 9N 9N 9N 9N 9N 9N 9N 9N 9N 9N 9N 9N 9N 9N 9N 9N 9N 9N 9N 9N 9N 9N 9N 9N 9N 9N 9N 9N 9N 9N 9N 9N 9N 9N 9N 9N 9N 9N 9N 9N 9N 9N 9N 9N 9N 9N 9N 9N 9N 9N 9N 9N 9N 9N 9N 9N 9N 9N 9N 9N 9N 9N 9N 9N 9N 9N 9N 9N 9N 9N 9N 9N 9N 9N 9N 9N 9N 9N 9N 9N 9N 9N 9N 9N 9N 9N 9N 9N 9N 9N 9N 9N 9N 9N 9N 9N 9N 9N 9N bN JH T+.3{ Vd Zi Vd x- o* ^e U+.ls V+.p] $> DT ): ud Y' X] u) R' ,> G~ U] w/ W+.X+.`; c' h] ]) *) H, m> H, Q> N^ :! 4, 2! j< z> ,: 6; #[ 6> >^ u/ f> g- 6; s; oc Y+.H+ fl r< I: T_ H] -' V) O= `; `; C> j, [{ W) S' Y] => W~ l> &/ /' Y; X; #, h; N) &T ^' #, X; X; E, k; i> '* ,: 4( 4; H] 5: 6: #1 Z+.`+.C* hh B, 6' h; ^' ^' l> m; E, K> y) )' C, ai J) =) $> kx +> J> *> }] g, 7^ N^ ",
" @..@.@) n> ][ g- `h o> j( +@.@_ 7* ,* ^e @@.#@.$@.%@.d* Y' => m> >) l> u; ^' ;, ;] *) e; k( i, s^ I{ 5^ <! @> E; _) e^ t{ p{ &@.V~ o{ 2~ G{ 7^ {' c; *) X; HP L; m; f! t; K; 7> *@.=@.-@.g> J> `] {* k; y) )> h; ,> C> X; C> R' K> j, Z' :> `, /> m> k' #, 2' t) C> =+.;@.>@.J> f! h; ,> => l; @) c( (' 4( I) /i A/ ,@.o+ '@.N] Mc hi K[ <d n .)@.!@.0N KH 9N 9N 9N 9N 9N 9N 9N 9N 9N 9N 9N 9N 9N 9N 9N 9N 9N 9N 9N 9N 9N 9N 9N 9N 9N 9N 9N 9N 9N 9N 9N 9N 9N 9N 9N 9N 9N 9N 9N 9N 9N 9N 9N 9N 9N 9N 9N 9N 9N 9N 9N 9N 9N 9N 9N 9N 9N 9N 9N 9N 9N 9N 9N 9N 9N 9N 9N 9N 9N 9N 9N 9N 9N 9N 9N 9N 9N 9N 9N 9N 9N 9N 9N 9N 9N 9N 9N 9N 9N 9N 9N 9N 9N 9N 9N 9N 9N 9N 9N 9N 9N 9N 9N 9N 9N 9N 9N 9N JH ~@.=Q {@.]@.W' P: S~ ^@.&j /@.(@.`F YO M: zC d* -g h> J[ k- F/ Z; E, P) v/ f- @; C) J) y) !! ;, [_ l> /) f; o{ _@.:@.hh a- 9> t/ D~ P= s~ '* A) 6: YO s~ `] J* <@.[@.}@.[> ed ed P: >^ M; `: ed F/ -> m> O) }; t/ ed G, ]* Z; }, l; w, G, <> => i' z, e> 6' ;> -> Y' R> :: +< P: Q; k* 1' T{ `/ |@.1@.2@.|f %^ ]!  > z, Q, C' =) B( 5; Y] /> c' ;) O) t; L! A; 0' |, Z, |, ~~ g, o{ p^ ",
" @.3@.2( 9> Z^ e[ a- i> qe +@.x] Q; J< sx 4@.5@.3Q jw 5* => f! l> #! 0! `, {/ ]* ,: 6@.H; (, i, k! 8' T, 3, ,' y; O' /g x; ~' z; f, R, ], *> *) P! /^ m; 5; y, W; 9B v: A> z{ -i 7@.8@.9@.R= B) Q; P; k; M) g^ 6! j, => f! Q, O' J) 5! /' O; => m> [; 2( X' z> a' 0@.A, a@.]h g< o! m> E, Y' 2; ~* 2( E, Ji eP Zi YO b@.7I c@.JB d* o] o> d@.e@.f@.=` uK uK 9N 9N 9N 9N 9N 9N 9N 9N 9N 9N 9N 9N 9N 9N 9N 9N 9N 9N 9N 9N 9N 9N 9N 9N 9N 9N 9N 9N 9N 9N 9N 9N 9N 9N 9N 9N 9N 9N 9N 9N 9N 9N 9N 9N 9N 9N 9N 9N 9N 9N 9N 9N 9N 9N 9N 9N 9N 9N 9N 9N 9N 9N 9N 9N 9N 9N 9N 9N 9N 9N 9N 9N 9N 9N 9N 9N 9N 9N 9N 9N 9N 9N 9N 9N 9N 9N 9N 9N 9N 9N 9N 9N 9N 9N 9N 9N 9N 9N 9N 9N 9N 9N 9N 9N 9N 9N 9N 9N bN JH rP g@.h@.!/ ,, T{ 6z i@.j@.k@.l@.DC 5i ed p~ D_ ~* c< m@.I< Y; V> 3' `: m- ), o) Z; C' (, G; W~ %f W, /) U, n@.o@.5i `] ): z, R_ .> _, p~ Q; ~* 2[ =' '~  1 p@.q@.gl j| $/ 4> M/ -^ Y' _, `; Z^ M; /> @] r@.z, &~ 5; (' x, }, Z; t/ Y' 1g @) C> U{ O) K> M; `^ I: X' f> Wd ^R j( p~ f> x~ !] </ s@.t@.Th e< KP o! I< V> E, t) G, x, l; D> u@.k) J) ;] ;, A; A; |, y> 3/ }] 7^ g, |{ ",
"8; v@.~! X' O] O] w! 4; a( w@.C< q> cz !] x@.y@.z@.A@.k* [; $, i; 0! `, z{ Z' $] /_ s] () A; A; &) k! *~ :^ 7^ &) ^~ wg c; g, '' l> k( Z, 0! 3/ y> q] B> 5; Z' x, N; Z' .' V> F< B@.C@.D@.*; o! X; >> L; >> -, =+.U! M; m> j> Y_ Q, B> K; O, i; $, W; 7{ L_ 7{ f! >) E@.F@.&/ 9> q> o! F> Y] a) o~ !/ 5> n) '~ G@.]; H@.I@.J@.r< )b h) ,) K@.L@.TQ 9N 9N 9N 9N 9N 9N 9N 9N 9N 9N 9N 9N 9N 9N 9N 9N 9N 9N 9N 9N 9N 9N 9N 9N 9N 9N 9N 9N 9N 9N 9N 9N 9N 9N 9N 9N 9N 9N 9N 9N 9N 9N 9N 9N 9N 9N 9N 9N 9N 9N 9N 9N 9N 9N 9N 9N 9N 9N 9N 9N 9N 9N 9N 9N 9N 9N 9N 9N 9N 9N 9N 9N 9N 9N 9N 9N 9N 9N 9N 9N 9N 9N 9N 9N 9N 9N 9N 9N 9N 9N 9N 9N 9N 9N 9N 9N 9N 9N 9N 9N 9N 9N 9N 9N 9N 9N 9N 9N 9N 9N 9N 9N 9N 9N TQ M@.N@.n> C) c* f) O@.P@.Q@.,, .> Cx c* O/ s~ 8[ Z( e[ I< X; => Z^ U^ w, [; O, ^' >, [; <> n> Z] @) Z; M: R@.`( Z] `^ h] Qz &, '* >* >* s~ a- v: Fd S@.Oa ]L Ud T@.s< cT f) (b :: G< p] ,, ): C) i> 2[ 8> o) P: i( o! `; 5; H> G, U@.o! Qx V@.][ P; q> a) =' +< x~ #b Xx ue h> Fd 6: !] [d W@.X@.h: g- Y' i> 5> Y' l; J) z, N~ K> M; h' N~ N~ $] (, A; {' A; `, 5; B> `, I; 1, ",
"*] Y@.4_ ]/ m_ 6_ j; {^ m] ~/ o~ 7: M, M, Z@.`@. #..#.3: >^ Y; m; t; O; k' k> +#.${ [] K! 9{ WP V/ A{ d{ t{ @#.C] ah ##.v{ c{ ;e ': b{ Vg d_ .{ ${ $#.W~ P! ae m; => k' A> V> *' P% %#.&#.R= /' 6] *! ;, G; h] V] Y_ >, j> ]) G~ l> N! >> .: M( [_ L; -> W; t; /) 8~ *#.=#.-, -> 3: o! E> =^ E> 2( M'  > g< v: ^* -#.;#.>#.,#.|f s~ 8> u@.'#.)#.9N 9N 9N 9N 9N 9N 9N 9N 9N 9N 9N 9N 9N 9N 9N 9N 9N 9N 9N 9N 9N 9N 9N 9N 9N 9N 9N 9N 9N 9N 9N 9N 9N 9N 9N 9N 9N 9N 9N 9N 9N 9N 9N 9N 9N 9N 9N 9N 9N 9N 9N 9N 9N 9N 9N 9N 9N 9N 9N 9N 9N 9N 9N 9N 9N 9N 9N 9N 9N 9N 9N 9N 9N 9N 9N 9N 9N 9N 9N 9N 9N 9N 9N 9N 9N 9N 9N 9N 9N 9N 9N 9N 9N 9N 9N 9N 9N 9N 9N 9N 9N 9N 9N 9N 9N 9N 9N 9N 9N 9N 9N 9N 9N 9N 9N 0N !#.~#.{#.<; _; KC ]#.^#./#.r- D> ,[ n- -^ H] ed 5* 1( F/ m> T) 8T Q] ^> O! 6] 8~ ;, <; W; ): '* u/ G, N: Dx x) a> B! '! (#.l~ #_ O/ 7: o> .> k> ~* .g _#.:#.]A <#.9< ;i Mc !] p~ 1( I< i> ~* `] Q; s~ 1( ,, 3: L^ -' -> W; Z] M; 2( v: C) *[ Z( f> *^ c* d* Vd Mc E< :: h> +< cT *_ x~ ab [#.}#.FC l- v, U^ /> #, |, h] W, *! 0; !! F; a> G~ QP ~~ {~ J! J! ]) O! n> => M) $~ ",
"=/ oA B> AB $] m> ]* >^ =_ -^ -^ {_ }S !] |#.1#.2#.3#.J< >^ m> ;, P, %~ P! k> Q/ u! J' Y, @{ !~ c{ H! e_ /~ J( 4#.E] 5#.C] 0{ J( ': .{ .{ [] /) [_ 6#.{) k( y] t; ;, M! n] /_ -< 7#.8#.9#.oc Y] j> (h 5_ }) M{ i, g; !' F; >! =~ F~ C^ C^ $, (> :> >^ y~ :> 4_ x> b{ *! Qz V] $, /_ B> >) c> l> [^ {/ Y_ L) [; s; =b 0#.a#.b#.Rc /; e[ c#.d#.e#.0N 9N 9N 9N 9N 9N 9N 9N 9N 9N 9N 9N 9N 9N 9N 9N 9N 9N 9N 9N 9N 9N 9N 9N 9N 9N 9N 9N 9N 9N 9N 9N 9N 9N 9N 9N 9N 9N 9N 9N 9N 9N 9N 9N 9N 9N 9N 9N 9N 9N 9N 9N 9N 9N 9N 9N 9N 9N 9N 9N 9N 9N 9N 9N 9N 9N 9N 9N 9N 9N 9N 9N 9N 9N 9N 9N 9N 9N 9N 9N 9N 9N 9N 9N 9N 9N 9N 9N 9N 9N 9N 9N 9N 9N 9N 9N 9N 9N 9N 9N 9N 9N 9N 9N 9N 9N 9N 9N 9N 9N 9N 9N 9N 9N 9N sP =` f#.g#.]^ +h `> h#.Af /#.R= ): Cx Cx o~ P; a- 6; o! Z; V) {/ x! `~ `^ j; .: J' ${ Q/ x> %f P, V{ !! g; i#.W^ 8{ #! () 7] >, <; P: 7: :: S' 8{ ^> Bw j#.k#.l#.2g c* -> y~ =_ L; V] j> x! j, V) W; w! b> j; -> => n> O; L; O! j, [; B> C' g^ Q] $, 5; k> m#.-' ~* i> '* P; `h Y; !/ 4( m# n#.o#.%| N: hh W^ h; ^' {' &) {' &) E; i, K! f] ^~ ~~ p#.}] ;e K! (, T) k> Z, '' A; ",
"=/ OO <; L^ ;_ 7{ !/ A) ld u/ /_ 1g q#.dT EQ r#.s#.t#.-^ N; ;, }] {' 7^ !! 5{ B> P, i; (, Z, I; K! A; i, P> !! :^ &) :^ e^ C; g, Y, () l> y> z{ @) ;_ /] /) ${ u#.$] v#.-_ w#.7[ x#.y#.z#.Y| Xi A#.B#.T) tz >! X, &) (, !! k! $~ P= k; k; n> W; X' D, ~* ~/ L^ ;_ $] &, D~ t/ o! (' $] x! W] j; V{ 4_ #Q A! 9> O/ C#.D#.E#.vF mk q; VC F#.G#.JH 9N 9N 9N 9N 9N 9N 9N 9N 9N 9N 9N 9N 9N 9N 9N 9N 9N 9N 9N 9N 9N 9N 9N 9N 9N 9N 9N 9N 9N 9N 9N 9N 9N 9N 9N 9N 9N 9N 9N 9N 9N 9N 9N 9N 9N 9N 9N 9N 9N 9N 9N 9N 9N 9N 9N 9N 9N 9N 9N 9N 9N 9N 9N 9N 9N 9N 9N 9N 9N 9N 9N 9N 9N 9N 9N 9N 9N 9N 9N 9N 9N 9N 9N 9N 9N 9N 9N 9N 9N 9N 9N 9N 9N 9N 9N 9N 9N 9N 9N 9N 9N 9N 9N 9N 9N 9N 9N 9N 9N 9N 9N 9N 9N 9N 9N 9N SQ H#.I#.Pe cx K^ J#.K#.G] R= P; k; I: >^ N; %^ O) O; f! => [; ;> U^ 6; >^ (' n] W; Uy V{ T) {/ M! G; () )> C, 8) >> j, e> 1( o> x~ 4> @) K; Y, ^' hb RL L#.M#.k| r- '* j* {! W; j, M; K> Z; ;> m> /> V) -' [; Z; `; `; '* [; }, C) M; f! j, U{ => [; k; Z] Z] N= w! ;_ /' j~ k> AB <> lO c$ N#.O#.T_ P! ^~ F; H; M) O) f, C' #, Q, ], hh V] a> N~ W> B> w, Z; 3^ {/ l> 1, &) ",
"Va P#.P; Q; u/ L_ u/ Q#.cz /_ ]] ud .A nz R#._0 S#.T#.o> -' M! 2, 7^ ;e d_ Z, S' J> c' ], d' yg V' O> z; f, *) n^ N> 0e N^ a; O> ]' ]' Q, L> t) N; t: X' n> ~! 4( !/ qe q> ~^ ~k U#.V#.W#.U| f~ _w X#.5; M; M; */ */ 0, l; 2' %^ e< t/ ]* J> z{ J> Y] 3' '* (' W> c' G/ h- j< :' '* ~* r; P; 4( <; >^ ): 3^ C) +< Y#.Z#.`#.'l ~k Ki  $.L@.JE +T 9N 9N 9N 9N 9N 9N 9N 9N 9N 9N 9N 9N 9N 9N 9N 9N 9N 9N 9N 9N 9N 9N 9N 9N 9N 9N 9N 9N 9N 9N 9N 9N 9N 9N 9N 9N 9N JH JH JH JH TQ jQ jQ jQ jQ jQ jQ jQ jQ jQ jQ jQ jQ jQ jQ jQ jQ jQ jQ .$.JH JH JH JH JH JH JH 9N 9N 9N 9N 9N 9N 9N 9N 9N 9N 9N 9N 9N 9N 9N 9N 9N 9N 9N 9N 9N 9N 9N 9N 9N 9N 9N 9N 9N 9N 9N 9N 9N 9N 9N 9N 9N 9N 9N 9N 9N 9N 9N 9N 9N 9N 9N 9N RQ +$.@$.#$.Y{ QA $$.%$.}l oc f> G, Y; n] W; #, f! m; P! Z' !/ Y] J) D> :' !/ P; X' (' ~! C~ f! ;, ^' G~ O' K> C' Q, ;) */ 5> Zi Zi P; Z; P/ <^ f! Ew &$.VX b#.*$.%( Zi sx ue -^ &~ t[ I: Y' 5; 3^ %/ 6; Y; Z] O) >, O) >> k> >, Q, >, >, >, J) r; k; <; I: =' w- f> <d Q; 8[ =' cz ]_ R#.9$ =$.-$.,i X; i, J; Q, R_ c> j, O, => j, h; ;$.X^ y) u) 6; w! I: &~ h' t;  : yf J{ ",
"-* >$.r; k; 4( ]^ -^ &z L_ O] $] Wd |( ik dD ,$.lA '$.w[ _, `; N= `^ A~ >> /> s) 2' t' w; }< 3) u' j! {, 2' =) S_ #> sf 0' A; ~' !' Z, 8) L> a, /' )$.2( 5; k' v: &( 5: D: !$.~$.{$.]$.^$.*j I, Y' Cy O/ 8> T_ o] C) o) 7> `( v/ 2' X; j, j> ^' x) /> E, #, M; H, M> d, 6' 3' r' u, E' T> p! D> P; :' m) 5> B) q( /$.($._$.sE  k 3> :$.<$.KH +T 9N 9N 9N 9N 9N 9N 9N 9N 9N 9N 9N 9N 9N 9N 9N 9N 9N 9N 9N 9N 9N 9N 9N 9N 9N 9N 9N 9N jQ [$.}$.|$.1$.2$.3$.4$.5$.6$.qR 7$.8$.9$.0$.a$.b$.b$.c$.d$.e$.c$.d$.f$.f$.g$.g$.h$.i$.j$.f$.k$.l$.m$.n$.n$.o$.p$.q$.r$.s$.t$.G#.u$.v$.)+.8N w$.TQ 9N 9N 9N 9N 9N 9N 9N 9N 9N 9N 9N 9N 9N 9N 9N 9N 9N 9N 9N 9N 9N 9N 9N 9N 9N 9N 9N 9N 9N 9N 9N 9N 9N 9N 9N 9N 9N 9N sP JH rP <C x$.y$.z$.A$.B$.C$.</ m' G< s/ C< 5* I: p] !/ Y; `; Y] =^ Y] D> Y] Q; 6> w, ): G, @] P= N~ N' E~ 1! j, z, z, e> `; p] +< >* P; r; [; y, H] 8h D$.x#.c@.AE _b /b f) ;j Mc 3B `( ^; ): 6> l- T_ @) =' O= A~ N' J~ /..c> E$.A~ @] d[ 7A n~ 6> 4( r; 9* o> G< T{ $/ u[ )b X_ h> 9( F$.G$.H$.Kj ~P  _ b( b- $[ X+.<h 2; -' (' &, I$.J$.Y^ :[ 0[ Q+.9* ed ed F/ s; :[ >_ K$.",
"L$.M$.K< o* n< q; Ya N$.O$._; X< AD ++.[} P$.Q$.R$.S$.T$.1d r< =; /b L= P* q, g) t, u, 8> 1( v, %/ .> a) 7> ~* g- b- v/ yC &/ K> z, &~ `; k; 9> i> A) o! l; &~ &~ Y] T> g< i) U$.V$.W$.X$.Z| tD L= Y$.l] z- Z$.=i Xh i* v> b* m@.p~ >* 5* 2; }; @] 6; w- c< #; ,[ 9* `$._, x~ D: *^ o] p] Xi ^..p] g<  %.p) !] R: [d !$ .%.+%.f .^- @%.#%.-Q bN 9N 9N 9N 9N 9N 9N 9N 9N 9N 9N 9N 9N 9N 9N 9N 9N 9N 9N 9N 0N 9N 9N 9N 9N w$.$%.)S %%.&%.*%.=%.-%.;%.ZK >%.,%.y0 '%.)%.!%.~%.{%.]%.^%./%.(%._%.:%.<%.[%.}%.|%.1%.2%.3%.4%.5%.6%.7%.8%.9%.0%.a%.b%.c%.d%.e%.f%.g%.AL h%.i%.j%.k%.l%.m%.n%.3$.o%.p%.+$.9N 9N 9N sP 0N 9N 9N 9N 9N 9N 9N 9N 9N 9N 9N 9N 9N 9N 9N 9N 9N 9N 9N 9N 9N 9N 9N 9N 9N 9N 9N 9N 9N 9N 9N 9N JH jQ q%.r%.s%.t%.u%.v%.pk w%..1 FC x%.eb cb J* }( t! f) g: BC Eh T{ sx (b Oc Oc /b D< n< e* s, )b y%.`h z: Cx ^; sD D: n< =b fg hD E= (b ~d z%.A%.B%.C%.*h bE uc D%.~k r/ ~k E%.p, E= o< oc L* E= p< (f -e 5U =j dw G= WO q' -b S= jc 1w q; |f F%.1* mb S= C* -b *A Li Lh WO rc S{ G%.ks H%.I%.J%.K%.qc vx A[ I' ;U U/ tc &U s< ]b P* Gh Fw -f 5< H} L%.+1 B} kk ~k !| Md ",
"M%..[ {| aS || mU i_ >: _} N%.O%.P%.Q%.Uk %< R%.Z1 S%.T%.U%.[V [1 }V ]} }V 6} '/ l} V%.u| L/ r| ]| r/ kk )k @Q 3| k| !| `C F} TT 5< UT r/ E} @g z} <k 5< *A (( =j Lg z( W%.m' X%.Y%.Z%.`%.DD c~ &= =g R~ R*  &.%U F} .&.0f +&.:| L/ {g A} n| u> @&.X} AE r/ mk kD f .lb qA S} M} 4U !k #&.$&.Md Ef  k Be 2> &1 K} %&.n( &&.*&.=&.-&.;&.9N 9N 9N 9N 9N 9N 9N 9N 9N 9N 9N 9N 9N 9N 9N 9N 9N 9N 9N 9N 9N uK KH IE >&.AX ,&.'&.)&.!&.~&.{&.]&.{^ ^&./&.!d (&._&.:&.<&.g| tc [&.}&.kU %U z} B} bU 2^ k| i| P_ [} PS S} [( [( $e '/ K} t< |&.+) z} ~$.W/ TS 1&.Ee 2&.3&.4&.5&.6&.7&.8&.9&.0&.a&.b&.c&.d&.e&.f&.g&.h&.cN 9N 9N 9N 9N 9N 9N 9N 9N 9N 9N 9N 9N 9N 9N 9N 9N 9N 9N 9N 9N 9N 9N 9N 9N 9N 9N 9N 9N 9N 9N 9N 9N JH i&.j&.k&.l&.m&.n&.o&.p&.q&.r&.s&.kj 4j t&.qU wE u&.VE v&.Ax VE eE w&.Cj x&.dl y&.z&.3j A&.B&.C&.D&.Z@.}&. ] E&.@@.F&.G&.b< ,y H&.pU ~} *l I&.J&.K&.L&.M&.N&.O&.P&.1E Q&.R&.cl 5E vF c@.S&.T&.U&.|E V&.tU W&.oj X&.Y&.Z&.`&. *..*.+*.@*.#*.$*.%*.&*.**.=*.-*.;*.v%.>*.,*.U&.'*.)*.!*.~*.{*.]*.^*./*.(*._*.:*.<*.[*.}*.{G |*.1*.2*.3*.4*.5*.6*.7*.8*.9*.0*.a*.b*.c*.d*.",
"T  e*.f*.g*.h*.i*.j*.k*.l*.m*.n*.o*.p*.q*.r*.s*.t*.u*.v*.w*.ef x*.&A y*.z*.A*.B*.8H C*.D*.E*.F*.G*.IF OU Y[ :3 H*.I*.J*.K*.K*.L*.eF M*.eF N*.O*.P*.PD Q*.R*.wU S*.T*.Yk T*.J^ U*.om V*.W*.X*.Y*.Z*.BV .3 `*.ND  =.SU .=.+=.@=.#=.YD $=. 3 %=.&=.*=.*=.==.m3 -=.+} ;=.>=.,=.'=.)=.!=.~=.{=.{=.]=.^=./=.(=._=.:=.<=.[=.g3 }=.|=.1=.2=.e#.9N 9N 9N 9N 9N 9N 9N 9N 9N 9N 9N 9N 9N 9N 9N 9N JH JH TQ 3=.>&.4=.5=.6=.7=.8=.fn 9=.0=.a=.b=.c=.d=.e=.f=.g=.h=.i=.j=.k=.l=.m=.n=.o=.p=.q=.r=.s=.t=.u=.v=.0_ w=.x=.y=.z=.C*.A=.B=.1k C=.D=.E=.a# F=.G=.H=.I=.J=.K=.L=.M=.&A N=.O=.P=.Q=.R=.S=.T=.T=.U=.V=.W=.X=.Y=.Z=.`=. -.5$..-.)+.jQ TQ JH uK 9N 0N 9N 9N 9N 9N 9N 9N 9N 9N 9N 9N 9N 9N 9N 9N 9N 9N 9N 9N 9N 9N 9N 9N 9N 9N +-.@-.#-.ou $-.%-.$z &-.*-.=-.--.;-.Qs >-.,-.'-.)-.!-.~-.{-.]-.^-.<m /-.(-._-.:-.<-.ow [-.}-.|-.1-.wu 2-.3-.4-.5-.6-.7-.8-.9-.0-.a-.b-.c-.d-._] e-.f-.g-.CY (@.h-.i-.j-.fW k-.C%.l-.m-.n-.n-.o-.m-.p-.Vo mo q-.r-.s-.t-.6@ u-.v-.w-.vr x-.MX y-.z-.A-.gW B-.C-.B-.D-.E-.F-.G-.H-.I-.J-.sq K-.d& {s L-.M-.N-.O-.P-.Q-.Yf R-.&J S-.T-.U-.V-.W-.W-.k6 X-.G5 Y-.Z-.`-. ;.",
".;.+;.4a R% @;.#;.$;.%;.&;.v9 *;.=;.NZ -;.;;.>;.,;.';.);.!;.~;.{;.];.^;./;.(;._;.:;.<;.[;.};.|;.1;.2;.Fe 3;.4;.i^ 5;.6;.7;.8;.9;.0;.a;.b;.c;.d;.e;.f;.g;.h;.i;.j;.a$ /: U..k;.MX l;.m;.L@ n;.o;.p;.q;.r;.s;.t;.u;.v;.w;.x;.y;.z;.A;.B;.5o C;.D;.E;.F;.G;.'p H;.I;.J;.K;.L;.e9 M;.N;.O;.Sp P;.Q;.R;.S;.T;.U;.V;.W;.NK X;.Y;.Z;.`;. >.IH 9N 9N 9N 9N 9N 9N 9N 9N 9N 9N 9N 9N 9N 9N 9N OR .>.+>.@>.#>.$>.%>.&>.*>.=>.->.;>.>>.,>.'>.)>.`#.!>.~>.{>.]>.^>.FJ />.(>._>.95 :>.<>.[>.}>.|>.1>.2>.3>.4>.5>.6>.7>.8>.9>.0>.a>.b>.c>.d>.e>.*e ,0 f>.g>.h>.w$ Wp `@.i>.j>.g& {u k>.YY l>.#< m>.n>.o>.p>.q>.r>.s>.t>.u>.v>.w>.x>.y>.z>.A>.B>.C>.FS kQ 9N 9N 9N 9N 9N 9N 9N 9N 9N 9N 9N 9N 9N 9N 9N 9N 9N 9N 9N 9N 9N 9N 9N 9N 9N [$.D>.E>.F>.G>.H>.I>.J>.K>.L>.M>.N>.O>.P>.Q>.R>.S>.T>.U>.V>.W>.O$ X>.EI Y>.Z>.`>. ,..,.+,.@,.#,.$,.`>.%,.&,.*,.=,.-,.;,.>,.,,.',.),.!,.~,.{,.],.^,./,.(,._,.:,.<,.[,.},.|,.1,.{;.2,.3,.qu R>.4,.5,.6,.7,.8,.xn 9,.0,.3z L% 1% a,.b,.c,.d,.e,.f,.g,.{$ h,.i,.j,.k,.l,.m,.n,.o,.p,.7,.q,.0< r,.s,.+^ t,.u,.v,.w,.<0 x,.y,.N0 z,.A,.B,.J% C,.D,.E,.F,.G,.[t H,.I,.Et J,.",
"K,.Z& L,.M,.MT N,.wT O,.Ks P,.<z ,^ cg pM Q,.ON XS R,.S,.T,.U,.V,.W,._( o/ N( X,.Y,.Z,.`,. '..'.+'.@'.#'.$'.%'.go My &'.K# *'.='.-'.;'.>'.,'.''.)'.-9 !'.Jt ~'.{'.]'.{v ^'./'.('._'.:'.+;.-d <'.['.}'.|'.1'.]p 2'.3'.Hd e$ 4'.5'.6'.7'.8'.9'.0'.a'.b'.c'.d'.e'.Ky f'.g'.h'.fJ N@.i'.j'.k'.l'.m'.n'.:$ o'.p'.,I q'.r'.s'.t'.C/ u'.v'.JH 9N 9N 9N 9N 9N 9N 9N 9N 9N 9N KH .T w'..>.x'.y'.z'.$0 tR A'.{s g;.B'.C'.tr D'.E'.F'.G'.-S H'.e..I'.J'.K'.L'.M'.N'.O'.P'. I Q'.L'.R'.;z S'.T'.U'.EP V'.W'.X'.Y'.C'.Z'.`'. )..).+).@).#).$).%).&).*).=).'t -).;).>).,).').)).!).~).{).; .tx @ .@ .]).^)./).()._).:).<).[).mM }).|).Zz 2` 1).2).3).4).|R 5).JH JH 9N 9N 9N 9N 9N 9N 9N 9N 9N 9N 9N 9N 9N 9N 9N 9N 9N 9N 9N 9N 9N KH ^C Od 6).zc 7).8).9).0).a).b).c).d).e).YA f).g).pS h).Kb ,= i).j).k).l).m).n).o).p).q).}..r).$x s).1e t).u= u).>c v).w).x).ec cf y).Jw vc Zy P- ,d ~O z).A).B).C).D).~O E).F).G).H).I).'c J).K).L).M).N).O).P).Q).R).S).T).Q).q: U).V).W).X).:b dc b .1M Y).ab Z).kf g).`). !.Cb _O .!.+!.@!.#!.$!.%!.&!.vc Z).*!.:= =!.-!.;!.>!.,!.<z '!.)!.!!.t~ 9- y- $; Xh z: ",
"-h ~!.{!.B_ s; <h ]!.s- :; Xa @b %j @b o* 4* Q= 6z x] 6* Ox J[ Ai s/ U= Pe ]; Xa T= Ch 7/ oc ^!.5e [- kf /!.(!._!.<[ hb fb V* J= 9- VC :!.g[ [..w- <!.[!.}!.|!.1!.f* i* h* %; ]b MC bw y= L* :x 2!.3!.Kf 4!.@= 5!.6!.7!.8!.Ub 9!.0!.a!.b!.c!.P# d!.e!.f!.4!.Kf g!.Q* %b mb h!.i!.Ic V* p- j!.k!.0 .#x l!.m!.Vb |b yb kf n!.o!.p!.=` bN 9N 9N 9N 9N 9N 9N 9N 9N 9N TQ q!.r!.h$.s!. [ t!.u!.v!.w!.x!.y!.z!.A!.0 .B!.C!.D!.E!.1- F!.G!.j!.>x cw H!.I!. , ew Q* w* 9 .V* (c J!.Pv /- K!.d= L!.]f 3b I* of M!.8).v= Xv N!.O!.P!.Q!.QO R!.&; S!.+, `: `$.r~ 5* 2; W< 2; +, e* X< x- 1i Q= Mc r- :; I[ I[ f> w- vi 4; e* g* s/ x- 1i Mh u, Nw T!.g_ U!.V!.Q..OR JH 9N 9N 9N 9N 9N 9N 9N 9N 9N 9N 9N 9N 9N 9N 9N 9N 9N 9N 9N bN W!.X!.Y!.T_ 9[ `h d- Hi `: s~ d* d* d*  _ s/ ~^ $b wC Oc vx ~d Z!.`!. ~..~.Q_ b- L) j' %/ ^> M: v/ g- I< Pe ~* }, %/ &~ Z; t/ 1( $[ 7> I[ E/ Oc :T e~ `: lx +~.5i Ai Ai sD e~ t, D: $/ 1/ H[ eP Be #* @~.#~.mU KC $/ Mc Ki Pc Mc I< @[ c- $[ +, L= D< *_ Pc D< E/ *; Pc $/ I[ h> Mc $~.m- 2[ Kx Kx %~.4x [- r, I[ fg -< ^k Y| 7/ (f Md &~.o_ *~.g:  ' O: z, /> >, ",
"=~.US 8~ b^ Y, i, +! G; [_ F~ ^> t; [_  { W^ b^ x> () ;{ +! ad ^' >) a> P, i; M! M! [; O; m> ^> x! m> T= -~.;~.>~..! =' 4( -' t; ]) 0! F; g, {' }] !' J; '> Z, 0! z{ O, `, f! +( /] v! 7^ ,~.V' g; 0; *> N/ y, J) H, l; M' v: C> 9] '~.J< v+.)~.!~.[b 7/ Fd 2( J) L> M> 1, %> 1) @> (, |) 7] )' A; A; () u; Z, J; +> y) &, ~~.{~.JH sP 9N 9N 9N sP 9N JH jQ +-.]~.^~./~.(~.^!.Lc _~.:~.<~.,) H> Z] 6) ;) w; J; [~.d, w; W) #> 8' T, 1, M) F; F; R, 8) |, |, I; a; V' 0; *> z, W! f, *> L; O; O, O, H; 6) z, =^ f> vw }~.|~._| y/ @] x! G; I; ;{ C; u' ~' O^ *~ G{ %! ]) K! K! ]) .{ !! 9~ h] 6] #! '> f] 1~.X, a> m> m> `^ O= k> #, O) 5; P: =; 2~.3~.4~.5~.6~.7~.[$.IH JH 0N 9N 9N 9N 9N 9N 9N 9N 9N 9N 9N 9N 9N 9N bN 8~.9~.0~.W) ,> R_ [{ &T [{ 8) O, A~ k> K> E, M' p] r' r' !] ~) a~.b~.cI c~.q; 1( h; W) [{ +> |) y; -, J; l> a> +> c, T, _) 7, 7) 7, $> #, n> }, l; K> ,' th $> d, 6' K> j, U{ 8) j, t/ C) o> Fd 1/ d~.e~.f~.kD R= Q= M= :: H] 5; f! L) R_ b- `$.a) =' {* _, ,, f> H] D: f> X; k' X; O: Q) L) z, u) 1< b- c- 9* D' <; J< *w Q= ,, o* C* g~.h~.CA o] P= U^ H; C' ;' ",
"Lm i~.G~ E; 8] C; |) Z, i; j, H; R, I; a{ 2~ |{ 0{ G{ ;{ g; 7] Q> Z, d; *) 2, ]) !! f; u; #! Z, 0! O, H[ [u j~.k~.Q; J; ]) !! 2, ]' 9! Z, 1) d; R, x; *> f! k' >> f! C' O, /' z{ s] v( p^ _f D; O^ V' 1) l~.H; >, =) k' G, t/ 2' 2, t; u/ U= m~.n~.o~.2&.Sg vh )d H, 5! +> 1, O> u' 1) 3, n^ ~' a; 1) P> F{ a; @> E; k! p~.q~.8N JH sP 9N 0N 9N 9N jQ HE r~.s~.t~.u~.v~.w~.x~.n) y~.z~.1: ^i KP G, +> '< w; F; C, ,' z; |) z~ P] z~ $~ y; )' n^ (^ (^ '' $> N^ Y! k! k! |) |) I; x; 6) *> L> f, e; l> C' J> .' T> A~.B~.C~. B d~ S' j, Z, x; 1) x; I; ,' ;' J; 4) IS r] 5] X~ e^ b; I! X~ %! A' ;{ +! v' J! :/ +! P! $, *) M) i; l> j, F( W; ;> 6> p] D~.E~.F~.G~.H~.v..+$.sP sP 0N 9N 9N 9N 9N 9N 9N 9N 9N 9N 9N 9N 0N LE I~.J~.1) I; )' v' K~.H{ &) 1) G~ /) f; ^' f! Z' c' #) o> D, L~.M~.N~.O~.Lc 9> O, )> [{ g; p^ 2~ -( k! ~' O^ y' +~ Z! 2~ `! w' <! v' A; f; |, f, '' @> :e O^ @> g; y; !' {' 0; (, Z, E, @) A) D< P~.Q~.R~.bU $/ d* D' _, r' M; >, |) 7] >, &~ 3^ M; #, 6i J) J> `, N= B> I; P> I; ^~ {{ a; 2, 1) th S~.0> j> j, %] :> <; Z] H< /..f* du T~.%&.:' M) +> 0! Z, ad ",
"8; 9c &/ 8) J; J; y) m; B( x,  ( L> Q> d; E; V' B; k! d; O' =+.%/ S' 2' C> L> '' M) #, f! ;> `; v: X' /b !v U~.V~.~* |) }) i, ;] M; k> O; O; m> #, => j> +] N! l> {/ 5{ x> j; {/ f! d; '' }] W, )' y) d; f; l> W] 5{ /] $] V) i; b/ (' p] CO =Z W~.X~.Y~.2P Y' `; @) ^> y) J; j, z, C' [{ +> M> ], M> 8) ;, h; U, 2, ;{ Z~.`~.rP JH JH RQ TQ *` 7N  {..{.+{.@{.#{.K; @) Ff 7{ 9< ${.%{.&{.y/ `] Y; '! A; A; ^~ #! *! X, tz *{.={.U< F; ]) i, !' ]' u; Z~ U] }{ &) !' 1! x) C~ k> ;, a> ^> C~ m> Z; 5* k; 1' i( T{ -{.;{.>{.,{.ZO o) C~ i; b> 6! >, C> s) .> J> N) 3! v; 8) '< u' 1, 3, ]' 6) 3, C' H; %> ad %> Q, N; (' S' s) S' J) S' A( ;> f! D> :: XQ '{.){.!{.[& ~{.{{.]{.=Q KH KH 9N 9N 9N 9N 9N 9N 9N 9N 9N 9N bN ^{./{.({._{.F{ 1, &) X~ b; }] A; X, u; W~ () j, /' 8) ], 5; o) :{.W>.<{.*C u, Z; >> #> )' 8] [{.ne #~ %! A; C; y' Q( L{ @~ `! G! Z! |{ ^~ !' E; !' {' O^ U] g, ;{ g; Y, V~ v{ g, 0; J; >) O; ud `/ }{.|{.`I $P x- 9* 1{.N: /> L> ^' *! T, g; Y_ K$.G/ ;' Q) w; +> 1, @> g; %! |{ O^ C; 2~ b; ^~ T' 2{.2{.3{.X^ =+.b( F~ c[ n~ Dx E$.z: 4{.5{.|1 Xi i' #> 1) @> 6{.",
"Va A+.N= C' d; w; [{ H, ud 7{.8, 5! z{ 0! A; ;{ wg )' (, 1! 8{.9{.t) V> i' #, j, O) `; G, k; o! Vd Vd hD 0{.a{.,#./< 6' `, k> ;, a> G; i; M( O! B! u; U, 8{ B! Y, $! Z~ $! $! Z~ b> ]) Z~ b{.d_ Y~ 8~ .: J' .: B! +] _> ~] _> y> ;, ]* 4; ,[ c{.d{.e{.X( ,* ]* >> l> f] '! *! 5_ X, U, T, m~ B! e] l~ ^' G; W, '! *! f{.g{.h{.JH JH TQ i{.j{.k{.l{.m{.E$.Y~ n{.${ b{ o{.c( n] =b `% p{.q{.e* Y' V) r{.J! J! >! =! =~ 4^ [! p( :! +! ]' $! K! '! Y, $! s{.tz 5~ ^~ (, m~ '[ +: /) `_ U, k~ F~ C^ 1; D' 4; 4; 3: [; }..<N t{.$e 2P b> u{.]) .: /) *> b> ;, `, 8) O' U! ;) t) C' /, H; 6) d; 8) '> R, H; ,' )> $~ 6) N= Z] &~ 3^ J) _w G, v: &/ z, i> 9( #O v{.w{.$| 8> Ox x{.y{.z{.A{.v$.cN JH JH 9N 9N 9N 9N 9N 9N 9N 0N JH ;P B{.C{.f; )' T, K) D{.0; (, F; {/ /' b> #, m> +> $) X' Vd E{.m9 F{./E u, &~ 6! $> ]' C; Z! +~ =~ |) '' F; h] g; C; i, }) 2~ +! W, !' 0; ]' {) |) T, g; F; G; ]) I; A; @! #! ;, j, @] @) 7h sx G{.H{.#).I{.I[ Cx xi M; j, >) F; i, E; W, W^ xf )> w; |) _) <! $~ =~ v' &) :^ g; g; [! T' %) H{ J{.K{.L{.E@.M{.N{.O{.P{.yC Q{.A#.U= R{.r& S{.Vi a, #> 8' {{ :e ",
"l< %S W~ (, c; !' i, j> ~! $] e; Z~ K( d_ o{ A] J( v{ C! >! =~ S, G; W~ 8{ 0! -> -' 9B :> C~ M; B( A) Gw T{.U{.{f V{.D> 6; /' e; 0; () P> 2, f; !' A; +> C, ], y; Q> 0! Z, f; 3/ 0! 3/ {) y] !! +! () i; B> ^> /> w, <; 2( -' => K> -> <; 4; W{.X{.Y{.g> /' ,> >) 0! g; g, =! O{ O^ ]' %! U] () }] zP ]' P> =! h] v{ W{ Z{.[$.rP v$.:D `{. ].D- e; ^' >, >> .].+].J( [] Q/ P, q* @].#].)E *' 2P '* F; x; S, z~ +> *> 8) 6) J; ;$./h 8) >> ^' )' (, >) u; 8) (, i, }] }{ Qz 6] ;, l~ () a> b> ;> <; ~* D> _w `; v: #x $].%].r/ =' U< &].9{ P, #! E; #> ~' !' E; %> 1! d> h; F; () !! 7^ !' i, =~ k( !! }] g, 8] '! 0! O! >> G~ F; %f O! O, C~ C^ u/ $b *].=].-].A} *^ 5; z, #, :; t~.;].T+.>].SQ 0N 9N 9N 9N 9N 9N 9N 0N JH ,].'].;> 8) +> ad sh Qz y) 0! C~ ]* M; C~ <h 2; +> &> `] h> b .m0 )].!].n[ N: j, C, Z, @> ~].8' 7] =) => j, d; (, Z, #! 9] X, F; (, Z, *> (, O, Z, d> Q< y) i; f! f, |) m~ >> N; (' k* Q; i( 5: {].]].^]./].X< @) ;> m> >, |) +> A; :^ F{ 0! J; d; -) 1! zP 6, =~ () }{ g^ 2, ]' F; }{ _) P] k! p( 2{.l! U! t' v/ N: 5i 1(  > '* t, (]._].:].,) L) =~ v' :/ 8' ",
" d 9e )! ': -{ K( d_ /) ;, .].7^ @! =( p#.;! <].@#.[].V/ h, 9) >! 0; l' *! e] $] Q/ 6#.M( 8~ /) %~ >^ P* }]./!.|].(x }, c< ): m; f, M> M> f, =) #) M> t) )d ], 1].7' R, 9! I; *) k' [; m; P! *> %> z, O; 9, M; X; /' v: Y' [; E, 1( Q; {* 4* 2].3].4].h> 7{ l; k' N; L> g/ () 3, S_ f, '< d, J; v; 5].6].7].O> d; 8].9].0].w$.<R a].b].#!.c]._^ f, f, {, C> /_ x^ y; '' E, k' &; d].e].f].u_ f~ &~ y; 7].-) ad z~ 8) => f! /> W+.g].6' Z, '' a; ~' J; {( R, f; 1) g/ v; #y f! m; u) y) P= Y; p] *( Vd 5> Qx H> o> Ad h].i].X} `] `^ '! z~ `, M) $> v; 3, #> x; 1, =~ f] U, d_ =! 0{ v{ J( {~ b; K( D( ]~ j].5] g, d_ J' W, }) 0) 8~ J' ;, C~ (* C< P* $$.|K k].AD q> Y; 0- ;> =_ l].m].n].o].p].OR kQ KH !S 9N 9N 9N 9N 9N aN q].r].d; C' y) L: ,> ^' j> @] w! &~ }, Y; k* `, Q, s~ :: 4!.s].t].BS E> v) U^ E, W> d; +> ;' >) W> 5; }, 6! +> *> H; h; 6) 6) 6) d; 6) H; C' >) DT u].K> /' %~ f! `, N~ #, Y] P; u/ q> {* -i #$.v].w].x].~^ A) L^ -> k> l> Z, *> J; >) >> m> O; J) U{ Q, F; h] 0; W, '' 8) F; ,> J; +> 1! |) k!  C l! W) C, &/ =^ =^ Y] W' q> Jh y].z].XR o) A! T, 4^ E; g; ",
" d ag y> A].]] f; ]) l> => K; 0; }] [] K( (, $! $! a{ a{ &) }{ d; f! K; d; q] Z' ;> $] ]/ F; a> i; => Q_ B].C].{E D< Z; I< Y; 7{ S' c' K> K> C> l; E, h' k' f, D].H~ (, k( Z, %~ 7{ v: k' m; H; w; %^ -> 7{ /] K; `, N; ;_ Z' => D> {* !* :; E].F].G].y[ o> `; >^ !/ => 8) Q) +> C' +( _< #y M) &T H].I].z; #> g/ J].K].L].M].N].O].ai K> /' ]] /) 0! F; E, >^ z_ t' #, p] Q; w= E0 P].Q].R].8D x) }{ (^ ], pg S].^) 5{ {/ j, Y_ V] h] {' 8] |{ 0{ E; g, b; E; %> ], L) t[ U> A> i' N~ 9> ,* H] x~ ld `: X] =' s/ T].U].V].DD A/ Y; M; &/ r' => j' C, G~ *> '' )> '[ h; ;, W~ g, x{ w^ ;{ u; 2, q] {) {' 4^ u' 1) e; a> 7] z~ '> ;, O, P! O) 0( ): A/ W].X].Y].x= P; [; 2; >> m; j> '> ]' Z].`]. ^.<R .^.~@.9N 9N 9N aN 9N 9N +^.@^.#^.R, |) g^ m> Q, K> ^> ]* 9> `; -' >^ Q, y; P; :: $^.%^.&^.PS 5> V< b+.Y; !/ ]* M) L) j> 8, l; P= 6) d, S, 6) ^' i; => Z, 0; () 0! Q> C' CT 9{.H, O; O, ^' C> X; J> S' U> Y] Q; Ff YO *^.}J =^.AE QA [f ^^ >^ m; f! M) f! m> #, >, S' )* '* =' 2( 5; O, (, g^ Z, j, ^' d; [{ N) Q> f; &) #~ v' Z, i' C' E,  ' Y] 2( 4( /; -^.;^.>^.D> 8T &) %! {' U, ",
"Rm .@.[; L; O; M> -) .> o! U> >) >> z{ z{ C> m; O, `, 8) w; #y Q' k; W; J> X; p] P; 8/ L^ O, `, C' J> m) ,^.'^.)^.G< #, l; E, [; {/ i; $, ;> O, O, j> 6! W> n> j~ N~ ^> >> O! (> -' [; {/ .{ +! =, U, B> c( :> n> C~ -> i/ L_ -' 5; 2( @) 4; !^.~^.{^.jh o! 5* 4; 4; Z] /> V] U, M! K; y; X, W, <! ]^.O^ F{ y{ D( ^^./^.(^._^.@] ]> :[ }, W; (> {/ j> C~ ;> s; qd >> B~ f> 4( tO :^.<^.V~.x[ H> C~ l~ => V) ih g^ l~ b> m> %~ Jz w/ 1! i, 8] '! 8{ W, {' &) &) }{ J! :h E~ T) U~ O! C~ /' |; <; <> r; [^.O= L; 7: }^.|^.1^. ] 1( Z; I< 6; >^ -> N' G~ U, 8~ y{ Qz 0> /> j, J; %! >! A; *> H, m; l; <e Z' t) 0@.&~ l; /> i' 3^ J) &~ U> 7{ /' a> 2; d* 2^.3^.4^.r, C' H; U^ O) C' () )' )' )' G; 5^.6^.7^.8^.[$.9^.kQ bN 9N 9N HE 0^.a^.#! #> S, `, C' `, B> m> m> X; k' N; ,' v; Z' @) Cc xO b^.X} D> k>  ^ w, P; k; e> 7' &> m; => M> w; d, Q) c; 0; e; [^ U~ 2, 0; f; I; H; N) c^.=+.M> +> y; 8) J> 2' jx 8, K> f! 5; Vd d^.e^.f^.A| %z A) c( 5g <e F( H; J; Q, O, ;> => @) !/ p] v: /' `, >> ^' *) Q> '' I; %> y; x; B' 8] ]{ w{ (, =) m; (' W; L; {^ n> T_ g^.h^.Vc >) i^.z! g^ F; G; ",
"Qm Jf P= => O, w; /h h' u/ )* X; j, /' N/ t) m; B> 5! K> u) /h t' l; O; W> X; 4( k; X' !/ 5; l; X; /' _, j^.k^.^d P: K> 1( `^ y> M! #! P, M! x! G; `^ a> >) M; C> #, #, X; /' {^ {^ {^ ~] W~ 7] l^.T) (> (' O] y~ -' Y; !/ >^ F/ B_ o> 7{ Cx m^.n^.o^.9( @) @) <> 3: @) w! j> 8{ O! /] O, b> G~ }{ @+.() *) l> ;, {) p^.q^.P/ 5{ l~ U^ U) -> N; Z' Z] 2; D' {* ~! i; 7> H] r^.!b `f s^.t^.h> C' &, O= -' N= d> z~ 8{ ^' $, $] u^.v^.w^.J! ^~ h] h; ,> F; (, #! Y, tz <) i^.N' W~ ;, c> O) E, n> >^ -' @] C~ -> !/ x^.39 Io W} 8) => C) 5; W; C~ C~ x! l> (, 0; z! O) t/ f! I; V' v{ $! H; H, k' N; ;g U> K> J> E, E, E, l; S' M; &~ U> @) [; j> /' i> y^.d;.z^.Kh |) u; M> F; !! i, 4^ v' ^~ P> S, *~ A^.B^.C^.D^.kQ 9N 9N 9N E^.F^.G^.C' Q, !> g^ Z, >> N; ;> B> L; )* 5; f; #) =) [] H^.I^.J^.|| 3; 7^ W) 3^ l; S' 2' -) g! x; 8) |) rC h! `, l' c; z; f! O, e; *) T..!! c; !> 2) 7' ]' |) N> 6! f! C> z{ W; /' N= => =A )M K^.L^.M^.{_ i( /_ V{ l' v! e] 7] |) H; P! k> i; O, Z' /' => f! O, C' *) K; u; f; P> ]' *> i; 2, m! 8] ]) `, 9, 7{ O; ;_ P; m> R_ N^.O^.%@.|) 4~ X, h; >) O, ",
"*] -/ B~ /' /] >) 6! J> L_ 2( 5; X; W; L; f! /' O, P! &~ ,> '> h; f! ;] O, {/ /' $, /] F( V) i; |z M! Pe P^.Q^.R^.x] Z; F/ j; 0! f; 1, () f; e; |, f; V] V] z{ O; z{ j, f! c( =_ L^ <e /] n/ a; !> >) B> (' <; <; 7{ v: i/ N; 6; O] o] V> Jx S^.&u *~.~) [; 5; W' o~ 5; J) #! ]) 0! =) `^ '[ '> G~ W~ {) l> >) i; ;, 3/ K; M! V{ T) z, ,> M; Z' P; X' x, o! 1g $] P! '~ x~ V{ Lw T^.U^.V^.>* d; e> w, ]* B> kx xf 1, *> O! M( -, W^.+_ g, Y, a> u; 0( G; e; ]' Y, *! i, z! %f 3/ {/ tf [^.k' `; (' Y; J) X; k; N; {T 3L X^.Y^.5_ ${ l; ;> ]* #, f! `^ Z, Z, F{ b^ T) >> C> e; g, {~ $! i; k' O; W; k' /] 6) *> i; m> X; [; m> ;> G, @) <; (' V) W> H] Is o% Z^.g* j, i; i; 0! 8{ f] >! +! )' (, A; A; {' {' `^. /../.JH 9N 9N *` +/.`; [; e> !> +! F; >> 5; Y; => /' u/ Y; Z, Y] W> }] @/.#/.tX A* 8* {~ #> C~ $, G; C, ;' Y_ @> g; )' T, $~ H; [] () (, d; C> *) 0! A].y> (, $> |) S, 0; () (, O) f! C~ {/ ~] [^ 6* $, /_ $/.%/.dX &/.qe q> /' F~ j> X; O; X; Z; `; [; X; ;, G; => Z' X; L; m; K> j, O, ;, u; !' 7] >> $, => =) 3^ J) M; 2( H] L_ i( qx D,  ' */.ng =/.h' }{ '[ d; M) m; ",
"8; EQ O, [; $] P, V] `, j; {^ l; O, O, 3/ B! Z, >> P! `, F; i, 8{ P, P/ ]) #! e] 0! u! P/ /) 0! P/ /) g* w_ YH -/.@b '* 4( bQ >> i; (, F; |, (, x; W! j, <h W; P; Z' j, ^> $] [; Y] U> jx Q> N> )> Z, /' 2( P; ,* X' Y' 2( A) u/ Y' E> H, U= ;/.x: J^ ;j 5; J> 3: cz 9> i' Z, G; 0! H; F; g^ '' 0; W~ Z, /) >> /] => [; B> $] ]] '[ G/ M) Y' W' 7{.Y] z> G> >/._^ m> S> 7f %~ Cf ,/.'/.c@.~^ t) h~ X] m> f! j' L) ;' 2' C> m> K~ )/.d[ %] W{ Ui !/.~/.:w {/.wd ]/.^/.//.(/._/.9- VC @, <..d* Pe '* D> &~ S' Y; O; :/.</.[/.}/.'! B! z{ O! `^ b> 0! ;, K( !! F{ ;! $! G; M) l> Y, 0; >) #, i; >> m> l> u; 8{ #! H; => Y; N; <; W; W; -> C^ Z] ;> I> T{ |/.W$ 1/.E= }, O, V) O, G; #! u; G; F; l> b> V] m~ F; ^> 2/.3/.H~.;P -Q w$.4/.5/.z{ ;' k! U] #! M; B> ;> j> H; 5; >> F; Y] 7{ $] ig Z-.6/.$k Mh }{ C, U^ T) @! }{ 7] h] ^~ 2~ 2~ ^~ X, ]) () a; #> (, /] G; F; O! K; f; |) J; '> |, ^' f, k> -> $] 4_ k> T) C^ n> P; 7/.8/.9/.nU M/ p] Y; O! b- X; ,* Y{ s~ '* Y; E, k> O) C~ G, W> m> #, >) P, V) P, $! m! !> G; O! M; l; Z; 2; w, ~* d* H] &( 0/.&( 8> a/.b/.c/.CO u) R_ (, O' *> ",
"8; R#.=> X; Z, ]) G~ !( j> C^ }, m> >) }] ]' ]' >) e; W, 0) =~ a; K( e] g, 2, +( /' /' => f! m> m; E, d/.e/.f/.01 H= `] i> I< X; N= m> k> 0! u; G; >) B> k; Z' X' 0, M> 8) P! C'  ' W> z{ yg #> w; M) B> L_ (' @) @) G, !/  g 7{ [; k; f! t* $u g/.zx h/.5* n> o~ uy '* C^ k> l> (, yg S_ N> S_ d; *> *> H; i; N; I> :' v: m; 0! )> u) J) X; <> W' Y] 9> Y] )* K; G; F> !/ L; 8c i/.j/.k/.KC l/.m/.n/.o/.`, p/.q/.r/.hB s/.WQ t/.u/.v/.v/.w/.x/.y/.z/.y/.A/.B/.C/.C/.D/.D/.C/.E/.F/.G/.H/.I/.J/.K/.L/.M/.5v N/.z_ I, O/.P/.*| C> z, J> ;, ^' *! )' P> A; E; i, C! {~ 0; 6' z, J; d; z; B, +> g^ d; |) !' () 2, R, $, m> k> X; O; :> ]* V) C^ M; Xi [A Q/.R/.S/.</ p] Z; N= X; M; R, 6) 8) j> b> ,> 0> T/.0> >, l~ ,h U/.V/.2$. T W/.X/._f E( 4^ 7] C' #, #, ^> k> P! m; l> B! 5; Wd D, Y/.Z/.`/. (../ L) 6i v, l_ }) =~ ]' W, }{ g] X~ *! ]) #! C' M> Q) F; /] Q, y) K> `, >) Y_ d> 6! #, >) 5! K> m> S' L; j> x) /' N; !$..(.+(.@(.#(.D< $(.'* N! x) >) C^ ~! w! (> (, 0> K> w, J) J) J) C' W) d> F; V] F; W, +_ %(.1! >) M; `, k> `^ ;> W; w! -> ;> ~* Y; yC &(.*(.=(.1i b- hh [{ 1! Y_ ",
"e# y# S> Ri G, 3^ e[ t/ `; w- 9- ,[ .> 2' 2' e> 7; M' 6i 7T M: N~ f! N= J) W> S> 1' 7: R].R].hi S> :T -(.;(.,$.0j E/ ,, ed a- $, W< N= Z] ^> ;, #! @> >> 9> => C> Z, ~' 0; f; d; 6) 8) d; V' T, g; U, `, O; k> >> i; t; <e 9, l> 8{ i; 0! q* >(.,(.'(.%b ,w 4( 3: @_ <; I~ C~ $, *> rf rf O> z; z; 6) M) *> U, m> ;g G> H> Q, ;{ +! l> >) ^' $, $] L; ;> 5; v: F; K! `, )(.!(.~(.{(.,>.2x ](.^(./(.((._(.'].:(.<(.mQ [(.}(.|(.)#.1(.2(.2(.3(.*`  T  T *` *` *` *` *` *` *`  T *` v$.o%.1(.1(.4(.5(.}(.6(.7(.8(.9(.0(.a(.b(.c(.@c Xi d(.e(.q] h' wh s) e> i' bi 6! h; x, n) ', Hi %/ R' f(.CT z, J> t[ 2! t[ H, v: 4> y/ q[ Wi 1' Vd o> )b I[ S> g(.C#.h(.i(.j(.k(.l(.xC G< S> 0D p[ D) Xi 6> <h }; &, X{ @] /' /..W+.*> m(.n(.o(.p(.q(.g^ xf Q{.l) r' y/ g: ', g) S> &( <; s~ 9( 0C eP r(.s(.t(.u(.Jy ii v(.w(.c* 3d x(.8> E> g- _w N: `( I< o) wC R].h) z/ p] y(.z(.Dh hi e~ ^..A(.n) P: f> u,  / Ai n) Vd  _ .R Ri 7: i@.B(.C(.D(.E(.EC F(.9( ,, +, 8> 7> ~* 5* }, e[ #[ G(.)i H(.I(.hC ,) W..+~.z/ @; `: X] 7T J(.K(.z/ ed T_ w- ,[ Kx o] '* 4( F/ e* |i n* L(.M(.'g 2> G= 9< 9< YO 1i ",
"N(.xF nk O(.)k )| bU $| ~k X} f| P(..1 )U j| w} z%.)U Q(.&f X| T| T| [d [d Th Th R(.A[ Ee w} S{ 1d EC S(.T(.U(.V(.#1 &; W(.Xa D_ CC X(.1' _, Z; N~ QB Z( 4* q> '* C^ C~ Z] -' }, S' S' N~ R_ =+.y) >, K> Z; 6' e> E, Z] v: G, 6! h; Z' v: ./ Y(.Z(.`(.<_ ;b H[ $/ q( 3> ]; t, U= '* 1( r~ T_ 9> H] _; h> M= 9[ ,* q( A/ n< =i A~  _.Qe l; ;> Z] Z] Z] jP Q= F< ._.+_.@_.,& #_.$_.%_.&_.*_.=_.-_.)#.;_.+-.>_.=Q KH JH 9N 9N 9N 9N 9N 9N 9N 9N 9N 9N 9N 9N 9N 9N 9N 9N 9N 9N 9N 9N 9N 9N 9N 9N 9N 9N 9N bN -P jQ }$.,_.'_.)_.!_.~_.{_.]_.^_./_.(_.__.:_.jw *y !U <_.</ [_.0k  ]  w }_.Y| |_.!{.S^ 1_.Q(.2_.Yv .1 v} z} [&.3_.4_.4D 5_.+) L%.@| B[ 6_.7_.8_.9_.0_.a_.b_.c_.d_.e_.f_.g_.h_.i_.j_.[( A} k_.l_.E&.5_.u< A} 3| 8} m_.n_.o_.p_.v} q_.!U k_.r_.0k 5j ek s_.@P nk g| t_.`E k(.v&.u_.v_.7X xV w_.O%.ZB x_.+y BS CD j_.j_.y_.DD k(.v&.z_.A_.u&. (.&' B_.DD `E C_.D_.xE E_.ZE F_.G_.H_.S{.I_.2i 4@.J_.nk K_.L_.M_.T! C_.N_.O_.P_.Q_.R_.S_.T_.ff (1 A_.U_.5j Kj T@.ek V_.hU W_.W_.X_.x} Y_.hU *y nk  F [_.x} FC  1 Z_.`_.k(. :.D/ E_. :.6k Xj  B |' I} BS .:.+:..m .P @:.Bl d! d! #:.J^ ",
"$:.in %:.HU &:.*:.=:.:z -:.;:.>:.,:.':.):.!:.~:.{:.]:.^:.,f /:.hF (:._:.::.<:.uk ,#.[:.}:.|:.1:.1:.&g Al 2:.3:.VU 4:.#/ #/ 5:.H| 9E 6:.11 7:.7:.;| 8:.9:.+F )^.0:.xk a:.BS D| $B g| |' B} P(.b:.c:.^c ~< l_.'f Y).d:.'f c~ ~k R[ U$.~$.e:.fC f:.g:.h:.i:.hj si j:.vE /} k:.l:.H&.m:.n:.)^.o:.dj p:.q:.fT r:.n:.Dj aE s:.bE PS t:.sc u:.S} 4U ,A v:.w:.x:.y:.z:.A:.B:.`S C:.QQ *` TQ kQ JH 9N 9N sP 9N aN sP bN 9N 9N 9N 9N 9N 9N 9N 9N 9N 9N 9N 9N 9N 9N 9N 9N 9N 9N 9N 9N 9N 9N 9N 9N 9N 9N 9N 9N 9N 9N 9N 9N 9N aN sP sP 9N JH TQ .$.*` D:.E:.F:.G:.H:.I:.J:.K:.L:.M:.vn N:.O:.P:.Q:.oV IU R:.S:.T:.U:.V:.W:.X:.Y:.F*.Z:.`:.N#. <.G*..<.+<.@<.#<.$<.%<.&<.*<.:X fU =<.-<.;<.><.,<.'<.)<.!<.~<.{<.]<.^<./<.(<._<.:<.<<.[<.}<.|<.1<.2<.3<.7*.4<.rk 5<.6<.In 7<.8<.9<.0<.a<.b<.c<.d<.e<.f<.g<.h<.i<.j<.FP k<.l<..c m<.n<.lH o<.p<.Xl q<.r<.s<.t<.u<.v<.w<.x<.y<.z<.A<.8<.zn B<.C<.D<.u*.E<.{I :B Z>.F<.G<./y H<.I<./y J<.K<.L<.^s M<.N<.O<.P<.Q<.xX v_.R<.S<.T<.eX U<.V<.W<.Ln X<.Y<.Z<.`<.Kl jE  [.A<..[.+[.@[.#[.SH $[.T/ :m %[.&[.*[.=[.-[.!W ;[.>[.,[.'[.)[.^7 ![.~[.{[.][.NK <6 ^[./[.",
"([._[.A^ :[.<[.[[.}[.|[.g_ Vt 1[.d@ 2[.3[.4[.5[.6[.7[.8[.l= 9[./. 0[.a[.b[.c[.+X d[.e[.0[.f[.g[.VH h[.P| i[.j[.k[.l[.m[.n[._m MQ o[.p[.q[.r[.s[.Bn W<.t[.u[.v[.Cd w[.x[.y[..   d !W z[.A[.B[.!j C[.D[.E[.F[.G[.H[.I[.G[.J[.K[.L[.M[.N[.O[.P[.Q[.R[.S[.T[.U[.V[.W[.X[.Y[.Z[.`[. }..}.+}.@}.#}.$}.%}.&}.*}.43 =}.-}.;}.>}.,}.'}.)}.!}.J^.~}.{}.]}.^}./}.(}.'_.GH jQ JH -Q bN !S sP 9N 9N 9N 9N 9N 9N 9N 9N 9N 9N 9N 9N 9N 9N 9N 9N 9N 9N 9N 9N 9N 9N 9N 9N 9N 9N 9N 9N 9N 9N 9N 9N 9N 9N 9N 9N 9N 9N 9N 9N 9N 9N 9N 9N 9N 9N 9N 9N 9N 9N 9N 9N aN 9N JH jQ GH uT 4(._}.:}.<}.[}.}}.|}.1}.2}.3}.T7 >q 4}.5}.6}.7}.6}.8}.A% 9}.0}.a}.Yp v0 Od b}.c}.d}.e}.f}.g}.h}.i}.j}.^r k}.l}.m}.n}.o}.p}.q}.r}.s}.t}.u}.v}.w}.Lp x}.y}.z}.A}.e0 $` B}.u5 C}.D}.E}.F}.G}.H}.I}.J}.K}.L}.M}.N}.O}.P}.Q}.R}.S}.T}.U}.V}.W}.X}.Y}.Z}.`}. |..|.i}.+|.@|.#|.$|.#|.%|.&|.*|.=|.-|.;|.>|.,|.'|.)|.!|.~|.{|.]|.^|./|.(|._|.:|._|.<|.[|.}|.||.1|.2|.3|.4|.5|.6|.75 7|.8|.9|.0|.a|.b|.8|.c|.(r c|.1|.d|.d|.e|.f|.;s g|.h|.i|.j|.k|.Y9 l|.m|.Op n|.o|.p|.q|.r|.s|.t|.np u|.v|.E~.w|.x|.y|.b5 /5 z|.A|.F% B|.C|.D|.E|.",
"~  F|.G|.H|.3N I|.J|.K|./^.L|.ea L/.M|.N|.O|.P|.Q|.R|.R|.S|.m'.T|.U|.uL V|.r#.W|.X|.Y|.Z|.D'./! `|. 1..1.+1.ep @1.#1.pb $1.;J ]N %1.&1.*1.=1.J/ -1.d/ ;1.>1.,1.'1.)1.!1.~1.{1.am JT ]1.^1./1.(1.=0 :$._1.:1.<1._L mJ mJ 6p OJ [1.}1.|1.11.80 21.31.41.51.61.71.81.91.nK 01.a1.06 b1.c1.d1.e1.f1.)0 t5 g1.h1.i1.j1.k1.g1.l1.m1.n1.o1.p1.q1.r1.uT jQ 9N 9N 9N 9N 9N 9N 9N 9N 9N 9N 9N 9N 9N 9N 9N 9N 9N 9N 9N 9N 9N 9N 9N 9N 9N 9N 9N 9N 9N 9N 9N 9N 9N 9N 9N 9N 9N 9N 9N 9N 9N 9N 9N 9N 9N 9N 9N 9N 9N 9N 9N 9N 9N 9N 9N 9N 9N 9N 9N 9N 9N 9N 9N 9N 9N 9N 9N 9N 9N 9N 9N .$.D:.aV s1.t1.u1.v1.w1.x1.y1.FQ |% Ut z1.A1.B1.C1.&u g$ 29 1).R& D1.i$ E1.F1.G1.H1.I1.J1.K1.L1.wc M1.N1.O1.N1.P1. u Q1.R1.^& G& zt :& ^& S1.T1.U1.V1.m'.W1.X1.Y1.Z1.X0 `1. 2.`@..2.u] /8 +2.EP @2.#2.$2.,B 40 %2.&2.*2.=2.-2.;2.>2.,2.'2.:s 2r )2.!2.2).]w ~2.{2.QH ]2.^2.WK /2.(2._2.:2.<2.O% 1L [2.}2.|2.A^ 12.o_ RJ m0 22.32.42.;% 52.62.72.62.82.92.02.}$ a2.b2.c2.d2.EL e2.f2.g2.h2.i2.j2.k2.-~.-~.l2.m2.n2.Ur p+ o2.p2.q2.22.7J r2.Z'.k2.s2.t2.u2.v2.1x R# w2.x2.y2.<Z z2.A2.B2.C2.D2.E2.F2.G2.H2.)~.I2.J2.",
"e# K2.D!.L2.M2.N2.O2.-!.|O P2.Q2.R2.S2.T2.U2.V2.W2./= X2.,O Y2.Z2.`2. 3.7= (= .3.nM tM +3.HQ @3.fy #3.$3.%3.&3.*3.=3.-3.;3.>3.,3.'3.'3.=..)3.!3.G8 ~3.{3.]3.^3./3.h#.(3._3.:3.<3.[3.}3.|3.~z W# 13.{v 4{.23.33.Us 43.53.;).63.73.83.93.03.a3.b3.c3.d3.e3.f3.g3.#& h3.i3.+f j3.7% k3.l3.2% m3.n3.o3.p3.q3.ms r3.s3.t3.u3.v3.)#.v$.-P TQ JH JH JH 9N 9N 9N 9N 9N 9N 9N 9N 9N 9N 9N 9N 9N 9N 9N 9N 9N 9N 9N 9N 9N 9N 9N 9N 9N 9N 9N 9N 9N 9N 9N 9N 9N 9N 9N 9N 9N 9N 9N 9N 9N 9N 9N 9N 9N 9N 9N 9N 9N 9N 9N 9N 9N 9N 9N 9N 9N 9N 9N 9N 9N 9N 9N 9N 9N 9N 9N 9N 9N 9N 9N 9N 9N 0N JH JH JH rP jQ QQ )S w3.x3.y3.z3.mA A3.B3.3b C3.Ow D3.ib eb J* }_.E3.F3.g* /x hb *c jb !; B= cb G3.>b }- `- 8^ Nw K* U| Fw W* fb y= H3.I3.J3.bj _= _- K3._- L3.b .M3.N3.O3.A+.P3.Q3.kf F- Y/.,e kw 8S R3.S3.`= T3.U3.V3.1b @!.W3.X3.Y3.r> `2.Z3.a!.`3. 4.`= .4.yM +4.hN @4.#4.$4.%4.&4.*4.=4.-4.(O /- kf =4.nb kO ;4.`v >4.8:.F&.8S jb dc 4!.9b B= _x x= <#.2g dw cw B* Yv E%.X| Uh ,4.t_ t:.'4.R).)4.!4.~4.{4.Ey ]4.!M Qy ^4.Y).Y- /M /M /M u).e:.!| !| S{ :k Gh Y< Z| 6x hc 2g 8^ 1i v(.p, hD /4.^b w[ L[ ",
"-* H/ C' M; /> Y; >^ )* 9> J> g< 5D $N (4._4.:4.s/ 5; Y] Z; <> `] 2; m> => %^ U{ /> &/ 6! v, e> v, x) F~ $, <4.Q; 3: j* r^.6; 9> k; =' 5; d- ): @) )* ,* -^ ,, )b i* (x *'.[4.11 Y< }4.oh oh x[ +< I< Z( I< D' Z( C) C) a) Z( V< %] Cx w[ ,* C^ M; 6; 1' 4> 6> E, J) Z( 9> 8> 3B t, ^e =; f> 1z |4.14.24.34.44../.v$.KH ^{.0N 9N 9N 9N 9N 9N 9N 9N 9N 9N 9N 9N 9N 9N 9N 9N 9N 9N 9N 9N 9N 9N 9N 9N 9N 9N 9N 9N 9N 9N 9N 9N 9N 9N 9N 9N 9N 9N 9N 9N 9N 9N 9N 9N 9N 9N 9N 9N 9N 9N 9N 9N 9N 9N 9N 9N 9N 9N 9N 9N 9N 9N 9N 9N 9N 9N 9N 9N 9N 9N 9N 9N 9N 9N 9N 9N 9N 9N 9N 9N 9N 9N 9N 9N 9N 9N 9N 9N 9N bN TQ 54.64.74.%D 84.94.tL 04.:%.a4.e; =) 9> &~ h] Z, ], W^ '> W, |) *> B> j, ^' H; 5; Q; P: f> 9> C) )* Ri b4.c4.d4.$F {b 6> a- Y; Y' Y; J) D> 5* 1' f> I< a- X] a) B) v: J> E> o) m) =' @) m> M; %/ C, j, l; 5* n> w, `; v: u/ q> I< p] j( m' e4.YL AR 7[ D: S' x, o) q> Y] J) Z; @) E, Q, C> &~ x, /' x, Q, J) Z; N~ J; J; *> C, '> _) @> %^ K> 2! ]h h' C) p] o! 9> I< o> Zi !{.f4.93.[_.F< =' w, J) /> ;> m> @] I< G> 1( D> k' g< W> &/ s) w, k; G, ^> 6] K> M; O) O' Jz u) k) ",
"l< =4.I; K! K! (, #! +( /] ;, E, n) g4.h4.i4.Mc ^> K! i, g; u; (, !' i, 0) y' 5^ 5^ `! #~ #~ y' #~ I{ X~ g; F; z{ X; >) F; 8{ 7] g; 0; F{ f] '! i, ]' 0! ;> K> C' f! hi z2.j4.lU i> _w &/ v, C> *) N^ 4^ A; V' Ed ]' |) P] Ed +_ U] *! >) e; :^ 4^ g; )' &) 4^ O^ C; g; g; _) v' !' k4.l4.m4.n4.u3.o4.2$.IE JH 9N 9N 9N 0N 9N 9N 9N 9N 9N 9N 9N 9N 9N 9N 9N 9N 9N 9N 9N 9N 9N 9N 9N 9N 9N 9N 9N 9N 9N 9N 9N 9N 9N 9N 9N 9N 9N 9N 9N 9N 9N 9N 9N 9N 9N 9N 9N 9N 9N 9N 9N 9N 9N 9N 9N 9N 9N 9N 9N 9N 9N 9N 9N 9N 9N 9N 9N 9N 9N 9N 9N 9N 9N 9N 9N 9N 9N 9N 9N 9N 9N 9N 9N 9N 9N 9N 9N 9N 9N 9N 9N 9N 9N 9N 9N sP 9N 9N TQ QQ p4.B>.q4.h$./(.r4.,> s4.~' S, ^' 0; :h #~ 4^ W, |, z{ `, a> i; sz u/ L^ Y; /> O) E, `; t4.u4.2. aS X< ,, a) =' P; X; P= Y; ;> J> j, hh )> -, ,> j, ,' ,' S_ 1) S, |) ;, *> '> O' x; P! ae C' >) l> Z, ;, i; J) 3^ 7{ B( J: Q` ;#.v4.=j o] C> &> s) Z' t' Q) +> >) J; rC /h $> g^ g^ |) A; F; (, )' &) &) >! X~ 5^ w4.I{ T, 7] }{ z~ G/ j, ;> V) `^ f! `; Y' 3U x4.y4.V{.w, j, c> -, ^) U, K! P] w) i' DT G/ +> ;' |) )> #> )' G~ Z, (, () 8) l> ^) T' Rd =, A; ",
"L~ 6b !' +! K! 0! e] K; 3/ K; M; =' z4.A4.GB a) !> `! M{ M{ 0) i, 7^ }{ p( Q( `! lS >< lS B4..~ 5^ %e 9) _) )' `, 8) $~ =~ :h 5^ -( Y! C; k! K! J! A; /) `^ +> d; H; f> C4.D4.%| f- O) >, C, C' {) b; I! e^ %e p( :^ E; p( *#.=~ g; !' A; ;{ D( X~ D; 8] Z! Q( m! 2~ 8] P] 8A E4.F4.G4.H4.4$.I4.>_.#%.9N 9N 9N 9N 9N 9N 9N 9N 9N 9N 9N 9N 9N 9N 9N 9N 9N 9N 9N 9N 9N 9N 9N 9N 9N 9N 9N 9N 9N 9N 9N 9N 9N 9N 9N 9N 9N 9N 9N 9N 9N 9N 9N 9N 9N 9N 9N 9N 9N 9N 9N 9N 9N 9N 9N 9N 9N 9N 9N 9N 9N 9N 9N 9N 9N 9N 9N 9N 9N 9N 9N 9N 9N 9N 9N 9N 9N 9N 9N 9N 9N 9N 9N 9N 9N 9N 9N 9N 9N 9N 9N 9N 9N 9N 9N 9N 9N 9N 9N 9N 9N 9N 9N 9N JH *` J4.2$.S+.K4.L4.M4.N4.^/.O) X, G{ y' T, *> m; z{ ^' >) <e o~ !/ l; `, O) J) x, Xw !u O4.b< D< d* 8> +, 4; P= #, X; M; m; m> T< %> '' Z, 6) [{ y; d; Z, |) 7] Z, ], y) R_ M) O, ae c' M> R, () #! O! N~ Q, W> S' 5> +4.O0 P4.E< m) P! x; ], z{ Q> @> $~ $~ +! zP c, ad _) }{ #! F; W, |) +! 1, {' J! g] I{ Q4.R4.<! _) U] |) '> 8) k> U) j> M; Z' Z' *c S4.T4.KA M: V] N' W^ g^ U] 0) }{ &T [{ S~.&T 4, zz |! :) T, ad $~ P> 0; X, J; #! !' g] |~ ^~ K! ",
"Rm r= c; i, ]) Z, M! K; l> 0! /' @) U4.V4.W4.j) X4.I{ +~ }~ &) g, J! k! |~ 2~ w{ -( 3] Y4.Z4.*T `! 4~ w{ J! a; |) S_ @> 4^ (~ %e Z! R( Z! N^ <^ g, E; G; B> L> 8) Q/ R].`4. 5.+| a- C' j> `, C' F{ G{ H!  ~ .5.Q( b; `! w4.5^ O^ yf ]~ X~ &) Y! (~ J! W, Y! 2B p( +5.@5.#5.$5.%5.p4.e#..T 9N 9N aN 9N 9N 9N 9N 9N 9N 9N 9N 9N 9N 9N 9N 9N 9N 9N 9N 9N 9N 9N 9N 9N 9N 9N 9N 9N 9N 9N 9N 9N 9N 9N 9N 9N 9N 9N 9N 9N 9N 9N 9N 9N 9N 9N 9N 9N 9N 9N 9N 9N 9N 9N 9N 9N 9N 9N 9N 9N 9N 9N 9N 9N 9N 9N 9N 9N 9N 9N 9N 9N 9N 9N 9N 9N 9N 9N 9N 9N 9N 9N 9N 9N 9N 9N 9N 9N 9N 9N 9N 9N 9N 9N 9N 9N 9N 9N 9N 9N 9N 9N 9N 9N 9N 9N 9N 9N 9N 9N bN 9N uK JH *` 2(.%5.&5.*5.=5.-5.;5.T, J; `, H; V] F; B> L^ P; -> >> &, l; Y' eC >5.GT ,5.Q: D: y/ K[ 4( ): #, M; C~ f! k> R_ '> >) >> j> R_ 6! k> H; 8) j> G; j, J; =+.O' C' m; K> j, `, Z, u; => m> => N= Z; o> '5.dR @* 3> F> P> b; C; ;{ o{ E; +! T^ +! )' T, xf $~ X, F; X, h] %! [! 0' A; Y! {{ m! Q( 8< yf g^ g^ '' J; 6) 8) C~ ^> ;> X' l; ~; )5.!5.=h s) ;' f! i; Z, z! h] (, h; d> [{ [{ X, i#.X4.Ed p( ~{ _) ]' #! G~ W, a> #! }) v' =~ 7] ",
"l< =4.c; 2, ;, >) 0! t; >> F; ~! X' ~5.{5.*g $[ v'  ~ Y! w{ 9{ K! 4^ m! }~ Q( I! Q( Z! ne KS >< R( `!  ~ +~ 4^ }{ N> #> ^~ y' 3]  ~  ~ %e C; 0; x; y; l> >> L> H; >> u, ]5.^5.ky w- j, K> f! d; A; G{ -( 4e ){ E( w^ >e Q4.%e m! jf 5^ X~ J! &) &) /5.(5._5.:5.<5.[5.}5.1(.|5.kQ 9N 9N 9N 9N 9N 9N 9N 9N 9N 9N 9N 9N 9N 9N 9N 9N 9N 9N 9N 9N 9N 9N 0N 0N 9N 9N 9N 9N sP 9N 9N 9N 9N 9N 9N 9N 9N 9N 9N 9N 9N 9N 9N 9N 9N 9N 9N 9N 9N 9N 9N 9N 9N 9N 9N 9N 9N 9N 9N 9N 9N 9N 9N JH 9N 9N 9N 9N 9N 9N 9N 9N 9N 9N 9N 9N 9N 9N 9N 9N 9N 9N 9N 9N 9N 9N 9N 9N 9N 9N 9N 9N 9N 9N 9N 9N 9N 9N 9N 9N 9N 9N 9N 9N 9N 9N 9N 9N 9N 9N 9N 9N 9N 9N 9N 9N 9N 9N 9N bN =Q u$.15.25.35.45.55.^> 65.y; >) Z] >^ ,* 4( m> Z^ Y' o! l(.75.85.DD cT A/ D: $/ O/ <> Z; K> U^ #, => O) Y_ s' #, O] m> O) `, M) `, `, >) M! ^' /h d> >) => K> O, M; >) i; $, /_ X' E, Y; Q; 95.05.a5.3> D> {' ]~ o{ {' J! i, 7] 7] z~ #> g^ }{ )' F; 1, <! i, J! v' A; 0; &) y' Y! Y! y' =~ () |) (, G; j, j, C~ => k' <> n> 3S b5.c5. k [; `, k> i; l> U, !' F; F; d; F; X, *! }{ <! 4^ +_ {{ +_ P> u; g; g^ 6) h] +! g; $~ () ",
"L~ d5.!' k( B> R, 0! $] B> M! 1z Vd e5.H# f5.t/ +! E( J! K! 8] G{ m! 0) 0) X~ 4~ L{ Z! Q( g5.vd -( J{ |~ Rd =~ )' g; @> {' X~ 4e G! @~ m! %! S, M) *> ]* >> ], L> => *^ h5.&A P_ Cx >, >, f! *> W, /~ L{ te te t{ 1{ g] 2/ 3~ i5.6T 5^ (~ (~ /~ `~ j5.k5.l5.m5.n5.OR 0N 9N 9N 9N 9N 9N 9N 9N 9N 9N 9N 9N 9N 9N 9N 9N 9N 9N 9N 9N 9N 9N 9N 9N 9N 0N SQ rP KH KH e#.o5.FS p5.q5.r5.s5.s5.s5.^C t5.u5.u5.t5.t5.v5.v5.C^.v5.&D w5.x5.y5.y5.z5.z5.A5.|C &%.GE n%.B5.C5.C5.D5.dN +-.54.TQ KH JH 9N 9N 9N 9N 9N 9N 9N 9N 9N 9N 9N 9N 9N 9N 9N 9N 9N 9N 9N 9N 9N 9N 9N 9N 9N 9N 9N 9N 9N 9N 9N 9N 9N 9N 9N 9N 9N 9N 9N 9N 9N 9N 9N 9N 9N 9N 9N 9N 9N 9N 9N 9N 9N 9N 9N 9N -P E5.4$.F5.G5.H5.O].jx /] #_ !/ 4( [; w, Y' D, 2_.I5.J5.K5.2: v[ 7: sx 5: 3: 5* E, O= P= `, Q, R_ DT n> <> 5; J) X; #, K> Z, `, => y) =+.hh C' 5! >> => => ^> Z; @) L^ @) Y; {^ s~ L5.:f M5.h> 9> v( K( 7^ )' '' 8) ;' O' N) '> g^ 7] '> |) i, =~ 0; &) yf @> {' k! #~ 4~ -( g] 4^ W, U, ^' F; Z, m; Y; [; N; 2( G, D3.N5.O5.dd `; `, f! e; (, 0> () () 0; ^' g^ =~ f] _) 0) E; =~ ^~ @> ]' d; g; +> `, G~ }{ }{ X, ^' ",
"*] V, F; n/ ae ;, [_ /_ `, K; sz Vd !- P5.%@.C) 7] w^ =] !! g; 4^ m! ^~ 7^ {~ 2~ w' @~ Z! *T 4] 6R `! e^ Y! !' 2, g; +_ &) Y! L{ L{ I! 0{ =~ N^ d; >) $, l> Q> =) 5; 1/ Q5.R5.P_ I< O) C' m> l> ]' =! Z! 2B te g{ h, G{ w{ >e S5.M{ %B T5.U5.V5.W5.X5.Y5. T kQ JH bN 0N 9N 9N 9N 9N 9N 9N 9N 9N 9N 9N 9N 9N bN SQ KH JH rP JH jQ 8N )+.W!.Z5.`5. 6..6.+6.@6.#6.$6.%6.rB &6.*6.;; =6.-6.;6.>6.,6.'6.)6.!6.~6.{6.]6.^6./6.Db (6.(6._6.:6.<6.[6.<M }6.|6.16.qv 26.DL 36.46.56.66.76.86.96.06.a6.W/.b6.+^.c6.2(.)+.8N w$.-P rP rP JH SQ JH bN bN 9N 9N 9N 9N 9N 9N 9N 9N 9N 9N 9N 9N 9N 9N 9N 9N 9N 9N 9N 9N 9N 9N 9N 9N 9N 9N 9N 9N 9N 9N 9N 9N 9N 9N 9N 9N 9N 9N 9N bN JH rP -P }R u..d6.e6.f6.g6.h6.%w <; Z; Y' x~ q: =y 7. [S y[ y[ 7z 6: M/ {* -' k; 3; l; l; 6! -, C~ @) >^ 4( X' !/ '* f! Q, j, X; Z, u) P= /' l; C~ j> m> Z] Y; 2( !/ E, X; [; x- Fz i6.j6.fg @) )! ;, Z, h; Q, N~ @[ 5i %[ v) G; V] () |) W, A' $~ =, )' ]' K! k! Z! #~ 3] g] =~ W, G; b> S, C, M; N= X; k' [; => k6.l6.m6.}( l; f, P! *) d; j, G; h] h] ]' h] g; W, Y, C; k! g; {' !' ]' ]' |) >) t; b> h] g^ F; Z, ",
"C_ i~.#! W~ z{ B> L; n6.~! L; 5g 1' o6.p6.q6._, '> /~ =! {~ J! o{ &) C; D( C; m! `! #~ g] u{ .~ p: u^ v^ |{ E; ;{ 3, I] k! e^ w^ Z! y' Z! &) F{ P> 0! i; ^' M> jx Y; H[ (a r6.|' `] P= #, i; H; () c; 9) te ,{ s6.I! v{ w^ t6.u6.v6.w6.x6.y6.o5.TQ 9N 9N 9N 9N 9N 9N 9N 9N 9N 9N 9N 9N 9N 9N 9N 9N 9N 9N -P 54.aV t$.z6.n%.C^.u3.A6.B6.C6.4N gt D6.@x g^ =~ A; f, uz v! 2, R, d; () O^ :^ A; &) =~ :) 1, ^' ^' s] #, @] =' &z j( u, hi 6: ~^ 3..E6.F6.kU B) >> ]] G6.0; b; H6.I6.v^ V~ V~ i, J6.K6.L6.M6.N6.O6.P6.'].n$.Q6.R6.S6.T6.qP 7~.+$.aN 9N 9N 9N 9N 9N 9N 9N 9N 9N 9N 9N 9N 9N 9N 9N 9N 9N 9N 9N 9N 9N 9N 9N 9N 9N 9N 9N 9N 9N 9N 9N 9N 9N 9N 9N 9N 9N 9N 9N 9N 9N 9N 9N 9N bN *` C:.U6.V6.W6.X6.Y6.Z6.`6.q:  7..7.q{.E/ qx 7: R= i( C< k; >^ '* (' 5; %^ Q{.N= <> <> Y; @) X' [; x! `, m> Z' O, C~ 5; U> l; Z] U) N= N= @) <> o~ P; !/ !/ ~^ +7.B'.SF oc @) |, i; i; #, J> g- @7.Py 7> b- l> G~ ]) 0; A; %! _) }{ |, 2, {' 8] %) y' 3] |~ @> '' ;, U, )> ], M) J~ C~ S' [; n> E: #7.$7.K^ #, 2, F; G; ^' 8) 5{ >, ^' ^' ^' (, H; O! W, &) A; ]' ]' ]' |) #> d; B> C' 6) J; l> j, ",
"C_ %7.^' 5{ O, %~ ~] /_ ;_ 9B L^ +< &7.*7.=7.I, y) E; >! J! ^~ :^ J( X~ 2~ X~ `! 4~ #~ J{ 3] #~ &@.@~ Q( -7.m! %! u' u' G{ 9) b; k! 2~ b; !' -{ {' ]' i; H; #) Q> /> A/ ;7.>7.;| g> k; => z{ z{ F{ N^ te ne I! ;( ,7.1, '7.)7.!7.~7.E5.jQ 9N bN 9N 9N 9N 9N 9N 9N 9N 9N 0N KH JH JH bN {7.]7.+-.7N ^7./7.(7.@T _7.:7.PI <7.[7.}7.|7.17.27.37.w) >> l> X, 4^ G~ m> B> B> /] z{ 5{ (, #> {' g, X, +! <) )' u; ]) ;{ >) ^> 3; M/ i( 5* *^ $/ M/ Sw 47.57.67.q( m; /] b/ ]' <! yf g, /~ C; A; ]' }] F{ v( 77.87.97.@{.v- 07.a7.7u b7.c7.d7.e7.f7.a6.B>.g7.+-.OR w$.=` bN rP kQ JH 9N 9N 9N 9N 9N 9N 9N 9N 9N 9N 9N 9N 9N 9N 9N 9N 9N 9N 9N 9N 9N 9N 9N 9N 9N 9N 9N 9N 9N 9N 9N 9N 9N 9N 9N bN 9N 9N jQ 1(.h7.i7.j7.k7.l7.h& gG @F D< s/ y/ I[ ld -^ '* P; 5; r; |; m> O: U^ l; (' ;> C~ M; m> M; m; /' 5; J) u) N= `; Z; Z] C~ P= Y; u/ u/ o! k; u/ <d =j m7.Ph n7.E= I< F; #! j, M; Z] '* s~ C) C) M; a> 7] W^ g; _) V' 3, !> $~ !' !' A; 8' `! %e v' %! '' Z, '> '> H; #, j> m> E, o! M' AO o7.p7.rx M; 0! G~ ^' P! => W; B> j, >, #, `, 0! M! a> 0; #> T, 8] @> S, 7] h; i; H; ^' *> O! H; ",
"8; q7.>> G; ;, m; /' /_ n] sz i( Fd r7.s7.t7. _ 6) p^ 8] {' i, *~ {' 4^ 2~ Z! `! I{ I{ -( 9/ |{ B; m! =: R( I! Y! _) m! |] 4~ m! O^ g; {' :^ O^ J! &) 0! >> '' L) &/ x[ u7.v7.w7.V; l; 5; N; z{ 2, p^ I! k! kR -5.x7.y7. 6.z7.A7.rP JH 9N 9N 9N 9N 9N 9N 9N 9N 9N 9N JH TQ ]7.B7.>P C7.D7.E7.%6.@a _#.F7.G7.H7.I7.J7.F< 2[ Z^ %/ m> L; j> R_ A~ (> >) 8] *#.'[ z{ 5! B> B> 5! O, 8) ]' ]) }] F{ A; !> 7] 5{ }] C; F; C~ T_ >* E_ k; 8> x~ D, &; K7.L7.L} 6: [; K; K; 2, 0) 4^ _f C; w' k! )' !' Z, H; k> J) X; [; P! ;, B> P! <^ o{ v' M7.N7.O7.P7.Q7.R7.~#.S7.T7.U7.V7.'_.OR TQ JH 9N 9N 9N 9N 9N 9N 9N 9N 9N 9N 9N 9N 9N 9N 9N 9N 9N 9N 9N 9N 9N 9N 9N 9N 9N 9N 9N 9N 9N 9N 9N 9N 9N 9N 9N 9N sP 9N rP *` rR 0V W7.X7.Y7.Z7.I* U= O[ i> L_ <; 6; 6; k; P; -' /> K> O) /> ;> E, N~ ^> m> f, $] => m> /> Q, 6; 4; l; `; k> w, k; Q; &( Y' I< k; Wd ;j I..,I P( `} _, h] )' H; B> k> &/ M; N= }; j> h; 0) z~ }{ 7] '' @> &) !> 7] !' {' [! #~ w' V' +! J; ]' )> +> ^' j> k> => J> X' X' r< ~$ `7.}( m; (, ]) F; >) ;> 5g [; `, m> m; X; >> `, >) F; 0; |, () () )' 1, Z, `, 6) ^> =) f, i; ",
"-h 9e s] M! K; %~ L; ~! V{ ~! i/ uS  8.A,..8.7> |) 8] C; o{ >! O{ 9{ w' @~ E( L{ >e .~ >e  ~ e^ 8] I! h/ 0/ J{ e^ G{ |{ ]~ R( |{ y; '' W, ]' 8] >! @! !' ;, 0e d, K> oD +8.VX f: a- => k' O; => P> h] @8.#8.$8.%8.|T TQ 0N 9N aN 9N 9N 9N 9N 9N 0N bN TQ jQ i{.z7.&8.*8.l5.=8.-8.55.;8.>8.Xh 9* #, K> K> ,8.'8.)8.|| D< 7* Z( T_ W; Ez f! => w! t; 5_ G{ (~ 7] /] ~] >> l> R, 3/ {' C! J( b; g, ]' 7] W, [] g, {' 8~ ]* @) a( -^ k; I< Q; o> F< My !8.Z> P: `, I; 2, I; {' 8] @~ 0/ ~8.{8.|~ 8] +_ zP O' P) K> ;' 6) #, K> N~ I; g; Q( @~ >{ _S R4.]8.^8./8.U).07.(8._8.$9 :8.<8.[8.}8.3$.|8.18.}R [R TQ kQ 9N 9N 9N 9N 9N 9N 9N 9N 9N 9N 9N 9N 9N 9N 9N 9N 9N 9N 9N 9N 9N 9N 9N 9N 9N 9N 9N 9N 9N 9N 9N 9N 0N 0N JH e#.gS 28.38.lP Q8 7).~! [; ;> w, 9> 3: 7{ 9> n> ^> j, O; m> 6) `, O, f! %~ m; `, O) K> t/ P= Z; Z; #, n> 4( >* x~ ,* '* 5; P: 48.58.|s 68.tc =' (, ]' G; M! ;, h; ]) c> z, h; G~ @> 7] W^ 0) P> g; C; ^~ %! g; 8] Z! G{ Z! 8] %! @> () )' ^' ^' ,> c> #! O) x, E, 8^ Yt &i 78.i; ^' T) h; b> => B> J> C> => m; j, b> d; #! U, A; f; I; I; 7] g^ Y, d; j, {/ `, f! => ",
"*] PA y] t; 88.y> 3/ 0! [] v! |z 7{ 98.08.a8.O= b8.H! c8.d{ h, /~ h{ A{ d8.te re ){ I{ e8.>e 4~ 4e I+.g{ 0/ J{ 8Q e^ 6< b; G{ G{ @> 1, g^ g; V' i, &) A; }] ~' |) Y; q' f8.g8.P3.x) *! l> h8.y] i8.nB j8.k8.}$.JH 9N 9N 9N 9N 9N 9N bN bN 9N JH ]7.I4.S6.l8.m8.n8.o8.p8.q8.r8.s8.1{ ^~ X, 0! G~ '> d; 7' t8.u8.v8.W( <h 0> 8> I[ Uy O, #! [^ w8.>> b^ '! &! X, P, P, F; () -{ -{ C] x8.H+.y8.z8.&) G~ W, @#.8Q a{ 8{ [_ -' {! -^ ;_ W; O; l; F< A8.$[.B8.%f #~ Y! c; g; :^ &) 4~ 4e C8.D8.E8.#~ 3~ F8.:e +_ 0) I! 0) +> -) d, |{ X~ 8] K! 2~ .~ Ue .~ J] O: %/ #[ %^ P= G8.H8.I8.J8.K8.L8.M8.N8.O8.P8.Q8.C>.g@.}R rP 9N 9N 9N bN sP 9N 9N 9N 9N 9N 9N 9N 9N 9N 9N 9N 9N 9N 9N 9N 9N 9N 9N 9N 9N 9N 9N 9N 9N 9N 9N 9N 0N 0N bN 3=.2$.qR R8.S8.73.X; a4.Y; -^ {* o! 5; #, T) %~ k> H; f, ^] u: W' /' =] 6) e< K> T) Z] E, >) L; !/ !/ v: f! m; N; p] cT T8.U8.V8.W8.|; O, 5{ ;, #! 8{ 0) '! z! J; W, {~ p^ 9{ J! f] A; X~ h, o{ v; S, 4^ #~ Y! g] @! >! (~ G{ _) g, () ]' () ^~ +! f! P= (; X8.Y8.*A N= ,> 5{ l> [_ /' M! l> #! /) 0! 0; 0; }] *! 7^ e^ ]' ^' {' T) u; 4~ }) f! G; J; H; M) ",
"8; (O H; E, HP x, 9, z{ *) _^ 8, Y' &).Z8.`8.Z( f] )' %! T, !' B> H; S, 9' H{ 4e >< H{ lS lS 6R SR K{ k! g' 5^ X~ A' n! 8' %! g; u' A' @> T' k! .< T' 0' F{ V' ,' Y' r<  9..9.+9.R_ m! G~ @9.84.#9.<$.w$.9N 9N 9N 9N 9N 9N uK JH rP [R $9.%9.&9.*9.=9.-9.;9.>9.,9.'9.)9.!9.F+.k! V' b; g, ;{ +_ f' ~' r[ ~9.{9.]9.T! c> :) H(.Px <e M> w; ae k' j, ;' +> S, J; '' Q> ,' ,' L' ]' 2~ `! p{ ^9.h/ S, M> J; C; N^ P> +> f! Y' i/ f> 2( Z' Z' Y' /{ /9.(9._9.-, :9.5) }< <9.N> 4) ]g U' #~ 6R .5.>< Y4.wR g5.le  ~ h/ t{ %> [9.3) }9.3] y' )' =~ w' lS lS :e J; @[ %^ &~ a) Xi 3' `( |9.19.29.39.49.59.j/ k2.l8 oB 69.79.C^.V7.'_.e#.-P .T ~@.9N 9N 9N 9N 9N 9N 9N 9N 9N 9N 9N 9N 9N 9N 9N 9N 9N 9N 9N 9N 9N 9N 9N 9N 9N 9N 9N 9N 9N 9N 9N )+.64.89.99.09.a9.ud ~* =' Y' .> C> 5! J) e> e< A> G> p] j, |] 1, h~  ' G; B> Y] X] G, 7: v[ Ri k; <> u/ 7{.Mc b9.>J c9.h/.C~ &~ M; B> M) g^ c, rC d9.N) L) O' j, y) [{ y) '> {[ R] (~ e9.C, }{ Z! m! 4, X, X, Ed <! ye Qz h] d> O' 6) G/ q[ $; h!.f9.g9. k Cx P= n> N= Z] D> &~ J) ,> Q, U{ y) 6) V] -, k( }{ g! &~ #, Z] f! p( )[ N~ ,> R_ >) N~ ",
"Rm ]S 8> i> ;i .C Vd K[ s~ `] J: g: h9.qs i9../ a- Ji j9. %.Kx e~ Ai Ii k9.l9. C m9.n9.o9.6^ Ed Rd !> O' 0i p9.R) k< q9.r9.N) 6) A; _) b; T, T' +_ p( Q< E> X] D> Sg @< s9.t9.u9.v9.w9.x9.y9.3(.TQ KH bN 9N 9N 9N sP JH TQ *` '_.z9.A9.B9.C9.D9.E9.K$.hh F9.G9.H9.I9.6{.IP rf c, kx 6) j, ^] bi CT e> 5i J9.K9.L9.M9.Cx G/ N9.O9.7{ */ %T M' v: V> e> j9.{i M> C' h' P9.2! L> L) Q9.R9.N> A' 9' S9.|< Y] )d W) &> (< Z; i> A) g) 7> Y' 4> D: l(.)` T9.}&.t/ U9.V9.W9.X9.(< M{.Y9.i! i!  C Z9.Y4.Z9.le `9. 0.lS :! g; rC .0.%> :/ X..E@.[{ ~> +0.@0.:! #0.([ *, C~ T_ K[ x[ )e ii +!.$0.%0.&0.Y| mi Y| *0.2g B= ;- =0.-0.;0.'|.>0.,0.'0.(}.fS OR TQ JH bN 9N 9N 9N 9N 9N 9N 9N 9N 9N 9N 9N 9N 9N 9N 9N 9N 9N 9N 9N 9N 9N 9N 9N 9N 9N 9N 9N JH -P IE )0.!0.~0.{0.[= oh hi Fd G< ,[ Wi Ai y/ ), li `$.)[ G/ Hi C) ;> P; A/ pD x[ Ch `> SC /b 3> $/ 5: r- ]0.^0./0.T* c< h) sD i> 8> 5i (0.7i _0.2[ r, /4.[: oh P[ /< 9< oD s, o..:0.<0.VC 3B lx ]i iD ,, ), [0.}0.pD 4x ./ L[ $b `B |0.</ 10.20.30.5k d/.L[ SC ~^ Gw `B Qc /{ `B /+.d/.40.50.60.70.m' v(.80.90.S{ ic Uh DC DC Gw jh /4.D< hD ",
"L$.00.Gh AD z} <k >d 1d o, a0.I' !{.b0.c0.::.zE id `| JB I' $| FC !k T| Be KA 1' H] y/ '~ Wd O/ f> 7> e~  _ 7> K[ `B d0.Yi hi q> O/ >* Ff 4* {* c* o> px e0.T| z%..k z_.f0.g0.h0.i0.y9.GH rP 9N 9N 9N 9N 9N 9N 9N j0.k0.'0.l0.m0.n0.Sw R].$~.o0.O= C) U= 7;  ' |< j< p0.l) )* _, 4x ;j ^k ~d [> 1P Th Md q0.r0.s0.x&.qc c* 4P |_.fg ~) %~.oh Kc qx ;i ,i t0.hi *^ Q: P[ d~ Px Eh u0.e~ A/ Eh 2P v0.w0.x0.hk f[  / g[ .b o( Rf Jd r< `> I' u> nD y0.z0.n:.I' A0.Lc <..t, 6: Mc hi *^ 4> Jx :[ H< a[ N= B0.C0.X+.c* E< x- c* g> f> p] Zi #b X_ z: ]; %w %w ]; K< jD @U r| v< Zj )| D0.E0.F0.G0.}1 H0.I0.J0.-k fE eE /} K0.L0.>1 ,{.M0.N0.O0.P0.Q0.R0.S0.T0.qP GH JH 9N 9N 9N 9N 9N 9N 9N 9N 9N 9N 9N 9N 9N 9N 9N 9N 9N 9N 9N 9N 9N 9N 9N 9N 9N 9N 9N bN #%.+-.U0.V0.W0.X0.Y0.Z0.7:.7:.fk @| k{ Z} h/.o- D< K* ic Gh TT *| Jy s= }&.}&.BD t} %| Nh t} kU l..`0. a.R~ (| t< kk .a.+a.E} *| W} X} @a.-k ^} #a.$a.el Hj 1j [1 [1 kj vk %a.&a.gz Mk *a.=a.LD pw =*.-a.;a.>a.,a.'a.)a.PD !a.~a.{a.]a.^a./a.(a.B&._a.:a.<a.[a.}a.'(.|a.5F 1a.2a.3a.4a.5a.6a.7a.8a.gF d! 9a.~n 0a.aa.ba.ca.9=.O| gF ",
"$:.da.ea.ER fa.ga.R:.ha.ER h1 dF ia.ja.ka.la.ma.na.oa.pa.qa.ra.sa.ie ta.ua.va.wa.xa.&W ya.za.xa.Aa.Ba.Ca.Da.Ea.Fa.N2 Ga.$( Ha.pF ~G ]W Ia.#E Ja.V8.Ka.La.Ma.Na.Oa.Pa.tV Qa.Ra.Sa.)+.9N sP bN 9N 9N JH !S ]7.C>.Ta.Ua.Va.(X -@.Wa.Xa.Ya.Za.-@.XF `a. b..b./f +b.6F U*.@b.#b.$b.Fa.%b.Xy lF _!._!.=E &b.*b.=b.-b.;b.>b./E i_ Cj Rh ,b.jj &F ej o^.:+.aE {E 'b.)b.!b.x&.V^.{1 ml ~b.{b.{b.]b.kF +} ^b./b.(b._b.:b.9E <b.[b.}:.}b.}b.$V {1 ll |b.1b.2b.3b.4b.5b.6b.xj }j ol 7b.8b.oE tj oE ml 9b.0b.IV IV T*.Yk $E ab.Rj 8F (=.bb.Y2 cb.db.eb.fb.gb.hb.ib.jb.kb.kb.lb.mb.nb.ob.pb.qb.rb.sb.tb.ub.vb.wb.xb.yb.zb.Ab.Bb.Bb.Cb.u<.Tl .c Pd Pn :3 Db.Eb.Fb.Gb.I7 Hb.Ib./}.Jb.I4.}$.Kb.bN rP JH 9N 9N 9N 9N 9N 9N 9N 9N 9N 9N 9N 9N 9N 9N 9N 9N 9N 9N 9N 9N 9N bN 9N 9N [$.qP Lb.Mb.Nb.Ob.Pb.Qb.Rb.{m Sb.S1 1<.Tb.Ub.Vb.Wb.Xb.Yb.&i Zb.`b.n*. c.o~..c.+c.@c.#c.M1 $c.%c.&c.*c.=c.-c.;c.`1 >c.,c.'c.8m )c.Tl `<.!c.P/.~c.^].|k {c.]c.^c./c.(c._c.:c.<c.[c.}c.wq 46 |c.1c.'6 2c.3c.4c.5c.6c.46 7c.8c.9c.0c.ac.bc.cc.42.dc.1^.<p g. ec.fc.Eo gc.hc.ic.jc.kc.lc.mc.nc.+7 oc.pc.qc.rc.Ur sc.tc.U-.uc.5s ",
"~  vc.wc.8;.xc.yc.zc.Ac.:1.Bc.Cc.Dc.f6.Q5 |>.lP Ec.Fc.Gc.Hc.Ic.v|.Jc.Kc.Lc.Mc.Nc.i7 V;.Oc.Pc.Qc.Rc.Sc.+1.Tc.y0 jc.Uc.Vc.Wc.Xc.*m Yc.Zc.`c. d. d..d.~1.+d.@d.#d.Lq $d.%d.&d.]7.9N 9N 9N 9N 9N 9N TQ D:.*d.=d.-d.;d.>d.,d.R;.hc.01.'d.s0 B. MX `f )d.!d.W. ~d.{d.]d.^d.V#./d.(d._d.:d.Co <d.[d.}d.|d.1d.2d.G: }7 3d.4d.5d.M'.6d. 5 7d.(@ 8d.9d.o@ 0d.(@ ad.bd.cd.dd.ed.fd.gd.hd.id.s6 jd.kd.ld.md.## nd.od.pd.qd.rd.sd.x. e: td.hP ud.vd.wd.xd.yd.zd.Ad.Bd.Cd.Dd.B5 D<. + 2f Ed.Fd.U: >I Gd.Hd.Id.Jd.Id.Kd.Ld.W. Md.Nd.Od.Pd.Qd.Rd.Sd.Td.Ud.Vd.86 p*.Wd.Xd.Yd.q@.Zd.&>.`d. e..e.+e.@e.#e.$e.%e.&e.*e.=e.-e.;e.>e.,e. 8 'e.)e.!e.~e.{e.]e.^e./e.(e._e.:e.<e.[e.X7 }e.|e.1e.]_.2e.3e.4e.}R +$.JH 9N 9N 9N 9N 9N 9N 9N 9N 9N 9N 9N 9N 9N 9N 9N 9N 9N 9N 9N 9N 9N 9N 9N 9N JH IE p5.5e.6e.7e.8e.9e.0e.ae.be.ce.N7 de.#% ee.a>.Dp fe.ge.he.ie.e;.8q NZ je.ke.le.me.ne.oe.pe.qe.re.se.te.ue.ve.Fc.we.xe.ye.r>.ze.Ae.Be.Ce.[[ Y$ De.Ee.(0 Fe.Ge.He.Ie.Je.Ke.e}.Le.Me.Ne.Oe.Pe.Qe.Re.(8 Se.Te.Ue.Ve.We.Xe.s!.Ye.Ze.`e. f.Zp .f.+f.Ae.ze.F}.@f.||.Be.#f.E}.$f.%f.&f.*f.K}.:|.=f.-f.;f.>f.,f.vp [L 'f.",
"$  )f.!f.~f.{f.]f.^f.!'./f.(f._f.Lu :f.RL <f.`^.[f.}f.|f.1f.D0 2f.3f.4f.5f.Vp Ap 6f.7f.8f.9f.0f.y0 hr af.E% bf.cf.df.r+ |# ef.ff.gf.hf.'^ 6f.if.jf.B}.kf.lf.mf.nf.<$.[R 9N 9N 9N sP JH of.D:.pf.*P qf.rf.Rr sf.tf.uf.vf.rJ wf.xf.yf.zf.Af.bP Bf.Cf.Df.w}.Ef.b^.Ff.Gf.Hf.If.Jf.Kf.Lf.Mf.Nf.Of.Pf._K Qf.Rf.Sf.Tf.Uf.Vf.Wf.Xf.Yf.Zf.`f. g..g.+g.@g.#g.pp $g.%g..f.&g.*g.iB =g.-g.89 ;g.Gg >g.,g.'g.)g.!g.~g.{g.W>.]g.^g./g.(g.R$ _g.:g.<g.[g.}g.|g.[1.1g.I$ /: 2g.3g.}g.4g.5g.6g.7g.8g.9g.0g.8g.ag.bg.cg.dg.Ec.c& eg.{e.fg.gg.hg.ig.E7 jg.kg.lg.|^.mg.ng.(4.]&  $ og.pg.qg.rg.6,.WY !;.lp sg.R7 T9 tg.ug.vg.g;.Ac.wg.xg.yg./0 zg.Ag.Bg.Cg.Dg.Eg.`|.u0 j& -Z Fg.Gg.Hg.Ig.Jg.}v Kg.R1.Lg.Mg.Ng.Og.=_.Pg.$%.=Q IH 9N 9N 9N 9N 9N 9N 9N 9N 9N 9N 9N 9N 9N 9N 9N 9N 9N 9N 9N 9N 9N 9N 9N jQ g@.Qg.Rg.I/.Sg.Tg._3.Ug.uu Vg.Wg.Xg.Yg.Zg.`g. h.J2..h.+h.@h.2a #h.$h.%h.&h.*h.=h.-h.;h.>h.k,.uu ,h.'h.2g.|% )h.!h.~h.{h.]h.^h.FN Ls P5./h.(h.;r _h.:h.<h.[h.}h.|h.1h.2h.3h.4h.5h.6h.7h.8h.9h.0h.I2.ah.Z# bh.L# ch.}].dh.eh.b5.fh.5$ gh.hh.~A ih.jh.e/.kh.Xg.lh.mh.ns nh.oh.ph.qh.rh.sh.th.iz uh.uh.vh.",
"Qm wh.xh.Sw yh.k..&; Oc 0] ^!.>B Y!.G= t~ _b 0U zh.I' 'j  w hc -B Ah.Bh.QS Ch.Dh.Eh.Fh.A^.Gh.Hh.V- >M [= Ih.E!.0c Jh.vg.Kh.Lh.Mh.Nh.Oh.!= Ub vB =S Ph.>!.Qh.Rh.$%.JH bN bN bN 9N of.fS Sh.Th.Uh.Vh.NS 2{ Wh.Xh.Yh.h# %O Zh.`h. i.Sc F' ^F .i.n# Fs +i.@i.#i.B[.`& $i.%i.&i.>3.*i.Is XQ $$.=i.-i.;i.Gy >i.,i.'i.)i.!i.~i.{i.+'.]i.o3.^i./i.(i._i.:i.<i.[i.}i.pM pQ |i.1i.%O 2i.aC 3i.4i.5i.vg.6i.7i.8i.9i.0i.ai.KQ bi.ci.di.ei.fi.vA gi.hi.ii.Ph.+= rO |M ji.9c ki.li.}O !c mi..3.[).wa ni.`N oi.6c oi.Re pi.=!.qi.ri.si.{= )$ K'.ti.2~.ui.vi.wi.xi.yi.zi.Ai.Bi.5e wB ew XO W(.Ci.Di.Ei.1e Sv Fi.Gi.Hi.Kz k{ Ii.|b Ji.Ki.Li.g!._- B!.>c Zv Mi.Ni.Wv M3.Oi.Pi.-!.Qi.}k f|  | m' jh (b Ri.Si.bR Ti.Ui.Vi.Wi.v3.G#.Xi.TQ 9N 9N bN 9N 9N 9N 9N 9N 9N 9N 9N 9N 9N 9N 9N 9N 9N 9N 9N 9N 9N JH TQ GH Yi.Zi.`i. j.8i.ae .j.c< *j T= Q[ oD [- Mc =j P* +j.@j.9- RC  k S~ L= Q= s/ r- f* z: Ox :..#j.q* n< <!.$j.%j.&j.X(.r, D: K[ G( *j.=j.-j.;j.>j.*_ p] I[ Y] }, 9> E> lx g- 9> p) T_ hi m[ G[ [..5e  _ g: /< hD Y< .! Y< F3.'4.6w DC ', BC Q_ ~^ *' *' Kc `B |f h .r< ,j.qQ 'j.s} f[ E' g) 0D y(.",
"Va )j.Y] 2! M) 6) #, S'  ' 6' ;) /> Y] .' I> ,* '* Y' :: *^ G,  ' w; ;' K> w, k; 6; w, O) A~ w, ~* x~  _ C) u, JO !j.~j.{j.j_.Pc f> P; `] {* 3: i> ib ]j.^j.]7.9N 9N 9N of.=Q 4(.d#./j.t9 -; m; q> (j._j.:j.d/.Pc DO /< T{ F< H[ jC pA eP 2P D: QC <j.[j.}j.U*.T$.D_ s~ f[ wC L[ H[ 2P Ai a) m) `: 6> `; e> kx O' U{ ]> h] 1, O: `; @) E, /> J) '* k; ): k; H] T{ Zi T{ 4x 2P QC Rf $S |j.1j.2j.Dd d* '~ Q: _, hi N[ P[ 3j.Q: :T B) Wi m) E' eP o! 0> .C 4j.D: T{ 2P x[ Eh hi G< u, g) 5> =' Y' P; i> 8> `: s~ :: j( ld JO 5j.6j.7j.Mc >) h; 6! Q, z, J; %> 2) y; K> ^' z! () ;' 8j.e>  > =' Q; z_ o! `; w, /> M; x) s' x) >) N~ U{ >, z{ X; @) f> j> 7] L> 9j.0j.aj.bj.Wd Vf KP X' Y' */ }< cj.dj.ej.fj.*f gj.hj.1T ij.p4.}R JH 9N 9N 9N 9N 9N 9N 9N 9N 9N 9N 9N 9N 9N 9N 9N 9N 9N 9N 9N 9N sP #%.jj.kj.lj.mj.nj.G{ .' t/ %^ 6! O' `, Z; 2' y) N{ c; => oj.H, ;' 1, $~ 6) Y_ 1, X~ =~ !' () >) |) V' g; @> ]' #! (, ^'  ' g< pj.qj.rj.&l o) H; C> #y $> c, >h 7, Q) y; A' 8< sj.tj.7) !> yf &) ,' f, j, Q, (, *> ], P! f, %> 3, 1! Q) c' W> [; k; I> /' w! U> uj.vj.wj.-$.k) E, l; 3^ xj.",
"8; %7.!' B; ^~ J( g, :^ E; G{ B; '! k! 1) f, {/ 8~ d; z{ W~ =! d{ s{ g{ /~ Y, H; y; ]' =~ i, {) B> N; S' {) i; Mc yj.zj.Aj.!| k; 8~ !! j> H; #! Bj.qB 0V =Q Cj.bN JH *` ]{.Dj.Ej.Fj.Ui +! 0) +! Z, 'T Gj.#g P= () )' !! }] {' *> l; W; O) '' O! 4( $S Hj.)f Ij.*; [] E( O^ L> h; W, J; 1! +_ T' !> g, G{ g] 8' T^ T, yf 0/ )< ]{ k! C; m! Z! #~ V' A; g; )' '' ^' (, '' |, ^' n> qd X' Cc Jj.Kj.S| B~ L> +> X, u; l> b> b> y) g^ i, (~ 2~ Z, z{ C; Lj.], F> K! Z, (, |) X, 9] X, +! 4^ }{ i, W, #! (, g^ %> @> >, B> W; d0.Mj.Nj.Oj.'* /~ I! y' 8] }{ Y! 6< Pj.f' d, g; c{ h, *~ 3) #y Q, d; 6) f; !! () }) }) +! 0) 8] @! {' () Y, Z~ F; d; => n> }) I! {( Qj.Rj.Sj.]_ 5; >) *) $] [_ (, E; G{ D; C; :^ @> =~ Tj.Uj.Vj.Wj.Xj.n$.y6.Yj.8N TQ JH sP bN 9N 9N 9N 9N 9N 9N 9N 9N 9N 9N 9N 9N 9N 9N 0N kQ 9^.OR HE Zj.`j. k..k.u^.x{ I! C! {~ m! p{ +k.#~ N) d; 2, 4^ kS u{ %! _) v' |{ J! D( 8] U] _) X~ C; {' W, Y, u; (, ^' f! @k.#k.$k.D..b> h, D( %! 4^ |~ m! v' &) ~' #~ SR _S %k.]g jf ){ Z! S, '' 8{ ^~ C; C; Z! Y! s^ Q( :/ :/ :/ )' Z, j, f! C' U, 0( H, ^i :u hG bU *, Y_ M; X{ 1< ",
"&k.*k.9) gg h, =k.a/ G^ p{ -k.*: x{ `! {' P, .].W, g; {' a{ 8Q G^ c8.F^ 9) /~ D( 0) o{ b; !' @y P, y> i; b/ T~ i( Is ;k.>k.e! #! @! =! Y, !! T) ,k.'k.kQ sP )D 1$.)k.!k.~k.{k.A{ 0) >! g] 2~ o{ Y, +! 8{ i, V/ re re ]k.^k.F^ v{ a{ [] i, 5y y] k> -^ M>./k.(k.c* g, _k.:k.Y! 2~ 9) 9) #~ 3] |+.K{ ]k.-( >e yf 9] g; y' 9/ )< 4e L{ w' <k.-( p( v^ G{ 2~ I! C; C; w^ 5] o{ ^~ B! K; Z' 5!.or [k.IO O, _^ {' x{ C; /~ M{ 4~ ,{ 9) C] A{ 9) i, F{ `e }k.;( A; g{ b; D( J! w{ 4~ ]~ ;e h, Z! C; &) =! {' G{ 2~ >! W, F{ q] $d |k.4'.1k.w, p{ A{ G! Q( G{ E( Z! L{ _) S, _) ]~ =( @~ Z! n! O^ k! g; A; A; V' 5^ G{ 5y V~ G{ J! C; i, 7^ ;^ (, M) j, 3/ i, 2~ c; 2k.zt 7i.:: $, G; 8{ P, t; G; !! {' /~ o{ a{ x{ 9) r{ >{ Z! 3k.4k.#[ 5k.6k.7k.8k.9k.0k.!@.9N 9N 9N 9N 9N 9N 9N 9N 9N 9N 9N 9N 9N 9N 9N 9N 9N sP 0N KH )+.ak.bk.ck.dk.ek.fk.gk.A{ p{ >{ 3] hk.=~ ;{ e^ `! Q( 8] %! #~ Y! A; 2, 2, () i, |) h] (, 6]  : u; u; U, C' G( ik.jk.[&.{/ {~ D( ]~ X~ |+.(~ g] 2~ c; O^ ){ *T wR vd 5^ J{ v^ #> i, 2~ 4~ w{ ]~ 9) d{ -( @~ 4~ |{ Q( T, l> b> G; |) () x> 5; x[ kk.lk.67.E$.ih O! ih A! ",
"Lm mk.8] 5] b; /~ t{ -7.5] s6.v{ o{ &) F{ /] [^ j, W, ^~ g, g, g, i, C; 8] {' 7^ 9{ !' W, !' {) 0! G; i; n6.o~ D_ nk.2D ok.%j ]) {' ^~ &) pk.qk.rk.[$.jQ sk.tk.y/.uk.vk.wk.xk.C8.|~ 8] 8] G{ :^ ;{ g, b;  ~ s{ yk.`e p{ g{ h, !~ 8] a{ y{ d_ i; H; C< zk.Ne Iw o] M> =~ A{ C; @> m! Ve jS KS `! (~ 8] m! 8< 5^ `! 5^ 4~ v^ p: -( ]{ Ve Ak.>< #~ 5] G{ x{ #~ C; ;{ D( i, ^~ 7] #! ;, '* Ii.6P Bk.Ki Z^ m; P, !' |) g; `! -( s6.b; J! i, f] )' P> v^ ,{ L{ I! b; 0; !! 0; A; @> '' e; X, a; P> 0; E; c; i, b; 2~ I! b; *) }4.Ck.h;.Dk.&~ 4^ b8.v{ D; W, b; g; g, z! J; T, A; ^~ Q( `e `e  ~ 8] P> ]' S, N^ y' m! /~ g, Y! o{ r] I! /~ }] H; C' !' -{ [] W, P> Ek.Fk.o^.Q= O] j> '! y> /_ B> %~ ;, () i, ^~ w{ b; @~ L{ H{ e^ Gk.<^ Hk.Ik.'[ Jk.Kk.Lk.Mk.Nk.;&.7~.TQ -Q kQ kQ 9N 9N 9N 9N 9N 9N 9N 9N 9N 9N 9N 0N 0N 9N 9N TQ Y5.Ok.Pk.Qk.Rk.+_ Sk.D; 4! .5.0/ E( 2~ &) #> g, 8] #~ 0) !' {) H; Z, G; *) 0! ]) #! u; 0! W~ %f 8) LS .9.Tk.%| @) >> ;{ g; k! I! J{ 2~ y' &) C; h/ 4e 4] ]{ 0/ L{ 5] /~ 0{ ){ ){ 4~ @~ G! H! 9) E( 5^ e^ J! }{ e] 5{ G; |) u; $] '* Oc Uk.Vk.K} P: {/ /] b> ^' ",
"*] Wk.{' ;{ :^ :^ ;{ I; V' p^ Y, 7^ ]' ]) R, z{ H; !' J! o{ }] }] 7^ E; ^~ }] ]) E; }] ]) Y, Z, 5{ ^' l> F( L_ x~ |/.j9 Xk.q- }] o{ G{ 0) Yk.Zk.)+.7N `k. l..l.+l.s{ yk.@l.0+.#l.#~ b; /~ e^ B; p^ o{ b; te (S $l.L{ p{ 9) 0) ~~ {' !! u; 0; f, i; ~/ %l.&l.7V R].;) ad F! b; E; Z! ne Ve 6R `! y' X~ g; +~ m! `! I{ `! 9/ p: Q( _S jS Ve le I{ b; y' >! O^ g; c; !' W, () () G; #! Y; Q! *l.=l.o< yC 8) 0! Z, ^' !' Y! %e @~ W, 5_ 0! *> 1, &) *~ R( _S p: :/ |) /) (, J; g^ ]' W, ]' F; Z, *> _) ^~ ~~ 9{ y' Q( 4^ (, DC Nt -l.cj S' |) &! E; :^ $! Y, W, {' a> !! )' 7^ C; m! Q( Q( Z! ^~ P> 1) |) e; &) g] x{ 8] X~ B; v^ 2~ K! }] `, f! G; ;l.>l.#! ~' ,l.'l.)l.g> O] N= ;, [^ O; E, H, k> #> g^ i, o{ A; O^ |{ m! 8] ;{ {( :^ g^ )' P> C; h] !l.~l.{l.]l.^l./l.E5.=Q JH 9N 9N 9N 9N 9N 9N 9N 9N 9N 9N 9N 9N 9N 9N 9N 9N {7.}R 1(.o(.(l._l.:l.c[ 5^ ]{ >{ -( 0) 3, C; J! |{ C; g; W, |) G~ ]) i; /) J; #! 5{ P, i; l> H, -B <l.[l.$| ): => g; =~ {' ]~ p: I! Q( v' y' Q( ]{ 5^ Q( ){  ~ I! B; ]~ 0{ t{ 0{ Y! |{ w^ N{ R( w' A; :^ +! Z, z{ `^ l> i; ;] )* ui Qu }l.l} 5: z{ z{ k> j, ",
"|l.,_ !! Z~ K! }] f; *) ]' ]' #! F{ :^ !' J; ]' 2, ~' &) {' p#.0) J! ^~ i, {' #! G; (, 6] F; i; L; B> O! /' o~ m/ 1l.P% Xa.q; x; ^~ +! 2l.3l.B7.*D gj.Ai.y) E; o{ g{ `e F+.ne 5^ G{ A; C; e^ b; E; K! g, I! =: ,{ @~ E( 5] k! P> q] k> l> k( /] O; ud 4l.5l.D{ o) e, g; $l.s^ :/ KS ]{ -( 6R #~ X~ 8] *! &) c; e^ `! _S .~ Q( e^ ne Ve 6l.7l.'{ 5] m! C; g, _) v' &) g; () '' G; i; P; #z RX !h =j P' *> I; F; `, d; ~' =~ 8] ]) e] k> z{ ,' %! B; Q( u{ R( <! )' Z, )' d; ~' )' g^ d; G; ]' ,' G~ (, !! }{ #~ X~ G{ Z, g) H2./,.8l.l; ]' g; W, '' #! W, W, ^~ ^~ N^ m! *~ :^ O^ I! 4~ g] X, 0; ,' C, K; 1, 8] =! g; X~ /~ 2~ G{ {' u; `, 5; B> 3/ G6.;, z; 9l.5` 0l.~^ s~ -> $] y> y> f, P! X; C' J; d; F{ '' V' =~ :^ b; ^~ {' g, }{ A; (, 8{ y> u! *) E, v> al.bl.9K cl.x5.5(.v'.w$..T +T JH 9N 9N 9N 9N 9N 9N 9N 9N 9N 9N bN aN bN JH jQ '_.dl.el.fl.gl.Tj. ~ Y! U' 4^ ^~ e^ &) 8] A; A; g; () 5{ T) G~ ,> c> ;, >) ^' W> R[ x+.hl.j| }, M) <! T, ]' {~ X~ (~ 4^ g; @> G{ #~ y' D( X~ X~ 8] c; W, !' !' &) Y! C; {' >! h/ @~ :^ E; i, ;, m> `^ >> W~ i; &( wC il.j=.|} A/ #, f, f! n> ",
"Qm Y@.G; !! ]' *> ]] K; (, F; Z, |, W, 7^ g; )' {) F{ i, d_ #{ @> 8] =~ J! '' *) /] O! k> k> /_ L^ W; O, N; !/ .! -A jl.f# i* !' {' g, kl.ll.ml.nl.=, *~ E; ]~ /~ 0{ ]~ |{ -( Y! p^ o{ C; 8] b; :^ =! J! 9) gg t{ e^ v{ B; w{ P> jx X; P! y> O; ol.Ff pl.IW 1k.o) ;) i, G! Y! V' Z! Z! w' >< `! %e 8] g, /~ J( I! Z! `! `! Z! G{ u^ 9/ ne 4] .~ 5] Y! G{ Z! v' 4^ E; &) g; |) () 0! p] ^4.ql.v. oc A, C' 3/ M! c( L; +( ;, !' B! G; j, /' R, 1, |{ u^ |~ |{ a; ^' ;, u; ,' 3, $~ T, @> )' ], jx *) 0! !' A; J! ^~ E; P! Dh rl.sl.Vc C) 8) j, 8) R, |) ]' ]' W, g, D; @~ *~ V~ b; #~ g] C; |) ;, f! 2' %~ J; i, '! A; V' V' Y! E; g; ^' 8) n> B( y^ M( e; d; tl.ul.vl.z( x~ W; ~! K; 0! 8) z{ %~ M; O) M) F; Z, 1) 7] i, &) C; ^~ i, f] A; B! !! 0! #! e; ^' K> C> >) wl.a4.xl.yl.zl.Rh.`5.g@.*` 9N 9N 9N 9N 9N 9N 9N 9N 9N 9N 9N 9N 9N !S Al.kQ rP OR k8.Bl.Cl.Dl.El.Fl.;( 8] 2~ J! V' 0; ]' A; *> l> O, Q, ,> ^> 8) M; O, m; Ew Gl.Hl.<k =' #, 0) g; 0) o{ {' :h 4^ ]' W, W, }{ 7] 0; V' yf >! E; )' F{ #> X~ &) {' F{ v' J{ 2~ A; o{ () /) V) B> `^ W~ P! P: 1/ _u Il.+y x[ O) >> => Z' ",
"-h 9e M! G; G; Z, i; l> d; H; P! ;, W~ !! &) g; {) v! A; a{ l' K( !' ^~ E; I; y> K; m; m; B> L; =_ 7{ O;  g q> wC Jl.Kl.Ll.@b (, ;{ N' Ml.Nl.a].Jk.G{ ^~ D( V' _f Z! #~ 4~ p( *~ i, G{ B; C; E; k( !! g, Y! ]k.h, /~ 9{ ]~ 0) P> ], f! t; e; O; L; ,* Ol.Pl.Ql.o) e, g; =: D; A; E; @~  ~ w' Z! w' Z! 5] b; Z! `! Z! m! Z! T' &) B; Y!  ~ 6R -( D; :^ 8] 5^ g] +! c; }] h] !' U, P, 3: Rl.^0.Sl.Y< wh /] 3/ 9! => ;, >) >> y> >> J; j, f! C' g; |{ u^ |~ 8] )' 0! i; *) R, d; F; P> ]' ]' c; R, 2, {) Z~ 7^ g, g; 8] *> g) Wg.)L H3.o] ;g =A P! =) S, () 0; Y~ a{ D; I! D; a{ C; G{ 7~ 0; 0; >) H; #, [; `, |) {' I; P> u' 4^ ^~ )' f; X; t/ X; C{.e; 8) d; w).Tl.Ul.*0.*_ Y; {/ M! 6) 6) O, => #, H; 6! y) R, d; a; >! &! g, i, !' i, () O! 3/ #! /) K; i; >> O; O, `, >) f, h8.Vl.Wl.Xl.Yl.Zl.v3.g@.=Q 9N 9N 9N 9N 9N 9N 9N 9N 9N 9N 9N 9N 9N 9N 9N 9N JH 18.[U `l. m..m.^~ 1{ ~~ A; u; 2, '' `, ;> f! y) hh L; P! m; t; E, 40.1u +m.)U 5> B> }] 0; X, J! o{ O{ ^~ ]) W, ]' X, ]) M! u; }{ }{ ]' #> ]' ]' =~ =~ E; F{ &) X~ 2~ o{ g, A; #! O! [^ /' O, B> Vd f) @m.#m.+y Q: m> m; N; qd ",
"-h 9e +( H; 3/ y> 5{ l> (, Z, i; *) 3/ K! =~ {' y> f; {~ 0) [] L! }] X, A; {) P, ]] K; $, $, ~! c( k' ;] sz A) 2: $m.%m.&m.s/ c; *m.=m.-m.;m.>m.X, i, g, =! &) :^ 2~ ,m. ~ +~ E( 0{ `! m! D; *~ 7^ }] i, /~ e^ 2~ D( 0; i, 0) {' n^ c%.(, 0; H, l> 5; 'm.)m.!m.o) {, U] ]e w^ .< 8] 4^ Q( Z! Q( G! -( Q( Z! g5. R Q( Z! #~ G{ ^~ }] o{ R( 6T -( p^ 2, @> ~m.<! J! !' F{ ]' ^' 5{ [^ j* cf <Y {m.~..2! H, ;, 3/ M; >, >, ^> O, /] H; >) >) Q> 0' k! R( #~ V~ )' 0! l> 2, 2, 2, F; y; #> P> J; #> i, 0; a{ W, ;{ 0; i, >) ', ya ]m.^m.u, /m.<e `, C' y; Y, #! 8{ Y, C; Y! ^~ a{ {~ ^~ @! {) e; ^' ;' O) W; ~! F; F{ }] (, sf 8] o{ 2, i; H, 3^ f! |z K; j, M> (m.;9 21 z( Ri [; => ;, )' J; O, => H; 6) ;' ], *> (, :^ J! x{ C; d_ f; #! B! $] ;, '' 2, G; 0; *> +( 8) M) y) C, m> /' k' ;> @; _m.:m.<m.[m.74.4(.8N kQ bN bN !S 9N 9N 9N 9N 9N 9N 9N 9N 9N 9N 9N Kb.=Q fS eN }m.|m.1m.~/.Z, 0! Z, z{ -' ]* M) U{ O; 9, $, l> `, 2m.3m.4m.+1 o) l; l> P, !! w{ ]~ 5_ !! a> )' |) '' F; 5{ 0! |) )' 0; |) N^ !' () A; A; {' F{ C; Z! C; !' 7] i, ;, n] ~! B> _^ A) `> 5m.6m.ff g: E, O; B> O; ",
"-* @e i; 7m.y> *) B! 2, {) f! z{ H; k( v{ G{ d_ K; !! O{ x{ 7^ ;< F{ g, {' v! v! 3/ H; k> $, 5g W; ;> ;] 8m.7: 9m.0m.am.!!.h> |, bm.cm.dm.Zj.em.g, o{ {~ ]~ X~ 8] /~ ]{ 4] `e p{ N^ m! ^~ p^ ;{ }] }] :^ w^ 2~ 4~ g, 3/ W, 8] O^ O> 0; ^~ !' O, P, Y{ fm.gm.hm.R].;) !> 9) w^ n! m! &) Y! Z! -( J{ `! `! p: SR le Q( +~ p( ^~ A; -{ _f 2~ -( `! *~ &) m! +~ Ed G{ i, !' (, e; P! [^ ,* im.9h jm.0g v, `, '' u; y> s' >, O, k> O! )! (, G~ 0' {{ %e rQ L{ Y! E; F; |) L' 0; ]' 7] 3, g; I; 0; '' X, )' E; ^~ *! G; 0! _^ S> km.md q6.t, Z' =) R, '' #> ]' I; h] }{ k! 8] {' c; 8] 2~ o{ T..]] l> J; H; ~! K; Y, 7^ #! P> !' {' ;{ f; i; f! &~ B> |z `, Y_ K> z).lm.fj Ki i> [; m; ;, h] J; O, V) 8) C, *> H; e; '' +! 4^ 2~ G{ 2, 2, Y, u; K; 0! () 0; ]) W, |) 0; g; ^' >) Q, n> [; k' 8) C, <- Fa mm./< nm.om.pm.|C 6~.D^.9^.9N 9N 9N 9N 9N 9N 9N 9N 9N 9N 9N 9N 9N 9N bN [R G#.qm.rm.}L sm.tm.k( m> $, B> `, F( O; k> ;, => um.]h.vm.(k D, M; () 0; '' =~ g; [] e; `, (, 8{ |) )' ]) ^' )' W, 0; @> V' g, {' E; A; A; E; .< Y! m! c; |) |) 0! i; O, Z, B> P: Lg wm.xm.ED G< ;> %~ %~ 9, ",
"-h @e G; {( ;{ c; W, K! !' Z, ;, 0; ;{ ]~ ]~ 3/ %~ *) =! o{ -{ 3/ d_ !! 7^ 7^ ;{ '' '' i; i; Ez %~ i; {/ L^ Vd x0.S: W$ ym.l] H; zm.Am.Bm.1T Cm.=] 7^ ^~ K! &) V' ~' `! Dm.Em.`e C; 7^ F{ 7^ {' !' K! D( b; @~ #~ &) !! {' @! /~ a{ Y, w{ g, ;, t; Y{ Fm.3'.Gm.R].t' T, 0{ *~ T' 4^ 4^ y' g] I{ `! R( 0/ 4e )< kS p: Q( +! u; 0; ;{ C( I! 3] 4~ <^ Y! +~ _) v' k! 4^ A; 0; F{ () ;, )* Hm.Im.Jm.(( QB J; X, !' `, J; C' X; m> Z, f; F{ '' J! Q( 2B ,{ *: L{ 4~ $~ )> A; |) B! I; I; 0! /] ;, I; )' g; C; C; P> F; n^ 8) o) Km.b@.8l.o> N~ ]) !! !! () () e; 2, ^~ &) J! {( K( C; y' @~ ;{ [] I; F; *) b/ !' E; c; P> (, !' c; !! f; K; O; [; s] L! l> O' C> Lm.J>.Mm.|g <; ;> /] K; R, f, %~ l> H; ^' 1, () L' ]' k! 8] b; y' &) {' !' 0; '' (, !' 7^ Y, {' @> b; C; e; O! H; O, B> [^ P! C' Nm.q8 Om.G< q] Pm.b* Qm.Rm.k$.6N G#.e#.rP 0N 9N 9N 9N 9N 9N 9N 9N 9N 9N 9N 0N bN 9N JH Sm.S6.Tm.Um.Vm.Z, B! j, >> b/ K; 0! >> K; Wm.Xm.&C /k Y' => () |) d; {' '' 2, !' d; *> c; @> +_ k! =~ &) ~' v( 4^ @~ *~ Y! @~ k! 2~ 4~ Ue #~ x' ~' !' d; ^' >, >) (, %~ 7h f) Ym.!J lj 7: Y; m; /' m; ",
"Lm V, g; E; :^ :^ p^ {~ C; 2, e; ;{ B; I! 8] *) m; P! &) O^ i, {' Y, 7^ :^ ;{ }] ^~ {' {) u; M( M! f; ${ /_ q> 4j.Zm.-[ Bs X< a> `m. n..n.+n.Gk.K( :^ i, 2, '' ~' A; `! Dm.@n.yk.|{ ;{ o{ &) o{ :^ A; D( J! B; |{ Y! {' i, 7^ D( =( /~ a/ ]~ ]' F; -> Q/.p@.21 I, ;) )' e^ 9+.A; a; ^~ G{ 8] H{ u^ v^ p: Dm.#n.Dm. ~ b; () 0; '> %! Y! I! %e m! We Y! X~ m! %) k! p( &) Y, (, h; ;, P; $n.%n.&n.q< U^ ;' !' ]' 1) g^ Y_ ;) >) !' A; A; _) 2~ re (S *n.=n.Mg I{ A; Z, ^' |) '' |, |, |, |, z; (, ]' A; Y! ^~ <^ 2, n^ 6) m) >g z,.Ra H] M) }] ^~ -{ g, i, f; !( ]' 7] [! )' 7^ 8] p: ]{ @~ ;{ P> |) P> 2, 8] G{ -{ 3/ f; ]' '' 7^ #! P! $] (> 0! -{ /) M)  > H).-n.;n.^e 4; m> $] ;] H; J> K; G; ;, (, }{ A; }] ~' k! X~ m! +~ w{ g, (, W, ]' g, 8] Y! J! w^ G{ D; B; 0! k> 5! $] {/ k' ^] m; >n.,n.@D `: ,> h; %! e^ B; 'n.)n.mj.g$.C7.-D TQ uK 9N 9N 9N 9N 9N 9N 9N 9N 9N 9N 9N sP rP #%.;P -D !n.~n.{n.]n.^> M( y] 3/ i; t) ^n./n.(n.U| w, /> &) d, a; g; #> ]' A; )> $) :^ IS e8.#~ +~ H{ y' g, w{ x{ =( v{ h, I{ u{ ]{ 7l.TR r] ]' 1) $~ 1, G/ ~i *> /_ cz px _n.Q9 :n.hi O) Q> *> 6) ",
"*] j= _) @> :^ A; ]' a; G{ ;{ 0! !' '! 0) a; *) [; *) )' ^~ C; /~ g, =] {' !' !' g; 0e f; i; K; >> 6) B> 7{ q> Pi <n.,0 [n.YO g^ }n.|n.1n.2n.3n.F{ b; !' 0! ]' %! a; k!  R 4n.Mg Y! /~ p{ h, N^ A; m! y' Z! /~ k! O^ ]' g; Z~ F{ 2~ /~ N{ 0{ ;{ 6) Y' 5n.6n.7n.u[ L) #> w{ u' V' =~ 7] %! ~' x' ke  ~ 7l.JS JS 8n.+~ sf )' S, c, M..5^ X~ y' O^ m! #~ :/ #~ !> !' @> T, }{ |) '' H; o! 9n.0n.an.o( &^ /h ^' [{ N> g^ [{ ,' '> 1, A' m! y' %e >e Dm.@l.bn.@l.F+.O^ L> 8) 6) '> w/ C, ;' $> #> d; #> 1, T, x' () >) g^ )> o[ cn.dn.hm.t, y) N^ 7] )' g^ #> H; 8) ,' '> sC 2) x; %! p: 3] U' P> ,' 0' x; e; )' !> ]' i; 6) y) J; F; >) /' l; ;> +> U' ]' #, E> en.fn.gn.^e 4> G, C~ ;> .> 3' D> C~ >> *> [{ d; |) () 7] Ed ye $~ k! &) !' &) _) 4^ #~ m! >! C; U] @> A; Z, >> => f! N~ j, O, => 8d hn.P~.Ii u) S, 7] T, m! )' C' .> in.jn.kn.ln.eN )#.}$.#%.bN sP 9N 9N 9N 9N 9N 9N 9N bN !S 9N bN uK 8N >P mn.nn.on.0! %~ O; t/ pn.qn.rn.S@.u[ 5* >) p0.t[ Q, ;' L) y) 7' sn.kx hk.hk.n9.1].tn.n9.@> k! >! P> %! 4^ 5^ 6T %e 8< I9.F9.w; +> un.un.vn.~i C, -> 5: JO Nz wn.gj RC $[ %^ v/ N~ ",
"-h xn.9D @; 8> =' `; &~ v/ O) /' k; 9> t/  > B) i( Ff G, M; h; -, W) M> 5! l; Y; g- 5> 5* P; ~* 1( a- ,, ,* *w yn.zn.`X An.q' g- Bn.Cn.Dn.En.Fn.O) +> ;' 6' C, Gn.QB >, sC M..Ed z~ =~ 4~ yf h' t[ ~i Hn.<9.W) N) =+.6' N~ E, t/ u) W) '> @> Z, D>  j In.Jn.Kn.E:  ^ y) L) bi L: R_ `; _w  > t' d> Ln.Mn.un.Nn.On.e9.g! O' A, Pn.9{.S< w) hh hh S~.`R S~.N) U{ &~ t[ U! QB t[ &/ }, F< Qn.Rn.Sn.6k Tn.Un.&[ Vn.6i j) ai j) *[ |< *[ Wn.kx S< S9.Xn.Xn.3( %(.Hn.kx Yn.Zn.W..`n. o.j) n[ i~ .o.l) q) k) wh N) 6i p0.DT G/ +o.@o.#o.31 F< 6i p0.{h .o. %.-~ Xi p) -~ =^ 7i -~ m) ^{  > =+.j) h< f~ |< a' $o.6{ gi ]h E> F> F> %o.e~ u, 1' Eh Mc h) wh */ p! a! &o.*o.=o.{k %( (b D< *_ D< [: Oc o> +< 6: +< ./  _ p] =' a- -o.Ai ]> C~ 6> N~ t[ &/ u) K> t/ M' $[ 3B =' :: U= 1' G< t, U= E' 4x 0i.;o.>o.Gw )b _, ,[ ,, u, $~.s,  _ ,, u/ 5! .> ,o.'o.)o.kj.!o.#%.9N 9N 9N 9N 9N 9N 9N 9N 9N 9N 9N 9N 9N aN OR 6(.$5.~o.A) i( px {o.]o.^o.w~ v} ^k rx S^ S^ bj.$S H[ Q_ ', ), sD `h o../o.(o.@; 3B Hi E> ): O/ 3P E' 9> 7i =^ -~ /o._o.f~ :o.I(.<o.[o.aD 9> x~ Ee ak }o.|o.1o.D_.i| 7/ )w S^ ",
"2o.3o.$e K_.B_.3k :} U} `d VT `d M} [k 3} jk 2} Wj -k 2} u< 5< $f _: w} j| Y} [( r/ f|  ] )k Zj 5| W} }&.)| AE 4o.5o.6o.~3 cE )| 7o.8o.W7.Il.9o.0o.!| Be JB A[ ao. 1 $&.bo.-B Y< eb T= i* =; L%.j| *j co.Y< ,j Uh lb A[ tc )U mk ~k -f _: (b }( aU )l do.eo.fo./E cU 5< x} Ig t! t! u< A} *| <k A[  | Bx 1d E%.go.ho.Z| L* h: 2_.io.`} 0o.u> 0o.(x 2g N] tc k| #| !k )U /k t} j| r/ =1 =M jo.ko.lo.mo.s} 3| 3| no.&| ~k +1 x} B} L%.v} _k bU i| `| 0o.1d 1d (x q: oo.po.oo.qo.-f i| W( .k fk +) O(..k 90.Md !k *| x%.Rf nk ro.`1 so.=g to.[( )k 8( uo.)k Kj k(.4D *$.Kj CD vo.wo.]j *| .k uo.]j  ]  ] !l nk A} 'j xo.yo.)k 5_.K_.VE `E `E 6} O%.B} zo.D..51 +b.Z[.CV Ao.Wk Bo.!y 6F Uk Co.Do.Eo.Fo.v| Go.Ho.Io.-@.2a.N} Jo.Ko.IB *C Lo.Mo.Fk yk No.aj Oo.Po.(P yk Qo.1a.Ro.}@.}@.So.To.Uo.Vo.Wo.Xo.Yo.MV 9j $a.Zo.`o. p.J@..p.=F 1a.+p.j:.@p.#p.T*.d! $p.%p.&p.Sa.GH TQ 9N 9N 9N 9N 9N 9N 9N 9N 9N 9N 9N 9N 9N Y5.*p.=p.-p.;p.>p.,p.'p.w2 )p.!p.~p.{p.]p.^p./p.SU 0b.(p.G].uU v%.T&._p.Zk :p.QF v%.<p.[p.}p.|p.PD 1p.wf 2p.Fh 3p.4p.5p.6p.7p.CP hj 8p.9p.0p.ap.bp.cp.dp.ep.fp.m[.gp.hp.{G ",
"S[ *] ip.jp.kp.lp.mp.np.op.pp.qp.rp.sp.tp.up.vp.wp.x  xp.yp.zp.Ap.Bp.Cp.A` Dp.Ep.Fp.Gp.Hp.R3 Ip.Jp.Kp.<A Lp.Mp.3H Np.Op.Pp.Qp.Rp.Sp.Tp.Up.Vp.Wp.Xp.Yp.Zp.`p. q. q..q.+q.@q.N0.@q.1b..E +E #q.$q.%q.&q.*q.=q.-q.3o.;q.>q.,q..E >q.#q.'q.ZD al )q.!q.}<.~q.{q.]q.^q./q.^=.(q._q.:q..E <q.[q.zF zF }q.QD |q.ip.hd 1q.2q..<.3q.4q.5q.6q.7q.8q.9q.0q.aq.bq.L[.cq.dq.eq.eq.fq.gq.gq.hq.i1 Bp.iq.jq.kq.lq.mq.+S nq.oq.pq.qq.Qf rq.sq.tq.uq.vq.A=.wq.g4 xq.#c.yq.B[.On zq.A .!. Aq.Bq.Cq.Dq.Eq.+S Fq.Gq.2x Hq.Iq.Jq.Jq.Kq.=$.Lq.f^.Mq.Nq.Oq.Pq.4# Qq.Rq.lm Sq.B<.Tq.Uq.Vq.Wq.;: QX Xq.;I Yq.Zq.A<.`q. r..r.+r.@r.#r.$r.%r.&r.*r.=r.-r.&S `H ;r.>r.,r.c(.'r.)r.!r.~r.{r.]r.^r./r.(r.:q _r.:r.x+ gG <r.[r.}r.|r. e.1r.7e *>.cd.1I 2r.3r.4r.5r.6r.7r.8r.9r.0r.ar.br.4o cr.dr.er.fr.$}.Xo gr.D+ hr.1I ir.jr.kr.lr.mr.nr.or.pr.qr.rr.sr.tr.ur.vr.wr.xr.yr.zr.Ar.Br.{X Cr.Dr.Er.Fr.Gr.Hr.*` .T aN 9N 9N 9N 9N 9N 9N 9N 9N JH JH #%.2$.Ir.gG 9@ Jr.Kr.Lr.A}.Mr.0G Nr.Or.Pr.Qr.Rr.>f =7 }r.=7 Sr.L@ Tr.d6 27 Ur.Vr.Wr.Xr.Yr.Zr.`r. s..s.+s.TJ @s.QI Q~.#s.lr $s.%s.I^ &s.D0 *s.=s.-s.;s.>s.,s.'s.)s.!s.~s.",
"#  {s.>K ]s.^s./s.~e.(s.>r _s.:s.<s.p6 7( [s.}s.|s.1s.2s.3s.;0 +` g>.;g.<8 W$.|2.vQ ^8 4s.lr 5s.Q7 (J 6s.7s.#0 8s.9s.@J 0s.FI as./8 :[.bs.cs.ds.xd.k. es.fs.gs.sd.|s hs.is.js.q@.ks.ls.ms.ns.os.Il.ps.qQ ,% ny qs.rs.sc.ss.ts.#m.9p /. k. us.lC W'.vs.&5 ws.xs.:L ys.zs.A;.As.Bs.Cs.3{ .q Ds.Es.^z %r ;0 Fs.Gs.ff.Hs.Is.Js.Ks.Ls.Ms.Ns.up Os.Ps._1.Qs.%0 Rs.Ss.4K GR Rs.w$ Ts.Us.vp Vs.n|.Ws.Xs.Ys.Zs.`s. t.9& .t.+t.up 0f.Vp x>.ie.// @t.#t.$t.%t.&t.*t.=t.-t.;t.>t.,t.'t.)t.!t.~t.gg.{t.'r ]t.^t.Wp /t.(t.Zp Ui._t.#% K$ :t.<t.[t.}t.p}.|t.m}.0|.1t.a}.2t.Ae.3t.4t.5t.]|.6t.$f.F}.7t.Re.f|.8t.9t.0t.at.bt.ct.dt.WK et.ft.wc.gt.^2.ht.n% pp qp [s WK it.jt.kt.lt.mt.48 !&.%a '|.nt.ot.pt.qt.p|.n|.rt.st.tt.tt.ut.vt.it.wt.u5 Tr xt.yt.zt.At.pp x0 Fr `f.Bt Bt.Ct.Dt.91.Et.j] Ft.Gt.Ht.It.ft.N5 Jt.Kt.&6 a8 Lt.r>.Mt.Nt./A ~e.Ot.Pt.Qt.Rt.St.Q5 [8 Tt.Ut.Vt.Wt.Xt.Yt.Zt.`t. u..u..>.IE sP 9N 9N 9N 9N 9N 9N 9N 9N bN 9N $%.+u.3|.f}.@u.#u.$u.%u.&u.hK Nr Lf.V7 *u.=u.-u.&g.;u.>u.(r st.,u.gN +s.ke.'u.)u.!u.rp ~u.{u.-S  ) P0 ]u.^u./u.P0 K|.T7 H'.s,.(u.VL _u.5;.vg.az :u.<u.;z [u.[s e;.",
"}u.|u.he 1u.3g 2u.3u.F1.H@.4u.+Z U'.5u.6u.;f 7u.8u.9u.0u.au.bu.Eg.cu.du.F'.eu.eZ fu.gu.C0 hu.dn.iu.q+.ju.ku.lu.mu.nu.ou.pu.qu.ru.N0 su.tu.`< uu.m,.vu.FQ 0T wu.xu.nL mL yu.zu.Au.Bu.bf.r5 Cu.Du.B9 ^a Eu.Zg.l,.Fu.tu.m,.Gu.B1.!a Hu.Sd Iu.Ju.Ku.[f.Lu.O^.Mu.GL Nu.Ou. ).Pu.*l.Qu.Ru.Su.Tu.Uu.m,.Cf.Vu.C9 Wu.Xu.Yu.Zu.`u. v..v.+v.@v.Iu lm.#v.$v.~A Gf (Z ='.%v.&v.+$ (t *v.ik.=v.-v.;v.>v.n'.,v.'v.Y% ih.)v.!v.~v.wu {v.]v.^v.^v./v.ce (v._v.:v.<v.r% W$ &l.[v.}v.|v.1v.iu.sL 2v.3v.4v.5v.Y% 6v.7v.8v.ih.9v.0v.av.bv.zk.cv.g#.dv.ev.}f.fv.he !v.gv.6u.2u hv.iv.jv.f& kv.lv.mv.nv.ov.d;.a;.pv.qv.rv.sv..D tv.+h.Wg.,t uv.vv.wv.G2.G2.G2.xv.yv.zv.Av.Bv.X& Cv.a3.Dv.yv Tt &~.Ev.Fv.Gv.Hv.M).rt sS Iv.Jv.Kv.Lv.Mv.Nv.Ov.i8.Pv.NM Qv.Rv.Sv.Tv.Uv.Vv.Wv.0u 6% Xv.M8 Yv.Zv.`v. w.mt .w.+w.@w.#w.f%.$w.I8 %w.&w.*w.=w.wO -w.;w.>w.Lv.`% $& ,w.'w.)w.vt !w.~w.{w.]w.^w./w.9[.(w._w.(_ :w.<w.[w.z6.)+.JH KH bN bN 9N 9N 9N 9N 9N sP B7.}w.*& |w.1w.2w.3w.t .4w.5w.6w.7w.8w.Na 9w.0w.aw.4w.bw.cw.dw.ew.fw.gw.hw.!I iw.jw.kw.lw.mw.Hb ii.nw.vA qO ow.0O ]f pw.qw.8c X- Mw zb -4.l| Z- rw.sw.I).tw.uw.",
"L$.vw.c:.9y ww.Kz Sv ^4.xw.yw.zw.i4.L- Aw.Bw.Cw.Dw.Ew.Fw.Gw.Hw.D).RB +A Iw.Y).Jw.Gi.vc Kw.c:.$^.Jw tb ;4.yc Lw.Mw.Nw.Ow.Pw.xn.Qw.Rw.a9.ki.>!.>!.Sw.sb Tw.&4.Uw.=0.Vw.Ww.Xw.Yw.WN Zw.`w.1K  x.Eg Nd .x.+x.(- b .z= /c @x.#x.Dh.S).$x.y).%x.&x.*x.K* K* wS 8b 4!.PO =x.2z Hi.8 .-x.;x.Dw R(.>( >x.,x.'x.'M )x.!x.'x.~x.{x.]x.lW ^x./x.Ew G( FA (x.d/.Qc Qc 9< [: 0] G( /4.oh 0] Q[ Q[ G[ _x.:x {x G= Q[ AO :x.<x.lb Cf w= ~; D3.nC 6x ,z [x.Kw.}x.Jw R#.>!.|x.#7.1x.Uk 2x.3x.ec R(.V{.9< {b `- eb E%.io.Cf E%.6w Z| Z!. 1 PO QO h!.4x.5x.6x.<#.<#.8b 4!.R(.ec `..b .ai.Gi.,e -!.7x.8x.5 .9x.0x.!& ax.bx.!A 3S cx.G( x[ D< R[ hD 7x r< RC m' ji H[ $b 7x Y< P* /b G< jh JB V{.#1 9m.~$. | R[ /4.YO Q= x- s/ x- u[ %; $R K= [: dx.ex.fx.gx.#/ E/ *' -< Lg $/ G< $R ]; U= X< P* P* X_ Pe l* =i V; v> s/ D< f) hx.eC q, 1i $j g* Xa /4.F= 'w `> ix.B* G= Q* q' 3S #1 jx.kx.lx.G&.L* :; s, mx.nx.ox.H~.v'.+$.bN 9N 9N 9N 9N 9N 9N JH px.]]./4.E/ $b l(.d~ D> 3^ ;> G, C) o] B) 7> o> d* Mc D: r, w[ 1/ K^ %i.qx.4p.Vd 1' jP &~ H; .> rx.)i H(.sx.8> 7; Hi H(.r' => Q, t/ I, :' t/ Z; N; )d 6' A, ",
"C_ tx.w, G, N; Z] 4; k; 5* 4* T{ ^e 6: q( ~) ,j ux.)h D*.}} D< /> 5* q; Wd !/ 3: u/ o> k; ~* w, T_ a- e[ 5> I[ I[ N= j, 5; A) Wd Q; s~ i> O/ A) Mc T{ d* k* 4* Q= P: O/ f> 5* `; e~ W,.vx.#B oc Z^ }, 6! M; I< N= Z] D~ x) S' N= N= e[ $~.E>  ' #! () C> Y; Z; &~ }, X] Q, a> @! =~ >) => `, /> &, ): o~ @) -> ): 5> aD wx.op jH Ef 1( Z, h; 7' x; Z, 0; '' S, g; }{ }{ g; F; d; ]' @> k! @> 0; h; 6) E, '* {^ N= ^> `^ x! {/ tf $, m> ]* #, ,> c> /_ C< :; xx.yx.u&.7/ O/ r' 6> `; K> d; ^' i; b> Q> ^' 6! N~ i' C) Q; 9> Y^ G~ M; jb '= R!.=> m> k> #, K> Q, C~ Y; '* P; G, I< $[ m- 1/ 7[ zx.Ax.Bx. b 3; X' S' J> B> n> &~ I< ;> K> 6' J; '' F; >> M; K> Q, i' x, 4> p] I, T> C) t/ H> t/ G, l; 3^ M; P= x, l; Z' g< Cx.Dx.Kw Ex.Fx.]j i( X' vz Ff !/ G, O; E, `, `; 4> o) Qx e< z, R_ M) 6) e> V> z> ,) sx.p! E, /> l; X; &~ &~ Y] 9> =' @) Y; Wi hi H] Gx.Hx.Ix.-y  ] A/ g< &~ z> ^i Jx.!- Kx.dl.Lx.]7.rP rP JH 9N 9N bN 3(.o].dO t) Vf 6{ Mx.B, %> ]' S_ W) K> /, t' */ s) )d H> H> T> 7{.Nx.cA Ox.a8.`] Y] ;> &~ I; +> O' R_ N) +> V] -, J; `, 0! /~ #~ %! Px.0@.&> C, L( c%.W) _< ",
"8; i~.h] W, 8{ *! 5{ 5{ m> 7{ '* k* >^ -' v: /< Qx.>2.Rx.Sx.r; z! #, k* L_ /_ n] c( -> k> k> %f %f G; v; N> '> H; f; 1) f, N; 5; {/ j> ^> {/ ;> ;> n> #, H; m; Z' W> m; *> d; *> N= '= Tx.Ux.|* b> O, K! ^' H; U, |) $~ =~ )' +! 8{ a> J; 7] >! |] X~ |) O, M) O) k> @> Z! r{ Vx.9) !! #! ]) U, 8{ >> 0! d; 3/ j; n> M' Wx.59 Xx.Yx.,> b; b; `! I! {~ ]~ 2~ R( h, 4~ G! ]e c{ N{ V/ I! p{ u^ 8] G{ g; H; k> e] Y~ $! ,! J' [] 8~ $! Y, (, 8] a{ g, ${ ;_ 4* Zx.G2.#k #j O, l> 6' C> Z, &) 0) 7^ +! E; C; #~ g] .< `x. y..y.+y.@y.z, #y.$y.%y.&y.g, [].8] T^ X, i, u; 0! 0! Z, F; -, O= q( 7/ *y.|>.=y.3* 7_ l; L; y> Z, C, 6) #, >) h] '! =! ;{ 8] yf _) )' |) )' d; i; !' S, (, 8{ g; }{ [{ J> C> '> |) j, J> J) J> 2' t' p) 3b U$ 4o -y.~* l; 4( /' /' 5; [; B> #, I< Q; r' &~ C' H; U, F; |, 6' i' J) n> &~ S' 2' #, k> k> &/ K> => P= X; X; K> .> Kx Z; :' ;y.>y.5@ (1 v[ }, E, x, 3' l) 2' 8].,y.'y.)y./C ;Q JH 9N 9N KH +$.!y.~y.@> a; d; y; 7) 8' S, H..3) *> v; [{ 6! 8) i' J) t/ v: q> j( {y.]y.(F .> C) Y' ^y.v; k! C; C; Y! &) )' g; #> |) !' e_ e{ 9) 6) f! h; y) 5! C> U! R' ",
"=/ (O (, !~ 0{ ^~ !! i; O, [; -' -' -> t; m; /y.(y._y.:y.*S {^ /) ]* p..p~ [; Uy L; ;> ^> 5{ #! z! 8{ s^ me g] =! B' <y.L( [^ O, #, >, b> j, z{ [_ {/ *> x; f, m; c' [y.(^ !' :^ f! }y.|y.1y.2y.j> S' e; V{ ;] ^' ,> F; ]) X, 8] ^~ i, +! L{ I+.A{ i, `, /] ^' >> ;, %! Q( A{ G! 8] j> /) 0; ]) Z~ W~ 0; ,' P! bQ ]* S' 3y.}8 4y.*0.x! {' g, e^ 2~ =! 8] ]~ E( w^ E( L{ L{ Q( t{ h, ^~ a{ 5y.:^ #> H; M( (, -{ *! ~~ +! !! k( 7^ y{ {' e; !' 3/ K( z{ L_ Mc 6y.7y.,5.Q= Z, Z, Q, 8) {' 4^ k! i, m! X~ m! `!  ~ 8y.S8.9y.%9.0y.ay.by.cy.3(.2(.dy.ey.fy.>! 0) X, W, !' #! u; )~ a> h; I: Wd o( gy.hy.iy.Ya :Q m; L; >> >) R_ 6! `^ G; +! yf 9] |, |) H{ {{ E; W, @> &) ^~ ]~ g, a{ 9{ g{ 9) >! G; 0! X, k! !! e; F; h] +! '' J) ac jy.ky.ly.b- ;, Uy C^ $, :> {^ ;> k> -' 4( X; t; 0! !! J! }~ 0; M; j, b> W~ b> >) Q, j, O! x! ^> b> {/ >> (, () g; J; x) g^ +> mS -l.my.ny.t, m> 6) 6) J; )> )' V' 0/ oy.py.qy.ry.sy.4e.}R +$.w$.ty.uy.m! L{ G! f_ <! y' @> ~' U' A; N^ C; () e] (, b> m> ]* <> Ff vy.wy.5x.M) t) .> 6D z; *~ b; J! 8] A; !' |) G~ #, z{ ~~ z] (~ U, ]* ^' h] l> >> >, ,> ",
"Qm Vb ~' N{ E( /~ }] q] =) H; ;> [; i; `, Z' xy.yy.zy.Ay.]k {^ {) -> -^ ,* 9, t; k> ;> B> U~ 0! ]) P, b; z8.4+.h{ 9! Q' +( b{ 0! Z, `, f; '' |, f; u; l> K; j, l> Z, u; A; Y! m! 6) By.Cy.t=.i* Z, 2' 0; *) B> *> z{ Z, 2, @> m! C; V' /~ ,{ I+.te E; 5! i; i, 0! ;, D; e^ m! x' ~' ^' P! u; We c; ;{ g, P> => {^ [; O, Qx.Dy.Ey.Fy.{/ K( }] 7^ W, C; E( b; v^ p^ D; 5y.Y! #~ B; E( G{ Y! Gy.!( 1) R, F{ v{ Hy.c; g, y; 0; P> ~' u' 1) 9! K; |z v! H, Q; *' Iy.2% IB k; 2~ |{ ], H; {' =~ ]' !' r] x' v' Jy.Ky.Ly.)#.*` TQ 4e.My.Ny.Oy.Py.kQ +$.+-.`~.Qy.Ry.c- 1) c; !' ;{ P> 0; >> r; >S =h Sy.Ty.RU j* U< P! `, F; d; |) ], `, Z, g; ^~ (, i' S_ s^ u^ O^ }~ 9] () S, Z, 9! e; i, yf y' =~ () Y, w{ >! k( !! G; }] ^~ Y, >) Uy.Vt.t1 y_ W+.'> 0> N~ /> /> Z; #[ Vy.t[ m> #, >> Z~ ;e |] >{ X, X; j, /) B! ^~ z~ +> C, f! m> f! >> G; !! #! {' p^ |) ^) 4^ k! Uw Wy.Xy.zE t, f! H; *) d; &) 8] Z! Dm.Yy.Zy.f{ `y. z..z.+z.@z.#z.$z.%z._) :/ ne ]{ _) g; g; p^ Y! Y! p^ D; C; K( v! {) B> n> >^ o~ N( &z.Z= i; Z' `: Kx $, N' 0> ,> &, P= `; o! 8> g) @' U> >) Q) K> 5; -> ;> ^> M) H; >) ",
"L~ d5.X~ m! U' p^ P> c; d; Z, i; e; u; K; W> ', |).m: *z.#&.U) Z, {/ ;> M; J) ;> {/ k> i; 3/ }] c; k( V~ g{ =z.WP c; +> ]' K! ]) i' i; C> C, ,' G; H; G; i; U, )' !' D( P> 0) v' d> -z.8q ;z.I[ Z, M> '' R, => j,  ( d; 1) Y! :/ E; V' N^ ;( D^ r{ m! (, y> G; y> ]] 0; ^~ k! 0' P> +> Z, 0! y> !( We D( e; [; 2( ;_ Ez >z.;u.,z.'z.5{ !' Y~ Z~ .].k( =( t{ 1{ B; v^ 1{ v{ h/ I6.2~ @~ T' 1) s] !( 8) F; ;{ {( W! c%.(^ +( /] L( L> B' W> 7{ =A H, U> &( )z.J#.!z.|' G, ]' g, ;^ 9! (, #> z; {( ~z.{z.]z.^z./z.TQ -Q 0N uK G#.(z._z.:z.Py.sP 0N bN rP v'.<z.[z.U/.}z.^%.!' c; (, => @) 7f i@.|z.96 1z.x] ,> i' 8) #! ,' 1, 6) *> !! g, {' ^' &> N> U' 9/ E( M{ &! '' 6! ;, `, P! #! =~ +_ J; H; X, 0) K! e] (, G; G; {' c; `, 2z.ft.3z.4z.P= z, G..N: v, X{ n~ 5z.X{ G/ F; X, =, /~ >! 2~ G{ h] 8, m> >> U, }) sh z~ u^.x) K> f! 3/ U, h] b> 6] ]' g; +! p( xf ~, 6z.7z.'/ E< L; y> e; F; Y, ]~ @~ Pj.8z.9z.0z.`e =: h/ ,{ az.bz.c; 0' 8' 6^ ne `! @> k! 4^ D; |{ G{ b; k! %! ]' f; *) O, X; @) R> cz.dz.ez.5; 2( F/ 9[ ]* %] fz.V< b- Kx s~ *^ G< )e o] Z; {, d, 8) X; ;> C^ m> E, A~ ,> ",
"gz.;- 4^ Y! C; !' I; 0; (, l> #, H; ;{ =) x, 2[ hz.iz.jz.|( %/ M) O) ;, k> d- F/ 6; m> `, Z, g, Y! E; :^ @! G{ {' 7^ C; i, F; >) m> #, O) O) &/ n> 5; k> 8) W, g; ^~ C; v( ^' J; U{ kz.ng.lz.4x C> G; `, 5! H, C> W> L> ,' &) m! A; o{ 8] Y! |{ I! |{ B; {) k> `, i; *) R, y; E; (, l> ^' j> 5! P! |, d; M( L^ qd >^ sz mz.nz.Bd.oz.-> `, >) 6] O! {) =! o{ <^ F{ b; k! e^ 0{ ;( E( 5] D; .< ]' #> (, (, P, y] [y.ae 0! K; y> /] P! z{ =) O; x^ H; `, @) px J#.pz.kD H] W; !! ;{ =) `, c; qz.rz.sz.tz.G#.*` 9N bN 0N 9N JH r5.uz.s- vz./D 0N 9N 0N bN 0N KH g@.wz.xz.yz.2, ;< C> U> -^ nz T| zz.Az.SV ;j `; J> *) O, t) M) C> H; *> !( e; h; y; |) O^ k! A; A; u; H; i; /] B> 2( /' F; () (, C' 8) j, 0! ^' F; G; Z, y; '' ^> oi._] Bz.7+.s~ 5* v, d[ s' U{ 3[ *, Cz.pg i, =~ >! o{ X~ m! m! }) L> E, &~ O) C' ,> X^ Dz.+[ Dz.1! #> S, 6) E, Z; Q, ]' V' )[ V^ Ez.Fz.Gz.H&.*_ m> H; /) h] |) @> %! n^ G{ Q( >{ Q( &@.8] w{ ]~ D( o{ a; C; m! A{ g] c; k! +~ Hz.}9.E( b; 8] }{ |) !' *) i; /' 7{ 7: Fk.Iz.Jz.*^ @) F/ Cx W; A~ D~ x) &, 9> Y; k; 7; n[ C) Z; d; '> `, f! ^> @] ^> X; Z; /> ",
"8; >M ]) We I; 2, #! |) H; O, O, i; /) Z; r' Kz.Lz.kf.Mz.bj.}, &~ Z^ >) O) F/ `] .> N= B> >) {' g; ]' f; () 7] |) }] {' 0; z; 8) `, ;' h; C~ &, &/ /' >> 6' ~' ~' y; N> (^ #, %^ O: qa {t.W& 9< H, $, n> %~ X; K> l; l; f, a; =~ {' f; ]' a; A; ^~ Y! D; !! O' M) B> B> `, '' ,' `, $] C> Z] @) 5; [; i; c( Cy ud i/ E_ `= Nz.Oz.p} o! z{ S' 8) w; N> {{ s^ |, 2, Y, @> &) E; {' b; [].g{ Pz.a/ g{ o{ J( p#.K( <^ J( Y, 7^ V~ K( -{ d_ }] k( [] 7^ ~~ W] G< Qz.!z.t_ i( Y{ x! |, ^] N= Rz.Sz.D>.s1.*` JH 9N 9N 9N 9N 9N .$.Tz.Uz.Ox Vz.Py.SQ 9N 9N 9N 9N 0N rP .$.Y5.d6.Wz.Xz.a) Z' O/ nz </ Yz.57 uF (( o> X' H, E, &/ s) l; W> t) W! => 6' c' R, 0' tj.~].0' *) =) H, =A y, B( X; i' (^ =) )d )d  ( jx L> #) t) L> /, '> e[ bO Zz.`z. A._, Z; C, Q) z, {, )> )> 6! F; |) i, A; ;{ C; b; V' k! Q> Q' wx )d x, E, ;' k) */ .A.+A.@A.5' x~..' l; &~ yg H..u) &/ #A.$A.%A.&l f) Y] `, `, /> B, B, w; ], G~ @> &) 7] I; '> T' y' .< C( c; P> :^ |{ Z! {( }< &A.%+.TR s^ *~ V' F; *) {/ 4_ {/ 7{ )* 6: 9u *A.Jz.+' `] n- BC 4( O) U^ ^' 6! m; Z' k' R' Qx Vd :' j< C' z{ &~ 5; -' 3' k' Z; e> ",
"8; *g G; f, y> v! 8) M> i; z{ /' >> /) X; G> =A.-A.UK ;A.>A.o> X' k; ^> O) P; q> =^ &~ N; [; i; () ]' (, *> |) A; c; ]' f; z; y; '' O' J; `, C' =) O; m; O, *> x; !! u; F( =A ;> X; ,A.'A.)A.$f p] ]* m> B> k> c> f! k> *> J; J; K; M! !! Z, '' 1, %! A; v! ,' a> m> O, `, w; y; 5! /' m> /' @) @) >^ N; <> u/ !$.5: 5: !A.~A.{A.5< 3^ ,' e; F{ #> a; |{ v^ ]A.[] p#.9{ }~ /~ ]A.x{ z8.D^ y8.A{ I! w^ {~ J( -{ -{ o{ =] =] o{ 7^ Vg ,~.##.^A.J! /~ 7^ $] w[ /A.(A.Z} H] ^* /) H; _A.:A.<A.2$.-P kQ sP 9N 9N 9N 9N 9N 9N 8N 25._^.9P [A.dN SQ 9N 9N 9N 9N 9N 0N 9N 0N .T Xi.qR }A.|A.=; K_ S~ 7v.69 1A.E< a- M; e; `, x) `, Z, ^' I; *) u; |, L' *~ 4! 2A. ~ -( E; c; 0! M( H, O; s] x; ~' P> >' Q> e; /^ g/ n^ I; ]' )' i, j> 3A.Q9 4A.5A.5* M' V> h' `; 9, h' 6' => qd Y] V> W> i' ;' )' V' V' '' #> ;' C' ^] => Q> X;  ( B, $> N> /, .( a, i' G; C( lg >> c( Q: 6A.7A.8A.A/ W> u; d; >> ;' 8) |, O> &) O^ E; X, y; [{ $> $> &> C' f! c' L> |, j, m; ;) 7' $T 0' ~' Q> C, J) ae O; k' W> <: 9A.0A.aA.bA.cA.S> '* 6> hi P; Z; k> 2' /> J) `; `; e< .> D, @) M> 6) l> => [; 7{ X' P; k* -' ",
"L~ /- A; a; '' k( (, Q> K; O, {/ O! e] i; x, h+.]M dA.eA.fA.H] '* ,* B> Z] =' Q; X' >^ L^ ~! {/ (, x; '' |, A; A; E; C; e; /] e; !! ]) ;, %~ *) /] F( ae %~ f; 2, y] 2, y> N/ 5! J> gA.~s hA..! k; g+.O, P, #! 8{ ;, /) J; () l> ;, F; x; F; +! %! sf !' l' 2, {' 0; |, 8) d; J; *) {/ l> k> n> k' @) >^ o~ ld qx X( iA.jA.kA.a. o( /' f! y> B! 8{ K! 0{ E( 5#.J( v{ I!  ~ Y! p^ m! Q( E( Y! 8] )' ~' '' 2, |, '' '' {) F{ ]' '' J' i, ;{ 0; W, !' O! Ff 3U lA.mA.lb E, nA.oA./~.pA.;&.jQ .T kQ !S 9N 9N 9N 9N 9N 0N uK HE qA.rA.C~ sA.)#.0N 9N 9N 9N 9N 9N 9N 9N 9N 9N kQ TQ g@.Og.tA.uA.vA.wA.xA.yA.4* #, M) {) 5{ x) {/ [_ G;  : u!  { 0! {) o{ I! 0/ 0/ `e 8] !' /) x> >> M! ]] [] ]) {' F; Z, i; y> 0! () Y, {' &) w{ U, zA.AA.BA.$| ~* G, /' O, ]* 5g M; >) >> 7{ 5; O] O; >) )' >! x{ w{ J! K! Z, => /] m; z{ %~ P! *> (, 1, )' >) i' ,> !' 1{ J( +] .] Xh CA.DA.EA.H] H; !' ^~ G; ,> e; 2, E; m! I! 5] &) %! @> @> }) 8{ `, B> H; () ]) $, k> |) T, _) () ]) ^~ @> 0; R, f; e; C' M' *( %z FA.GA.HA.J: '* 3; C) S' M) G; a> #Q 0> N= m> A~ V) W; W; O!  : 0( [_ W; [; -' r; |; W; ",
"=/ 6b ^~ Z! b; D( {' f; G6.M! {/ V{ IA.i; n> s; iz q0 JA.>[ ~* 2( >^ ;] /] -> (' W; (' S( [^ i; 2, 0; }] ;{ Y! 0{ ]~ v{ {( y> y> {) B! K; [^ 0! O! ~] {) }] d_ B! F{ {' }] F{ |) 8) KA.LA.MA./< V> Q/ ]] y] 7^ K! K; >l.!' !' 2, (, i, ]' W, ^~ C; o{ F{ @y V~ A] =! ;{ (, !' g; }] !! () F; P! z{ [; <e 7{ ]^ j( I) z[ NA.OA.PA.|( -^ 2( -' $] j> F; g; g; C; Y! @> V' V' a; y; n^ 0' P> 1) *> |, $) Q> L> ,' +> '' f; *> ], H; y> ], I; /, Z, R, $, g> 6w QA./Z 9< =- RA.P8.)0.>_.JH 0N 9N 9N 9N 9N 9N 9N 9N 0N KH .$.SA.bl.G8.I< TA.HE bN 9N 9N 9N 9N 9N 9N 9N 9N 9N 9N 0N JH UA.>&.VA.WA.qs ++ 7F Mc l) 6' e; M; Z^ 5; L^ -> E$.A~ C^ ]* B> Z, )' G{ E; E; #! {/ 5; -' ^* -> O! /) x! 5{ $, n> -' w! C^ 4_ C^ M; `, !' +> XA.#< YA.ZA.hi r; ]* m> B> m> 5{ 5{ k> l; $, {/ O, B! {~ `A. B.K! ]) x> ]* G, 5; !/ a( Ff Z' C~ n> #, #, [; Y' Z] >> F{ () O= 8* s* .B.+B.={ i> (, ;{ Y, M! #, G; e] F; X~ `! w{ J! @> '' 8] w{ y{ B! P, #! g, J! Y, +! +! K! W, @! C! M{ b8.J( [] #! (, 5{ (' >/.@B.#B.$B.Dd .C `] w, =^ Q, '[ a> U, 9] 8{ k> t; c> `^ c( <; ]* U) 7_ W; (' k> {/ $, l> >> ",
"=/ Q3.F{ G{ p{ w^ B; 2, b/ M! M! ]] y] z{ W; 5g %B.o0 &B.*A Cx '* s; O! {) ]* W; :> L; B> O, 3/ u; Z~ !' E; U' B; v{ o{ 2, y] k( y> u; (, K; ;, x! O, !! $! @y B! 7^ A; J( {' W, ,' *B.=B.-B.T{ C' ]) K( 0; K! C; ;< K( D( 0e ;{ 0; A; J! 8] G{ e^ E; K( ;B.j_ d_ =] -{ }] g, g, o^ ;{ c; W, f; ;, m; 9C W; N; q> x~ ]_ >B.,B.'B.}S `] x, => /] f! Z, d; y; u' .< !' ~' x; Zg Zg ], 0' N^ H..L' {( #> n^ 1) x; 1) P> 0; |) y; (, |, |, ;< x; I; !! P/ P; xh.)B.!B.Gt.~B.s1.*` kQ !S JH 9N 9N 9N 9N 9N 9N 9N 9N bN TQ tT h].{( l~.}, {B.)#.bN 9N 9N 9N 9N 9N 9N 9N 9N 9N 9N sP sP ~@.]B.#%.^B./B.(B._B.Ub BC s) C> J> v/ t[ J> J> %^ i' /> 2' z{ R, 0; '' |, d; ,> m> 5; Y; => => M; :B.<B.[B.}B.<!.`; n> N= #, #, &/ f! y; L) |B.1B.2B.3B.A/ x~ k; 8[ 3' P= Z] `; Y; l; m> M; L> ^' &) I! 2~ }{ >) k> `; Y' o) t, r' @) Y; Z; v: I< D> l; x, Y] b' 7].B, 7; u, hx.4B.5B.6B.x, 1) C( P> H; `, A; #! 8{ [! (~ :h J! _) ]' |) :^ f; (, *) Z, ~' ^~ W, a; %> !' '' %! U' #~ +~ i, /) T) 5{ {/ c( A) 7B.8B.O7 (P i@.S> t/ J) 8) /, M> i' C' #, s) F, 2! -) 6) 8) m> /' n> => f! >) >> *> +> Q> ",
"l< zd e] o{ |] J( V~ (, /] M! ;, >) {) v: P; ;_ 6M GJ 9B.@U d* {* j* >> >) O] ;_ N; /_ B> ;> B> t; O! G; F; i, ]A.o{ J! 0; ;, ^' a> *> 6) f, -> $, B> ;, $! Z~ /) #! ]) !! {' ~' j' 0B.aB.bB.cT C' F; 0! H; F; i, :^ ]' :^ 1) P> (, G; () g; &) m! @> f; cB.>> 6] B! }] }] $! [] 0; Z, Z, Z, f; l> => <e (' >^ 7f Vd Zi 1` ht.dB.|g K> '' B; p^ V~ _f _f e^ :k.eB.:h fB.gB.hB.iB.jB.kB.lB.mB.nB.oB.;( b; /~ K! o{ J( 7^ K! o{ {' a{ bz.pB.Hy.qB.rB.sB.tB.uB.vB.[D wB.[$.9^.sP 9N 9N 9N 9N 9N 9N 9N 9N 9N 9N 0N of.G#.xB.3d {~ [] M; yB.HE -Q sP 9N 9N 9N 9N 9N 9N 9N 9N 9N 9N 9N 9N 9N 9N 9N JH zB.AB.BB.CB.DB.w) EB.*~ %> N> ~' /g a; ~' A; {' D; &@.;( Gk.|{ k! N^ d; ;{ FB.GB.HB.IB.JB.MH KB.$A (, e; '' a; &) |) !' >! 7] LB.MB.NB. | _, P; Y] QB ]h  > E, k' k' 5! 5! #) >' I; o^ }9.OB.ne w^ a; ,' M> #) j, 6) y; 1) y; f! H; C' *> y; d; O> PB.QB.b, j' RB.SB.TB.~$.;) :/ UB.u^ O^ E( ,m.s6.v{ te `e VB.WB.XB.8+.u^ r] H..Rx 1) n^  < .< sf  < 3, n^ YB.g' ZB.Hz.`B.~].sf ~' 1) Z, P! k' $(.!B. C..C.:: `; h; z! ]~ j! /, a, Q' +C.@C.4' Q' S_ m! %! |, *) ;, )' 0' 0' N> rf N> }< ",
"*] ^= z, g^ +! (, /) f! @) r; `; 6; 6; d* +< Q= #C.mp $C.2> Q: 9( r- I< e< C) P; F/ `; 6; ): -> Y; C~ &/ z, >, >> ^' 6) j, X; h' U{ Q, m> n> 5* `; 9> m> u; /) m> k> U) k> y) S, 7; %C.g;.&C./{ r' E, r' 9> a- A~ >, >) h; y) %^ P= n> n> e> ;' [{ ;' l; 2( F/ 3^ N= #, H; >) G; #, k; G, k' E, ;> G, G, 4( q> 5: j( *^ *C.=C.-C.~d N~ ]' +~ R( R( p{ @~ L{ ;C.y8.>C.,C.'C.)C.q].!C.$8.~C.{C.]C.^C./C.(C._C.:C.W, <C.[C.}C.!' u- b* |C.gt 1C.</.2C.3C.4C.5C.;_.TQ 9N !S sP 9N 9N 9N 9N 9N 9N 9N 9N 9N 9N 9N bN Sm.6C.7C.G; T) x/ 9* 8C.HE JH 9N 9N 9N 9N 9N 9N 9N 9N 9N 9N 9N 9N 9N 9N 9N 9N 9N 9N sP 9C.HE 0C.aC.bC.cC.g! dC.p^ A; A; !' 8{ X, m! w' -( 9) I! (~ O^ c; eC.fC.gC.hC.<z.E5.NE iC.a[ >) K; l> U, f] m~ 8T Wz l^.jC.kC.lC.mC.k: jP O) 7A  ^ #, A~ j> #, #, 8) d; '' 7] =~ H{ w4..~ #~ 7, W) #y k< y) *! )> |) G~ >, c> @] l> S, 1, $> A' N> U! nC.oC.pC.qC.rC.$[ &T I] :) J; 8] H{ k! N> :/ ke ,m.sC.tC.uC.7l.X~ E; k! 1, :) m! @~ p( {{ 8' @> !> Ed w4.>e Ve I9.2) 0' O^ 3, @> M> %o.vC.wC.xC.q> V; yC..j.xg T, 1! S, |) *> '> /h L) ;' |) '> /> w, V< K> /h J] 3( ![ V] ;' ",
"*] zC.AC.8[ N~ j, /> Ii g) Jh Jh h* e* [: *j &c Yc f1.BC.i_.C#.ZO hD _x.]i g) K[ CC.$~.g) L= 1i Pe X(.$[ 3B -~ a) t/ `( 1( 8> Ii c- N: }, 6; c< c< I< 3^ &/ T_ i> U= D' a- v/ %T z(.DC.EC.FC.GC.Oc ]; D< Pc n..s- /; Cx #[ q~ BC <!.I[ h> d* ed J[ @; H] qx Qc -i D: $~.7; _w Z^ 6> 9( hi ,, u, `] >* T{ i* F< 9( 1/ r- HC.IC.JC.+y r< Mc 8> 7i %[ lx $[ a) v_ g- KC.K4.JH LE [R }$.FS )S LC.r5.y6.B>.PQ hC.H4.MC.l$.NC.OC.!+.PC.QC.C^.JB.9k.G#.rR ;Q =Q !S 9N 9N 9N 9N 9N 9N 9N 9N 9N 9N 9N 9N 9N 9N 9N 9N bN RC.SC.=c :; L= =b Fw TC.)#.!S 9N 9N 9N 9N 9N 9N 9N 9N 9N 9N 9N 9N 9N 9N 9N 9N 9N 9N 9N 9N 9N UC./|.VC. -.WC.XC.YC.ZC.`C..= {b C= %x  D..D.+D.Wh jc j>.@D.M@.j{.#D.4r od $D.%D.&D.>b F= Gh P* X< X< M* T= o* %; *D.=D.-D.V~.;D.f .rc |f x= |f %b lc B* x= -< Lg $b F= ^b >D.p/.^!../ ,D.jh 'D.p, 9< ^b RO M* q' 5U I* h/.Gh P* 7x _b p, ZO Uh 3U )D.!D.e].~D.P_ o, V{.r< 7[ k^ D< dd $&.`> Pc +< ', Hi AC.$; K< )/ l] =j {b n< H] (; DC A/ *; Li n< $R /; 1' px d0.9( cT D< D< Y< !U {D.]D.^D.&| o| '4.r( rc /< %; YO n< fg `a Lg oc 7x _: Md W} B} /D.5| Nh o, oc qc vx o( ",
"kT (D.T| _: 7/ }( ,j !{.nD g| |' $B ;S &k eE #^ _D.:D.<D.[D.x_.}D.%* [x.B+.Fi.|D.1D.2D.XE ,e fC Wb Rv 6B.Rv $P 3&.!{.,z T$.AD `> T= P* r< s< Lg =j ^k QC (x `j cU k| 7[ jC Ch pA `| M[.3D.4D.(} Kj |&.>: fi %l =| ~k /k !| *| u< kD /].L/ X} X} u> )w W} _! $e AE [( 3x 2> |f X%.W_.;| |' +| %| ~k 3| Zj |' rC.-$.-$.P(.16.%H 5D.6D.7D.8D.1j 9D.0D.5j H&.9E pU wk aD.bD.)+.JH 0N uK aN bN aN 9N 9N JH JH JH JH cN jQ jQ +$.TQ JH KH KH uK aN sP sP sP 9N 9N 9N 9N 9N 9N 9N 9N 9N 9N 9N 9N 9N 9N 9N 9N 9N 9N aN -P cD.dD.eD.B| 2j fD.gD.Pg.sP sP 9N 9N 9N 9N 9N 9N 9N 9N 9N 9N 9N 9N 9N 9N 9N 9N 9N 9N 9N JH hD.iD./p.jD.kD.u1.lD.mD.nD.oD.#G Cj pD.qD.rD.sD.tD.uD.vD.wD.xD.yD.4D.c@.zD.AD.BD.CD.~b.~b.DD.@V ol $V ol 0| Pj Fj #E $4 ED.{3 W2 ab.!=.+q.84 FD.GD.Bh al HD.O2 ID.ab.ab.JD.mh !G oF KD.LD.0a.MD.ND.,E >E S&.wF OD.Qk Fl =E PD.ll '@.^:.QD.RD.SD.TD.UD.VD.WD.XD.YD.-} ZD.@=.`D. E..E.+E.@E.#E.$E.=E %E.&E.&E.RT YC T2 1b.*E.=E.-E.;E.>E.SU W2 W2 ab.,E.'E.)E.!E.`2 ~E.~E.{E.]E.^E.{E./E.(E._E.:E.<E.[E.}E.}E.VU |E.d! 8F 8F wl SU 1E.al Ja.2E.~j 3E.mb.4E.5E.6E.7E.3E.3E.74 8E.",
"9E.g4 @[.0E.aE.7U M=.bE.cE.dE.eE.fE.l*.gE.hE..I M:.:p 5I iE.K& jm.Yx ~o jE.kE.rd.lE.mE.]. nE.oE.pE.qE.rE.Ny sE.tE.uE.vE.kp.wE.xE.yE. <.zE.Vz AE.AE.Ap.BE.OU U2 CE.CE.+q. q.-W DE.V2 ,}.EE.}3 sH FE.GE.HE.rH gn IE.^W JE.KE.!W LE.ME.NE.OE.Nn PE.QE.RE.SE.TE.UE.VE.WE.km )H XE.YE.ZE.`E. F..F.+F.@F.#F.wq.$F.%F.&F.*F.&F.fz n0 [d.=F.-F.;F.8H m=.>F.>F.,F.'F.)F.!F.~F.{F.7N 0N 9N 9N 9N 9N 9N 9N 9N 9N 9N 9N 9N 9N 9N 9N 9N 9N 9N 9N 9N 9N 9N 9N 9N 9N 9N 9N 9N 9N 9N 9N 9N 9N 9N 9N 9N 9N 9N 9N 9N 9N 9N 9N 9N bN JH t1.H:.]F.^F./F.(F.Pg.sP 9N 9N 9N 9N 9N 9N 9N 9N 9N 9N 9N 9N 9N 9N 9N 9N 9N 9N 9N 9N 9N (}._F.:F.V<.<F.[F.}F.|F.1F.2F.3F.4F.h|.5F.6F.7F.8F.9F.0F.aF.bF.cF.dF.eF.fF.gF.hF.jq iF.jF.kF.lF.mF.nF.oF.pF.9X qF.x[.rF.sF.tF.uF.vF.wF.]1.xF.aq yF./I y< zF.AF.[6 zF.BF.CF.DF.EF.FF.r6 GF.HF.IF.JF.8g KF.LF.s[.MF.NF.OF.PF.QF.s: RF.SF.>{.TF.UF.Jm.VF.WF.,o QF.XF.XF.[k.YF.ZF.`F. G..G.+G.EI /I @G.#G.$G.WS 9[.%G.&G.EC.*G.=G.7s -G.;G.S. >G.5I }c.b6 ,G.'G.Vd.)G.!G.~G.{G.s[.]G.^G./G.(G._G.:G.Go e].<G.[G.P+ }G.|G.y% r'.1G.2G.hq =p 3G.4G.5G.6G.7G.o5 8G.9G.gI 4d.0G.aG.bG.",
"~  cG._;.dG.eG.fG.0R gG.hG.iG.jG.kG.lG.mG.nG.nG.oG.pG.op qG.nG.rG.sG.tG.uG.vG.wG.xG.yG.zG.AG.BG.CG.DG.EG.FG.Tc eG.GG.HG./1.IG.JG.KG.LG.MG.NG.OG.PG.QG.RG.SG.TG.*Y UG.VG.WG.XG.YG.ZG.`G. H..H.+H.@H.#H.VZ $H.%H.[e.&H.&H.*H.=H.-H.#i.;H.>H.,H.'H.)H.!H.~H.{H.]H.x( ^H./H.Kp (H._H.:H.wr IG.<H.[H.}H.Hs.|H.1H.2H.3H.4H.5H.6H.7H.8H.9H.b;.mg.0H.aH.bH.cH.Tx dH.eH.fH.gH.hH.iH.Kb.0N 9N 9N 9N 9N 9N 9N 9N 9N 9N 9N 9N 9N 9N 9N 9N 9N 9N 9N 9N 9N 9N 9N 9N 9N 9N 9N 9N 9N 9N 9N 9N 9N 9N 9N 9N 9N 9N 9N 9N 9N 9N 9N 9N 9N 9N FS jH.kH.lH.mH.nH.bN 9N 9N 9N 9N 9N 9N 9N 9N 9N 9N 9N 9N 9N 9N 9N 9N 9N 9N 9N 9N 9N ]7.oH.pH.qH.rH.sH.tH.uH.#8 we.vH.wH.xH.yH.zH.AH.BH.CH.DH.dY EH.FH.GH.HH.IH.JH.KH.LH.MH.NH.OH.c,.xd Bf.PH.uu.QH.RH.SH.v|.TH.UH.Vp VH.=B.WH.XH.XH.YH.(9 ZH.Dg.`H.b@.K%  I..I.+I.+I.E~.Kp @I.[[.#I.$I.%I.&I.dZ *I.=I.=I.-I.0g. ) 3g.lg.;I.>I.<g.,I.Tu.Fu.'I.)I.!I.~I.4,.5,.{I.4,.]I.^I./I.(I.O/._I.:I.Y1.<I.X1.[I.}I.|I.1I.2I.3I.Lp 4I._] wg.5I.Ts.cf.6I.7I.8I.bf.6g.ng.9I.@L 0I.s,.aI.bI.cI.dI.eI.fI.gI.hI.iI.jI.or kI.lI.mI.nI.oI.pI.qI.rI.sI.tI.uI.vI.o0 #6 wI.xI.yI.Ss.zI.AI.",
"m8 BI.AA va CI.DI.EI.wx.FI.GI.HI.XQ II.JI.h(.KI.1` LI.MI.:` va NI.#O #O $).OI.PI.QI.RI.SI._ .TI.UI.VI.WI.j/ XI.;i.YI.ZI.!% `I. J..J.[j.+J.@J.#J.$J.%J.&J.*J.=J.-J.;J.>J.,J.@J.-Z 'J.c-.)J.!J.~J.{J.5-.]J.^J./J.Xg.(J.),.e/.7$ iv.Yt _J.:J.<J.[J.}J.|J.1J.2J.3J.4J.5J.6J.{B 7J.8J.9J.0J.aJ.&).bJ.cJ.dJ.eJ.fJ.gJ.hJ.iJ.jJ.kJ.lJ.<n.mJ.nJ.oJ.pJ. 8.qJ.Hj.rJ.sJ.tJ.uJ.vJ.wJ.xJ.u$.wK uK 9N 9N !S TQ TQ .T sP sP sP 9N 9N 9N 9N 9N 9N 9N 9N 9N 9N 9N 9N 9N 9N 9N 9N 9N 9N 9N 9N 9N 9N 9N 9N 9N 9N 9N 9N 9N 9N 9N 9N 9N 9N 9N KH jQ oH.yJ.zJ.AJ.JH 9N 9N 9N 9N 9N 9N 9N 9N 9N 9N 9N 9N 9N 9N 9N 9N 9N 9N 9N 9N 9N bN JH *` p5.BJ.CJ.DJ.EJ.di FJ.GJ.HJ.IJ.o% JJ.KJ.'q LJ.MJ.NJ.e~.OJ.PJ.Lx.e#.B:.QJ.RJ.L2.Hb ;- 1b }= U- Bb j .SJ.Sw.TJ.R,.$3.UJ.VJ.WJ.a9./c /c XJ.YJ.be a9._= ZJ.`J. K..K.+K.Mw.@K.#K.$K.%K.&K.(l *K.2= }M 1S =K.-K.Uy.KC.d%.;K.>K.,K.'K.pi.tw.zb ;4.*!.Bb )K.;O M2.Bb 3b 8!.*x 8c n# *!.,M Qj.!K.~K.r= _O >M {K.]K.^K./K.10 (K._K.:K.<K.r> [K.}K.|K.m .vB 2z.oi.bO 1K.$!.2K.Qb *!.YN 8c 3K.4K.5K.t7.4i.6K.7K.UN %R 8K.9K.2M &B 0K.aK.bK.fy cK.dK.eK.fK.gK.hK.iK.jK.kK.lK.`h.mK.",
"8; nK.^e R= /b 3> )/ X< w[ s/ i> w- X< n< I[ <..f* e* :; Q= ]; d* >* ,* p~ 4; #] .] .] D' U= g> J< Q= Q_ s~ Pe t~ xw.oK.pK.qK.R[ D< $/ i* r- n< R= q; R= D< T= xh.Ah.S!.C= s/ 1i {b R= QO hD S= J= =; Aw hD $b .! F< [0.tD [: 9< 3> X< w[ 9< S= ^k Q).-z rK.sK.Nh 'w Kc v> M= R= 2: s/ U= Cx I< a- d- Cx /; I[ f* e* :: >* c* I[ :: 3> D< *; n< $/ Pc $b /< w[ x- g> !] Or }(.!D LH uK 9N tK.uK.vK.Sh.7N 5).Kb.9N 9N 9N 9N 9N 9N 9N 9N 9N 9N 9N 9N 9N 9N 9N 9N 9N 9N 9N 9N 9N 9N 9N 9N 9N 9N 9N 9N 9N 9N 9N 9N 9N 9N 9N 9N 9N kQ IE D:.KH uK 9N 9N 9N 9N 9N 9N 9N 9N 9N 9N 9N 9N 9N 9N 9N 9N 9N 9N 9N 9N 9N 9N 9N 9N bN kQ *` Lx.wK.xK.yK.zK.oh AK.BK.t..CK.DK.EK.FK.GK.B5.54.of.kQ v$.HK.I: b( K~ x) &, v, A~ U{ &/ `; a) _, +, sD +, i> `] a) t/ Q, -) U{ &/ D> Z; _, 5* '* s~ Q= h> !] IK.,j nk.}& >$.Bx JK.E$.#[ 3B n~ f< A! A! Y^ &, U^ V<  ^ T< Q{.R_ v, *[ D~ P= v/ yC yC Z] }, 2; e[ k; ): 6; e[ <; #_ ): 6; 4( a( |( KK.A@.LK.MK.Nh px :; Q= {* ^; a- 6; t/ d- a- z, >, N~ QB A! Z^ ][ 2; Cx d* g> I[ d* i> Y; w, D> o! D> F/ 6> `] A/ Zi 9> ): $w $f 1&.NK.Mc.OK.$a.^k *_ g> H] ",
"=/ PK.Y' }, Z; k; <; `; 5; O, Z, 6! `, Q/ x! >) O, ;> <; (' P= C~ f! ^> z, G; ~~ 7^ B! #! j> L; 2( [; >) xg 8{ Z; QK.RK.SK.VO s/ P; o! 5* P; =' =' '* Y; X; /' 5* M; N= m> `^ {/ C~ ]* #] :> B> c> `^ f! W> x, l; N/ ,' ;' i' &/ ;, ;, e> B> 7{ <> bA KQ TK.UK.=j k; m; !' $! 7_ Z] b> h] >! C; >! >! J! K! G; u; G; 5{ u! *! F; 0! $] VK.m; Xh 8> ae [; n> 5! #! x> M! WK.D>.XK.LH LH LH 4$.YK.ZK.`K. L..L.+L.@L.3(.jQ JH JH JH bN 9N 9N 9N 9N 9N 9N 9N 9N 9N 9N 9N 9N 9N 9N 9N 9N 9N 9N 9N 9N 9N 9N 9N 9N 9N 9N 9N 9N 9N 9N 9N 9N 9N 9N 9N 9N 9N 9N 9N 9N 9N 9N 9N 9N 9N 9N 9N 9N 9N 9N 9N 9N 9N 9N 9N 9N 9N 9N 9N 9N sP sP 9N bN +$.#L.RA.$L.%L.&L.GH FS P8.*L.=L.-L.rP bN kQ .T 6~.;L.>L.rC 8' J; ;' i! 1, T, 7] O^ v' a; |) >) J; ,' M) {, ,' #> 5) %) A' '< &> i' Q, &/ P= @) `; k; Ff qx ,L.{t 'L.m) &> K{ g] u' <! p( v' y' yf _) c, ad 9' )L.!L.~L.7, Hn.zP ;' W) d, W) L> ^, 3! b, /, C' 8) Q> 5! P! L) +> `, M( l; $(.{L.]L.^L.9( =^ O) .> 5; /' J) 6' C, R_ W) 3, 3, %> I] 4, #y O' -, z~ (, H; 6) '' c; 4^ v' A; P> O^ G{ V' ]' Q, f, 0; Z~ L; ud Fd /L.rZ 1o $k H[ f> o! t/ ",
"8; zd n> X; k> X; %~ O; $] ]) ^~ 4^ G{ J! =! &) }] ;, B> $, k> >, (, ,> '> W, o{ ;e [] () z! H; L; $] g, F^ E( Z, v* Fa (L.z+.`; M; M; S' [; #, s) E, &/ => Z; E, #, k> => `, m> E, l; /' ;> f! M; /> ^> n> N= M; z{ z, %] B> N= M) Z, M> i; => w, q( 7x._L.V..Lg 3' a, &) Y, 6; Z; M> |) )' &) 4^ J! e^ ^~ ]) j, j, l> 0! 0! F; $A :L.<L.[L.}L.|L.1L.2L.j> z; J; 5{ H; bB 3L.4L.LH LH LH |R 5L.nq.DK 6L.7L.8L.9L.0L.aL.I~.HE }R #%.JH 9N 9N 9N 9N 9N 9N 9N 9N 9N 9N 9N 9N 9N 9N 9N 9N 9N 9N 9N 9N 9N 9N 9N 9N 9N 9N 9N 9N 9N 9N 9N 9N 9N 9N 9N 9N 9N 9N 9N 9N 9N 9N 9N 9N 9N 9N 9N 9N 9N 9N 9N 9N 9N 9N 9N 9N 9N 9N 9N 9N 9N 9N JH rP  T bL.cL.dL.eL.rP *` fL.gL.hL.iL.=Q SQ !S +$.jL.M3.^, c, 6, $> 0' kL.f' 7, 6^ %e -( X~ +~ o^ N^ :^ I; M> z; #> 9' T' K) 7, W) ;) 2' t' k) `; 9> C) 2( $/ lL.mL.[x. ' D; s{ v{ r^ {{ w' 5^ +~ X~ m! IS lS 6{.nL.oL.pL.u' k! 1, w; j! Uf i! S_ '< 7) 2) 3, Q> |, *) Q> x; ], $) x; K( f, )* qL.rL.sL.Pc H, 6) 2! H, t) ;) &> Rx '< N> n! v' 5) 7) Rx '< 7) c, X~ G{ V' V' N^ *~ R( >{ G! @~ 2~ ,{ e^ E; |) ], f; >) ;> 2( 9A./= tL.vq uL.<0.=^ G, S' ",
"*] oA j; P, O! e] P/ y> ${ K( 1{ [].vL.wL.xL.d{ =( ,! t; N! T) 0; !! }] i, C!  B.O{ =! C! O{ Y, ;, ;, !~ D] 1{ u; Jc yL.zL.Rc L; P! k> M( 4_ y> H; ;, y> M( >> F; {' N^ 7] F; b> ^) #! {) u; ]' #! Z~ (, l> )' =! Y, }) 9] 0! N' *! +! n^ f; T) O) r' aO y2.wh.q; Z, ]' >! p#.Q/ Z, g, ^~ E; Y! C! -] c{ g{ v{ G{ K! !' {' Y~ AL.BL.CL.;P .$.,].JE DL.a$.EL.G~ K! [] #! FL.GL.HL.LH LH LH IL.JL.KL.LL.}8.ML.NL.OL.PL.QL.RL.SL.TL.UL.v5.r5.VL.QQ =Q #%.#%.sP 9N 9N 9N 9N 9N 9N 9N 9N 9N 9N 9N 9N 9N 9N 9N 9N 9N 9N 9N 9N 9N 9N 9N 9N 9N 9N 9N 9N 9N 9N 9N 9N 9N 9N 9N 9N 9N 9N 9N 9N 9N 9N 9N 9N 9N 9N 9N 9N 9N 9N 9N 9N 9N 9N 9N TQ .^.;P Bl.{( WL.MC.XL.YL.i>.ZL.`L. M.QQ kQ kQ .M.L4.(< 0' v' z' +~ X~ RR +M.jS 3] %e 8< <! :/ c; 1) c; '' ]' {' b; X~ 2~ #~ V' W, J; P! R, M) P! ;> X; @) cT YI.@M._F Qx N^ g{ [].b;  ~ .5.4e ^9.4e =: `e 8n.sC.#M.$M.%M.9/ e^ b; Q( 4) {{ {{ E; 3, a; C; y' U' g; D( c; @> E; Y, N^ 3/ /' *^ (O &M.Da.*_ 2( L> {, |, y; 1, 3, u' a; %! w' +M.3] 6< O^ v' l! H{ &) sf )' u' V' Y!  ~ 0/ +~ m! Z! J! C; %! f; k' 7{ P; P; p] 7: *M.l8 8F.CD p! J) =) H; ",
"-* =M.~] M! $] u! x> t; P, !' N{ t{ _k.-M.^k.;M.>M.u! [_ Uy O! 5{  { W~ k( W, ^~ K! {' J! ^~ ;, ae P! G; {) ,M.H; 'M.)M.!M.~M.n] V{ y> U~ W~ 3/ f; k( u; d_ ;e WP D!  A A{ =( a{ ]~ o{ a{ #{ i, J( -] N{ G{ I! r{ ]k.a/ 0{ J( a{ J( V/ 2~ o{ -] 5_ N' {M.]M.;h ^M.}] =! v{ /M.;! g{ d{ (M.V/ v{ @#./M.G^ ;C.-M.;C.D] 8Q D! _M.:M.xK <M.[M.}M.VL.e#.KH |M.1M.2M.h] ##.$! d_ Qe 3M.HH LH LH 4(.4M.o6 s1.JH TQ ;Q ak.5M.6M.7M.8M.9M.0M.aM.bM.cM.dM.eM.fM.k8.v..lQ jQ JH 9N 9N 9N 9N bN sP 9N 9N 9N 9N 9N 9N 9N 9N 9N 9N 9N 9N 9N 9N 9N 9N 9N 9N 9N 9N 9N 9N 9N 9N 9N 9N 9N 9N 9N 9N 9N 9N 9N 9N 9N 9N bN sP 0N 9N 9N 9N JH jQ D:.8^.S6.}5.gM.hM.,{ iM.jM.kM.lM.W1.mM.nM.hF.'_.kQ bN oM.U|.W, 4^ E( 2B D^ +- pM.qM.rM.sM.tM.uM.ad |) 0! *> ,' ^' =!  B.D] D^ Ng vM.D^ @! 5_ ]) Z, i; V{ j; L; W; Mc wM.Z8.aw 5> N> g, i, Z! D^ xM.yM.zM.AM.Zy.BM.CM.@l.#n.DM.EM.@l.re y8.yk.=: H! =: v{ 8] J( ,{ 0/ L{ w{ /~ D( ]~ I! {~ b; e; k' B) FM.us.8a.E< X' C' J; =! O{ x{ y' D; J( x{ re 4e @l.(S =: s{ ,m.u{ J! I; ^' *> f, |) 4^ |~ :/ u' k! 7^ u; >) F( 5; X' &( a( s~ D, Ty m( GM.f| l; Z, !' N^ ",
"=/ 4p.ld A) A) s~ 5* p] 3: S' Q, d; g^ g; '' F( N; l; ): v: /' => n> => #, J> &~ .' X; Q, H; 5; v: l; #, H; z; z, k!.HM.IM.JM.w8.)! [] .{ }] {' D( #! Z, W~ 7^ =! a{ a{ @! /) 3/ l> f; H; ;] K; 0! ]) )' u' sj.}9.KM.p^ p^ F{ L' 3/ u; F; 2, F{ |) &, /U LM.)M <{ K; O, P! W, J! 2~ N{ =! h] 0! {) !' g, &) V~ &) !' K( MM.NM.OM.PM.QM.0K 9K RM.SM.LC.]D lQ S+.TM.UM.O, >> y> VM.|T KH KH 3(.WM.XM.YM.9N 9N 9N 9N 9N e#.'_.ZM.`M. N..N.+N.@N.#N.$N.%N.&N.*N.=N.-N.;N.>N.,N.RC.QQ =Q {7.JH 9N 9N 9N 9N 9N 9N 9N 9N 9N 9N 9N 9N 9N 9N 9N 9N 9N 9N 9N 9N 9N 9N 9N 9N 9N 9N 9N 9N 9N 9N 9N 9N 9N 9N JH of.-P IE z7.q5.eN 'N.)N.!N.~N.!g.{N.x{.8Q ]N.^N.Oy./N.(N.T+._N.:N.<N.$%.KH =` [N.K6.7] J! J! }N.|N.F5.1N.2N.9k.3N.Oy.4N.a; J; M) ^' >) l> K! v{ =( d{ q{ A{ L{ g, )! >) O, => $] {^ L^ ^^ :: 5N.tg )b.l; T' *~ }{ T, R( `e (S D^ 6N.Lj.+k.7N.@l.!< Dm.bn.f{ !< re H! 9) ]~ E( E( /~ J( 2~ w{ ]~ =! a{ /~ ^~ J! ^~ &) P! S' x, 8N.9N.**.J< '* n> ;, u; K! =! ^~ E; J! 9) E( 2~ L{ G! L{ F+.s6.K{ 4^ ]' (, z{ N/ (, g, 2~ &) c; 0' K! k( *) O; Y; k' N; v#.>) C' %- 0N.aN.*$.`; H; ;< {' ",
"-* bN.2( Y' `; ): =' 4( o~ A> M) () W, &) &) K; B> #, >> ^' U, )' #! 0; 7] X, M) f! z{ F; F; i; f! C' x) 6) Px.e> cN.29 dN.F%.O, 0! !! P> #! %! A; f; f, k' P! #! {) ]] I; 8) L> m> P! i; O; %~ $, f! z{ i; |) N^ :^ c; ]' 2, l> k> k> C' M> !( R, =^ eN.fN.gN.O/ N; i/ v: M; '' a; i, Y, ,> m> B> ^> 0! B' ^] =) m; |z hN.iN.jN.kN.lN.Ot mN.nN.oN.pN.89.qN.JE G#.rN.W: 5* `; h3.sN.cN IH e#.nD.tN.uN.KH bN sP 9N 9N 9N kQ of.TQ jQ IE UQ vN.D>.wN.xN.yN.zN.AN.BN.CN.DN.W1.EN.FN.GN.HN.IN.sy.m5.>P JN.1(.dN OR 8N *` jQ .$..$.TQ +$..$..$..$..$..$..$..$..$..$..$..$. T 8N 8N ;Q o%.)S KN.T+.sy.LN.MN.NN.ON.PN.QN.RN.SN.TN.UN.VN.h].WN.9~.XN.o(.p4.7~.[$..$.FS YN.ZN.`N.jQ KH MH  O..O.L) Z, +O.35.@O.[$..^.[R #%.*` #O.l8.$O.d[ 1, ]' 0! P! d; )' a; x' .< E; W, H; k' Z^ &~ .> '* '* H] f> I[ %d %O.*~.`; O^ K! A; +> 3) %! _) %! N^ +~ 3] ]{ z' p: Rd IS 8] +~ G{ E; }{ '' )' O^ v; ]' A; N> +> Q> Q, 6) M> *> &> 8) Z; n> z{ &O.*O.=O.B< -' Z; E, P! C' d; ,' d; F; |) '' |) )> %! :/ e8.U' w' Z! A; G; v! e; ]' C; b; W, }] V' J! g, !' e; => f; /) >l.(, d; :x VH.-O.8A.n) t/ B> >) ",
"C_ -/ j> => m> m> L; ~! /_ F( 0! {' g, o{ J! }] 5{ 8~ 0! ]) i, 7] '! 0; i, U] -, Z, *) (, F; K; K; 0! U, Q' ;O. ' >O.;& ,O.jD %~ `, 3/ Z, R, ^' R, P! m; 5; k' l; *) Z, R, (, '' G; *> h; >> P! f! m; ^] K; Z, *> %~ ae J; ]' >) M) i' 8) ,' d; Z, 3' 'O.)O.!O.z_ N; X' W> %~ |, {' ^~ 8{ u; `, f! >> L> C> m; H, 5! |7.~O.{O.]O.Rb ^O./O.}M.(O._O.:O.<O.[O.}O.)D <M.|O._] xi.3A.R8.1O..T 9C.2O.Ay.3O.lQ KH JH aN 9N 9N 9N 9N 9N 9N 9N 9N 9N JH #%.4O.HE }8.5O.6O.7O.8O.9O.0O.aO.~y.bO.cO.A! dO.eO.fO.gO.hO.iO.jO.kO.lO.mO.uN.d#.nO.oO.v1.uN.[L.pO.qO.rO.sO.sO.tO.{{.uO.vO.z/.wO.xO.yO.zO.AO.6) BO.CO.DO.EO.FO.GO.HO.IO.JO.q].15.KO.QQ -P sP 9N 9N 9N bN SQ JB.LO.MO.NO.bN rP OO.PO.3^ ;^ QO.RO./z.#%.aV 0V SO.TO.0].k8.VL.&9.UO.Y! g; 2, i; ,' i, 8] g; A; #> v; M> J) @[ M: b- `; }, 5* F/ 5> VO.WO.dj w, %! i, i, 7] 7) b, n^ X! ~' Y! %) 3] Ak.XO.Ue RR x' g' %! W, ]' '' d; 6) M) *> 1) N> #y ;) M> s) t' ;) i' W> W> t; /^ YO.ZO.`O.M/ !/ 5; >, 6) ,' +> &> =) ], W) *> ,> )' J; 3, 6{.g' :/ C; 0; F; ]' () 0; g; ^~ a; A; Y! o{ O^ ]' Z, j, !! .{ _> M( M! 0b  P..P.$B `] A> [; => ",
"=/ +P.>, i; m> `^ m> W; => H; W~ L! k( )~ K! Y, !! G; M! H; (, ^' k> P! b> F; M) Z, j, #, `^ B> O, G; @P.C> KP v: Z- #P.$P.5< B( z{ K; *) e; K; /] Z, B> ~! (' L^ B> 0; A; =! W, G; l> G; O! ;, H; ~! z{ #! #! >> O; k' >) a> u; 2, `, ,> () G; *) M' %P.&P.*P.{^ X; k) C, B> G; 7^ Y, g; () !! 0; ^' M> ;' i' C' f, sD =P.-P.8;.2D ;P.>P.,P.'P..n.l5.n].)P.!P.}M.)D e#.~P.{P.]P.m0.dm.IH IH ^P./P.(P.>P +$.TQ LH LH LH uK 9N 9N 9N 9N 9N 9N 9N bN bN 9N 9N bN -P OR QQ Yj._P._}.:P.<P.[P.}P.|P.1P.sz.2P.'7.3P.3P.4P.5P.6P.7P.Z1.s=.00.Lb b= 8P.9P.0P.aP.bP.cP.dP.0~.eP.fP.gP.gP.AL.hP.iP.B{.jP.kP.lP.mP.nP.oP.g7.3(.OR +$.bN 0N 9N 9N sP 9N 9N 9N 9N uK ;P k{.pP.qP.rP.KH 8~.LN.sP.y; tP.uO.-D xK uP.2C.`J vP.wP.xP.yP.zP.AP.BP.CP.b; %! A; e^ g{ h, ]~ 8] y' K) 3, W^ H~ d> N' ,> Y_ C~ N= .> DP.EP.xe w, u' a; w{ 9{ g; k! k! A; p^ Q( -( R( `e sC.jS le Y! e^ /~ t{ {~ J! i, (, (, 0; E; V' i, y; e; P! L> ;' 9! /^ ;, G; I; FP.Te.GP.J< k; K; ]) W, A; sf n^ {( ,' 0' W, U, c; 0; k! HP.3] m! A; !' }] 0; #! e; (, 0; N^ N^ O^ ^~ E; 0; () J; Z~ W~ ~] W; k; O~ IP.JP.ff =' `, M! O, ",
"*] KP.Z, u; ;, P/ 5{ M! 3/ 7^ =! D( o{ o{ {' o{ 8Q !' P/ ;< [] (, B! !! ~~ 5_ ]) #! 0; #! y> i; P, 5_ LP.^> l; 7{ hw MP.iw.'U Z' /] O, /] [^ 0! #! F; e] V{ x^ [^ t; 3/ ^~ h, o{ u; #! !! {) u; () M( K; 6] u! Q/ {/ i; ;, 8~ Y, #! 0; h; Y, {' 0; o) NP.OP.Zy B_ j, +> )' 3/ |, $! A] g; -{ A; %! 8] Y, )' S, (, 88.Y* PP.QP.43.&5.RP.SP.TP.UP.VP.WP.XP.YP.ZP.`P. Q.)D )D (C .Q.+Q.@Q.+$.LH 18.#Q.vB rB 4/.$Q.%Q.HH LH LH uK uK uK 9N 9N 9N 9N 9N 9N 9N 9N 9N 9N 9N 9N 9N 9N rP #%.=Q &Q.7~.FS *Q.u..7N }8.JB.b6.=Q.YM.-Q.hC.;Q.>Q.,Q.pP hC.-Q.hC.QC.QC.QC.QC.QC.PC.QC.`M. 6. 6.'Q.t$.Lx.u$.)Q.OR !Q.+$.rP 9N 9N 9N 9N 9N 9N 9N 9N 9N 9N 9N 9N 9N 9N sP g7.~Q.#q {Q.=` ^{.B7.]Q.^Q./Q.(Q.VL._Q.:Q.<Q.[Q.}Q.|Q.1Q.2Q.3Q.4Q.5Q.6Q.`e h, 0) P> 5] p{ =: Q( C; 2~ |{ X~ 0) }) 7] W^ X, {[ h; O, 8> 7Q.b$ M5.Ox j! .< R( h{ ~~ }~ ]Q 5~ Wz |+.8Q.2] r{ $l.>{ 8Q.g{ J! ;e 0{ =: 2~ C; !' F{ E; 2~ |{ {~ K! J' ]) !' #! )! P/ P, f; W! 9Q.0Q.aQ.-^ n> 2, K! g, }] ;{ 2, 2, y; @> +! Y, i, g, 4^ w' p: m! /~ C; {' !' A; ]' {' D( ;^ F{ C; g, K( F{ A; ]) >> `, 2( u/ 1' Z< wY bQ.0E i> `, M! (, ",
"-h cQ.!! ;{ [] k_ [] 7^ ~~ =( g{ V/ h, V/ G^ *: D] ;! +].@y j_ V~ @#.@#.dQ.D! J( ~~ ##.p#.=] =! j_ A] ;e x! B! .: d= eQ.fQ.i .O! W~ P, W~ 6#.]] K; ~] j; ;> B> k' W; >> Y, ^~ d_ 59.!! -{ <^ j_ @! }] k( ;{ gQ.J( o{ D; B; /~ /~ ,~.-{ 7^ K! C! i,  > hQ.iQ.^A Qe u) A; h{ K( (, p^ N{ 0{ v{ /~ x{ g{ 2~ b; I! X~ ,~.m].jQ.kQ.lQ.mQ.nQ.oQ.pQ.qQ.TP.TP.rQ.sQ.tQ.uQ.vQ.wQ.xQ.yQ.W5.zQ.@T AQ.!D w$.BQ.mw Qe CQ.Au DQ.EQ._Q.aV v$. T !D JH JH 9N 9N 9N 9N 9N 9N 9N 9N 9N 9N 9N 9N bN 9N sP sP bN 9N 9N JH aN aN 0N 9N 9N uK JH JH JH KH JH JH JH JH JH JH JH JH JH JH KH KH JH aN 9N !S aN uK bN !S 9N uK 9N bN 9N 9N 9N 9N 9N 9N 9N 9N 9N 9N 9N 9N 9N 9N OR QC.FQ.GQ.HQ.SQ rP wz.=w.)K.IQ.JQ.Q6.KQ.LQ.MQ.NQ._P.e#..$.+$.xK OQ.PQ.u{ H{ 3, ], B' R, !' Z! m! %! %! a; g; )' g^ d; ^' 6) z, J) l; E) QQ.RQ.#f r, >@.%> m! X~ 8{ T^ 7] |) T^ 0) [! |~ jf :! (~ jf -( X~ C! X~ J{ m! ]' 1) Z, u; W, ]' ]) 8~ #! 8{ *! () #! W~ ~! B( 8/ SQ.TQ.UQ.s/ k' f; J; |, ;, f, /] O; J> j, H; h; [{ d; )' sj.l! 0' I; x; d; d; ]' ]' 0; 0; F{ P> 1, A; f; i; $] O, Q, >) k' 2( {* Gi.VQ.WQ.XQ.n< k; /_ `, ",
"Va Jf {/ O, f! K; ;, `, ;, |, ^~ A; 8] C; g; ^~ 0; 0! T~ /] H; F; E; |] N{ g, I; f; 2, 2, F; (, e; f; 2, !' t{ K! SN (,.YQ.-b l; k' 9, k' N; [; W; ;_ w! k> X; E, B> f! *> {' |, 9, m; z{ M! P/ }] #! !' c; E; =~ a; '' c; E; C; p^ A; !' G; !' &> ^y.ZQ.`Q. R.$R .> F; J! 5{ `, w; 1, a; i, 7^ W, E; O^ C; k! }{ {' .R.+R.@R.9..#R.$R.%R.&R.*R.SP.SP.=R.-R.0~.V~ c; ;R.>R.,R.(C 'R.8K )R.=` KE !R.*9 0! P> ~R.{R.]R.^R./R.(R._R.:R.<R.;Q jQ 9N 9N 9N bN bN bN 9N 9N 9N 9N 9N 9N 9N 9N 9N 9N 9N 9N 9N 9N 9N 9N 9N 9N 9N 9N 9N 9N 9N 9N 9N 9N 9N 9N 9N 9N 9N 9N 9N 9N 9N 9N 9N 9N 9N 9N 9N 9N 9N 9N 9N 9N 9N 9N 9N 9N 9N 9N 9N 9N 9N sP sP 9N 9N TQ ;_.[R.}R.|R.1R.rP KH 2R.3R.4R.5R.#L.!0.6R.7R.8R.'k.}R KH 9N 9N 9N kQ dN 9R.0R.k! _) S, 6) a; g; Z! 2~ 4^ 8] D( C; g; )' |) 6) Q, /> C' => m' aR.dY >z E/ LP 9' H{ #~ a; 1, a; 0' k! A' :e {{ %) g' e8.bR.lS H{ Y! p: >< u^ .< k( #! 0; Z, Z, () X, )' () 7] [! !' H; B> Y; 4> cR.dR.eR.=; => P> y; |, >> 8) j> /' -> B> =) j, 6) ^' J; 0' A' V' ]' 1) *> `, R, x; F{ }] W, ~' !' (, *) K; 4_ Q/ (, '' 0! 0! Q/ xb ^0.5o $G P* 6> M; H; ",
"Dg fR.Y; t/ e> t) x, /' 5; /' #, 8) C, H; C' 6' C> C' => W> )d j, h] _) 8] 0; f, 8) ;' M) M) f! #, K> H; i, |] 0; gR.pu hR.r< (' W; 5; /' G, /' 5; 2( ]* B> m> f! M; ;, >) () G; => 8) Z, e; e; W, )' }{ =~ }) }) *! !' W, !' i, o{ W, S, J; () {, iR.jR.kR.lR.x- H> C' }] u; z{ e> $~ @> 1, 2, 2, ]' A; i, A; :^ () mR.nR.oR.hb pR.qR.rR.sR.tR.uR.vR.wR.xR.yR.zR.AR.5e BR.CR.DR.ER.o# <P.]D ~D DR.FR.A; d; e; f! R, :^ GR.[! HR.zL IR.JR.KR.LR.>Q ^B.QQ [R -P kQ bN 9N 9N 9N 9N 9N 9N 9N 9N 9N 9N 9N 9N 9N 9N 9N 9N 9N 9N 9N 9N 9N 9N 9N 9N 9N 9N 9N 9N 9N 9N 9N 9N 9N 9N 9N 9N 9N 9N 9N 9N 9N 9N 9N 9N 9N 9N 9N 9N 9N 9N 9N 9N ~@.kQ TQ GH 4$.MR.NR.GL OR.2).@O.kQ KH PR.QR.RR.SR.TR.UR.VR.WR.;&.#%.-P #%.<R.XR.)S {7.rP YR.ZR.v{ 4^ ]' 7] :h =! w{ H! g] 0{ C! w{ @! y{ ^~ g; F; '[ g^ f! S= ^'.`R.7i.L= T< jf r{ Q( nf w' Z! IS Ue v' :/ ~m.Ak.=T  S..S.le vd Q( 4e VB.d{ 4~ @! =! 9] U, Y~ )' g; @> %! _) _) 0; (, $] G, D: +S.@S.#S.s/ y) `! <! 4^ +! +! Qz ()  { 0( l~ ,h =~ X, ]' &) g] L{ 4^ i, !' #! (, 0; {' J( w{ /~ -{ d_ f; W~ /) u; F; ^' ;, 5{ m_ $S.%S.uX el *; e[ V] () ",
"l< Jf 2; /> U^ N= n> /> @] O) Q, L) d> h; M) 6! z, O) E, N= k> >, W^ }~ yf W^ b> 0> y) ^> ,> 6) N' b- }, 6i #Q 6; &S.*S.=S.zh.P; -> N= N' >, ^' c> ^> @] ^> P= n> >^ G, O, T) l> >) =, =~ ^~ O{ >! e^ M{ f_ H! 2/ z] ah =( !~ 0{ 6~ @{ -S.}) p( g^ Q{.;S.>S.,S.!* `; P, 'S.s{.x! ^' X, *! X, W, a{ a{ O^ {' J( >! J! p^.)S.!S.~S.{S.]S.^S./S.(S._S.:S.<S.[S.}S.|S.1S.I: !b 2S.3S.4S.5S.6S.}O.Kb.!D 7S.8S.]' G; 0( Z, W~ {' '! h, H! 9S.Ei 0S.aS.;6.bS.5R.cS.dS.eS.fS.gS.u..o%.QQ 8N jQ .$.TQ JH KH JH !S uK sP 9N 9N 9N aN aN !S 9N 9N 9N 9N 9N 9N 9N 9N 9N 9N 9N 9N 9N 9N 9N 9N 9N 9N 9N 9N 9N 9N 0N 9N 9N bN KH JH cN TQ *` 54.4e.ij.hS.iS.zu jS.kS.w! lS.mS. T kQ nS.!+.oS.pS.qS.rS.Ec sS.6N p4.>&.y6.tS.uS.vS.@6.*` kQ rR wS.xS.n~ a- }, }; tf J~ B#.#Q l~ Cz.l~ c> }; %] O= 1; B~ Z^ }, 9 .yS.Jg.zS.T* O[ AS.{e z~ x) 3[ Y_ *, >_ b( G/ N{.BS.Q< CS.DS.sh Xn.ES.Xn.([ W^ f] FS.N' GS.I~ 0- a- g- Z( F/ I< ][ ): I< g> ;j h: HS.IS.JS.3U x(.KS.w/ w) v, /> b> LS..j.A#.MS.NS.OS.H< O: AS.@+.)[ V] x) M: n~ D~ @] @] #Q E~ c> m> ^> k> C~ ;> w, 1( ed I[ $/ PS.mz.QS.RS.vF (x X(.Py n~ ",
"L$.SS.q; :; RO oD q; i* t* g[ [..s, )b u[ ]; x- L= 1' /b Oc s/ >D.+, Jx :w <..U= %; 3> 6z YO r, 9- P* [> q: lc [> TS.US.VS.!l o( l] Pe l* I[ >* i> ^; m* 6* r; <{ WS.[f s~ XS.D' +, `h :[ A#.E$.0- O] ][ V< m> %B W^ V] C~ 3^ a- N= Q+.YS.Jx V< jP Lc N( ZS.`S.P+.jC [f  T..T.Pe U= ~* {* k* Cx {!./* V; p..4( 2; {!.+T.@T.#T.y>.$T.%T.&T.*T.)$ =T.-T.cP.;T.>T.,T.NN 'T.)T.!T.~T.{T.]T.^T./T.]D +$.(T._T.;c ', +, C< K_ d* jP yC.W< 6; g- g- q~ _, s~ ,* ,* 9> Ek.Gt :T.0J Tr <T.[T.PE }T.|T.Sh.Sh.1T.2T.3T.T0..>.4T.aV qP qP !o.5T.D^.IE IE IE IE IE IE IE IE IE IE IE IE IE IE IE IE IE IE IE v$.D^.6T.aV r1.7T.oH.8T.9T.0T.aT.xf.R .$x d* 7: p~ C< Gh bT.4$.!D bN .>.cT.aS A} 5| 0@ dT.HR eT.#d.fT.gT.hT.iT.jT.kT.-P kQ #%.px.lT.mT.$B 3| r/ #| `j 0U %| ~k %| aU (| W} L%.]| v< u< r/ n} nT. x.oT.pT.^} %l qT.g .~k V} mk 2^ n} t< Y} r| kD i| zE P(.L%.bU -f `} y= X%.i| tc tc i| mk n| ky  ] %1 n, 4} >: %1 DD _! u| ^} rT.sT.tT.uT.vT.WE Pi DB wT.xT.yT..1 zT.q: ,4.Y).LN AT.BT.Z_.=x.CT.DT.[d ao.Q(..k zE ky P(.S).X| ET.2&.+1 FT.z} y} W( GT.BD 5k xE '/ HT.IT.JT.KT.LT.BD nD z} ",
"|3 MT.NT.OT.PT.PT.QT.RT.ST.TT.UT.VT.WT.XT.Ok VT.YT.ZT.%*.`T.}a. U..U.O&.Uo.Po.Z..Ao.1E +U.T%.p&.U%.T%.@U.nl #U.$U.%U.&U.*U.1E R&.%V =U.-U.,l 4E ,l 3j 8p.qU N} Ak }P ;U.>U.u&.$k 0D.t&.,U.;F D/ Ij d} -k l} z| K} p; S} a} Xj %l 'U.Wj [1 Wj 'U.]} )U.{j.!U.ml 1j ~U.*k {U.l} d} [1 ]U.]U.L0.-k ]} ,} L| ^U.f} -k -k /U.zq (U._U.:U.<U.[U.}U.|U.1U.2U.3U.4U.5U.6U.tH 7U.8U.9U.)K 0U.aU.bU.cU.dU.!D ]D U6.eU.fU.z&.LT 0| [1 Wj l} f/ '1 gU.7} hU.,1 d| d| d| iU.d} jU.kU.lU.mU.nU.oU.pU.qU.a# rU.sU.tU.uU.vU.wU.xU.yU.yD.zU.$|.AU.BU.CU.DU.EU.FU.FU.FU.DU.DU.FU.GU.GU.GU.GU.HU.GU.HU.HU.FU.FU.FU.FU.IU.JU.yD.KU.LU.MU.jH /G NU.OU.PU.)} =U.QU.nj [V U%..P RU.}$.SQ jQ SU.TU.UU.VU.x3 WU.XU.%p YU.ZU.`U. V..V.+V.@V.=Q sP sP kQ ]7.#V.$V.%V.&V.*V.=V.>a.-V.;V.>V.,V.'V.)V.!V.~V.{V.]V.PV zV ^V./V.(V.)c._V.:V.<V.%:.[V.}V.bx.|V.1V.QE.Fm `m 2V.3V.4V.5V.6V.7V.]W 8V.9V.0V.2*.aV.bV.cV.dV.cV.eV.fV.gV._W R%.0_ hV.(W iV.U[ jV.kV.lV.mV.nV.oV.pV.qV.rV.sV.tV.uV.vV.wV.xV.yV.zV.AV.BV.CV.DV.EV.FV.GV.HV.IV.JV.KV.LV.MV.NV.OV.PV.QV.RV.SV.TV.UV.VV.WV.#C XV.YV.ZV.Y&.`V.9X  W..W.+W.@W.#W.$W.%W.",
"7  &W.*W.,W =W.,W M. -W.;W.>W.,W.!m 'W.z. )W.Ar lW !W.=L.~W.X@ {W.]W.^W.^W./W.(W.uX 1X _W.Cd.:W.<W. V.[W.}W.x4 |W.1W.2W.3W.-X 4W.5W.V<.6W.7W.mo 8W.Am 9W.0W.aW.bW.cW.bW.dW.eW.fW.gW.hW.iW.jW.kW.lW.mW.nW.oW.:<.pW.IE.7n mb.74 qW.rW.l< &  sW.tW.uW.vW.b2 wW.xW.yW.zW.AW.BW.up.3W CW.:4 DW.EW.FW.GW.TE.^c.HW.EW.IW.IW.JW.KW.LW.MW.NW.OW.PW.QW.RW.SW.TW.UW.VW.WW.XW.YW.ZW.`W. X..X.+X.@X.#X.$X.*p.%X.&X.|$.*X.|X =X.-X._m ;X.>X.,X.'X.)X.fW.!X.~X.{X.rX ]X.:W.^X./X.(X._X.:X.3Y <X.fX [X.}X.Oo |X.1X.2X.3X.4X.5X.Wl 6X.v<.7X.8X.9X.0X.<F.aX.bX.cX.dX.eX.fX.gX.hX.iX.jX.kX.lX.W. Y@ mX.nX.oX.lh pX.GY qX.rX.sX.In tX.uX.oV.lX.]X sX vX.wX.xX.yX.zX.AX.~G.BX.CX.0N 0N +-.DX.Fr EX.FX.GX.zo HX.IX.JX.{[.8s KX.LX.]7.JH 9N 9N 9N 9N }R MX.NX.OX.PX.QX.RX.SX..1.TX.UX.ve.VX.WX.q9 R! :v.mv.XX.QS.HW YX.ZX.`X. Y..Y.0s +Y.v|.yp @Y.#Y.ke.c0 $Y.%Y.&Y.*Y.=Y.-Y.;Y.;Y.>Y.,Y.'Y.)Y..H.!Y.~Y.OZ {Y.]Y.^Y./Y.zp (Y._Y./Y.:Y.N7 <Y.[Y.}Y.|Y.1Y.2Y.+|.3Y.4Y.5Y.6Y.// 7Y.8Y.9Y.0Y.aY.xG.bY.cY.dY.eY.fY.gY.hY.iY.jY.kY.U>.lY.mY.nY.oY.pY.6r mG.r}.qY.rY.sY.tY.sY.uY.vY.wY.xY.yY.zY.AY.BY.CY.DY.EY.FY.GY.xr ",
"(3 :. HY.IY.s!.rf.JY.KY.om.K$ Zp LY.MY.NY.OY.En.PY.:1.QY.$X.RY.Es.SY.^t.TY.UY.h%.SY.VY.WY.lP h%.:A.z0 XY.YY.ZY.`Y. Z.4r ca P-.zp i5 .Z.-1.q0 HJ m}.EZ +Z.Cp @Z.#Z.Bp bg.$Z.%Z.&Z.*Z.=Z.]+.-Z.;K ;Z.>Z.w-.,Z.d& W$ SH.'Z.%S. ;.)Z.!Z.~Z.[p {Z.&d ]Z.(0 vs.Ys.FK ^Z./Z.8@.(Z._Z.99 :Z.<Z.[Z.}Z.Mc.|Z.1Z.np 9& 2Z.FF.3Z.4Z.5Z.6Z.7Z.8Z.9Z.0Z.OW.aZ.bZ.cZ.dZ.eZ.fZ.gZ.hZ.iZ.jZ.kZ.lZ.mZ.nZ.oZ.pZ.qZ.@X.&X.%X.rZ.sZ.tZ.7Y.LZ Hp uZ.vZ.wZ.// xZ.yZ.zZ.D% Le.a|.AZ.BZ./>.CZ.DZ.EZ.~e.GZ FZ.GZ.HZ.IZ.0}.JZ.[|.KZ.Be.bt.LZ.MZ.NZ.OZ.PZ.QZ.RZ.SZ.TZ.:r #` UZ.VZ.TC.WZ.XZ.YZ.mp ZZ.|t.OA.z0 W9 `Z. `..`.+`.lT.@`.#`.$`.Sv.%`.&`.uZ d9 *`.=`.'r m( -`.q$ ;`.;R.>`.,`.)D bN TQ '`.)`.!`._C NH ~`.{`.s/.4C ]`.^`./`.(`._`.w$.JH 9N #%.-P bN Pg.:`.1L <`.[`.4& }`.|`.1`.Cf.Vu.eu.2`./^.3`.4`.g%.5`.6`.7`.8`.9`.:g.0`.,@.a`.wn.b`.2e L>.3f.c`.d`.*I.-u SH.e`.f`.g`.h`.i`._;.j`.Yu.k`.l`.m`.G+ n`.$K.r& o`.p`.q`.r`.s`.t`.u`.v`.w`.t`.o7.x`.y`.z`.A`.B`.^% 29 C`.D`.E`.F`.G`.H`.<l.I`.J`.ik..u ^f /$ K`.L`.M>.M`.N`.km.4/ O`.[G.P`.Q`.`|.;u R`.S`.j9 T`.mJ U`.V`.W`.X`.Y`.Z`.``.Wp   +SZ . +IJ + +@ +# +$ +",
"% +& +* +gA.= +- +; +pM D6.fB > +, +2= ' +) +;C ! +_6.~ +5L.{ +BN ] +^ +/ +( +`L _ +: +Ku _ +7g Et )~.< +[ +mA.} +#-.| +1 +:t [Z J2.2 +ez ='.3 +4 +| +5 +zk.6 +7 +8 +9 +ee 0 +a +b +c +d +2g.e +f +/t g +h +i +j +<Z k +l +m +n +xv.o +p +Q{ +$ 7J.%v.q +C`.r +!B.s +yu t +u +v +w +x +y +mL.z +~A A +B +v`.QQ.C +D +E +F +G +H +I +7Z.J +K +L +M +N +O +P +Q +R +S +T +U +V +W +X +vR.Y +Z +` + .+..++.+@.+#.+$.+%.+&.+*.+=.+-.+#v.;.+o,.&v.K7.>.+K7.,.+J# =9 '.+79 ).+!.+WB vv ,^.~.+{.+].+^.+$g /.+(.+Ia _.+:.+<.+[.+}.+|.+1.+2.+3.+[Z 3v.Ti.{9 AK.4.+5.+6.+7.+8.+9.+0.+a.+b.+c.+K .d.+e.+f.+l( g.+}8 On ,^ h.+i.+}).j.+k.+l.+VN != m.+!= TN n.+o.+qN.KH SQ v'.p.+Y3.q.+e#.[R r.+]j.s.+t.+8N GH z9.u.+v.+-D bN 0k.#9.`5.e#.w.+x.+9c 9v.^T.y.+,D._x B= z.+A.+c/ gT B.+Ec W(.:!.J= eB C.+D.+E.+nC 9 .Y< eb !b F.+Lh C= }- G.+H.+Uw &; RO I.+J.+r].w= io.K.+L.+M.+N.+O.+d'.P.+&k S^ ;j $f oc L= D< T= [- Zi Zi w[ Q.+jh >b Zh 4* q* R.+]; Xa L= >b L* q' R= D< s/ x- g[ Jh oD D< (b r< t~ `> dd Y| 'w .| S.+Dz 5F dD T.+C3.5!.mc kb 2b hO fc !b U.+K3.-x.V.+w).W.+X.+Y.+ii.Z.+Z.+d= `.+ ++",
"L$..++n< s/ h> g> M/ Q= I[ '* =' 5; @) N= &, 3^ I< r, +++@++Sp.[_.N] h: RC RC 7x -b Y< ]b |f E/ $b *; 'w `> 'w .! QC Y< Ch 'w Y< oc lc o< %b 9 .QK.[: (x  | q: ix.hD q; T{ K[ Q_ mi EC 5w @. #++$++8A.q: ix.7x Gh K* -x.%++XJ.X- sc 7b &++*++of hc x= _b PO ec u)./M xb db ~(.=++k..@x dw H= &c Pw :U 3..E* E: EB -++P2.D).@;.;++>++,++'++)++NW.!++M +~++{++]++^++/++(++_++}I.:++<++[++}++|++T{.`Z.1++TP.UP.UP.2++3++}].Xa ^b 9- VC q, Be $1 ]b o- pc lc q' x= 4++5++ZP 6++sc zh.P* F= YO q, E: 0] xh.hD /b YO CC K[ K[ Jh F< 9< $b Y| _b fb E= $w :; `h Cx ,, r, KA w[ Jh u[  _ cT 9( q( Zi H[ KA 7++:Z.ra.<#.9> ~* :: ,, ,[ }, 6> o! Y; Y' cb 8++9++bN JH of.x5.0++a++b++cN KH c++d++e++f++#%.rP ./.g++~L /{.ak.4C Rj.h++ak.i++L^ {x j++k++n< M; Z] @) ~* ,* P: A) k; C~ >, >, O, >> G~ l~ Z; )* Y' @) n> 6! ,> G~ F; H; ^' () W, P, ^> F; J; j, k' X' Y' Y] l; 9> ui l++m++q| A/ p] q> D' O) ;> Y; .> )d 5! O: F, =' F/ 2; /> 0> #! >> n> E, E, k; Y; M; 3^ ,> ;' O' z, N~ k' W' o! o! q> 7h Vd A) E/ n++o++p++hk li .> #, w, !/ '* ~* D> U^ k> Z^  ^ C, ;' y) x)  o.7; f> !/ 6> 6; k> ",
"Qm q++N= Z] v: n> W; `; => #, 0! 6] /) e] () U, a> g- r++|t Cl IO q( Zi 1' ~* y~ <; @) -> Y; |; ]* j> k> => M; ;> (' /' M; L; $] k> >> >> B> x! j> j, ,> >) /] {/ l> /) e] 8~ `^ -^ Qi 2: s++t++u++tc sx 4( W; |; ]* @] U) w! ^* {^ O] #] (* w! {/ V) `^ C^ 6; >^ M+.j; j> 8T }) 9{ @{ b^ Y~ .: .: $^  { !z .: U, +! `~ 3; v++w++x++y++I +z++A++B++!++OW.C++al.D++E++F++G++H++I++J++sR.K++L++M++W(.N++O++SP.UP.qQ.P++Q++R++S++T++<Q z! Z] w, B~ $, t; c( #_ P: 3&.U++V++mU E/ Q= r' n> c> 6! U^ K> Z^ 2; a> c> /> Z; m> #, 3^ .> 7> u[ T_ /..GS.Q/ a> =~ '[ Z, O= C) 9> w, C> }, !/ Q; P; -^ 6z $/ W++]$.<A Uh 6; /' -> P= x) b> h; a> ^) X++Y++ZM.#%.kQ KH E^.Z++`++ @+VL.KH +$.^C .@++@+fS.Kb.$%.@@+#@+56.XL.RA.$@+%@+dS.'+.&@+4( RC LM *@+s/ f! m> ;> E, Z; 5; 5; n] 4_ a> G~ >> /) J! >! >) B> M; >> j, z~ 0) 4^ =~ 7] =, +! |) #! #! () J; `, k> #, #, P= l; G, DC o,.CQ Y} 5* Z; `; U^ |) >, w, ^> 6' M) s' i' J) &/ C~ 6) z~ 0) ^) k> J) P= 5; => O) J; Y_ '' g^ g^ ,> l; 5; n> -' p~ ,* 3: D, cT ]).=@+-@+y[ f~ v, >) N~ n> `; Y; >, O' '> +> Y_ Qz _) k! Qz L: /> l; B> K> '> @> ",
"8; >M W, () () )' 0; ;, 0! ]' a{ ]~ /~ =( 0{ J! ^~ hh ;@+g8.'g 9( ;_ HP S' G, ;_ $] z{ `, `, O, i; F; |) y; @> '' u; d; 1, !' u; Y, D( ]) u; ^~ g, 7^ o{ E( p^ a{ J( V~ o{ K! K( ;> !/ <> >@+,@+'@+ik cz ;_ V{ t; ]] 8{ z! G; e] /) 8~ #! e] !! +! ]~ ^~ g, () P, J' @! 8] 9) re G! C! }] u; P, P, l> B! /) l> #> c; j> l; N= )@+!@+~@+{@+]@+z++^@+/@+K +(@+_@+:@+<@+[@+}@+|@+1@+2@+iZ.3@+4@+5@+6@+7@+8@+9@+=R.pQ.0@+a@+b@+c@+d@+G{ V~ 3/ F; d; v! ;, Uy c( I> jh e@+f@+-$.1' n> H; T..J( L{ ]e 2~ G{ 0{ d{ g{ o{ ]' 0; ^~ E; 6) #, S' >) 6] Y, [] {' y' &) (, M) O, t; ^' d; Z, N; 7{ n> <; -^ D: '5.72.g@+Y| ^> /) /) ^' 7] W, {' _f r@.h@+*D rP rP bN KH *D i@+j@+k@+#%.)D >Q qA.l@+m@+qN.jQ n@+oK.o^ o@+p@+.> #y.d#.q@+r@+p- -' p, s@+t@+4> O) ;, O, C' C> Z; N= M! u; F; 0; () 0; C; g] @> Z, (, () B! Y, A; 0{ G{ O^ %! @> 0) E; ]) !' (, P! X; ;> X; X; 7{ <> X< -9 u@+67.u/ l; t/ >, |) >) e[ >) F; )' J; l> #, M; `, J; =~ =~ =~ G; *> j, K; *) *> J; )> 2, !' ]' #, Y; /' m> (' L_ #_ <; u/ nz v@+w@+x@+/< E> #, ;, C' -> X; => l> ^' h] )' sf g] 5^ %e I{ k! |) 6) J; @> 4^ +~ ",
"qy y@+{~ 4^ v{ g; W, ;, P/ }] H6.@~ ;( t{ ,{ /~ /~ ;' z@+G'.fj o> B> jx R, =) L^ !/ B( z_ P; G, k' W> C> z; N> &> z; ], /, Q> *) *) P! 3/ H; d; ^' l> (, 0e ]' A; 0; Z, f, t; {) ^' %~ 7{ |K.A@+B@+C@+Wd P; Z' L; O, M) y) N~ => #, >> f, *) /^ '' #> #> I; f; P! f! Z, F; N^ #~ 8' M) m> =>  > l; l; l; l; `; b' 8, G, P: +< *v.D@+E@+F@+I +G@+H@+I@+J@+K@+L@+J.+M@+N@+O@+P@+Q@+R@+S@+3@+iZ.T@+U@+V@+W@+X@+Y@+0@+0@+Z@++.+H#.Nk.`@+_ + #+c; |, ^] W> i/ ld E' wC .#++#+~k ~* z{ c; ;^ 5#.a/ d{ e^ p{ p{ A{ F^ 5] b; [].,{ -7.C; !! q] |, ^' '' '' ,' W) c' H, Q, *) y> u; 2, e; /] t; => [; ): a) @#+##+Ll.`> >) 7^ F{ {' u' A; $#+07.%#+:D =` bN 9N kQ Xi.3R.&#+B{.rR #%./C *#++O._O.;&.cN }8.=#+$#+N^ -#+$A ;#+z9.;Q d#.>#+7{ ;_ Ch ,#+'#+i( C~ >> `, 8) /' X; >> W~ 0; 0; !' J! C; &) e^ T' %! )' {' ;{ 7^ 7^ o{ C; ^~ {' !' V' J! 7^ ;^ '' [_ v#.L; ;_ ,: sz >^ d* j@.)#+_| !/ => E, >) W, O, [; {/ 0; }{ %! M) `, *> |) |) g; &) )' {) F; ]' F; '' #> 1, %! B; o{ a; ^' /' {^ C^ (> =_ {! <; !/ QA !#+~#+{#+L= J) R, 0; j, /' O, M) S, g; A; 8] G{ L{ jS 4] 4e |{ 8] _) %! N^ |{ Q( ",
"C_ >- W, {' 7^ () G; M( ~] {) D( e^ R( ]k.h/ 9/ B; C> 9t `!.aj.i> m> m; z{ f! v: )* Y' -^ !/ x, S' G, z{ z; &> c' #) #) #) /, 2' S' S' H, J> 2' yC X; #, R, R, >) f! l; U> 7{ *) |) Q> =^ ]#+R|.^#+/#+7z 4> E' @) [; t/ &~ o] E' g< E> &~ C> ^] C> 4' ;) C> =) J> H, t/ F, M> u' xf h; i; l> C, M) ^> f! n> l; H, >) C~ 4; 4* (#+SZ._#+:#+<#+[#+}#+|#+1#+2#+3#+4#+5#+6#+7#+8#+9#+0#+a#+b#+c#+d#+e#+Jg u$ f#+g#+SP.SP.SP.qQ.h#+,R.eL.ty.i#+Ha j#+}, [; Ff 5: Mc $b Iu k#+u> F/ i; N^ l#+=! 8] :^ A; 0; K( J! w{ Y! b; [].v{ e^ /~ ]) I; '' >) `, M) 8)  ' Z; A> C> t; $] /] f! O, O; W; [; L^ @) .> m#+n#+o#+DO 0; g, We :^ N^ O: p#+q#+)#.+$.9N 9N 9N #%.TO.r#+s#+[8.e#.t#+u#+tQ.v#+w#+#%.ak.x#+y%.5] V' y#+&5.6~. T ml.z#+n/ F( N; ki A#+B#+o> C, C~ m; =) N; ;] b>  { !! (, }] C; Y! o{ C; m! 2~ G{ o{ V~ g, o{ /~ ]~ >! ;{ ;{ A; +! i, F{ G; L; Uy ]* n] 5; >^ P; s/ C#+rn.o| v: => C> ^> F; ~! [; >> #> _) C; Z, R, P> A; '' '' i, )' 2, ]' I; I; A; J! %! Y! e^ t{ &) G; k' /_ :> L; (' D#+{! L_ sx fy E#+F#+r, /> :^ )' f! H; 0! Z, F; W, 0; O^ =: gg xM.G#+4e p{ 0{ 7~ G{ *~ H#+CP.",
"Qm ,_ T) 5{ .: #! `^ [; ]* 0; I; ;^ O^ E( @~ +~ a; Z; )~.5u.M5.g* ]* N; H, E, => `, => 7{ ~! >> l> i; y> (, g; P> )' Y, A; |) Z, m> z, M) j, M; 3^ O, z; F; {) |, `, B> J) B> q] 1, &> Qx uM fL I#+x0.}f &( p] 4( W; -> L_ Vd &( Y] t/ J> C' X; B> C' Z, *) e; B> L; m> C' d; }{ M^ +! 0! a> ^) N' .: l> O! [_ R, ]' b> I: s~ J#+K#+wj.L#+M#+<#+N#+O#+d,.P#+Q#+R#+S#+T#+U#+V#+W#+X#+Y#+Z#+`#+ $+.$++$++x @$+#$+SP.SP.SP.SP.TP.UP.>P.$$+%$+&$+*$+=$+uB Xw.E< cz Y| -$+;$+n| V; ]* 7^ E; !' '> Z, k' Z' k' Z, 1, a; 7] W, u; {' 5_ u; 8) g^ Y, (, a> >> i; #, `, 5{ >> O, W; 5; -' @) =_ Y' X' <> '* >$+C1.,$+ki 8) A; a; v, sS '$+)$+}$.kQ bN 9N 9N 9N G#.!$+~$+AL {$+]$+^$+V@+/$+($+8~.f@._$+:$+;^ <$+OL.[$+rP.rP Py.6O.}$+|z =A ~! 9< |$+1$+S> i' f! c' ;, [_ >> a> ]) f; *) f; ;{ C; E; C; 8] B; C; /~ C; b; F{ D( E; Y, K( E; a; g; V' W, l> N; B> w! L^ 5; 5; u/ 1/ 2$+3$+iU ,* B> X; $, 5{ $] ;> 6) |) &) c; k( k( {) 2, () () 0; d; ;^ E; i, ]' {' 5y @> G{ e^ w^ E; e] [^ ~! /' /' W; 4$+{! <> 0g .O }y x@+:: J> !! ]) K; >) !' #! !' !! s] V' G{ /~ `e 0+.0+.m! ^~ G{ 4^ Y! &@.R( ",
"C_ 5$+U) tf V) $, k> /' O, a> 0; I; A; ^~ |{ V' 0; F/ 6$+7$+8$+n- >> z{ z, R_ =! @! $! Z~ =] a{ a{ p#.=] o{ L{ 6N.d{  A g{ /~ 7^ 8{ g; h] +! i, F; ]' :^ ^~ =] 7^ {) 0! F; ]) -{ a; _< j< 8N.}9 mC E= u/ 7{ /' $, .: 8~ M( (' ,* ;> `^ F; G~ G; Q/ u! Y, ^~ /~ e] A].P, ]) ^~ ]~ 4^ W^ O! $, V) C^ w! C^ bQ {^ 5! 6) ;> ~* i* 9$+xm.Il MB.0$+a$+b$+c$+d$+e$+f$+g$+f] h$+i$+j$+k$+l$+m$+n$+o$+6N.p$+^/.]A.4S q$+g#+SP.SP.SP.SP.TP.UP.&X.&X.%X.c++r$+!n.s$+t$+u$+v$+w$+x$+y$+Q; r; Z, '' >) j, C> S' S' l; X; Q, C, j, l> ;, M! x! >> O) h] {~ K! 8{ #! !! 0; '' Z~ 6! C~ 5; Q; >* ld z$++< <: x~ T> ,= i$ A$+jC B$+C$+D$+E$+@$.qP -P 9^.kQ bN 9N sP Xi.F$+G$+nB.bB H$++O.'' I$+J$+p4.eN 8O.z- ~z.K$+L$+b6.*` SQ e#.M$+<O.N$+_^ 1g /_ O* ,#+X` QA l; 5! Q, H; /) j> ;, ;, Z, P, 0! |) ]' :^ ]' c; F{ F; F{ F{ {' n/ f; }] ]) 0; () Y, Y, () !' k> -' [; <; -^ )* u/ -^ *_ Q5.O$+x].M/ ;_ H, k> 6] O, ;> *> '' '' :^ ;{ !! {) e; '' d; M) H; F{ :^ A; W, Y, ;{ @> %! |{ w' m! }] i; K; P! /' N; W' 2( ;_ M, P$+Q$+'E H[ A( ~! {/ ~! e; () W, {' !' |, |) c; c; e^ C; Z! @> d; |) b; :/ E( e^ ",
"8; R$+^> /> => i; j> m> z{ ;, !' E; b; 0{ `! g] i, Z( S$+T$+U$+V; .: i; +> z~ a{ 7^ }] K! :^ p^ /~ o{ {~ E( p{ V$+E( *: *: 8Q K( a{ o{ {' W, J! =! o{ /~ =! 5y J( -{ F{ }] }] E; c; c' W$+*D.X$+Y$+.b 7{ 2( W; V{ Z~ '! .: ]* 5; C^ T) ^) 8{ () G; !! 7^ ]~ C! Z~ B! u; !' g, b; W, U^ n> -' 6; I: Z^ %[ 6; #_ H, 0> 3; :: (b Z$+`$+Vk J=  %+.%+]@+8Z.J ++%+@%+#%+$%+Di %%+&%+*%+=%+-%+;%+G^ >%+El.,%+W, ;l.'%+)%+!%+=R.0@+SP.SP.TP.UP.UP.+.+%X.{D =` /D ~%+{%+]%+^%+/%+fc.(%+v> ;^ l#+P> `, H, K> => k' f! Q> z,  > 8) `, O, l> f! ;> F; 7^ F{ U, 6) '' )' X, ]' M) => Z' &( 7: !d _%+'~ Vd ]_ Fd :%+<%+[%+Lw.}%+|%+1%+p4.=Q kQ sP 9N 9N 9N JH JE 2%+y8 B0.Zd GZ.3%+.& 4%+Eb 5%+sA.6%+n* 7%+wS.F5.rR of..T v'.8%+9%+N~ G; $] L_ (' 9< 0%+a%+S~ X; z{ #, f! P, `, O, ~! M! i; ^' |) d; u; ]' d; L' I; e; *) F; x; F; d; |) }{ G~ ;, G; a> H; X; <; <> E_ dT 4> <d vz .! b%+U(.EA.+< :d v: B> 5{ %~ U> H; F; E; A; P> ^~ +! i, W^ M) 6) `, (, i, {' F; 8{ g; g; +! 2~ (~ X~ +! (, Z, >> m; I> c%+&( u/ E< d%+e%+f%+px :' Z' m> => H; ]' W, W, Y, f; ^' |) '' 2, f; g^ '> `, Q, )' m! G{ g, ",
"C_ R- N~ >, ,' ,' (, d; !' (, W, V~ g, |] K{ 4~ 0) #[ _.+ L g%+,* W~ q] S_ () {) y> O, *) y> q] 2, I; ~' O^ V' ]' *~ V' N^ u; b/ 3/ 0; e; 0! ]) 1) L' !! 0; d_ !' !' ]' D; ;{ v{ c; hy X' h%+i%+j%+>* M; m; n> ;> 5{ G; Uy @) q> @) l; J) k> 8) `, 8) (, '! K! .].$] P! Z, f; #> $> M) f! ;> X; N= ^> b- 5; >^ m; >) N= s~ 9( k%+)Z.J^ q> 8> l%+m%+n%+B++0Z.o%+p%+q%+r%+s%+t%+u%+v%+w%+x%+y%+z%+A%+B%+C%+<I.D%+E%+F%+G%+pQ.SP.SP.SP.TP.TP.+.+%X.{D {D {D H%+w$.w$.e#.xK NH I%+xK.J%+K%+L%+=5.M%+N%+Ch.O%+J[ H< Gi `( v/ t[ &/ *> f! Z' `, *) m; n> S' s) O) H; |, L> i' x, Vd Vd vz vz -i ~(.q7.P%+Ev Q%+R%+S%+-_.54.+$.KH -Q kQ sP 9N 9N 0N =Q ty.T%+U%+V%+OE p5.p5.>P W%+VY.'R.LK.}B. /.X%+FS jQ TQ -P rR Y%+Z%+;> `, i; V{ P; <> r< `%+ &+D< X; Z; X; [; $] /' B> N; ]* k> j, b> l> Z, X, W, d; H; 5! z{ M> M> u; ;, H; ^' ,> B> O! h; G; => `] ,* {_ .&+7: vz 7z Q.+lm.+&+@&+I[ sz @) -' M! O; 8/ #, ,' a; +~ n! g; 7] A' sC h; j> x! d; +! {' (, (, X, a; C; Z! 5^ (~ H{ %) S, >> W> X) E{ Wd -^ f> #&+$&+%&+`> p! t/ j> 6) h; ]) 0; (, a> ;, O, M> |, f; v; Q) i' /' C~ F; '' () p^ ",
"C_ @e ^' (, () J; 2, !! 0; u; 0; 2, F{ o{ D; !' ]' Z^ Ca &&+*&+t; v( $] 0! O, Z' B> O; ae F( 5g 9, N/ *) x; *> F; 1, sf P> 9! N/ M( e; P! ae m; c' u: ;, !! [] F{ ;{ o{ Y! p^ /~ H6.We V~ =&+-&+;&+^* Y~ f, X; m; f! O, /_ P; u/ [; ;, e> J) M; O; =) 8) F; d; y> [^ %~ `, =) W) >h K> X; C^ Z' X; C' M; W; 4_ >> 8) X; `; I[ >&+,&+|E M, C' R, '&+)&+!&+~&+{&+]&+]&+^&+/&+(&+_&+:&+<&+[&+}&+|&+1&+2&+3&+4&+5&+6&+7&+O++Y@+SP.SP.SP.8&+TP.+.+9&+{D {D {D {D {D {D ~D ~D ~D ~D =` 8~.0&+dm.4$.a&+b&+c&+F$+d&+e&+dL.f&+g&+g&+h&+i&+j&+k&+l&+m&+m&+n&+o&+p&+s#+dw.dw.dw.q&+:f l2. ].r&+$a s&+t&+u&+v&+wK.p5.OR sP 9N 9N 9N 9N 9N 9N 9N 9N 9N JE `M.x7.w&+x&+s5.KH bN 9N sP -P Yj.-_.q@+uT UA.]B.+T bN +$.4e.y&+z&+P/ [^ {/ y> O, B> W; >b Ru A&+|f )* Y' @) 5; m> n> $] f! *> M) 0; () d; P> g; C; |, %~ /' t; M> t/ f, e; y> `, 8) i; O, ^' J; f! Y' @) !/ E_ u/ Wd ue R[ B&+C&+D&+k; 9, $] 4_ $, (> $, f; A; |{ K{ 4~ O{ @! J! N) 6! 8{ y{ ]) 9{ 0{ ]) 0; '' c; ]' e^ w' #~ y' .< ~' =) U> H> :' ud <> {* 95.E&+F&+Mc >) C, ,> #! 5_ ]) }] 0; *! e; z{ ,' W, a; K) $~ (^ L( J> `, f, P> k! ",
"=/ 9e l> B! 6] 0! e; 0! M! 3/ !! k( k( )' P> u; Z, ): G&+N).H&+/' W! -' ]^ 1g qd Uy K; Z, M! ~! k' P! 3/ u; >> 0! ]' H6.Gk.!! f; d_ ;{ !' (, K; H; O, B> 3/ ;, Z, !! !! e; (, 7^ !' y; |{ -O [g I&+G@.Z~ f; P! O, B> /' (' 4( >^ >> Z~ G; C' S' O; f, d; (, I; e; 3/ i; O, => R_ y) `, M! T) i; {/ ^> $, (* $^ B! K> k' %~ x- J&+K&+xF E< A; v^ D; L&+M&+N&+O&+P&+bZ.Q&+R&+S&+T&+U&+V&+W&+X&+Y&+rR.rR.sR.Z&+`&+ *+.*++*+!%+SP.SP.SP.SP.TP.UP.+.++.++.++.+%X.{D {D ~D ~D ~D ~D ~D ~D ~D wK LH uK cN @*+#*+$*+%*+&*+**+=*+sk.;m.ll.X5.X5.|R -*+-*+}8.7(.PQ 5O.PQ PQ PQ ;*+SO.w3.>*+w3.C>.u..QQ jQ TQ 0N 9N JH 9N 9N 9N 9N 9N 9N 9N bN SQ +$.,*+'*+H..)*+!*+bN 0N 9N 9N 9N 9N 9N 9N 9N JH kQ 9^.TQ =Q r.+~*+{*+)P n> <; <; v: Z' O; 3: V* ]*+^*+$f Vd p] !/ Y; &/ K> X; O, ;, j, f; F{ 0; !' g, h, =! k> O! b{ F; E, 3/ _f ;{ f; 2, i; u; 8~ ;{ 3/ /' /' /' W; -' -^ .A [> /*+(*+<_ `; `, 2, B! ^> O, H; |, ~' n! y' e^ /~ ;! g; 2! M> 0) y{ H; N^ 0{ g, 2, F{ Y, W, b; @~ R( G{ :^ P> Z, f! /] 5; 7{ N; '* _*+:*+6F 4* b; @> G~ W, W, k( B! ]) 8{ l> k( 8] Z! L{ ]{ 4~ E; A; )' d; g/ /~ `e ",
"<*+;h U> G, k' )* Y' Y' Z' `, Y, 7^ K( W, #! !! U~ X< [*+}*+|*+Eh 1*+s~ |; o~ 2( t; u; K! ~~ ]) u; (, (, `, t; x> A; 5] 1{ {~ v{ 2*+=k.>%+v{ a{ {' 0; O, /' -> /] /' Y; W; m> s) &~  ' d, 3*+4*+5*+6*+7{ => ]* ]* O; ]* /' ]* /' .: #! i; [^ /] q] f; !! c; ]' u; f; *> 5{ O, a> u; W~ u! 7^ $! d_ 5_ 0! [^ 4_ O! C> s) `, +, < +7*+Wk =; h] p^ 2, '! LS.~5.8*+9*+0*+F++T&+a*+T&+T&+b*+c*+c*+d*+X&+e*+f*+g*+h*+i*+ta j*+k*+SP.SP.SP.SP.SP.UP.+.++.++.++.++.+{D {D ~D ~D ~D ~D ~D ~D ~D LE LH LH LH LH LH LH LH LH LH LH LH sP 9N 9N 9N 9N 9N 9N 9N JH JH JH JH JH JH JH 9N 9N 9N 9N 9N 9N 9N 9N 9N 9N 9N 9N 9N 9N 9N 9N 9N 9N 9N kQ }$.8k.l*+v^ 45.S+.rP 9N 9N 9N 9N 9N 9N 9N 9N 9N sP KH =Q m*+n*+'a 6!.T> o*+Xi o] z> Ri &( 7{.[A p*+q*+r*+x0.Q; Z; k' f, H; z; f, Z, O, O! 3/ 0; !' E; =~ e_ ]~ Z, #{ s*+$! $] l' ;( -7.A] }] O! `_ Z~ p#.Y, j> O! i; 4_ Uy ;_ x] -< t*+.w 1d `] M' *) y> E, 6' 6' s) c%.7) A' A; C; g, A; e, #) ;' *) 9, c' ~' {' u; (, Z~ 8~ 9{ L{ v{ ;e Y, e] Z, Q/ v#.(' (' L^ A) u*+v*+w*+t, /~ #> >) |) a> ;, j, 5{ #, j> *! O{ c8.re +k.I+.w{ J! O^ &) G{ p{ D^ ",
"e# {M B) E' T> P: E{ Ri E{ Z; `, e; H; H; j, J; => Ww sY x*+y*+KA z*+): 0( M; z{ ]) Y, a{ J( a{ 7^ !' 0; *) t; F; g] h/ ,{ d{ g{ ;( 1{ B; b; ]) e] K; %~ N; L; ae N/ /' M; G; C' x, V> Px.A*+B*+Pk ,j &( m> t; B> O; {/ O! {/ ;] /] W~ ;, y> e] }] C! /~ 6N.v{ V~ L' Z, d; 2, ]) c; d; u; '' ]) y] l> >> Z' l; >) a, a, |, u[ C*+D*+E*+9( *> '' e; ]) W, #> AS.F*+G*+H*+I*+J*+K*+L*+M*+T +3@+3@+e*+N*+%R.&R.O*+P*+Q*+R*+S*+T*+U*+9@+pQ.SP.UP.+.++.++.++.+%X.{D {D {D ~D ~D ~D ~D ~D ~D ~D wK LH LH LH LH LH LH uK aN aN aN 9N 9N 9N 9N 9N 9N 9N 9N 9N 9N 9N 9N 9N 9N 9N 9N 9N 9N 9N 9N 9N 9N 9N 9N 9N 9N 9N 9N 9N 9N 9N -Q kQ TQ '_.V*+W*+uQ.X*+Y*+Z*+TQ KH 0N 9N 9N 9N 9N -P =Q IE p5.)k.`*+ =+.=+N= Q, J) W> S' E, `, /_ W' !/ v[ +=+,#+@=+D< >> %f W, 1) ;{ ^~ g, h] () ]' A; N^ .< 8] 8] v{ ]' P! M! a{ 2, *) #! Y! s^ g, |, k> j, G; d; I; Q, j, H; => 7{ u/ o> io.fJ.#=+Sh `i $=+S> 4> +< z/ %/ O) z, th I] &) V' D( K! a; &> f, W> N; Y] t) =) E, E, X] /> j, $> O> ,' %^ &~ k' >^ E_ O/ x~ Wd 6: %=+&=+*=+Dh 6) =) H, M> Q, s) h' 0@.0@.2! Q) 4^ I! 0/ jS #~ C; '' 0; :^ /S `B.sj.",
"-* ==+E, C' C> P= ;> X; l; t/ E, Z; J) 6! N~ >) J) -=+;=+_g >=+n..6{ e[ g^ j, l; e> ;' d; F{ F; |) J; ,' i' >) F; 3, l! H{ `! %> _< L) U! k< t[ Y] o! /' P! 0! i; m; `, F; F; !' J) s) R' ,=+'=+To.$f >* ): >^ 4( Y' 9> [; $, l; @) N; /' /] P! '' yf #~ Q( |{ O> ], #) ,' y; Y, i' 8! 3' &/ J> l; 9> C) m) E> z, W) 6) F; s, )=+!=+~=+$f G, 3' .' *) *> Q> ]' Y! /5.{=+]=+ $+^=+/=+(=+2@+iZ._=+_=+&R.K++:=+vR.G%+<=+[=+}=+|=+1=+2=+0@+pQ.TP.+.++.++.++.+{D {D {D {D {D ~D ~D ~D ~D ~D ~D LE LH LH LH LH LH uK 9N 9N 9N 9N 9N 9N 9N 9N 9N 9N 9N 9N 9N 9N 9N 9N 9N 9N 9N 9N 9N 9N 9N 9N 9N 9N 9N 9N 9N 9N 9N 9N 9N 9N 9N bN QQ 3=+>0.4=+M' Y_ )> 5=+ O.a&+-_.)S u..v..sk.}(.fL.P8.6=+7=+8=+Cm.P/ O= 9P @] F/ D' I: 6* 9P 4; P: D_ S~ MC 9=+0=+^k p~ F/ I: l; Z] c> .j.w, a- I< 3^ %/ J) 2' J) J> a- 9> x, K> J> }, M; ,> c, L) s) 5> 5> a) 7> 9> I< 6; 6; _, H] `/ a! a=+b=+S/.O%.e:.Sh JB Gh :4.6x _b hD ui n- !, Jx 5* h+.jP V< ed 3> 3> :; Q: xC Px F< Q: c=+g: t, G(.m) n) g) u_ v[ cT dd z( $f _: [> d=+3i Sk 1P }, }, b- hh hh t[ 2! 2! t[ k) %^ w/ L: %> r[ G/ U! 3^ U^ M: C, >h sQ ",
"e=+nK.q( D: :: I[ Q= q; !] s< dd ,j uf Ki r< QC rc f=+g=+C<.h=+Jy /{ ^b Xh w[ |_.*j ji Oc r, e~ sD f[ ji ji g[ g[ y/ H(.A(.k- JK.i=+i=+j=+k=+j=+Q.+eC q, U= 4; V; x- z: +, U= _, x- /< v[ $N bu.&E.*$.k| ~$.tc A[ I' 3U Ch V{.Y| I' $1 'w KC f) >D.o..^..7; @; yi li l=+m=+e~ c* K[ KA P[ w(../ Jh P* $b `B ii T_ 2; Cx 6; Lh _a n=+o=+$F Pi nh p=+DO r, x[ 2P :T '~ 1' )d _, R{.q=+r=+s=+t=+u=+v=+w=+x=+Y@+Y@+=R.y=+z=+ D.A=+B=+C=+D=+y=+UP.+.++.+%X.{D {D {D {D {D {D ~D ~D ~D ~D ~D ~D ~D LH LH LH LH LH LH JH uK aN 9N 9N 9N 9N 9N 9N 9N 9N 9N 9N 9N 9N 9N 9N 9N 9N 9N 9N 9N 9N 9N 9N 9N 9N 9N 9N 9N 9N 9N 9N 9N KH 7N E=+F=+<k {k Ig |_.48.}( .B G=+#d.H=+(8 I=+a0 J=+K=+P .hk _' k^ Hh L=+L=+H} H} L=+^| `d p; -| L/ u| 9| M=+N=+O=+P=+R} L| w] u| Q=+Qd L/ u:.;|  ] =1 Y}  A. ] L} Zj p} |&.p; <} )| p} X} m} 0f =j (x %| || Qd +) rC.%| t:._/ (| ={ !A K_.,U.R=+1x.S=+[j T=+U=+V=+s:.T=+ij W=+[V /} 1V ff A* DD O%.Dd 4D $B %&.*C X=+O%.5j T_.6V Ej 6j O~.&k UE K_.E(.&k fi fi fi Yj !} ^U.Y=+1V Z=+4{ `=+Fy TT G} Rc ;b C* Lg 7/ s< rx Bz 0f [> QC KC q' Hh TT V} 2^ +| Rf $&.EC ",
" -+~j M| .-+;V >V +-+@-+#-+Uj $-+%-+&-+*-+=-+c| --+;-+>-+,-+'-+)-+pE 0| Dj =U.!-+~-+I| Gj /} (} lj T=+Fj aE Fy {-+aE 0| Cj GP 2j (} {} >j.Fy Fy 6} 1V 1j ]-+%k ]-+(} {-+k} Bj %k Dj LT qE PF ^-+/-+sj 7D.wj (-+--++V u(._-+sE 0| #U.0| :-+<-+Hj T=+]-+w&.Dj Bj [1 ^}  (.xE +y '/ |} 5} }} [} PS i_ K} bE |} L} ^| L=+m} [-+}-+|-+1-+2-+wj sE %V s&.%k '/ u&.^} /} 3-+1V T_.2j ^} 1j Qj F&+4-+=o 5-+.V.6-+7-+8-+9-+0-+a-+*F 3k %l b-+c-+d-+2N.e-++.+{D )D {D {D {D {D {D ~D ~D ~D ~D ~D ~D ~D wK LH LH LH LH LH LH LH LH 9N 9N 9N 9N 9N 9N 9N 9N 9N 9N 9N 9N 9N 9N 9N 9N 9N 9N 9N 9N 9N 9N 9N 9N 9N 9N 9N 9N bN cN aV xD.f-+g-+)q.Wp.(=.h-+4F 3o.$E.$E.YD TV i-+VU fo.~E.j-+k-+l-+m-+ZD.n-+o-+$=.p-+p-+WU m3 #E.@} q-+r-+s-+t-+u-+]p.v-+ko.e# w-+r3 tW./G x-+.P y-+z-+A-+B-+C-+D-+E-+F-+yq.Ep.G-+H-+I-+J-+t4 gU /z K-+L-+M-+i1 N-+sh.O-+P-+Q-+tV R-+YC Wp.Ma.!q.S-+VD.T-+U-+V-+W-+h% X-+%n Y-+Z-+`-+ ;+.;++;+@;+#;+$;+%;+DV &;+*;+-<.J+ =;+-;+;;+>;+,;+8I {@ ';+);+W[.Bz.7I !;+3z.~;+{;+];+^;+/;+fp.K: (;+_;+:;+<;+[;+~V.)q.sF Na.~a.(: %:.!G };+|;+1;+2;+'G @E -q.sF ^n 3;+4;+5;+6;+:q.GD.",
"Ql 7;+8;+9;+0;+<E a;+b;+c;+d;+7;+e;+f;+g;+h;+i;+/F.j;+k;+l;+m;+n;+o;+o;+p;+q;+r;+Dn s;+t;+w].u;+v;+8v w;+x;+y;+z;+A;+B;+C;+D;+B-+<W E;+F;+rU.Sl G;+H;+I;+I;+J;+K;+Db.HE.L;+jd M;+N;+O;+P;+:;+Q;+R;+S;+T;+U;+s;+9. V;+W;+X;+Y;+G;+Z;+W;+`;+ >+Ep.5q.Ep..>++>+@>+,-+#>+S-+$>+%>+zp.H*.da.|q.&>+*>+=>+->+Jp.;>+K: >>+dn OA /B ,>+'>+)>+!>+~>+{>+1^ ]>+^>+/>+Mn (>+rq.F=._>+:>+<>+[>+Ay.}>+`V.[>+w<.|>+<<.A` 1>+]W 2>+CV 3>+3>+Ga.4>+Ga.5>+6>+7>+8>+1N.9>+]D {D {D {D {D {D ~D ~D LE LE LE ~D ~D wK LH LH LH LH LH LH LH LH 9N 9N 9N 9N 9N 9N 9N 9N 9N 9N 9N 9N 9N 9N 9N 9N 9N 9N 9N 9N 9N 9N 9N 9N 9N 9N 9N 9N 0>+a>+1R e@./1.b>+7c.bG r|.c>+;p d>+*W.86 e>+f>+9H g>+kX.h>+i>+j>+k>+l>+m>+n>+o>+nq p>+7R Y..q>+r>+lW 46 s>+dp.t>+u>+v>+~J w>+x>+y>+z>+:K A>+B>+U9 |1.C>+n0 O9 g9 ^( D>+|y.<Y.<`.E>+Kc.F>+w7 G>+H>+I>+P9 J>+K>+d{.m`.j5 !d.L>+M>+9N.N>+x% O>+P>+fs.E5 Yf Q>+b&.R>+-e.fp S>+T>+3Z.U>+_5 *|.&e.U>+>Y.V>+RZ W>+X>+Y>+Z>+dt.`>+ ,+.,++,+]e.@,+I5 #,+$,+%,+85 &,+*,+=,+-,+;,+>,+,,+2>.',+),+!,+~,+P-.{,+],+^,+/,+,%.#/.LX &H.(,+_,+:,+<,+:,+O-.ef.[,+},+v% 0q |,+1,+2,+3,+ko 4,+5,+",
"6  6,+7,+8,+9,+0,++7 9,+a,+b,+c,+d,+e,+f,+g,+h,+i,+j,+k,+Y7.l,+m,+n,+8s.o,+p,+q,+r,+YJ WY.s,+t,+xc.u,+v,+w,+x,+y,+z,+A,+B,+;: C,+D,+E,+IQ T9 -1.e9 F,+VK G,+q0 H,+jf.=1.K9 Zp I,+J,+K,+_Y.L,+M,+N,+Tc.ut.BJ 'f.]t.#a O,++`.!2.SK )2.Tp Tp P,+Q,+R,+S,+T,+U,+V,+W,+X,+Lg.Y,+u|.Z,+eg.q9 o% nL ;L `,+a] W'.E-. '+MI +s.57 .'++L +'+o1 @'+#'+$'+b9 'Z.%'+&'+*'+='+C$ E$ -'+dR.7K ;'+>'+,'+''+:s )'+!'+#d.|L ~'+{'+]'+>Z.^'+/'+/: %S.('+EP.q& v9 _'+:'+<'+['+}'+{D {D )D {D ~D ~D LH LH LH LH LH LH LH LH LH LH LH LH LH LH aN 9N 9N 9N 9N 9N 9N 9N 9N 9N 9N 9N 9N 9N 9N 9N 9N 9N 9N 9N 9N 9N 9N 9N JH KH GH |'+1'+2'+wP y{.tB 3'+Wp _y.4'+5'+PY.Ze.xg.P9 Nf.6'+ht.89 KZ 7'+%G.8'+9'+0'+a'+b'+W +^I.4f.c'+d'+,I.Se e'+*L f'+g'+h'+i'+!u K8 j'+'% !r.E'.k'+9`.l'+m'+n'+o'+p'+p +q'+r'+s'+t'+u'+v'+w'+x'+y'+z'+A'+B'+C'+AM D'+% .E'+_~.F'+F'+n +G'+H'+G'+I'+J'+r8 K'+L'+M'+tv.2v.lf N'+O'+P'+Q'+Lt H@.R'+J% S'+T'+U'+V'+r`.W'+k2.+;.X'+Y'+Z'+`'+ )+(A w_ .)++)+M>.wA.`M @)+Y% %v.;/.{$ {N #)+!B.c,.$)+8 +)~.%)+&)+}t *)+=)+-)+;)+>)+,)+s@+')+))+!)+~)+!)+#v.{)+W{.])+^)+/)+()+_)+:)+Sb.<)+[)+5t ",
"})+|)+8J B'.a$ 1)+gy U'.q*.4}.B9 2)+3)+4)+5)+6)+7)+8)+9)+Bv.%v 0)+a)+o +b)+c)+=v d)+R8 Nu Nu e)+)3.f)+0{.g)+h)+i)+J'.j)+k)+l)+!z.m)+u7.n)+o)+Ck.*v.p)+q)+r)+s)+r)+t)+u)+o8 +$ rl.v)+19 Fg.w)+1& x)+W++y)+Yv.5.+/d z)+oQ }].A)+]v 3v B)+C)+23.D)+&'.AM E)+F)+tI G)+-v H)+I)+J)+h& 3$ m)+K)+L)+M)+]v rl.NM N)+O)+P)+A# Q)+zv.F .R)+S)+ ..T)+53./a TI.U)+V)+W)+0B X)+Y)+Z)+1` X .`)+ !+.!+h%++!+r'.@!+G)+#!+$!+%!+&!+`b *!+J'+=!+>).cg -!+;!+vM >!+.!+J8.K1.,!+V7.c++!D ~D ~D ~D LH LH LH LH LH LH LH LH LH LH LH LH LH LH LH 9N 9N 9N 9N 9N 9N 9N 9N 9N 9N 9N 9N 9N 9N 9N 9N 9N 9N 9N 9N 9N 9N 9N jQ '!+)!+!!+|).Fs ~!+{= 6O )O {!+:%+]!+h%+nm.By.f.+^!+Is {../!+(!+Oa Qf.z*._!+^6.:!+<!+[!+Mb Ab }!+w!.w!.be dc }!+|!+iO kf [x.4!.Ow xw gT Jw.f5.gO X- 3..,8.1!+:x }_.Yv bR t).g!.2!+`..3!+4!+^U t0.5!+6!+7!+!E T* 6> =^ i) h) t, G< Jh 2[ $[ 5i q[ ]i Hi _w `$.Jx 9[ ^; Xh q, .T.8!+3S Aw Lh 1w XO 9!+p- ~(.cb z^ IT fb v+.Yv 0!+mb a!+b!+c!+d!+r( <!.<!.1i s/ I[ `h a[ a[ {/.u[ L= s, ^..~, O[ ]; Zh C= 9- e!+q- 2: KA Lh 7w 1!+go.lw xh._U f!+g!+_U K.+co.(x.Nm.vi.h!+i!+j!+k!+'/ v+.V; ",
"-h l!+A.+!; Bc al.Kw fc .g k= m!+rd fb QC Lg =b YO 7x .! T{ :: i* Q= 1i sD [..Q= q; X< u[ f* ui T{ KC E/ G< J: R[ n!+o!+&-.p!+_b Jh p/.$; ', :; f* Mh $A ^; !* c* Ox r~ f- _, I< Cx +, ui Q: Mc {* r; Cx ,, K[ ,, t, o> 1' /4./{ 9< Pc *_ $/ K[ /4.q!+r!+s!+t!+u!+1D.Kc L[ D3.v!+w!+Sw %~.g[ 9- I[ r, oD x[ /; 6; i> Q: 2P o) P; -^ =' l- n- Kc (x.@; '* 9( Q: f[ G< K[ I[ H[ ,, CO d* I[ Kw.a~ x!+&_ w* e~ a) `: s~ T_ 6i I< I: }, U> Z; |< X] p) T_ ,[ y!+z!+A!+/C MH )D KH JH LH LH LH LH LH LH LH JH aN aN uK LH LH LH 9N 9N 9N 9N 9N 9N 9N 9N 9N 9N 9N 9N 9N 9N 9N 9N 9N 9N 9N 9N rP ]7.KO.B!+l0 C!+d; #) a, i' C' 6! Q, => C> K> E, n> Z; k; o! C) D> 6; u[ <b D!+E!+h: F/ N= M; Y; Z] O) x) U{ D~ E, 3^ O: W+.0> ,> Q, j, h; '[ 3^ ): c* 6; C' ;' 7] [{ Q, Y' ~* )b c* )b `] ~* 6* I< F> F> F!+G!+aB Y} !* ^' &> Px.JP &~ x, &~ s' Y_ N) sn.Q) >h )> V] 0> P) [{ )' e> 0; (, Qx -~ 2' i' [{ 3[ ;' g! 6' P= %/ v, m> Xi px '* l* H!+I!+J!+o( k; l; Y; G, 5; 0> z~ d> x) M) /> #, `, j, i' Q, Q, c' C' b> X; 6{ p! 6; P= N= Z^ N~ &/ P= }, F/ s~ `] '* s~ `] U= Q: K!+L!+M!+L/ N!+n> ",
"=/ xn.W< &, 0> V] Y_ ,> H; #, N~ H; ^' H; H; )' g^ (, *) e; {) B! G; ;, 0! F; l> O, O, ;, k> f, c' N; 7{ 9, N; 1/ O!+P!+Q!+!| 3; ;, l> #! 8~ i; P, 5{ Y~ i, /~ ^~ 0) Y! k! }{ X~ G{ 0) () G; u; !' 8] &) >> k' #, z; &) i, => <: =' 5; l; k' n> @) )* -i R!+S!+)| o! /_ i; (, &~ #, R_ +> ^' >> O! 6) 8) Z, K! ^~ ]' ;' +> S_ d; Z, g, 0) g^ J) S' >> R, `, G, <; Z; f! `; k' #, K> B> x] pi >(.h*.CD 7> a> g; A; R, |) T, L' (, d; ]' A; a; (, H; d; )' 0; 0e {#.T!+R8.wQ.u$.,].LH LH LH LH LH LH LH uK 9N 9N 9N 9N uK uK 9N 9N 9N 9N 9N 9N 9N 9N 9N 9N 9N 9N 9N 9N 9N 9N 9N sP 9N JH Yj.U!+V!+W!+X!+A; g, x' %! m! b; G{ .< ]' N> n^ *> /^ `, z{ >> i; i; i; a) Y!+Z!+=o.wC 7_ M; C' >) tz T^ T^ T^ 6) F; h] 8{ '[ i, &) T, {' 8] 8] '> h] G~ +! >! H{ #~ k! g; O, 7{ I< Y; Y; n> Z; N= M; %/ @] Ii `!+ ~+Pc >, h; +> J; g^ )> |) A; 1, 0) %! 4) :e v' A' $~ @> &T c, v' }{ 4^ A; S, $~ g^ V' H{ jf #~ _) 1, *> H; h; C~ `; !/ [; `h % ..~+So.*A N; l; C^ %~ N; 8) -, g^ ]' $~ h] |, I; ~' a; 8] =~ I; (, d; H; #) ], #! H; 0! '> )> g^ J; j, `, f, 6) ]' #, X' 4; ~* +~+nR @~+o} Q= #_ ",
"Rm EQ a> a> #! 0; ]) V' 7] () ^' e; !' F{ ]' C; E; {' 2, !! a{ o{ J! J( {' )' =! W~ {) !! ]) 0; f; M! /] %~ ^^ >S #~+h`.$~+^k @] #! #! u; #! .].0! g; 0) 2~ Z! Q( g] 2~ y' Z! G! G! 8] 7^ }] !' g, 2~ 0{ 3/ ~! '> C; |] ]~ O, 2( 9> ,: k' m; -> N; [;  _ %~+ox bj.V)  { $! b; '' ]) i, A; J; (, 3/ Z, |, 0; E; +! g, ]' |) ]' ]' {' {~ v{ V' d; i' Z, 2, |, /' 2( ;> #, => P! Z, Z, `^ d* p*+&~+*~+|D.w, 0; )' A; ;{ &) m! We !! e; &) 2~ *~ ;{ P> '' {' bz.V' u; pB.=~+G|.-~+;~+HE  T cN LH LH LH 9N 9N 9N 9N 9N 9N 9N 9N 9N 9N 9N 9N 9N 9N 9N 9N 9N 9N 9N 9N 9N 9N 9N 9N JH -P ES v5.w..>~+b; C; g, P> ;{ g; %! |{ |{ Z! Y! <^ x; z; R, f, 5! k' ;, P! $] /' f> *z ,~+'~+A/ @] C~ J) >) g; +! 0) +! (, T) F; +! +! 7] X, =~ o{ G{ =~ !' 1, )' i, ]~ `! Q( i, ]' m> -> X; @) X; H; => ]* m> Z] ^> D> }6.)~+Ri 7] z~ y) G~ %! =, @> U' %) X~ y' 4! %e +~ k! yf <! ye %) y' 4^ 4^ {' T^ +! +! 4^  ~ |~ m! y' <) 7] *> b> O= 6; U> N= `: !~+2'.(E ;b v: O; -> B> m; >, h; d; W, T, g^ I; ]' x' }{ :/ 8] !' () ,' Z, ^' g; =! |) 2, )' #> A; F; Z, R, R, u' Y! 8) o! (' |; Gb ~~+{~+]~+H] ~* ",
"L~ EQ O! >) (, e; l> 7] A; e] ^' H; (, [] &) ]~ a{ Y, F; () *! b; J! &) 7] )' ^~ k( f; (, 0; l> W~ {/ Ez +( T~ Ff ^~+/~+(~+vx N= H; /) {) G; t; 6] Y, E; X~ G{ Z! Z! Y! X~ G{ @~ w{ }] {) !! d; C; h, =! b/ B> '' D( C! 8] ;, U>  ' N/ %~ $] (* /' `;  _ _~+:~+)U `, 6] c; {' H; *> u; i; {) Z, *) Z, 0; () E; X, 7] !' (, {' Y, Y, ;e o{ () I; +> a; !' Z, Z' 2( /' V) <; 5; z{ H; l> i> !U r`.<~+zo.6> f; )' (, ;{ U] 4! *~ P> f; !' /~ g, ]' N^ )' K! <^ V' F; B! a> G; 9[ [~+}~+uO.|~+1~+@*+wK aN 0N 9N 9N 9N 9N 9N 9N 9N 9N 9N 9N 9N 9N 9N 9N 9N 9N 9N 9N 9N 9N bN JH e#.2~+3~+4~+fz.&) i, 0) O^ :^ F{ c; V' %! 2~ k! g; !( X! d; e; 8) `, O, H; A> L^ L_ Wd *z M9 Y0.y/ A! @] J> ,> f] F; #! T^ 7] l~ a> l~ W, W, i, G{ ]~ J! i, ]' 1) d; '' i, %! |) 0! j, X; ;> N= 5; W> m; Z' ;> ^> |; |; o> z9 5~+~^ l~ -, >) h] T, T, k! k! H{ .~ .~ 5^ y' &) %! Ed :e ye ye k! &) () Z~ )' )' A; =~ g] >! |{ k! =~ $~ ^' B> 5; 2( 5; E, u[ ~ .6~+c~.q( G, W; ]* => m> j> f, z{ ;, |) +! J; ~' *~ W, 4^ ]' 2, 0; ^' M; P! () X, X, d; d; d; v; d; u; f, O, /g k! 6) P; ;_ #_ &!.7~+8~+ k d* Ff ",
"=/ 7d %~ `, /) i; G; g^ F; *) 0; !' {' 7^ G{ 0{ D( 0; 0; '' g, e^ {~ {' '' 2, !' F{ (, !! ]) #! e; O, AB 0! l> 4; 9~+0~+p7.Hh B> H; G; ;, d; O! T) ^' ]' G{ &) 2~ 8] g, J! g, o{ {~ }] 3/ s] {) *~ x{ =! q] `, d; 2, o{ J! O! v: l; B> => O, U) n> U> ', a~+b~+tc K> u; P> !' *) M) b> y> |z ^] H; 8{ F; >) d; (, @> W, !' i, $! {' ]' ~' () )> w; 8) Z, I; => N; /' ;> Y{ ;_ ~! j> ;] -^ qo.}u )#+hU 5> d; )' R, v( C; :/ O^ 1) 0; 0! ;{ A; '' I; ]' }{ c; }] 0! ;, G; u; P, [] G{ n~ c+.c~+XN.q5.D^.rP 0N 9N 9N 9N 9N 9N 9N 9N 9N 9N 9N 9N 9N 9N 9N 9N 9N 9N 9N rP e#.ak.d~+y{.e~+;{ 0; g; E; ^~ %! Y! g, c; V' Y! v' k! i, 2, z; J; H; H; X; m; M) C' 7{ 7{ H] f~+g~+Y0.t, 0( K> Px.G/ 1~.h; H; l~ a> ^' h; h; 6) ], (, g; M{ X~ C; |) >) i; ;' V' 8' )> F; #, /' E, j, M; P= 7{ ,: ;> K> @) -' 4> S0 h~+R= x! Z, Z, h; ^' () %! T' p( {{ 8< 5^ y' &) W^ yf =~ $~ ad g^ )' 0; e; d; G~ !! @> #~ &) 4^ O^ ]) ]' R, /' ,: (' C) G, q( < +jE.i~+j~+@) 7{ =A -' M; #, *) /] *) |) k! }{ A; A; E; 4^ !' |, M) l> O, ^] *> '' #! >) f, >) +> H; `, /' M; f; {' #, 2( 2( <; k~+##+_=.U/ i> [f ",
"Va l~+[; i; >> O, *) a> ]) 3/ 0! F; (, !! J! ^~ =] u; ;< 2, ;{ 8] 8] g, ]' d; Y, Y, #! #! U, a> O, ~! [^ !' ]) 6; Wm.m~+0q.n~+Z' H; M) H; a> l> i; ^' A; g; g; O^ !' !! o{ g, &) =! 7^ a> G; !! E; 8] D( c; 8) f! f; J! ^~ U~ i/ X' %~ B> >> c> (' L^ u[ o~+p~+]| N= 5{ W~ u; i; 6' h; u; e] R, F; d; Z, >) M) ;, |) W, 2, F{ 2, #! '' !' 2, !> ad f; Z, () 5! [; m> k> (' W; N; ^> $] )* ao.q~+:~+k_.m) =) Z, e; 9! P> 8] g; 0; ;, !' A; @> ]' R, (, uM.r~+;{ 3/ y> q] K; M! Z, 9] () -C s~+t~+c}.b$.PC.G#.w$.-Q bN JH 9N 9N 9N 9N 9N 9N 9N 9N 9N 9N 9N -Q kQ kQ )S xK.u~+v~+w~+'' I; P> !! 2, W, #> E; }] !' {' E; 3, V' A; 0; z; I; H; >> l; L; l> 6) => n> 1' x~+`|.y~+s/ ^> z, W) 6) U] '> H; >> f! B> i; C, $> ], e; () >! _) g; F; (, `, ], g^ rC Q) M) M; => #, 6! ,> #, ]* n> E, &/ [; [; o] S& eR KC ]* m; =) Q, *> d; %> v' M^ :/ p( v' %! X, F; W, () '> G~ ;, >) a> e; !! () P/ +! |~ B; 8] &) ]' )' 8) %~ P; -' D> k' Wd ]x.z~+01 @b (' 5; =A L; #, `, K; O; K; J; $~ 7] W, a; Y! G{ +! }] Z, ^> m> ae R, 0; ^' `, B> i; M) H; C~ O, C> `, 0! N/ &( ,* c* 2Q %.+A~+rc F[ s~ ",
"<*+PK./' O, f! =) s] Z, 0! /) 0! ^' K; t; W, c; !' P> L' 3/ l' /~ ^~ Y, '' J; F; ]) (, #! %f c> m; ~! Q/ W, Z~ 5; &++2f.B~+G} @) %~ k> O, >> >) *) z{ H; ^' Z, ]) }{ ^~ ;{ 2, Y! ^~ Y, U,  : !' 0; K! D( N^ >) H; f; E; g, P, L^ Y' N; z{ #, F; O; ,: f[ C~+:~+t< k; {/ 3/ *) $] j, '> 6) ;, H; C' >) F; >) s) %~ G; () j_ }] F{ f; f, f; (, )' g^ G; (, y) M; => f! `, O, *) G, X; $] 2( 3&.+u D4.S@.p) => /] C> 3/ K( e^ _) %! *> d; o{ v' S, R, f; D~+E~+nN.k> `, z{ +( ZR K; (, z; C' ae ]* (> Y* F~+om.G~+H~+$%.jQ JH 9N 9N 9N 9N 9N 9N 9N 9N 9N sP -P FS I~+J~+K~+Z^ S, 1, 6) e; I; P/ M( !! G; G; {) 5{ 0; Y, A; ]' x; d; *> R, i; m> m; O; #, C' -> <> Mc Y!+y$ L~+H= $, A~ W) z; Qz 7] F; >> m> {/ f! )> '> L) 8) g; =~ k! 0; Q> U{ 6! *> 6) [{ d, j, m> P= #, j, C' M; ;> m> j> >, N= T) m- `% M~+uf W; k' *) ^' *> J; rf $~ J] 8' +_ }{ G~ h] '[ () 8) k> {/ <e X; *> v! (, () P> ^~ #~ Y! 4^ G{ 8] $~ |) 8) ): X' G, => ,[ i +dY if i* 5; [; O; %~ ;, `, G; f, 5! P! >) ^' ]) X, _) =~ g^ F; *) k> ;> 9, `, F{ 6) k> /_ ~! K> '> 6! j, S' M; d; Z' i( k; w- k~+N~+ca.O~+w- c* ",
"l< >$./_ ;> j, >> P! K; i; G; Z, *) _^ ;] G; ;, e; Z, e; b/ ]/ F{ F{ ]) F; ^' Z, (, () T) >> H; ^] X; k> l> e] @) Jw P~+Q~+'U Y' t; i; y> i; >) j, l> u; y> ;] ^' T, }{ 0; k( 0) O^ c; 2, Z, Z, e; $! :^ )' ^' >) 3/ ;^ :^ l> => M; B> O; B> G; ]* @) G< 3 +R~+O(.Q; n] y> ;, n> k> V] h; `, O, /] /] F; 6) S' k' h; K! !' !' Z, z{ z{ z{ e; (, v! 0! Z, #, #, `, B> E, X; k' Z' %~ M! Y; 'D.+$ S~+X%.z/ C> t; B> W~ ;{ D; 3, )> ,> F; g; g; Z, W! _z.]$+FS T~+qk.Fc 0! y> F( K; d; >) H, y, m; m; l; 5; s~ wB U~+oB V~+h7.z7.e#.kQ 9N 9N 9N KH -P )+.u..x5.W~+X~+z: 5! H; h; >) H; f; 0; e; K; ;, |, W~ e] I; u; 0; 0; a; P> R, R, 6) j, m> => k' ;> S' U> <d Zi Y~+Lc.Z~+H[ 7_ 2; 6' |, =, W^ 7] F; >, *> M) hh ,' R_ Z, h] E; Y, f; `, ,> ^' (, H; >, &/ m> ]* N= -> m> m> N= => ;> x) n~ F~ b> sD N'+`~+$&./' => 8) >) >> b> d; ]' W, }{ Qz 5_ ]) S, U] $~ j> #, /> B> 6) y) f, F; )' {' o{ g] G! T' 8] %! 1, ]' C, P= 2( Z' f! ,[  {+2'.f%+e! B( /' => %~ => f! >> `, /' B> O) `, 0! *! 7] [! W, ^' K; -> n> O; C' H; ^' #, k' /_ B> z, A~ O, '* >^ k> [; Q; k; j* S(.{J..{+YT <{ d* ",
"l< +{+L; `, >> `, l> B> 0! ^' Z, P! $] $] ;, W~ y> i; *) %~ y> }] !! F; 0! O! e; f; J; l> m> ;, O; [; ]* i; %~ <; ^c  $ @{+E} Z' l> U~ ]] ;, (, H; G; #! M! /] F; +> H; P! y> 0; g, c; f; f; (, 2, {' g, J! () H; *) 2, {' l> M; O) B> AB K; i; /_ n> _, Ia #{+${+<> 9B ;] ;, -> ]* j, >> l> P! z{ L; {/ ^> E, O, F{ }] Z~ G; => 9, O; k' K; !! !' ;, 3/ 5! f! L> P! => 5; -' k; ;_ $] n> p, =w.&@+`j `] m> M! _^ H; P> A; a; *> j, ,> () ]) i; _^ Ic %{+jQ jQ >*+&{+*{+ #+/] %~ f! B> J> N; B> f! W; 5; -> O; 8, a4.u[ ={+-{+;{+KN.o%. T jQ '_.>{+,{+'{+K~+c; L! O; ;> `, &, ^' #! (, Z, e; |, f; () l> G; Z, y> y> s] '' d; f, >> H; => /' &~ i; 5{ #, )* <d ~) J&+Lc.){+tD A~ N= ;) 8) '! z~ g; J; >) T) z~ =, [{ [{ *> h; #! !! #! ^' Q, Z, 0; b> A~ D~ 2; W; ;> [; w! m> C~ ;> n> 2; w, m> O) !{+~{+{{+;U E, #, H; k> /' k> Q> z; c; g; g^ () '' |) @> z~ >, M) ,> {/ >) y) >) G~ W, {' J! |~ I{ X~ }) k! 7] ]' F; &/ G, l; /> ed ]{+^{+/{+e! P; /' Z; N; f! =) B> [; B> >, H; R, (, #! Z, h] Z, H; /' ]* ;> O; f! >) M) #, => /' B> Q, ^> [; ~* <> /' qd q> <> x] ({+_{+:{+YT Pe f> ",
"-h <{+O; J> {/ 4_ k> O; /] >) H; f! K; i; G; 5{ U~ M( => K; B! i, ]) W, ;, k' O, P! ^' >, O, i; O; >^ >^ *) i; 4( u= r +[{+u> P= l> i; {/ W~ !! (, 6] () M( O; y> H; `, f! m; e; F{ e; K; H; Z, 0! !' ~~ /~ !' 8) H; (, !' i; z{ j, k> x^ Z, j, F( B> ,, }{+|{+*1 u/ L; 6] '! j, m> O) H; >) >) {/ W; L; M; j, H; }] Y, #! O, 7{ )* 8/ l; y> ]) X, u; P, k> i; J) f! [; (' l; 5; -' t; m> [: 1{+ * ~d q> $, {/ i; 6) A; |) '' |, P! G; 8{ #! `^ ;, 9* B!+TQ 9N sP g@.2{+^u V) m; ;> %~ #, ~! (' m> O; (' W; [; B> f! S' +( 3{+4{+5{+6{+7{+:R 8{+9{+Rz.0{+f; ,> P, m; k> >> G; (, ]) u; ^' Z, 0; 3/ #! ]) !! 0! K; e; v! y; '' Z, >) => B> B> M; F( ~! B> u/ i( $/ a{+1I.b{+s, x) #, ;) j, 8~ $~ =~ |) G; O! G~ P] P] 6! 8) >) a> Y, F; >) ;' W, ]) 6] *, c{+U{ O! l> /' O] X; N= ;> Y; 2; &~ Z' O= Nc O'+x;+Md &/ j> `, X; f! z, W) d; a; @> 1, g^ ]' N> 7' 7' '> y) j, N; X; C, *> (, F{ A; p( `! G{ b; =~ k! 7] '' G~ J) x, l; n> D: d{+e{+f{+X_ Z; N; >^ >^ => >) `, k' X; /> `, H; ^' G; f; G~ u; f! m; /' B> 7{ W; i; #, O) >> /' B> M; E, S' f> 3: {^ 2d j( o~ g{+h{+i{+j{+{k x- q> ",
"e# k{+(' X; ^* -> [; ~! O; B> $, $, H; (, F; l> ~] ae f! m; 5{ #! ]) |) f! %~ ]* m> j, ;, V{ %~ [; 7{ <> m; m> !/ $^.l{+!5.k| @] G; G; (, }] #! 0; U, () ;, ae %~ e; ;, ;, K; P! k( M! /_ /] P! O! #! Z~ C; A; M) => ;, u; {/ B> f! L; S( H; O) /] n> G< m{+n{+u< @) V) %f #! ]* n> C^ t; C~ l> {/ ]* $, m> O, 0! U, 5_ ]) B> v: 9> )* G, l> !! |) !! i; ^> i; i; P! H, N; v: ,: W; i; N= Oc 7g o{+!| k; m> i; C' d; |) ]' (, Z, O, i; X, '' t; $, p{+3C.+$.9N 9N sP IE #9.q{+r{+;> O; m> W; W; m> f! %~ t; M; m; O, S' X; Z' QK.R+.s{+kw t{+|i k' O; k> l> T) `^ G; ^> ;, a> F; f; y] '' F; (, {) !( *> Gi Ec O, f; v! |, 0; 0! l> %~ i; f! t; ~] ~! [; L^ i( 1/ u{+}% v{+u[ x) 5{ L> 6! X, ^~ 0) )' !! ;, X, T^ =, ]> (, H; (, G~ |) G; h; )' W, G; &, l~ a> >> G; l; y~ l; Z] [; n> U^ j, /' Z] Jh w{+x{+!| N= O) >) => `, 6! O' W, V' T, %> |) d; 7] ad [{ ,> d; i' 9, n> 8) i; O, 2, ^~ v' 2~ C; K! ^~ i, 8{ (, l> M; Z] u/ >^ 4> Q5.y{+Bf i* Z; Z' /' {/ i; O! *) H, /' =) f! f, >) (, ;, b> F; a> P! /' ;> [; B> M! i; {/ -> /' => ;> n> W> p] Q; -'  g Wd vz z{+F' A{+Bx.i| )b ): ",
"B{+C{+Y{ W; (' :> ~! ~! (' >^ -' 4_ B! }] b> #, [^ W; ): P; s; P, y{ y{ {/ X' 7{ ;> C^ 4_ Q/ 4_ $] K; i; /' 5; Y' z= D{+E{+S^ r; {/ i; y> l> 0! G; (, !! 0; 0! e; {) {) 2, 0; 0! !! /) V{ P, e; /) Z~ We b; &) ,> => -' t; O! *) l; v: N; i; {/ :> k; Q: F{+G{+^| {^ t; /' => L; W; -> L; j; x! t; M( >> f! 3/ e; !! p#.Y~ >> l; 9> B> K; !' g, ]~ c; /) .: k> k> P! X; 5; [; <> (' /) h] y/ H{+I{+EA.#, 8{ 8~ U, !' g; 8] W, )' 6] H; I; F; B! u; [C.J{+nS.9N 9N 9N JH rP =D K{+F# L' b> ^> #, x! l> 4_ {/ `^ $] ~~ ~~ H; O, }- L{+pV o( (' %~ z{ m; O, W] 5{  {  { W~ `^ a> Z, K; y> 0; F; F{ !' C$+M{+B6.N{+O{+<^ F{ We /~ o{ 7^ k( *) ;, W~ W~ K; f! [; P; [- P{+Q{+R{+YO c> Y~ )' X, '! |] +! 0; 5{ 6] W, g; W, F; (, 0; F; '> )' o{ +! )' () Y, 0; 0; G~ f! #, C^ 6; 5; [; k' #, A~ B> {/ ^> s, CA.0# W} S{+U, u) C> 8) k< _< W) *> +> T, &) J! 0) R] '! 0! 0! M) m; l> f! k' C> E; gg 2~ 4^ =~ %! @> () 8{ !' Z, W~ ^* R> 7{ k* T{+6-..G q- B> i; /] ;, (, u; Z, >> O, M; H; (, () d; k> m> $] >> k( 0; 6) H; 8) 0; Z, l> l> e; l> f! m> P! n> ;> B> ;_ !/ !] <| ON VS U{+A} o] h; ",
"=/ V{+N; 5! /' [; ~! W; O, => B> 5{ a{ WP 7^ H; $] M( #, [; => 0; V/ 4#.Y~ v: L^ n> i; y> /) W~ y> P> C; l> ;> c' 4x.hT W{+<| -> >> ;, O, q] *) u; (^ ;{ D( g, o{ 7^ v( 2, 7^ :^ x; k> t; z; (, l> !' X{+e^ b; 8{ l> {/ W~ G; f; /' [; ;] 0! G; i; z{ Q: .9.k#+YT r; f! U> V> =) /' (' O; C^ O, t; ;, d; 8) e; 0; p^ J( J( ]' M> )d z{ R, P> o{ :^ 2, 0! P, `, #, `, ;> O; /' l; B> 4_ Z, tD ={+Y{+K_.X; !' G~ d; Z, '' ~' '' x; *> (, P> '' 0; I; Z{+`{+nS.9N 9N 9N 9N 9N 0N u$. ]+.]+J; h; F; ^' F; Z, G; l> B> D! v{ */ J> <- +]+@]+-b k> i; 9, /_ m; G; /)  { T) '' 6! 6) M) H; Z, F; () {' yC r$ d#.2(.#]+$]+C( d; x; *~ e^ m! i, K; O, P! z{ m; 5! X; 8D %]+&]+*]+=]+o, -' Z~ '! g^ =, T, V' y) y) x) M) [{ )> ,' J; '> x) s' ;' +! f] c> k> y; a; 0; ,> C' ;> 5* F> 5> )* G, P= Z^ G, l; &~ lw `>.-]+;]+>]+j> H> @) &~ zg A, T< J) K> G/ T, Ed +! 1~.f] U, ^' 6' C> g^ F; 3' e< :/ xk.3] }{ z~ |) >) Z, (, d; #! x> ,* Px o! o* ,]+']+)]+p- E, Q, K; /] 6' v/ ]/.r~ /> Q, '> h] J; M> N~ W< ]: `, :^ )' R_ >, C' )' )' )' C; 7^ >) [; ;> j, X; 5; /' $, 9> YO Y- !]+qu.$>+=1 5> @> ",
"l< 8l.W> 0@.H, W> O; t) C'  ( =) 2, j_ V~ Gk.R, P/ n/ !' e; ,' V' >%+=( }] X' <> M; 2' L> 0; >> ^] e, '< t/ Y' )d K.+~]+{]+<| X; C, y) j, 8) j, j, (^ R, !( J; @> %> x; !' !! /, c' G, [; #) {, z, d; :^ Q( @~ g, 0; #! Y, () (, m; 7{ O; )' z~ => W> 3j.3Z ]]+{k d* x, ^]+Vf C> C> Y] V> 3' ;g ;g i' {, L> 8) P> N> )' {' w; (<  ( Y] ]h e, &> Q> V> X; X; N~ Q> *> *) m; R, M) Q, P; )* /]+(]+_]+ak o) #, w,  > 2! 6' i' K> t' h' i' &> x; *> Zg :]+<]+nS.9N 9N 9N 9N 9N 9N .T IE XR.K].[]+P! Q> '' J; !' `, t/ )> w; }]+Xi |]+1]+2]+ic ', `] o> 4> Kx j) N: W< O= &/ 3^ t/ *[ U^ #, M> %^ ) +3]+4]+OR KH y9.5]+r) 6D l) &~ u) wh |< T> Ri J: sx.F> ^i $(.6]+7]+8]+9]+7p.S@.Oc `h Z( 7> Ji 0]+Wi t, g) CO z(.qD u~.e~ ', !{+CC j=+i=+', Kx 1i s/ ^..Hi Wi g) 3> $b Kc U$./{ jC jC `> eC R[ a]+LS Y).b]+c]+d]+Gh hD Pi !| ~d Lg G= >b C* 1* =; ;i %~.ii sD )b K[ F< m' v[ 2[ D' xC (x.v/ K$.O{.J[ Wi _, ,, ,, ,, ', )b i* jC e]+l(.hc f]+g]+To.'4.F= F< [: .! bo.h]+i]+j]+k]+>D._0.f- n- sD l]+m]+n]+4x o) _, sD w(.Lc  / Ji ^..$[ y/ K[ H[ P[  _ 4x f) U$../ 60.>c vA va c$ ;>+w&./{ Kx ",
"-h 3@.o! .> `; '* Y' 9> &~ 5> p] k* k; Z; t/ =^ <h $, j> x, H> X] U^ &, k; Pc y[ ji <0.:T ui i=+o]+p]+DC $f tc *_ q]+r]+AE.)k 9( s]+G.+Sw 9< F< Dh :T 3> *^ I[ g) sD Eh G< 1' S> o] t, 4> sx.p) 8[ 0- U^ -, J; b> n> Z] @] C~ Y' qx LC R= CC.Jh =j %b a .}-.t]+4} RC L= g: f[ 4( ~* o] 7> I, u, D, 7;  %.R].cT 1' w(.', t, G< G< v[ 2P %o.H(.p) F> o] 1' D: a) I< f- `h O/ k; @; 2[ s< u]+qA v]+w]+H&.px Eh E/ s/ y/ #; x]+2[ ,, K[ A/ ii f[ H[ 1/ y]+b$.w$.9N 9N 9N 9N 9N 9N 9N sP JH )#.mn.H`.q, ,, w- 4; q> E/ w- z/ q!+*' gc z]+A]+E(.bU z} V_.B]+j| C]+6w 'w )/ (( ^k 5< G= P* ^e D]+E]+q#+FS bN bN bN ~7.F]+9( SC Ch Pc f) Oc (x.*' Be QC dd Be -B IO *x.G]+H]+I]+J]+vT.K]+L]+B[ M]+r_.yo. F 5k K_.B|  ] xo.ny.8k 5} DD N]+O]+P]+u&.(1 fE {} Q]+wo.,U.0D.R]+mj sE w_.H| H| p&.s&.w_.jj tE 1V +l S]+T]+U]+*k V]+6b.#-+W]+X]+'k Y]+Z]+`]+nj  ^+Gj R]+(} >j.>j.z&.=U.iU.Fy w] 1j LT (} _! 5} ]j D_.Vj T_.B| Vj .^+j_.8( ,{.+^+3-+*C @^+#^+$^+%^+|} ff 11  (.&^+*^+=^+-^+Fk S{.;^+nk I_.>^+(1 ,^+vo.N]+PT PT D_.vo.z_.'^+YE )^+hT.M]+!^+~^+{^+]^+vo.^^+k&./^+(^+'F N_._^+:^+<^+[^+Hj =g ",
"}^+Il (| W8.(w zh.:| k| Hh Z} || |^+|' t< Ig *| 5| s| 5| Qd Qd Ig W} U; xk e| !} ]} fE fE f/ fE 1^+2^+Ij LT ,V 1} 3^+4^+5^+#V R]+9E H&.4j 1} '} %l eE eE bE (} 6} 11 6^+bE 2j |[ 3k K} 7^+qf  B L} {g n, 8^+;^+Dd &k :} S} AE B| }1 9^+y| O%.ey ^} kj 0^+l4 (E.a^+b^+2^ Z} lU s| `d *| bU z} zE .a.*S AD zE |} }1 4j Ij ,{.w&.(} [1 ]} c^+]j K_.y_.,^+eE 'U./E P).#/ k:.d^+{} $k (a.dl _-+Zo.e^+f^+>b.Gj 9E g^+h^+Cj ED .:.H: Fy 1V (} *C :n.(a.]A jU.i^+}R 9N 9N 9N 9N 9N 9N 9N 9N 9N sP *Q.j^+k^+x@+'U.(} d} {V Y=+&' ^} ^U.6++-[.l^+Zx m^++q..q.sV Wp.#E vU n^+o^+.q.Ka.eb.p^+MD.q^+r^+s^+IE JH 9N 9N 9N t^+u^+zD ol 0| rE {V 9^+Cj 1j s&.v^+w^+9^+K0.~U.=U.,l x^+um y^+z^+A^+EU +E.B^+C^+D^+AU hn E^+F^+G^+j{+)}.D=.G-+H^+I^+J^+K^+L^+x| )=.|;+M^+sV sA N^+O^+MT.P^+|;+Q^+R^+S^+z^+3F T^+U^+D2 rW.V^+W^+X^+Y^+Z^+]3 `^+ /+./++/+@/+#/+$/+^x.%/+<y &/+|V.*/+IE.m[./;+=/+=2 -/+;/+>/+,/+'/+Sj )/+!/+,}.,}.~/+~/+R2 C=.zF |;+6n Kp.zp.{/+]/+^/+GD //+(/+_/+:/+sW.1G </+[/+}/+|/+1/+-E.Q^+2/+]p.z3 :q.Yp.3/+4/+5/+6/+7/+8/+hb.qF mF 9/+0/+WU fo.kb.al $=.p-+SU a/+m^+R^+b/+c/+d/+e/+f/+g/+",
"QT Zx h/+i/+j/+Eq.k/+l/+m/+n/+o/+XM.oy =W -W p/+q/+r/+s/+t/+u/+v/+w/+x/+y/+z/+A/+B/+xA C/+D/+E/+F/+G/+H/+I/+J/+FP K/+L/+M/+N/+O/+P/+Q/+R/+Q/+@E.S/+T/+U/+V/+WG W/+PA.*I X/+Y/+tH Z/+`/+ (+.(+%n rS +(+~W @(+#(+$(+%(+&(+(m Am Am #X (! OS *(+K/ lm  [.[X =(+-(+;(+=>+:z >(+,(+jz.un '(+)(+!(+~(+{(+](+^(+/(+((+$C._(+}#.:(+<(+[(+}(+|(+1(+2(+t0 f@+3(+4(+5(+6(+`4 7(+8(+QF.9(+}X.~+ 0(+!G.a(+b(+c(+d(+e(+|p 0: %X A'+f(+g(+@!+h(+x[.7<.7# tT._[.i(+7# j(+;P 9N 9N 9N 9N 9N 9N 9N 9N 9N 9N 9N jQ k(+l(+m(+*X BC.=o n(+o(+_(+p(+q(+r(+s(+t(+u(+v(+w(+F>+Xd.wF.#/.O-.x(+y(+z(+A(+B(+C(++V.>&.TQ 9N 9N 9N 9N JH D(+E(+F(+Dd.G(+G(+m=.H(+H(+I(+J(+Mn G)+ma.K(+N#.m=.Sq.TI L(+M(++G.a6 N(+O(+P(+Q(+ + R(+S(+T(+U(+%r V(+$g.W(++r }2.)H.X(+Y(+Z(+`(+u] Oq  _+j: ._++_+@_+1>.0J hK #_+$_+:@ Cu.%_+41.&_+|q *_+=_+-_+;_+>_+,_+'_+)_+!_+~_+{_+]_+^_+/_+`G.(_+__+:_+<_+[_+8s.hg.}_+|_+1_+2_+tg.3_+4_+5_+6_+Oq 7_+8_+Z,+9_+Z,+.0 C,.6J Y$ 0_+a_+b_+UK c_+d_+e_+f_+g_+a& h_+.g.o5 w+ Eo i_+jv.j_+k_+l_++Z 7#.)u m_+xd.n_+o_+'B.p_+q_+r_+>p !I s_+t_+u_+1U.iR v_+w_+r..x_+[G.y_+z_+ud.A_+=+ E. B_+C_+D_+",
"x   5 EJ ;1.<`.:Z.E_+|y.>u 'r 9L q|.a9 sg.IJ./A F_+G_+H_+I_+J_+rs.v0 K_+L_+M_+N_+O_+P_+Q_+R_+S_+78 ,e.*q 7& T_+MJ U_+V_+W_+X_+G(+o#.Y_+`H B5 Z_++;.tR +I.Ts.%`.Zp 0}.a|.`_+:$.q0  :+.:++:+@:+#:+1)+*I.C9 $:+%:+er &:+*O.gf.*:+=:+-:+Wp 8;.*'+vp _1.;:+>:+,:+.|.zo ':+):+=].;H.!:+H5 Ax.@g.~:+{:+]:+^:+/:+Re.bt.(:+_:+::+<:++|.[:+}:+WH Tg |:+%;.1:+2:+3:+vC.4:+0f.up 5:+6:+7:+}g.0f..Z.Nf.Of.8:+9:+P5 dR.0:+yf.a:+Lc.E9 10 BZ.F% b:+eI.6}.  +0|.Qe.c:+d:+e:+9N 9N 9N 9N 9N 9N 9N 9N 9N 9N 9N JH TQ f:+g:+h:+i:+Xp j:+kp k:+l:+~~.m:+6_+n:+o:+qS p:+S/ SH.q=+&;.i[ cH.Yr q:+p;.r:+p1.}$.JH JH 9N 9N 9N 9N JH w.+s:+t:+u:+0a v:+w:+Jg =I.x:+<0 [' y:+^h.z:+C`.A:+[9 h$ B:+C:+D:+D9 >q E:+F:+G:+H:+Uh.&{ 0K I:+}d 'R.gu.>(.'R J:+Fz.j:+K:+L:+M:+Sd N:+'& O:+Ds.P:+Q:+;z )a R:+S:+<2.1J bL T:+$a U:+V:+W:+X:+ds.$1.Y:+Z:+`:+ <+.<++<+@<+#<+,&+$<+B-.;% %<+&<+*<+)a =<+-<+;<+><+,<+'<++++)<+!<+~<+{<++v FA.+v +9 ]<+^<+/<+(<+_<+:<+*..<<+[<+={+}<+|<+1<++u 2<+3<+~A ZS.hh.4<+Z .au n.+xx.5<+{.+6<+7<+8<+Iu f;..d.9<+5A 0<+a<+b<+c<+d<+'.+e<+f<+g<+h<+K>.i<+j<+k<+l<+m<+n<+[-.o<+0,.p<+q<+r<+s<+",
"=  r0.t<+u<+v<+w<+x<+y<+z<+A<+*I.B<+,g VR C<+D<+qh.E<+F<+=H )& Mt G<+H<+-a DL <& Qu Eu %@+I<+hZ J<+Gu.K<+L<+M<+N<+O<+P<+Ld Av.~U Q<+R<+S<+C# h(.T<+U<+V<+/Z W<+X<+t9.;/.hw.Y<+x +< .Z<+`<+:6  [+I ..[+%C.+[+@[+#[+$[+%[+&[+*[+C4.=[+-[+N`.;[+>[+,[+<b '[+N<+.u N5.{t )[+![+9Y ~[+{[+},.Tu.di di ][+CR ^[+iv.hu.[J./[+([+6n.h5 _[+:[+<[+)M zO [[+N3.gi.}[+|[+1[+2z.2[+6O 3[+KC.4[+Sb 5[+6[+[!+j/ 7[+6C )- q# 8[+9[+0[+a[+oT b[+c[+d[+X .< +Ck.e[+f[+Ym.(P.g[+0N 9N 9N 9N 9N 9N 9N 9N 9N 9N 9N 9N 9N bN OR 1%+h[+K .]!+i[+~= *O P` ,^ j[+k[+l[+({+XP m[+n[+o[+p[+q[+)x.Fb r[+s[+V7.-P sP 9N 9N 9N 9N 9N 9N JH r~.di.&!.&!.3 .)x.Kd 3 .gi.;4.m# Ab t[+u[+Kw :b 8c d).|b Fb *x gO R#.v[+bO w[+x[+vy y[+z[+A[+B[+C[+D[+E[+3x.}= $c O.+63.F[+@}.~F K!+9j.gc >( $^.Xv Z| RA G[+Dw Bw Zv YN $c tb d).'c G]+H[+rd Z_.I[+8x.d:.J[+Xb Q! Q! Ni.2z $P X%.<#.E%.s).@x &x -; Ow cf K[+L[+K_.p, E) M[+W| 9< N[ CC.+, ,, 2[ 2[ Bi.u[ +, g- g- V; V; `: sD l]+E[ N[+O[+P[+Q[+R[+Ih m- i> e* u[ ', Ji 5i %[ @; h) tD S[+T[+U[+V[+Mb w).W[+X[+Hm.Dw 9..zA.Y[+Z[+`[+ }+.}++}+@}+X[+#}+Qc T{ ./ $}+%}+M[ Oc /4.",
"Qm 5K.&}+*}+n]+IT -; =}+[]+%++Xv 5c -}+;}+>}+,}+'}+K6 Bm Wp.&{.c:.`..)}+^c 7b eb vw N.+IT eb y= Lm.!}+~}+K.+r< V{.X|  | 1P R[ _: Th JB ~$.Z| A~.d/.R[ jC S{ [d rd q: u> 1d Cf X| KA s]+58.{}+U2 t_ r, w[ A/ d* A) `] Kx /; X< E/ /< r, pD oD Q[ *' $b P[ YO R= o< )/ D< D< w[ w(.<- ]}+ix.2g eb Zv 8).z= ^}+/}+Z!.(}+zT._}+2u :}+Rq.W( `B :: o] Y] 3' C) ,, k; X; E, M; 3^ O: N~  ' C) o] o] R]..C Eh x[ Dh R[+tD f[ H[ 9( L[ -i F< 9< Y< r< Jd 2g Q* Fv.2N.0N 9N 9N 9N 9N 9N 9N 9N 9N 9N 9N 9N 9N 9N 9N TQ ]~.<}+2h.g< z/ H(.y/ 2P F< cT Eh o) D> Z; Y] `; 5* Y' _, 1#.[}+z7.JH bN 0N 9N 9N 9N 9N 9N 9N JH QC.cb Ri '~ 4x 4x Zi hi u, r' 8> k; .> ai j' 2! .> p0.g< t/ &~ l; W; M; u) wh Wn.6i e> {, K> M) t/ I> :' M' tf n> &( Sb ~% }}+5w 2! Q, 2' &~ Z; 5i s) s) s) Z; .> /> N~ z, U{ &/ v/ l9.G/ h; Z] 3P hi 1( Y' )b `: ed _, Q; ~* s~ -' k> h; *! g; [{ w, Ri |}+N~+)k m- 1}+2}+^..3^ j' 3}+w; ], ~i 7, M{.$> $> RR ,< G! >! |{ +M.@~ #~ 3( 4}+5}+1].+~ s^ 2B -7.g; y; v; %> 5) ~].7].w; {, Vn.6}+7}+8}+Y< e> v^ S_ X) x, M) ;' -) {i d9._) y' +_ 7' O' W) Q) @> 3, tj.~].d, '> @> ",
"C_ 9}+P= N~ U{ 6) V] hh ^> m> m; Q; f> G, 0}+a}+b}+c}+d}+il `C >^ =) => P! /> M; j, M) >, >) j, N: 7i E, C' >> B~ m> #, C' P= 9> l; Z; C^ C~ O) f! k' /' >^ &( `; 4( {! 7{ O] 5; `, z{ e}+f}+g}+:: '> b> O) ^' f; *> l> x! ]* Y' x! 8~ ^' |) h] h; G; +> N' /' Y; `; U) 8{ J! G{ 0; e; B> => m> <; <; p..q> q> U> C> G, Y< .$ Ts.h}+-< 9> H; A; x' &) G{ 0) P> '' S, T, T, 9' I] K) _) $~ 1, ,' |, #) i' d, E@.@> &) +! W, E; g; '! () /> /> $] L; m> i}+j}+0N 9N 9N 9N 9N 9N 9N 9N 9N 9N 9N 9N 9N 9N 9N 9N TQ 4(.c&+k}+`R 0' d, y; 6! J> >) y; g; ]~ o{ K! F; l}+m}+XR.QQ KH 9N 9N 9N 9N 9N 9N 9N 9N 9N JH n}+o}+5! C' 2'  > m; M) 7] }{ W^ 5{ 0; A' =T w' 1, I] _< C, J; 7^ =! c{ `! x' ^~ }~ b8.L{ C! 8] 0; P! k' f! [+.tf A> p}+q}+r}+V{.Q) @> h; i' ,> QB O' g^ '[ >) /> 5{ ,> G~ f] 7] h] M..Vx 9{ `^ I< 1( R_ Z, k> O) D~ n> n] L; L; m> >> 0; &) X~ J] Z^ li s}+t}+h| n- _w 5> z) :Q #! @> 3, v' %) T' K) N> N^ TR u}+ne m! H{ v}+UB.w' <) :! J{ kS bn.VB.0+.>< Z! 8] v' Y! @~ I! Z! #> 8) r' wa G- w}+oc Z, x}+u' 0@.C> #> g; J; +> 1! `! -(  ~ :/ O^ 0' l! I{  ~ ne Z! [! =~ 2~ ",
"*] 9; b> M) ,' |) +> M) Z, Z, ;, k' /' ]] /' _- -,.y}+GM ij 6z M( g, g, v( X, @> V' A; 7^ 7^ Y, U, F; 7^ X~ N{ 5~ 9{ |{ p^ #! #! !! Z~ 8{ !' [] [] !' ;, |z /] K; K; t; z{ ]* P, g, y> J,.z}+A}+4( J! J( !' ]) *! 7^ }] Z~ 0! G; J! J! 7^ ]~ 2~ O{ B; 2~ X, #, 6; N= F~ z! 2~ ]~ !' 2, 0! ;, `^ O, W; (' r; X; Z, }] O, Q= {t R$ B}+D: b> F{ V$+I! E^ 4+.g{ ;{ @> O^ T, k! 5] m! -( se vL.s{ 2B rQ b; p^ h, A{ G^ C}+D}+E}+D}+F}+A{ c{ W, 8~ u! G}+=! H}+I}+KH 0N 9N 9N 9N 9N 9N 9N 9N 9N 9N 9N 9N 9N 9N 9N aN of.}$.J}+K}+L}+0/ Q( |{ i, ^~ /~ ]~ t{ v{ J! M}++n.2$.JH uK 0N 9N 9N 9N 9N 9N 9N 9N 9N 9N 0N N}+O}+I! J! F{ E; =! o{ g] A{ e_ A] V/ C}+P}+Q}+C}+>{ k! 6! y) F{ w{ c8.(S `! ]~ x{ r{ H! N{ J! {' l> W; B> :Q O= S' R}+S}+T}+tc +> g; '[ >, R_ 3[ X^ sC Qz V] >, >) U, e] '! 4^ =~ c, +_ [! j> ~* p) W) )' ;' /h KS.0> O, k> f, Z, P! G; W, g; d> b- m=+U}+7u._! c* 2; n> (* u! D( J! J! 8] G{ G{ }{ p^ 8] V}+OB.s^ v' ye W}+ke ]' tz |+.]e re F! g] +~ :e }{ !~ a+.v{ J( J( 5~ )! t; 5; `C. 5.5E |f m> D! 0) *> J; :^ ]) +! g; i, w{ G! L{ #~ &) }{ v' >e re >{ =~ W^ *! v{ ",
"*] Pw.}] i, i, |) i, () G; 5{ $, N; O; [^ n] X< |9.X}+Y}+e .*w Z' |, {' ;{ () )' )' c; F{ ]' !' #! 2, -{ X~ w{ =! O{ 8] !' G; 0; {' 7^ g, A; 0; {' {' e] b/ ;, |z [^ $] O; L; ;, (, Y' Z}+`}+ |+:: j, {) u; ;, ^' |) 0! 0! ^' l~ 0) K! }] K! ~~ K! C; C; () O! >) ,> ^' l> 0; #! O! *) R, j, O! k> /' (' Y' X; ^' Z~ O, p~ GI..|++|+]; j> 0! <^ B; g{ =: G{ ^' '> S, S, g; V~ b; w' Lj.@|+gg Pz.@~ D; $#+p{ e^ B; I! =: `e H! t{ C; Y, #! ]) }] /~ g, #|+n@+RQ SQ 0N 9N 9N 9N 9N 9N 9N 9N 9N 9N 9N 9N 9N 9N 9N kQ rP TQ $|+Ml.%|+&|+*|+;( p{ E( h, =|+w^ -|+;|+VL.0N 9N 9N 9N 9N 9N 9N 9N 9N 9N 9N 9N 9N 9N >|+,|+2~ ^~ 2, g, 7~ o{ ^~ N{ 0{ b; o{ 9) Lj.zM.C}+=: N^ |) !> _f h/ te 0/ `! 4^ +! =~ ]~ ^~ c; f; V) Uy B> >) O] r; +4.`K '|+TT %^ '' 0> /> z, Q< xf E@.d> ^8.-, F; )' {' ^~ I! 4~ i, @> z~ /> 6> 5i &, J; 6! ^8.)|+e> `, *> d; d; (, 7^ !' ;' bi &/ tD !|+~|+c^+o> E, x> 0! 0; c; G{ 0) W, ]) g, 8] 8] 5] vd ne Ve H{ 2~ w' 2~ g, =~ E( L{ 2B K{ E( w{ |+.E( C; J! K! 7^ ;^ D( Y, ;, Y] {|+Y+.]|+D: C^ () :) E; ]' F{ 0; &) m! b; x{ L{ |{ {{ U' _) ^~ #~ re >{ i, W, =! >! ",
"Rm Pw.K( 7^ (, (, (, ;, M( L; -' ;_ 7{ Uy N; M/ rd ^|+Z0 ;&+h> 5; k> d_ () '' (, ^' I; 2, 0; ]' 0; (, 2, V' G{ K! ]~ g; Z, B> >> !' -{ ;{ D( F{ :^ !' W~ y> `, %~ <e O; /' k' t; %~ 7: r8 B~._4.j~+X; W~ f! O; j> '> B> B> H; I; K! 0; 0! 5{ ;, () i, A; () ;, Z, /) ;, 3/ (, h; l> f, f, ^> B> H, B> L^ !/ 5; ;, M! N; f> /|+(|+kh L= C~ >) 3/ L' 7^ C; ^' `, Z, ,' Rx A; :^ 8] y' `e _|+,m.,{ @~ b; :|+G{ g, c; C! s6.p{ =: G{ C; !' ^' P> F{ G{ &) <|+[|+^{.JH aN 9N 9N 9N 9N 9N 9N 9N 9N 9N 9N 9N 9N 9N 9N 9N 9N 9N JH }|+>*+||+1|+2|+Qz I! m~ 3|+4|+Q6.Sm.rP sP 9N 9N 9N 9N 9N 9N 9N 9N 9N 9N 9N 9N 9N 'k.cC.;{ |) 0; )' _) ^~ a{ =! Z! 2~ E; J! =: o$+5|++~ |) P> 8] G{ 9/ 2B R( (~ yf k! X, ^~ 0) W, 8) m> Y{ $] #, 5; P; h[ 9_+On L%.6i 6! ;> >^ -' #, Y_ '> M) U{ 6! M) () +! G{ G! 2~ E; S, Y_ /> }, `; l; &~ P= O) %^ E, => C> Z, >) (, e] u; 8)  > K> g: 3<+6|+gU.Qi 5;  { !! I; ;{ :h }{ ]) Y, )' A; C; b; 3] ^9.7|+lS H6.b; 8] /~ G{ O^ |{ R( 3] `! E( p{ I! |{ E; !! !! {' K! +! Z, Y] p@+8|+9|+o> >> ^' )' =! {' #> @> $~ k! Z! 9) 2~ b; p( {{ _) 8] Q( =:  ~ {' {' G{ 4^ ",
"8; cQ.u; }] e; 0! Z, H; t; -' ~* o~ i/ W; :> qe *j ZS.kv.zS.%j Y; >) u; K( ^' O, /) f; e; e; Z, d; () 7^ E; 8] K! *~ d; =) B> k' y> 3/ }] 0; !! P> I; 0! ;, P! N; N; /' j, C~ K; B> 7h 0|+H0 a|+q; -> O, /' L; f! J; B> B> E, P! 0! u; >> Q/ G~ )> X, g^ h] ;, O, O, `, f; h; U, j, y> k> `, 5; 5; /' 5; L_ 5; u; P, ;_ f> b|+c|+d|+Pc k' 8) () F; }] ]) i; %~ f! J; 0' g; A; e^  ~ F+.8z.Pj.,{ @~ O^ e|+{~ V~ 0; C; E( t{ G! Z! E; ;{ i, A; -{ 5y.O^ Ta [|+^{.KH 0N 9N 9N 9N 9N 9N 9N 9N 9N 9N 9N 9N 9N 9N 9N 9N 9N 9N JH SQ KH OR p4.f|+g|+a6.%5.h|+u$.jQ KH kQ 9N 9N 9N 9N 9N 9N 9N 9N 9N 9N 9N 9N 9N 9N &8.S..,~.0; ^' 1, <) T^ () :^ X~ G{ g; m! I! q{ !< >e $~ ]' =~ 4^ 5] e^ Z! 4^ ~' 1, X, W, >! X, h; k> n] B> i' Z; X; _m.I0 T/+)| t/ Q, 2( q> P; 9> U^ O) O) ^> `, `, 0; h] m! J{ @~ &) 1, hh &~ k* E_ qd @) B> /' G, P; m; L> =) f, =) P/ 2, S' y, k' 2P Y<+%g /} j( ): O! P, s] 0; J! ]' F{ ;{ %! {' !! G{ >< i|+j|+ R E( b; a; E; p^ T' m! `! +~ +~ G{ w^ X~ Z! W, 7^ }] {' {' 8' @> J> k|+l|+H: 1' m> `, S, W, () #> c, J] T, y' Z! 2~ `! J{.:/ V' D; @~ L{ @~ :^ g, *~ g/ ",
"Va 9e K; >) Q> O, t; m> [; L^ o~ A) 2( U) $, -^ Ch m|+LL n|+h> Y' j, u; !! ^' 0! 8{ ]) `, O, >> #! ]) (, }] Y, 0; A; *> z{ /' N/ K; K; >> >> ;, i; O, H; `, $] F( N; L; `^ ^> P! C' &( km.C0 o|+*; [; z{ /' [; j, #, H, C> m; m; `, (, |) #! () g; h] J; >) P! z{ %~ ;> 0! h; V] b> m; %~ ;> [; @) L; S' o~ !/ t; y> W; d* p|+q|+r|+Lg Y' f! h] 7] y; g^ 6) *) l> h] g; &) >! w{ Z! 0/ `e s6.v^ Q( X~ We p^ Gk.P> C; E( ;( L{ |{ A; }] E; g, gQ.N^ a; s|+t|+KH KH bN 9N 9N 9N 9N 9N 9N 9N 9N 9N 9N 9N 9N 9N 9N 9N 9N 9N 9N 9N 9N 9N 9N 9N 9N 9N 9N 9N 9N 9N 9N 9N 9N 9N 9N 9N 9N 9N 9N 9N 9N 9N 9N 9N 9N 9N dm.u|+v|+8) 6) [{ @+.W^ #! !' ]Q 0) g^ +_ #~ h/ 0/ X~ () F; )' &) V~ g, O^ y; I; 7] 0; !! U] i, ^' i; V) O, L> E, E, Es w|+x|+B]+U> `, @) ~* ~* @) n> k; #, `, i; ;, 0; !' &) I! p: X~ '' j> 5; :' L_ @) Y; ;> X; o! i/ 5! K> *) C, M> 3/ (, 2' a, M; -i y|+z|+~E Mc 6; $, [_ _^ 0! Y, {' W, a; v' i, -{ G{ ){ A|+B|+`e `! G{ ]' J; ;{ T' k! %) V' i, o{ C; P] i, W, W, P> d; !' %! 1, wh =O !a C|+r- ^> Q, =~ k! )' Z, >) L) |) ~' B; b; p( J{.{{ m! /~ C; I! |{ k! ^~ E; ~' ",
"=/ zd => f! f! $] Ez X; 5; z_ E_ M/ !/ x) O, &z $1 D|+E|+Yh.q- !/ m> }] u; O, >) h] ^' y> *) i; e; F; !! #! 0; 0; '' f; %~ ~! 9, z{ O; K; O, m> k' ~! i; i; L; W; Z' W; X; m> L; H, $(.=* F|+v4.E< [; l> #, Z' m> k' A> J> X; k' f! Z, ;' ;, Z, y; '> ^' f! P! $, /] ]* k> 8) l> O! f! [; (' Y; X; O, S' o~ o~ O; /] l; u[ G|+H|+I|+~^ 6> [; *) y; ,' |) J; H; f; G~ }{ g; b; /~ v^ R( >{ rQ |{ 2~ 0) :^ C; c; P> &) 2~ h, 4~ O^ ]' ;^ C; ]~ 5y i, '' vw J|+wK bN sP 9N 9N 9N 9N 9N 9N 9N 9N 9N 9N 9N 9N 9N 9N 9N 9N 9N 9N 9N 9N 9N 9N 9N 9N 9N 9N 9N 9N 9N 9N 9N 9N 9N 9N 9N 9N 9N 9N 9N 9N 9N 9N 9N 9N 9N G#.K|+(%.`, j, Y_ -, M) K; (, tz Y~ y) !> <! E( Q( g; Z, #! 0; W, g, A; )' () Z, W, |) 0; h] ^' `, ;, ^> l> C' W> /' L|+M|+Jq.ky =' J> I< 5* N|+k- b- I< m> O, f! (, #! e; F{ w{ H{ m! |) >> P; '* k; T_ P= M; M; Z; ;> `, *> Q> ], *> }] 0; t' r) j' ii kA $J h^+R= D' ]* $, [^ >> h] &) X, %! y' G{ b; ]~ 4] DM.xM. ~ Q( m! N^ y; ]' g; N^ E; I; (, 0; W, 7] f; (, ]' #> 1) 1) O> L> ]h O|+C'+P|+T{ C^ `, ]) 8{ J; 8) B> C' >) 0; #> 8] m! z' m! g; o{ D( ]~ 2~ Q( C; !' E; ",
"Va 6S M; z{ X; [; Uy G, 4( ~* Wd <d ud O; ~! ld _: ]t du.Q|+q- )* i; 0! P/ `, Q< 7] Z, $] z{ K; f, X, !' ^' 2, 2, Z, `, t; ;_ y, k' <e O, m> O, l; [; m> $, B> O; v: ;_ 5; -> O! B> 9A.R|+S|+T|+j( /' b> 5! Z' N/ B( k' B> => => H; P! C' #, Z, =) >> i; k' /' /' ~! N; l; k' ;> t; >) O, W; [; k; [; 9> 2( qd /' M! k; )b J#.U|+V|+=j r' n> i; R, 0; >) i; i; k( }] 7] A; Y! b; |{  ~ se  ~ |{ J! W, P> ^~ ;{ x; E; J! /~ v{ J( ]) 7^ {' g, =! /~ f; dw W|+KH bN sP 9N 9N 9N 9N 9N 9N 9N 9N 9N 9N 9N 9N 9N 9N 9N 9N 9N 9N 9N 9N 9N 9N 9N 9N 9N 9N 9N 9N 9N 9N 9N 9N 9N 9N 9N 9N 9N 9N 9N 9N 9N 9N 9N 9N 9N rR X|+Y|+8, H, C' b> J; z{ *) z! F; c> '> =~ v{ I! E; (, G~ 0; a; ]' ]' %! |) Z, 0; #> d; ^' (, m> O, ^> H; C' ;> 5; XN Z|+`|++| 9> J> a- },  1+.1+1< D> /' /] M; #! G~ (, !! 0) 8] }{ 1! x) (' ~* I< ): Z^ z, N= k' E, f! M> &> 8) e; #{ 7^ z, wh s' y/ +1+@1+w_.sx o! C^ {/ B> N= d; }] !! g; &) J! _) 2~ Dm.B|+8z.0/ u^ |{ {' P> :^ a; *~ X, ;< 2, () {' ]) y] ;, 0! '' I; ~' u' |, 3' ,c #1+$1+Mc m> B> 3/ u; 6) Q, B> m; f! I; () A; Y! 3] m! Y! 2~ a{ /~ R( 4~ Y! D( ;{ ",
"Va q7.m> z{ l; Z' l; 5; @) ,* j( <d ld ;_ ]^ D_ N] %1+&1+>$._; Y' => /) P, C> 6! #, f! O, P! ;, *> 1! X, Z, e; j, >> *) i; 4_ O; [; Z' => #, ]* L; O, $, O, m> %~ ;_ Ff X' -' m> E, *1+=1+l_+1k.*_ [; >> => {/ m; k' C> m> 4_ A> m> 5{ Z, H; `, i; m> f! m; <e 2( /_ N; [; L; k> i; 0! 9, L; B> [; 7{ ;_ !/ P; m> V{ <> e* -1+!;.;1+$b Y] => 3/ f; 2, G; 0! >> e; 0; W, g, J! ;( p{  ~ R( |{ C; g, c; ;^ {' #{ !! 7^ p^ _f =! {' () W, g, We =] 7^ {) Lh >1+LE SQ sP 9N 9N 9N 9N 9N 9N 9N 9N 9N 9N 9N 9N 9N 9N 9N 9N 9N 9N 9N 9N 9N 9N 9N 9N 9N 9N 9N 9N 9N 9N 9N 9N 9N 9N 9N 9N 9N 9N 9N 9N 9N 9N 9N 9N 9N xK 3L.,1+z{ O) Z, ^' h] (, 0; i, 0; `, d; V' p{ b; 7^ B' 0; }] i, {' c; ]' 0! d; 2, 3/ 0; >) (, {/ ~! >> Z, O; N; Z' VN At.[>+_/ a) #, O) I: Cx e[ #[ /> M; `, >> /) () ]) IA.F; E; &) ad 6! 5; =' I> <; A~ w) ^> G, /' O; C> O' ], `, 0; F{ N~ -) Jz '1+)1+t-.Ik E{ !/ L; i; L( C' )' !! 0; 0; }] wg ^~ Q( ]{ ^9.4] -( @~ s^ @> c; :^ #> E; E; F{ I; i, ]) (, 0! k( F{ c; /g 0e O> d; E, =O /e {#+x~ M; #, 0! !! (, >> O, => R, 0! B! ;{ &) #~ Y! Z! h/ e^ G{ v^ 2~ /~ C; &) ",
"l< @e {/ z{ k' Z' l; B( ^^ L_ &z CS uy L^ Cy Xx !{.KM !1+%* O/ <; m> /) M! ;> k> {/ K; i; z{ O, P! ^' ]) G; ;, H; B> [^ $] `, B> k' l; m; `, B> L; L; X; /' /' N; !/ i/ D, @) /] n> uS >[+~1+T|+*_ @) O, m; k> L; [^ m> X; B> B> O! 5{ ^' 0! O! {/ >> 5{ m> ;_ 1g 7{ l; ;> X; m> j, *> f! ;> `, E, [; >^ A) Q; k> 4_ u/ /b /|+{1+]1+S= `; >> f; u; W~ 3/ *) H; y> I; '' p^ b; t{ -7.0{ g, E; D; g, A; D( ;{ l' (, 7^ 8Q 8Q =( :^ !' () 0; ;< }] p#.l' r* ^1++$.^{.9N 9N 9N 9N 9N 9N 9N 9N 9N 9N 9N 9N 9N 9N 9N 9N 9N 9N 9N 9N 9N 9N 9N 9N 9N 9N 9N 9N 9N 9N 9N 9N 9N 9N 9N 9N 9N 9N 9N 9N 9N 9N 9N 9N 9N 9N |$./1+(1+z{ M) |) Y, '' u; 0; {' (, O, >) E; E( |{ ^~ v! 0; i, J! o{ ^~ N^ e; |, K! P, f, m; O, m; /] 5{ ;, B> N; N; _1+sg.4y ]| .> l> F~ e[ Y; Z^ yC s' M) j> ,> #! '' e; |z |) G{ g; ad 0> @) G, 9> r; @] O: C' n> [; /' f! ^' P! K; () Z, S' e> x) Ih :1+r>+K]+p! l; {/ y> ^] ^' )' ;< ^' k( 2, v( c; G{  ~ [{.`! Q( @~ u^ s^ |{ 5] Y! X~ y' k! E; >! G{ C; A; A; *~ C; D; V' Y! '' t/ <1+TL YF H] /> j, 0; !' () a> Z, z; '' !! d_ P> #> W, V~ I! R( e^ C; E; |{ /~ G{ 8] ",
"Rm oA W] {/ $] ~! W; 5g @z L^ -^ E_ &z ]^ qe Y( .1 [1+D0 }1+O/ v: X; Q/ (> ;> /' W; L; [^ W; k' (' O, y] G; O! f! /' |1+Ez Z, k> M! $, ;] t; {/ t; 4_ /' /' n> @) v: X' 2( G, i; m> E' 11+q9 21+q; Y; 5{ `, 6] l> O, k> m; t; i; l> B! ^' u; e] y> /) /) L; {! ;_ 7{ !/ 5; l; m> x! H; X; [; $, X; n> 7{ ld i( B> [_ Y{ L= gf 31+41+v+.[; H; 0! !' Y, (, 0; #! 3/ u; !' b; v{ rQ ,{ ]~ 7^ 7^ :^ E; i, F{ 0; ]) d; ]) J( w^ p^ F{ 2, () 0! ]] 7^ ;{ ;< Kh 51+$*+bN 9N 9N 9N 9N 9N 9N 9N 9N 9N 9N 9N 9N 9N 9N 9N 9N 9N 9N 9N 9N 9N 9N 9N 9N 9N 9N 9N 9N 9N 9N 9N 9N 9N 9N 9N 9N 9N 9N 9N 9N 9N 9N 9N 9N 9N 9N *` 61+71+f, |, ]' }] #! {) F{ E; 1, H; f; A; 0{ ne Z! bz.{' C; s6.e^ b; V' G; () 8] F{ *> C' z{ => >> G; Z, e; k' /' 3 .LL Bn tc v, *> >> D~ N= Z] #, 6! ,> T) 5{ (, +> (, Z, )' ^~ W, U, C~ 5; '* r; @) n> #, #, E, S' J> >) H; *) `, ^~ (, y, U> m> )e 81+91+r_.01+J) O! e; B' S_ 0; ;< U, ]' P> ;{ We /~ s^ r] v' C; D; w'  ~ h/ 2B  ~ L{  ~ #~ E( g] y' Z! 5] r] |{ ]~ Y! Q( Q( E; s) a1+=. 1k.g) P= z{ 2, ^~ &) () 0; #> &) o{ J( !' A; k! E( =: ]{ Z! B; o^ 5] ;( 8] r] ",
"L~ 9e M! i; P! /] ]* (> /_ ;_ P; Q;  g o~ <d (( Q(.s@+E0 Ov :: v: => Q/ [_ Z] k' [; `^ O, /' l; W; i; l' 8~ #! #, Z; ,: ~! l> 8) O! [_ C{./] $, t; {/ :> -' `; X' Y' 5; 2( '* B> >> 6> 11+b1+c1+:: #, b> i; m> b> `, B> m; /] 4_ G; Y, () ]) Z~ 3/ u; G; :> ]^ -' k; O; n> X; => => *) X; O; :> 7{ @) o~ Ff >* -> V{ @) s/ d1+e1+f1+e! E, #! () &) i, A; X, |) 2, ]' ^~ Z! g{ 4~ -( X~ J! i, B; i, 0; L' u; ]' c; ~~ 8Q v{ J! 7^ v( I; Z, ;, () V~ F{ Cx g1+1~+0N 0N 9N 9N 9N 9N 9N 9N 9N 9N 9N 9N 9N 9N 9N 9N 9N 9N 9N 9N 9N 9N 9N 9N 9N 9N 9N 9N 9N 9N 9N 9N 9N 9N 9N 9N 9N 9N 9N 9N 9N 9N 9N 9N 9N 9N 9N  T h1+;^ |) *> (, u; Z~ Y, 0) 8] 3, +> @> 6^ G! KS w' g, &) e^ E( Z! O^ }{ '' A; }{ a; +> *> z{ ;, >) G~ F; f, z{ X; %{ Ag.$<.rC.t[ 8) %~ &/ /> ;> B> j, ^' >) H; ;, P! H; F; T, )' () k> 3; k; ,* p~ Ff <> n> E, t/ `; Y' n> f! *> M) +! |) k' vh P; ;i B +({ )B m) N= >> *> #) O' [{ J; g; T, T, &) ;{ ]' !> ad T, #> '' <! >e ){ le .~ 5^ 6R KS X~ *#.(~ p( |{ x' m! v' 8] X~ X~ E; k) i1+N5.)l.m- x) i; `, C; T' %! |) v; #> Z! IS V' x; 1, |{ `! 3] y' O^ 5] X~ k! k! g; ",
"=/ j1+$] B> $] W; m> ^> O; >^ A) 3: Ff &z k1+#&.l1+m1+n1+o1+L= X; x, Y' k; 6* w! ^> J) 6; O] /' (' V) u! Y, &) K> f~ Y] z{ Z; G, ;> O, l> G; ;, {/ $, 5; [; o! A) q> !/ P; `] .'  ' I< r7.}H.p1+q; J) w, `] ~* I< r' P; s~ ~* M' #, b> >) Z, j, k> K> K> W> G, t/ l; ;, *> S' Q, H; M! C^ ;> [; 5; 5; L^ P: :: G, _^ m; I[ >g q1+;R Y< -~ J) Z^ 1< Q, 6) [{ kx C, z, -) O' &T ye r1+~> y) '< 7) d,  ' xh C> 8{ =~ =~ G{ Y! Z! b; P> M> C> 8) y) J; C' e* ~*+Py.bN 9N 9N 9N 9N 9N 9N 9N 9N 9N 9N 9N 9N 9N 9N 9N 9N 9N 9N 9N 9N 9N 9N 9N 9N 9N 9N 9N 9N 9N 9N 9N 9N 9N 9N 9N 9N 9N 9N 9N 9N 9N 9N 9N 9N 9N 9N 8~.^~.s1+ ' X] 3^ Z] E, &/ e> #[ t1+u1+v1+w1+S< x1+S< ;' =, 1! O' L) ]h pC L) 6! Q, J) %T %/ X' o] Y' 9> 7; z/ _, L= y1+'q z1+D/ w[ =' q> a) 6> Q; <> D, ~* 5* ~* 5( o~ ,[ a[ H< a[ Z( 7> r, *_ }( ;y.$&.0g q( E< D: Mc 6: M/ k; }, a- a[ I: I[ px pA x%.A1+B1+B_. | oc I[ t, /4.C1+$~.p) p) g- Z( V< 6; 0-  i Cx H] P: 2P Kx xi D1+G/ @[ E1+F1+Hi @; 1( c< #g b- w, I< 1( 8[ b- t/ k; F= mO G1+Zo.hD &, P= G> s) hh c^.u) h' S' i' Q{.j) Qx  > C> L) U{ 6i _w u) Y_ W) l) r' ",
"=/ H1+o> p] <> {* ): Cx u/ !] |g k^ E/ `a UT t< I1+J1+K1+5p.S= _, 1' E/ fg Za k: e* Jh s/ r- r- h* f* c* N= Y_ Ii a~.s]+I< w[ /< YO c* ed 7* ~* {* Q= 3> *_ (b )/ S~ K^ D< P* *' d0.P* L1+-]+M1+|' 'w _: )U 7[ Y| l(.Y< Y< $b f) G< /; +, o> 1' d* g[ Q_ X< x- Lc hi n> I: n..A=+/> i> f> t, o> :: Q= :: f) CT.A/ M' l; hx.;/ N1+Ma._1 Nh !| 0o.S{ S^ Gh ]b U$..! *j Bx (x P* -i X(.{b *j O1+3j.`B @< P1+SC /; {/.{/.F/ Ai h) )b f> T{ ;j (b /4.F< 'w X%.Q1+;Q 0N 9N 9N 9N 9N 9N 9N 9N 9N 9N 9N 9N 9N 9N 9N 9N 9N 9N 9N 9N 9N 9N 9N 9N 9N 9N 9N 9N 9N 9N 9N 9N 9N 9N 9N 9N 9N 9N 9N 9N 9N 9N 9N 9N 9N 9N 9N #%.R1+S1+6h Nh Md ~k gk qo.-$.bU O.+T1+(- MC F3.-B _b S^ `a -< %| z} U1+e0.#1 h: !k aU Md $| to.Y_.jk V%. B 3| Y} $e V1+GO W1+T%.T_.mU 4} +) _T B_.S{.A_.t&.6^+Ij &1 }} _! B} A} zE X1+L]+]^+&l ^^+Y1+7l !].V: Q]++y Vj fE }} Qd kk [( [( S} uo.^^+Z1+`1+ 2+.2++2+ll ~b.mj @2+{j s&.}V 'U.#2+'U.fi K} l} B| &1 3j $2+{V nj mj %2+Qd S} S} $e eE [1 ~} ,{.]} 6} bE Wj ]} -k Wj 'U.|[ L| rE &2+:V.*2++y -< $1 =2+4k _k Pi 6h O(.kk Qd .k `_.BD )k *1 -2+Qd Y_.)k Kj je no.;2+>2+",
"L$.,2+kD A} 3| 3| UT P(.3| D| cE _} w] #F 2j 41 '2+)2+!2+~2+ey r/ )k Q]+e| {2+]2+aS ff _1 w] &1 @l ^2+K_.u< 0f |' xE  ] n| L/ 'U.GP PS q| 1| [} M} J} [k _} Wj =g Wj =k -k Wj (} w&./2+~a.(2+_2+:2+<2+@V 7D.'k %^+1j )( k} w&.Dj =g '/ K_.BS B| }} D| '/ u| by PS 3} /| v< T_.!A UT t< v< L} 3| kk |' Kj [2+%l *$.ik I' 8^+}2+F=.|2+12+12+22+U]+32+42+<V ol uj tj vj 52+62+72+~b.]b.rl 82+7/+92+02+a2+Q&.+p.el #a.-U.b2+jj 1j <-+Hj {j wj zD s&.s&.qE c2+d2+}R 0N 0N 9N 9N 9N 9N 9N 9N 9N 9N 9N 9N 9N 9N 9N 9N 9N 9N 9N 9N 9N 9N 9N 9N 9N 9N 9N 9N 9N 9N 9N 9N 9N 9N 9N 9N 9N 9N 9N 9N 9N 9N 9N 9N 9N 9N 9N TQ e2+f2+32+U]+42+g2+nE (-+g2+g2+^:.<p.2E ]V h2+i2+ E.j2+k2+l2++3 ;3 m2+VV n2+-E.o2+y3 DU p2+%/+p2+q2+J-+r2+1;+s2+s2+t2+u2+@  v2+'/+w2+x2+y2+z2+A2+B2+C2+D2+E2+F2+&W.zm vm A<.A<.<>+G2+H2+I2+J2+K2+o*. Y L2+M2+0(+N2+DV O2+!/+P2+Q2+R2+~W S2+.+.T2+h1.U2+V2+W2+X2+Y2+Z2+`2+ 3+.3++3+@3+$;+6W.#3+w| $3+%3+&3+*3+=3+-3+;3+>3+,3+'3+)3+!3+~3+{3+]3+^3+/3+(3+_3+)c.:X.:3+<3+[3+}3+%4 |3+13+r[.23+33+43+Yp.53+63+73+^G Q^+MT.pW.A-+83+V2 5n 93+03+a3+b3+c3+d3+e3+f3+g3+h3+i3+j3+]2 ",
"9E.Ab.NE.w].k3+l3+m3+n3+o3+2n p3+rV '}.4>+y-+q3+r3+s3+t3+u3+0n oy v3+w3+}n yq.yW. 2+x3+y3+z3+A3+,c.,c.B3+C3+D3+E3+@/+.P F3+:V G3+H3+ d I3+:V J3+,k K3+L3+M3+N3+n3  } O3+P3+Q3+J3+R3+S3+T3+U3+V3+W3+X3+Y3+@H Z3+EE.L;+`3+ 4+Y[.bU.o2 0W .4+Zq..m un +4+nA @4+$  ko.#4+$4+2E.%4+&4+@w *4+=4+=4+^n -4+;4+>4+,4+):.'4+)4+!4+~4+{4+]4+^4+/4+KT 5X.(4+Y/+_4+:4+_4+<4+MQ $3+1X 8I [4+}4+0(+|4+14+24+34+44+54+64+74+84+{m 94+04+a4+y=.y=.ix H(+b4+-F.c4+d4+e4+`/+f4+w$.bN SQ 9N 9N 9N 9N 9N 9N 9N 9N 9N 9N 9N 9N 9N 9N 9N 9N 9N 9N 9N 9N 9N 9N 9N 9N 9N 9N 9N 9N 9N 9N 9N 9N 9N 9N 9N 9N 9N 9N 9N 9N 9N 9N 9N 9N 9N +$.4=.g4+h4+<J h4+i4+H(+c(.Bn (/ 8X s: _(+j4+k4+l4+m4+n4+o4+p4+q4+r4+N. s4+t4+u4+v4+w4+x4+y4+i7 %Y.%6 z4+A4+B4+C4+d+.!8 D4+E4+F4+dD.G4+H4+05 UZ ~:+/:+I4+/|.^|.J4+Z}.k% 77 #_.K4+9L L4+Qf.M4+N4+.s.EG.O4+P4+Q4+=0 N9 hr a:+10  [ R4+S4+;R.T4+U4+Hf.V4+W4+X4+Y4+Z4+`4+H5 +t.>/ ff. 5+.5++5+@5+#5+yo $5+%5+kf.&5+5Z.*5+=5+-5+;5+>5+,5+'5+)5+!5+~5+{5+]5+|Y.^5+KZ /5+AZ (5+_5+6c.FY.:5+9_ ag.ag.Mc.<5+[5+}5+|5+e_+hs.E>+e& 15+R! Z0 N< VS 25+$q Bc.35+45+rs.55+65+75+85+G>+95+5d ",
"w  05+P}.a5+b5+c5+d5+[t.e5+f5+x5 g5+h5+h5+i5+j5+k5+l5+m5+n5+;d.o5+p5+O6 =H.9: q5+r5+r5+s5+t5+u5+v5+w5+x5+/Y.y5+z5+A5+B5+C5+D5+E5+F5+m7 )7 G5+x4+H5+d6 I5+J5+K5+@1+Vd.L5+}r.M5+uI SJ N5+O5+P5+9V Q5+R5+S5+P}./5 $,+X>+T5+U5+~:+V5+{:+W5+~:+p}.X5+.`.Y5+Z5+31.`5+Y+  6+.6++6+@6+#6+65+AI 14+hc.$6+(r.@# %6+&6+*6+=6+-6+;6+>6+,6+68 '6+`7 )6+!6+lp Xp ~6+d9 b:+{6+jf.]6+uZ Np %5+=C.I9 d+.o0 ^6+2>./6+(6+hf oI.bH._6+:6+<6+[6+}6+|6+16+26+36+46+56+66+76+A$ 86+kQ JH bN 9N 9N 9N 9N 9N 9N 9N 9N 9N 9N 9N 9N 9N 9N 9N 9N 9N 9N 9N 9N 9N 9N 9N 9N 9N 9N 9N 9N 9N 9N 9N 9N 9N 9N 9N 9N 9N 9N 9N 9N 9N 9N 9N 9N 9N KH &L.96+06+Cf.06+a6+b6+wZ.c6+d6+e6+f6+g6+h6+V$ ^'+i6+j6+k6+l6+m6+n6+P~+^$ o6+Is.p6+q6+ ) 5q 6g.q=+LH.i[ RX k@.|% H'.L0 BL r6+s6+t6+}> K8 u6+v6+w6+x6+*6.y6+2P.z6+Ce E`.A6+B6+C6+D6+}`.E6+jK F6+G6+H6+I6+fy.J6+K6+L6+i] hu wO M6+N6+O6+P6+>C Q6+R6+S6+T6+U6+V6+7y.cR.W6+X6+&[+Y6+xa Z6+5]+`6+ 7+.7++7+@7+S$+/'.#7+4v $7+/.+wu.%7+&7+*7+=7+-7+;7+>7+$,.-7+.#+,7+U/.I# }`.,.+'7+8`./e )7+),.n +!7+Nu ~7+{7+#& ]7+ze ^7+/7+(7+_7+:7+X6+<7+Ag [7+}7+Vg.|7+17+27+p#+RA.37+47+}: +S.",
"57+67+'a }0 5s.&{ &{ 77+87+99 $q c;./~+/~+97+='+@q Y,+Up 7;.07+a7+0L x$ ';.^I.b7+c7+d7+e7+dZ c;.f7+f7+p% g7+k<+h7+i7+j7+k7+l7+m7++;.VS n7+o7+p7+pv.q7+6s.r7+s7+t7+2u.u7+5,+v7+z,.I`.w7+x7+,& 7$+y7+/q z7+~: A7+B7+B7+gy $z <@.C7+D7+E7+gd 29 h$ F7+G7+H7+I7+J7+K7+q7+iL L7+M7+N7+Z1.x9 O7+/u ru.)T.]% P7+Q7+R7+F& S7+T7+GL.;v I`.U7+XL /a {t V7+)3.A8 )t 6t P{+0h.W7+X7+dh.Y7+Z7+X7+`7+#O  8+<c.d1.E*.gx X)+>i.i` .8++8+!i.f& @8+#8+v3.V7.$8+HE ak.j7.G,.%8+bN uK 9N 9N 9N 9N 9N 9N 9N 9N 9N 9N 9N 9N 9N 9N 9N 9N 9N 9N 9N 9N 9N 9N 9N 9N 9N 9N 9N 9N 9N 9N 9N 9N 9N 9N 9N 9N 9N 9N 9N 9N 9N 9N 9N 9N 9N 9N sP ]~.[2.@S &8+*8+=8+*P -8+;8+ZM.|(.|(.|(.['+>8+[i.,8+'8+)8+L*.>] 1M !8+~8+{8+]8+.!.2k.^8+Ih.#x./c ub uw./8+}^.O.+(8+_8+(- $^.cf :8+<8+:- [8+}8+5=+Qw wB Xh p* Mh w0.n< n< (; |8+/4.18+28+Pl.38+48+F(.H(.z, 0> k> M; Z; I< CC.)b 3: I< 58+v/ e[ 8> $[ Kh Lc @k.68+78+88+.> n> U^ O: v) O= 4; Ti _0.m- BC oD Kc u[ ^; <w [..').98+08+S| +j.p/.F!+w(.BC a8+$; m- (o.O[ $; b8+V).c8+d8+e8+f8+g8+1!+,, oD -B Uh `> /< !{+h8+@; 6> w, a- a[ q~ ,[ l* w- jP w- YO i8+j8+bf.k8+G[+l8+",
"e# m8+<c RB ai.Y/.xw.nw.Y/.v[+k .EQ ]= bO -M 1[+Lb n8+TN o8+p8+q8+r8+s8+t8+b= ac h6.u8+ig 4: 2~.Z).v8+V- w8+x8+y8+^m.z8+A8+B8+C8+D8+V, V, sw.m!.<x yw X- gb l!.E8+yw kb 3- (c vw 4x.F8+G8+db H8+I8+nk.J8+@= $i 6x *c gb W* QO >b t] r( )w gb  , pc %b D8+K8+L8+M8+N8+O8+Hb H).]c #}+1e IT P8+mS Ah.QK.^!.1!+G( 0] [- [- $; $; 7; p) ,, u[ ed T_ 1( /> O) &/ n) g: g: g: f[ C1+AP C1+60.`B Q8+R8+o:+S8+~$.li $[ b- Z^ Z^ T8+U8+V8+#%.{7.rP TQ #%.g7.W8+X8+Y8+LE 0N 9N 9N 9N 9N 9N 9N 9N 9N 9N 9N 9N 9N 9N 9N 9N 9N 9N 9N 9N 9N 9N 9N 9N 9N 9N 9N 9N 9N 9N 9N 9N 9N 9N 9N 9N 9N 9N 9N 9N 9N 9N 9N 9N 9N 9N 9N sP T6.Z8+|P.J4.OR =Q nS..T rP JH sP +T +T +$.p].`8+ 9+.9++9+@9+q: '~ J> Y] E{ /> M) >, O' |) F; 6) ^' )> N> ], K> d, '> O' ]h iR.#9+$9+%9+q) [~.e> C> C> y) F; C' s) &~ l; M; J) 6{ +' &9+M7+SF.kk .C *9+j! m! w^ ~].0' ,' 6' J> M) N) w; v; d, ^, _< [~.]h k9.=9+-9+g! ], #> N^ E; k! *~ 0; y; j' #) Q' Y] z> C> H; j> t/ ;9+>9+,9+~d `; O, C' 6) *> G/ J; S_ d, d, #y sn.'9+)9+!9+~9+{9+]9+b- M) &> h~ Xi s) z, 0> A! B> >) )' *> h; '' 8) R, f; J; L> l; 1( ^9+/9+(9+T{ L) ",
"=/ _9+D> Y' ): O] k; `; a) 6; F/ _, P; I< O= B~ Q+.0[ ;> -' :9+_; 4* z: 6* -' ]* w! M; C~ -' @) r; [; ]* <9+c> H] sx [9+}9+eF i .5; k; k; n> ;> >) ^' m> >> ^' j, i; 6! O' J; g^ hh ]i l) 1! |9+19+/4.T_ j> L; t; l> >) () 7] g^ O) O, m> j, 0! 5{ B> Q; =i.29+39+}( d- Z^ J) ^' Z, 6) |) 1! ad 7] >! y' =~ y; 7' 4, 9' +_ Z! g] m! 0> &, x) U, '> z! *! T^ a> x) '[ '[ '[ y) Q, N; ~* w, A/ 49+[`.Rh q; P= X, (~ 59+e_ 69+79+SQ uK 0N 9N 9N TQ 89+99+09+8~.9N 9N 9N 9N 9N 9N 9N 9N 9N 9N 9N 9N 9N 9N 9N 9N 9N 9N 9N 9N 9N 9N 9N 9N 9N 9N 9N 9N 9N 9N 9N 9N 9N 9N 9N 9N 9N 9N 9N 9N 9N 9N 9N 9N 9N 9N 9N 9N bN r$+a9+b9+8~.kQ kQ uK 9N 9N 9N 9N 9N 9N bN E^.h$.Ek.aK.c9+O%.,, i' p^ ;{ /^ g; 3, N> c, _) O^ )' g, 4~ Zy.(S Z! -( J{ 4~ $> h~ {h k< [~.e' $> /, /, z; J; )' 6) #) %^ s) C' C> W> W> k]+d9+e9+m} l; |, ~' u' D; x' A' y; e; =) #y b, Q> d' '< '< f9+(< R' ai R' ;) M) >) ;' ]' ]' u' sf '' x; ], Q> .( t' 2' 0; () 8) `; g9+h9+p=.rc l; O, R, g^ &) =~ 1, y; d, i9+d, #y j9+k9+l9+m9+n9+o9+,> 9] 2~ T, A; &) 2) d, y; 8) y; J; f, ^' S, S, N> I; ^' i' .' 5> p9+q9+Oj.G< #y ",
"8; -/ N= @] U) U) ]* E, ^> j, ;' C, 8) ,> 6) &, >, 8) `, C> Y' 7{ [; O, C> j, ], d; ,> b> i; `, j> Q, >> K! i; 2( Wd r9+s9+t9+l] `, `, => ;, ^' %! 8] d; Z, *> J; () @> :/ y' +~ 9/ 1, |) 0{ T^ J) #, A; a; Z, {) ;^ 1) #> O^ O^ 6) Z, M) J; f; i; z{ o) u9+v9+w9+!] K> u) v; }{ |) 6) J; 7] 7] E; C! 4~ `! X~ d^ E8.1h X~ C; =~ X~ :h >! J! 0{ E( D^ x8.2] }~ >! X~ g] X~ 0) 0; >> B> Z, O[ eR.x9+y9+4* () ^~ G{ z9+A9+B9+uK bN sP 9N 9N 9N $*+C9+D9+E9+KH 9N 9N 9N 9N 9N 9N 9N 9N 9N 9N 9N 9N 9N 9N 9N 9N 9N 9N 9N 9N 9N 9N 9N 9N 9N 9N 9N 9N 9N 9N 9N 9N 9N 9N 9N 9N 9N 9N 9N 9N 9N 9N 9N 9N 9N 9N 9N 9N SQ qN.Qy.F9+|M.kQ JH 9N 9N 9N 9N 9N 9N 9N KH KH G9+H9+I9+J9+K9+C^ d; >%+=( f; i, 7] $> Q) 7' @> g; G{ K{ L9+9z.-( g5.Mg r{ z~ C> Q, 7] #~ H{ m! b; E; W, 8] K! I; Q> R, M> ], *) ;, $! F[ G<+M9+N9+T) K( (, 0; ~' o{ b; E; K! '' @> _) sf V' g; E; %> J; '' g^ g^ J; U, Y~ Y, ^~ ^~ 8] W, |, Z, 2, |, d; F; >, !' ]' #, Z] XP >T O9+P9+C^ G; 8{ =! X~ Q9+}{ g; 8{ T, T, S, '> |) [{ L) D~ tf *! N{ F^ Ng Ng te u^ n! A' c; F{ |, L' I; #> g; 8] ]' G~ 6) H, y/ ,,.R9+cj Pe C' ",
"C_ PP /) T^ *! ])  { 5{ /) 0; x; ]' A; () #> S, !! (, ;, Z, 8) i; [] 7^ #! (, () i, U, (, f; F; 0; (, f; P> =) 9> r; S9+T9+U9+V9+W, !' G; 0! ;, y{ |] g; L> P! N> v' x{ G! G! =:  ~ c; G; QP 8~ F; B; b; )' !( L! D( O^ b; Y! O^ I; H; y) F; ;, W; 7{ ~* }` W9+X9+4( b> x) g; E; |) 0! 0; }{ 8] /~ C; =: se =: !< #n.bn.h/ b; T, v'  ~ rQ ,{ (S :k.L9+Y9+}k.(S h/ te _|+^9.e^ p^ #> 1, p^ f- Z9+T$+F#+#] 8] /~ =( x) `9+Sm.9N 9N 9N 9N sP 9N HL. 0+.0++0+bN 9N 9N 9N 9N 9N 9N 9N 9N 9N 9N 9N 9N 9N 9N 9N 9N 9N 9N 9N 9N 9N 9N 9N 9N 9N 9N 9N 9N 9N 9N 9N 9N 9N 9N 9N 9N 9N 9N 9N 9N 9N 9N 9N 9N 9N 9N 9N 9N KH w$.@0+EO.#0+TQ kQ sP 9N 9N 9N 9N 9N 9N JH JH $0+%0+cK.f'.@&+<; ;g (, ;, M' () 8] p^ C( Z! 4~ R( 0/ zM.AM.Pj.w' SR P}+F^ i, ^' {' 9) re 4e te h/ e^ w{ 4~ a{ }] u; Z, '' a; I; !! J( j) &0+*0+=0+T) k( k> O! k( {' 2~ G{ 9{ A; 8] G! A{ 9) o{ D( O^ E; V~ b; X~ +! *! 5~ y{ tz ]~ C; ]' f; *) Z, #! U, #! G~ C; P> f! I< P$+-0+$( @b >, 8~ B! p#.!{ ~{ :h +! () '' )' A; |) X, 7] ^~ =! Z~ u; :^ *: D^ c8./~ J! G{ =! -{ d_ ]) v! e; |) A; F{ e] G; 8) 5; _, }6.Tp ;0+i> C' ",
"8; >0+J( e^ {~ /~ /~ Y, a{ {' o{ E( /~ ]~ e^ J! -{ [] d_ ;{ ;< F{ D! _f Z~ K( A; i, Y, ;{ k( #! -{ [] Z, ;{ y> f! >> ,0+'0+)0+UC '! 7^ W~ 6] b{ 5_ e^ ^~ '' f; g, g] H! G! 0/ ,{ re ]~ 8{ +: 5{ i; 1) a; {' {( @y 7^ J! o{ e^ J! (, K; >) 0; 3/ B> z{ P; !0+G|.0=+-' 5{ l> ^~ WP W, 3/ F{ G{ I! R( E( d8.!< ~0+)9.{0+]0+s{ @~ Y! &) C; D; I! G! =: re s{ x}+0/ z8.,{ ^0+/0+s6.D; n^ g; V~ ][ Ot S#.(0+w! X~ ;( N^ 6%+0].!D 9N 9N 9N -Q JH v$._0+:0+<0+}R aN 9N 9N 9N 9N 9N 9N 9N 9N 9N 9N 9N 9N 9N 9N 9N 9N 9N 9N 9N 9N 9N 9N 9N 9N 9N 9N 9N 9N 9N 9N 9N 9N 9N 9N 9N 9N 9N 9N 9N 9N 9N 9N 9N 9N 9N 9N 9N 9N JH Kb.[0+}0+|0+$Q.+$.aN 9N 9N 9N 9N 9N 9N 9N aN HH 10+4v.20+#d !$.$o.Z' M' uS f! Y! |{ Pz.s{ y8.30+@l.zM.j|+40+ke ,m.vL.a/ J( a; g, 4#.re 0z.s{ -k.e^ O^ J! }] 0; ]) T) (, J; (, !! D( (0.50+60+~d `; /' E, #, 0! 0; @! :h *! (, ^~ G! 9) |] g, E; 4^ G{ p^ &) h, {~ ': j_ =! w{ Y! ^~ |) (, |, '' P> (, ;, Q> @> 9! X' 4> 70+80+xa.)/ E, ^> O! $! w{ >! D{._) 7] f, !' )' g; }) y' X~ C; '' 8, f, :^ E; A; (, Y, K! +{ =] ~~ Y~ W~ P, (, ]' G; u; l> ^> k' P; 90+^Z.Oh P; f, ",
"Qm >- 0; !! W~ }] E; }] e] u; Y, >! e^ 2~ /~ g, }] 2, ;, f; F{ 7^ o{ ]A.}] u; e; B! -{ -{ }] u; W~ 3/ #! a{ !! z{ G, 00+ZA a0+w[ F; B! #! T) P/ /) Z~ !' #> c; C; k! @~ u^ s^ v^ `e R( &) $! O! ;] e; '' '' I; k( Z~ 0; }] K! 8{ i; %~ O, u; |z O, z{ Q; 7O pg.b0+O/ [; {/ Z~ A] {~ 8{ 0; W, i, O^ m! m! 0/ 2B 0+.xM.0+.`e L{ p{ B; V~ i, b; >! X~ 2~ C; B; g]  ~ -7.rQ E( Y! A; x; ]' 3/  _ @m.xo Pz t, %! p{ c0+d0+$%.JH 9N 9N 9N rP +$.fM.e0+f0+g0++$.9N 9N 9N 9N 9N 9N 9N 9N 9N 9N 9N 9N 9N 9N 9N 9N 9N 9N 9N 9N 9N 9N 9N 9N 9N 9N 9N 9N 9N 9N 9N 9N 9N 9N 9N 9N 9N 9N 9N 9N 9N 9N 9N 9N 9N 9N 9N 9N 9N JH bN h0+k}+6#+i0+H#.bN bN 9N 9N 9N 9N 9N 9N 9N JH p4.j0+k0+-U ]_ o! J> c' .' H; C; O^ ;( ]k.R(  ~ @~ |{ 7l.l0+m0+h/ gg rQ E( O^ ;{ {' h, d{ ,{ h, A; ~' X, 8~ 0! >> {/ {/ -> O, e] !( [0.n0+o0+t} q> Y' i; #! B! () tz }) `_ 3/ F; 7] g; a; a; 1, %! E; c; E; o{ K! [] F{ K! w{ G{ J! &) F{ y; #> |, 8) m; x, h' f! ,: v[ p0+=;.V( S^ p] P= K> /] t; ;, ^) E~ ,> m; k> F; () =~ (~ (~ X~ G~ P! R, W, |) W, ]) Z~ ;{ !' ]) ;, e] Y, K! () P> M! P! b> >) J) `; q0+r0+s0+Q; H; ",
"C_ cQ.R, u; ;, W~ ]) 0! M( /] e; !! wg E; Y, y] /) '' ;, !( F{ 7^ ;{ y] (, I; v! W~ K( v( Z~ W~ {/ i; u; }] T) B> p] -[+/,.t0+/4.j, G; G~ 5{ P, W~ {) K! E; X{+D; D; R( u^ s6.-7.jS [{.p^ F{ 3/ f; f; P> !' k( u; u; 3/ }] ]' G; $] [^ F( y> ;] /_ N; E_ u0+v0+w0+rx B( P, u; =~ b; () Z~ +! !! o{ X~ 8] |{ 2B  R  R re >{ te z8.s6.g, 7^ o{ J! J! B; g, a{ E; Y! 5] D; g, g; 0; Z, |) `, w[  u ^( Pz s/ h] 7~ x0+w#+of.!S 9N 9N 9N +$.y0++y.z0+A0+ T KH 9N 9N 9N 9N 9N 9N 9N 9N 9N 9N 9N 9N 9N 9N 9N 9N 9N 9N 9N 9N 9N 9N 9N 9N 9N 9N 9N 9N 9N 9N 9N 9N 9N 9N 9N 9N 9N 9N 9N 9N 9N 9N 9N 9N 9N 9N 9N 9N 9N JH SQ B0+C0+D0+E0+F0+}|+rP bN !S 9N 9N 9N 9N 9N 9N 'D G0+H0+!E 3: V) b> !' ;, ;, *> (, ;< D( C; T, v; |) %) .~ 5] I! 2~ b; 8] 1, '' '' :^ D; Y! k! Zg c' _< C, /^ N/ N; k' 2( k' O, B' I0+/n.J0+TT D: Q; !' ^~ 7^ !' O^ G{ 0) F{ (, 8) /, w; 7) v; 3) 0' L' 0e n^ I; u; x; I; #> %! a; () B' C, C, #, E, @) >^ B> Y~ /) )b PI.;u K0+t! T> x, x, X' N; 5! ^' ;' s) l; k' L> +> 1, x' x' k! C; v( ;{ C; A; J! !' e; &> w; K> [; P! |) )> i! C, P! z{ K> W> p] p! IM L0+M0+Q= m> ",
"C_ US >> ;, K; $] i; K; ;] K; *) 3/ v( {' !' ${ /) #! e; !( F{ =! {' 3/ q] *) v! k( (, K( Y, P/ W; L; i; !! {/ -> =' X .N0+ok./< H, k> (, B! K! =! p#.N{ w^ X{+b; ;( Pj.m0+,{ ,{ :k.}9.:^ 0; (, ]' {( 2, A; ;{ =! i, }] g, ;{ f; 0! y> y> 2, y> Ez sz cz pS ;T M[.sx v: _^ (, U] C( ]) Y, V' ;{ V~ 2~ Z! rQ s{ 0+.`e z8.gg h/ d8.gg ;( 1{ *: ,{ I! p{ @~ p{ J! C; 5] E; a{ {' G; ;, G; #, Q: p`.O0+z< D< &, P0+Q0+w$.LH bN 9N 9N 9N q!.a$.R0+S0+T0+JH bN 9N 9N 9N 9N 9N 9N 9N 9N 9N 9N 9N 9N 9N 9N 9N 9N 9N 9N 9N 9N 9N 9N 9N 9N 9N 9N 9N 9N 9N 9N 9N 9N 9N 9N 9N 9N 9N 9N 9N 9N 9N 9N 9N 9N 9N 9N 9N 9N 9N sP rP ME U0+I! +! V0+3C )+.Kb.bN 9N 9N 9N 9N 9N 9N SQ ak.`7 |1 O] `^ x> 2, M( (> Z, ]' !' *~ ^~ |) '' () 8] #~ h, ){ G! J( g, A; ~' C( C; 5] Y! k! yg e; YB.N> '' q] *) B' m; q] W~ d; iD W0+X0+Y0+{^ [^ Y, ]' |, {( d; ~' N^ I; g/ L' y; sf A' r] s^ T' N^ P> .< q^ 1) q^ {( I; O^ ^~ 0; /^ ,' J; j, /> ;> -> ~] b{ [] w- 6w.,C Z0+H= C> #) i' C' jx B' x; d; i' /, g/ ,' H..*~ U' O^ sf 1) 2, x; |) !! 0; !( (^ '< w; M; /_ $] *> &> 6) R, ;, ae i' z{ D, T> `0+X|. a+D' #, ",
"l< .a+B> T~ [^ $, O! t; K; M! {) !( {' J! E; d_ 0! 0! P! {) u; =! Y, G; i; P! e; @y !' {) 0! [^ qd 7{ f, 0; $] v: cD 8.+'R.+a+rx v: m; H; #! {~ N{ !~ g{ rQ -7.,{ ]k.,{ 2B se re te R( B; F{ 0; A; p^ C; C; V~ C! g, =] J( p#.D( g, {) 2, }] P, [^ L^ i( @a+(,.#a+5: @) %~ j> h] <^ F{ {' C; J! V~ e^ 2~ [].-k.-k.^0+$a+5|+%a+:k.C}+gg -7.=: z8.te te z8.h/ R( h, ]~ b; K! =! l> K; 3/ y> &a+-'./J *a+s( RM.MC.e#.9N 9N 9N 9N 9N cN =a+-a+;a+>a+uK 9N 9N 9N 9N 9N 9N 9N 9N 9N 9N 9N 9N 9N 9N 9N 9N 9N 9N 9N 9N 9N 9N 9N 9N 9N 9N 9N 9N 9N 9N 9N 9N 9N 9N 9N 9N 9N 9N 9N 9N 9N 9N 9N 9N 9N 9N 9N 9N 9N 9N 9N sP rP -P 1M.,a+9L.]C.M4.C7.7~.kQ 9N 9N 9N 9N 9N 9N bN $%.'a+)a+i> -> W; 5! 7{ /' '' O^ ]~ 0{ w{ ;{ #! Z~ J( ]~  A se c8.=( a{ D( Gk.;( ;( *: 9) ]~ !' y] A; k! o{ ;^ 2, f; H; F{ @y *> y- !a+~a+WS.V{ /) o{ 2, *) R, ,' J; H; `, f; 7^ 8] b; G{ h, e^ 1{ p^ C; B; {a+V~ =! p^ D( J! 0{ '! F{ We P> {) l> m> -' O] P, V{ c* q_ xc.]a+R= 8) '' !' P> I; @> }{ 0; a; A; a{ E; 5y.v{ e^ J( i, () /) 0! W, !! u; f; 2, #> () ;> /_ {/ G; 5{ P/ Z, y> /] G; k> /' 5; ^a+/a+G{.B~ U, ",
"l< zd O, F( L; O! 6] O! $] K; 2, 2, =! b; m! J! P> 3/ N/ z{ 0! ]) u; 0! ;, ;, 0; }] <^ 0! t; %~ 2( W' B> R, l; l; B) fx.wA (a+uf 5; f! H; !' C!  B. B.g{ G^ gg D^ q{ G^ gg zM.Lj.,{ w^ D( ;l.;^ g, b; 0{ ]' ;{ {~ k( y] =] {~ g, 7^ j_ g, K( ]/ 9B L^ 6: _a+:a+<a+uS W> %~ O! ^) v( We 7^ E; J! 5y ]~ h, *: z8.-k.:k.!< C}+%a+m0+C}+Lj.6N.,{ m0+^0+te -k.,{ 2B (S te v{ J( D( ;{ [a+}a+|a+<, 1a++u.mD.~S ;_.jQ 9N 9N 9N 9N ^{.JH 2a+3a+4a+5a+e#.9N 9N 9N 9N 9N 9N 9N 9N 9N 9N 9N 9N 9N 9N 9N 9N 9N 9N 9N 9N 9N 9N 9N 9N 9N 9N 9N 9N 9N 9N 9N 9N 9N 9N 9N 9N 9N 9N 9N 9N 9N 9N 9N 9N 9N 9N 9N 9N 9N 9N 9N 9N 9N bN JH eN 6a+7a+f#.8a+y9 C7.e#.9N 9N 9N 9N 9N 9N uK cN 9a+0a+d~ H] p] .' A) Y' |) )' ]' a; 1, aa+'' 0; !! 7^ /~ @~ v{ lg D( {' 0; Y~ K! J( D{.f] l~ [^ 2, +! 0; P! i; V) [_ O! ;] U> LS ba+ca+s< $] T) K! ]) #! W~ Z~ ^) 6] Z, ]) ]) *! W, 8{ Y, y{ /~ F{ 8{ U, !! ]) 8~ Y~ B! Y~ ]) X, 1, c; 0; P! n> <; i( u_ P; >^ Sg UI.`1.Qf -< f! 0! (, k> l> ^' h; (, |) ^' #! ]) K( () o{ *! 9{ J! Z~ b{.5_ $! $! }] Z~ () G; W; i+.C^ +] x! O; L; [^ O! l> N! Z] V; da+ea+fa+'* s' ",
"Dg 6S `, %~ [; x! x! k> $] P, #! F{ P> o{ w{ ]~ i, O, ga+K; l> F{ 3/ ;, O, *) !' }] v( u; y> O, Y; P; %~ P! /' v: J: ]t ha+V2.$b l; i; `, !' g, /M.N{ v{ *: p{ d{ 0/ >%+-7.z8.=: ia+B; :^ /g ]' !' o{ o{ F{ !! {' K( k( [] p#.K! D( {' K! Z~ $] {^ P; ]_ ja+ka+z8+*^ u: K; y> 0( 2, o^ ;^ *~ =! la+/~ e^ ,{ d8.h/ 2B F+.:k.0/ gg (S `e I6.-7.@~ p{ g{ ]k.^k.z8.y8.I+.G{ FS.ma+na+oa+h1+F5.0V u$.}R of.9N 9N 9N 9N 9N 9N 9N bN c6.pa+qa+ra+HE KH 9N 9N 9N 9N 9N 9N 9N 9N 9N 9N 9N 9N 9N 9N 9N 9N 9N 9N 9N 9N 9N 9N 9N 9N 9N 9N 9N 9N 9N 9N 9N 9N 9N 9N 9N 9N 9N 9N 9N 9N 9N 9N 9N 9N 9N 9N 9N 9N 9N 9N 9N 9N 9N 9N 9N r$+sa+)7.0k.o(.4'+ta+qm.JH 9N 9N 9N 9N 9N aN JH =Q ua+va+a3.V* g< z_ )* C' d, /, >' {, jx L> M) H; |, ]' A; )' I; H; 8) j, #, ;, ;, b> h; /> (' i; F; Q, l; l; Z] -' v: Vd i@.wa+N7+xa+Ee ~* => >, C' >) => => M) m> m; >) 5! J> f! `, H; J; $> I; H; #, H; j> f! m> i; {/ z{ M) O' '' ], /' 9> ~* qx Nx.L_ 2( Nx.ya+za+Aa+Be E, >) >) M; /' Z' C> K> Q, J) 5! => P! O) '> 1! )> d; !! (, F; u; !! F{ {' 1, ^' X; k' /' /> #, v: !/ @) [; => @) 1' H[ Ba+Ca+Da+DO z/ ",
"*] Q3.H; O! >> a> c> *) /] i; [] {' F{ g, ^~ {' '! ;, k' l> !! f; ]] ;, O, t; f; 2, 2, }] {) B> Y' L_ ~! y> n> G, T> 0u M/.ok.*' G, /' => W~ {) a{ ^~ =] a{ V~ v^ 2~ e^ |{ t{ v^ rQ Y! {' ]' A; ;{ ;{ V~ k( !! 0; c; !! b{ d_ Y, !! (, #! #! M! W; Y' h> B` nG.Ea+7: f! i; ;, h; c; N^ We D; g; g, ]~ 8] E( ,{ ne Lj.`e R(  ~  ~ L{ s6.o{ b; E( /~ b; ;( ;( Fa+Jy.Ga+Ha+Ia+gC.|~+IE -P KH bN aN bN 9N 9N 9N 9N 9N 9N 9N bN Ja+3C.Ka+La+tT Kb.JH 9N 9N 9N 9N 9N 9N 9N 9N 9N 9N 9N 9N 9N 9N 9N 9N 9N 9N 9N 9N 9N 9N 9N 9N 9N 9N 9N 9N 9N 9N 9N 9N 9N 9N 9N 9N 9N 9N 9N 9N 9N 9N 9N 9N 9N 9N 9N 9N 9N 9N 9N 9N 9N 9N 9N  T j8.Ma+>P ]7.Na+1S.Oa+OE #%.kQ sP 9N 9N 9N bN 9N JH Pa+U6.Qa+.@+NQ k; K( ^~ E; ~' ,' :^ p^ D( F{ E; g, ^~ 8] o{ Y, W, I; ]' -{ Y, ]' P> 2, ;, 0; A; *) A> =) Q, 8) c' )* 0/.B+.Ra+G[.(f `; #, H; C> #, W> V> c' k' 7{ *> $) e; (^ ~' q^ n! Sa+r] ]' P> c; #> '' {( 2, '' '' 1, &) ^~ i, Z, M; ): *^ q> $] O! r' }^ zI.sq.2: c' +> N> a; Z, G; '' #> (^ I; #> V' a; g; g; 1, n^ Zg >' $) ,' x; S_ 0e Ta+t^ r] (, z{ O, #> S_ N/ 8/ .' f, R, A> C) :T !^.Ua+Va+3> 6* ",
"8; R#.*) W~ H; ^' F; q] y> 3/ -{ +! |, (, W, K! J! e; 5! 6) '' ^' P, ;, P! K; Z, 0; 0! 7^ f; $, Z'  g ~! /) C~ `; T> [e R'+>z y[ Y' ;> f! H; G; {) (, !! P> !' A; Y, A; %! 0) C; s^ V' 0; (, 0; #! 7^ F{ T..i; ;, x; 0! 5{ /) 0! z{ t; 5{ a> k> Z' P; !] Wa+Xa+FC.^R $, u; F; @> @> f' #> #> )' &) ^~ i, m! Z! Q(  ~ u^ L{ Q( |{ m! J! Y, Ya+Za+I6.`a+ b+nl.96..b+fS.'_.]7.rP bN 9N 9N 9N 9N 9N 9N 9N 9N 9N 9N 9N 9N 9N JH JB.+b+@b+r5.rP kQ bN 9N 9N 9N 9N 9N 9N 9N 9N 9N 9N 9N 9N 9N 9N 9N 9N 9N 9N 9N 9N 9N 9N 9N 9N 9N 9N 9N 9N 9N 9N 9N 9N 9N 9N 9N 9N 9N 9N 9N 9N 9N 9N 9N 9N 9N 9N 9N 9N 9N 9N 9N 9N 9N 9N 9N rP 1(.7^.4e.-P =Q #b+'L g++a&+e#.0N 9N 9N 9N 9N 9N 9N kQ rP OR 'C.$b+Y++%b+X*+2*+N{ 5~ ah c8.&b+p#./~ 8Q E] ]e T++-! ^~ i, /~ =( /~ t{ /~ !' X, 2~ G{ |z =A J> ;' J; () #, uD eO l&+*b+a_ /> d< Z~ (, 6) P! Z, *> *) *) '' u' ~' c; V' =T XO.4! r] B; p^ *~ 6< U' Z! w^ o{ y{ 5~ B] r{.h{ Y~ t; #] 4* x~ W; {/ p) =b+pJ -b+K^ k> 0; !' ]' A; X~ g] %! P> ;^ u' m! 4^ &) p^ #> V' O> V' u' 0' #> 1) /g u^ }9.g, q] /^ *> $~ #> s)  ' Q, +> S, f, p) t0.;b+>b+,b+!* 2; ",
"8; %7.!! #! '' ]) f; 0! !! Y, i, g; 0; #! W, E; J! Y, C> h; 1) !' u; l> C> z{ =) 8) k( 0; 3/ i; B> N; f! +! V] l; S> [e R'+'b+rx v: => #, >, J; l> l> `, (^ R, ], ,' Z, S, i! 3, y' '' M! M) l> ;, !' P> M! H; G; M) Z, i; i; H; C~ -> V) b> m> X; )* ue )b+Pf.!b+!d B> ]) }{ f' u' kL.7) 7' a; }{ f] K! 8] Rd 2~ m! T' (~ 8< H{ :/ O^ Ui ~b+{b+$5.]b+fS.sk.;Q JH 9N 9N 9N 0N 9N 9N 9N 9N 9N 9N 9N 9N 9N 9N 9N 9N 9N 9N .$.^b+e++/b+JH 9N 9N 9N 9N 9N 9N 9N 9N 9N 9N 9N 9N 9N 9N 9N 9N 9N 9N 9N 9N 9N 9N 9N 9N 9N 9N 9N 9N 9N 9N 9N 9N 9N 9N 9N 9N 9N 9N 9N 9N 9N 9N 9N 9N 9N 9N 9N 9N 9N 9N 9N 9N 9N 9N 9N 9N 9N 9N 9N 9N TQ JH JH +T }R (b+'T.u.+_b+jQ JH 9N 9N 9N 9N 9N 9N 9N 9N bN e#.p4.q].:b+1h.r; {/ x! Cz.%, r; n> 2; xi Fi <b+G@.(' 2[ w, 0- C~ 2; 3; _, 7* 3d c< q( ;j Pc A/ i* Q= q; co.[b+}b+|b+@&.%; z: O] #_ ): r; Kh 6* '* ]^ 5* Jx n- t, @) 5i 3^ `( 5i g- D> G, 3^ b- fz.yC T_ k* N, 1b+W{ BQ ^M.$w P9+'U I' R= _; -B -3.2b+3b+f| =; X< g* G< 7* a* ][ a- ,[ `] _, @; J[ 5> p] T_ Z^ C~ fz.fz.0- a- X+.B~ e[ `h U= ~^ qx 3> 4b+oh /+.E: &; Jh K[ q, G[+ai.Pt wc 5b+D* P* ",
"C_ H/ k> j, a> b> G; b> J; =, G~ y) N' >, ,> h; G~ A~ Z; 3^ ;) Q, K> &/ }, Q; @) &~ #, N= -' B> Y; -' C~ ^' N= ,, ji C .7J 6b+t! o] 6> F/ a- `( w, g- t/ 7; 1( %/ %[ G, D> ai U! P) yC w, e[ }, N= X{ X{ K> &/ v, 2! &~ =' r' Y' p~ M/ {* I< =' `] H] 2: 7b+]6+8b+f) &~ N' O' rC O' Gn..A.9b+j' e> M: &/ O: ;$.DT s' N: 0b+ab+6L.bb+cb+XL.db+I4.8N #%.KH bN 9N 9N 9N 9N 9N 9N 9N 9N 9N 9N 9N 9N 9N 9N 9N 9N 9N 9N 9N 9N OR 34.[4.>P sP 9N 9N 9N 9N 9N 9N 9N 9N 9N 9N 9N 9N 9N 9N 9N 9N 9N 9N 9N 9N 9N 9N 9N 9N 9N 9N 9N 9N 9N 9N 9N 9N 9N 9N 9N 9N 9N 9N 9N 9N 9N 9N 9N 9N 9N 9N 9N 9N 9N 9N 9N 9N 9N 9N 9N 9N 9N 9N 9N 9N 9N 9N JH kQ kQ 7~.8>+eb+fb+W7.TQ sP 9N 9N 9N 9N 9N 9N 9N sP kQ JH nS.u$.gb+hb+ib+jb+A} )| mU 8} by 1| ,S.f| F| ]} &1 3k 5} a} }} }} l} bE &1 ED Gj [V Pj G0.V]+Nj Dj kb+lb+mb+nb+Y]+3-+bE B| %k ]} L| eE {-+ob+1} {} bE H&.lj y| bE cE f/ +k y_.|} Dj PS DD _1 CA CA oU =g pb+$B C} IB /} s&.>V ^} _! 3| (1 Za.F/+qb++V tE rb+lj eE Fy '/ IB ff E(.eE {} f/ +y f/ }V ]} bE cE =g ey %&.dE |} {-+Fy %&.9E sb+qE 7D.W=+x&.Qj 9U tb+T=+i~+9D.91 &E fn DF UU #a.pU ",
"ub+,; jD rc 1* -e i .Bz Ki Xa =b v+.Jd QC oc =j Jd `j j| )U Nh Nh 0o.t! !k +a.<k {k !| 7[ E} VT #| TT Hh U/ m} Y} n, vb+wb+rF ^} *1 {g 3| Y} z} 6h ~k ]| A} &| Ig S@.t} y} v} *| 7[ W8.o( 7[ V} WT |f !{.A[ !| AD T| @1 6A +a.xb+yb+zb+G| 0} S} kd Qd 3} Ab+n-.E=.S} tc 7/ `> l(.Q8+90.Bb+DB e0.Nh gk &| Cb+Db+Eb+t+.Fb+Gb+q%.Hb+Pg.OR 9N 9N 9N 9N 9N 9N 9N 9N 9N 9N 9N 9N 9N 9N 9N 9N 9N 9N 9N 9N 9N 9N 9N 9N 9N 9N 9N uT Ib+Jb+Hr.9N 9N 9N 9N 9N 9N 9N 9N 9N 9N 9N 9N 9N 9N 9N 9N 9N 9N 9N 9N 9N 9N 9N 9N 9N 9N 9N 9N 9N 9N 9N 9N 9N 9N 9N 9N 9N 9N 9N 9N 9N 9N 9N 9N 9N 9N 9N 9N 9N 9N 9N 9N 9N 9N 9N 9N 9N 9N 9N 9N 9N 9N 9N 9N 9N 9N JH Kb+Lb+Mb+[5 *Q.0N 9N 9N 9N 9N 9N 9N 9N 9N 9N 9N 9N 9N sP 5).Nb+Ob+O4 Pb+vl n-+4b.Qb+Rb+Sb+|2+Tb+Ub+Vb+Wb+5/+Xb+5/+A3 .3 w3 Yb+_q.V3 Zb+V3  } w3 tW.;/+HW.`b+ c+.c++c+H3 @c+AH #c+$c+%c+s3 ex &c+P3+*c+y-+=c+DE.-c+4E.;>+=U qa.;c+Vm >c+,c+2V.(2 'c+)c+!c+8V.~c+{c+]c+^c+Cn /c+(c+_c+:c+%' XF.<c+[c+5H }c+1k cV O-+:n E^+rV cV |c+`U E^+E^+}G 1c+V[ $>+2c+=y.q/ C=.3c+4c+5c+G-+6c+B=.A-+]1 7c+DF vp.8c+u^+[3 3W 9c+q^+w3+0c+ac+bc+BH cc+B[.'F.",
"w-+>-+=E a/+GD.[B 3o.dc+ec+7/+8/+fc+GD.7F O*. a.RU (q.gc+hc+>3 ic+u/+jc+kc+M2 hn lc+`2 mc+j2+-} mE [^+nc+a/+!E.Rj 5n (2 gr.oc+G3+K: pc+qc+mb.!E.rc+sc+;d ^W iV.^W tc+uc+vc+wc+@[. <.xc+yc+zc+Ac+L-+Bc+Cc+Dc+fE.Ec+Fc+Gc+Cn Hc+Ic+Jc+Kc+Lc+z[.2>+}n xq.0W I2+1X Mc+Nc+Oc+_=.D3+.c.Pc+Qc+_^+Rc+){.Sc+1y.QF.Tc+Ua.9T.Uc+wB.D:.TQ !S 9N aN 9N 9N 9N 9N 9N 9N 9N 9N 9N 9N 9N 9N 9N 9N 9N 9N 9N 9N 9N 9N 9N 9N 9N 9N 9N 9N 9N >&.Vc+Wc+FS 0N 9N 9N 9N 9N 9N 9N 9N 9N 9N 9N 9N 9N 9N 9N 9N 9N 9N 9N 9N 9N 9N 9N 9N 9N 9N 9N 9N 9N 9N 9N 9N 9N 9N 9N 9N 9N 9N 9N 9N 9N 9N 9N 9N 9N 9N 9N 9N 9N 9N 9N 9N 9N 9N 9N 9N 9N 9N 9N 9N 9N 9N 9N 9N 9N 9N 9N bN Xc+J7+Yc+Zc+bN bN 9N 9N 9N 9N 9N 9N 9N 9N 9N 9N 9N 9N 9N JH q!.`c+ d+.d+IT.+d+@d+#d+$d+%d+&d+*d+r;.<c+a(+}I =d+-d+{W.;d+|y >d+%>.J5+,d+>d+~6 96 'd+)d+!d+~d+{d+|r.WW.]d+^d+/d+(d+_d+:d+f-.E5+&<.sF.<d+[d+}d+0^ |d+1d+2d+3d+4d+5d+6d+7d+8d+9d+0d+ad+bd+cd+dd+ed+fd+gd+hd+id+E_+`f.Er jd+_r kd+ld+md+nd+od+pd+qd+rd+sd+td+ud++1.Ty.|d+j: vd+~J wd+%L xd+yd+zd+Ad+Bd+Cd+Dd+E-.Ed+Wy Fd+xr Gd+5d O9 Z,+B}.Lp lW Hd+n;.(,+Id+Jd+Kd+RZ Ld+qG.&:+",
"Md+Nd+Od+`. Pd+Qd+37 Rd+Sd+|: Td+Ud+Vd+D2+Wd+Xd+Yd+Zd+`d+ e+Z4 q@ .e++e+@e+As.#e+h1.$e+%e+&e+*e+]# m&.A'+=e+-e+GY.;e+Sc.>e+,e+'e+o5 K#+)e+,I ;% !e+r: @q ~e+{e+]e+>2.6:+^e+TQ.s>.o>./e+(e+_e+:e+E<.Lf <e+[e+X{.}e+TH.|e+[r 1e+.t.^e+`_+VK 2e+55+3e+ [ 4e+5e+6e+rd+7e+4}.8e+h5 9e+iI.0e+ae+vr be+ce+de+ee+fe+FS w$.9N 9N 9N 9N 9N 9N 9N 9N 9N 9N 9N 9N 9N 9N 9N 9N 9N 9N 9N 9N 9N 9N 9N 9N 9N 9N 9N 9N 9N 9N 9N 9N 9N 9N V7.ge+he+,R.9N 9N 9N 9N 9N 9N 9N 9N 9N 9N 9N 9N 9N 9N 9N 9N 9N 9N 9N 9N 9N 9N 9N 9N 9N 9N 9N 9N 9N 9N 9N 9N 9N 9N 9N 9N 9N 9N 9N 9N 9N 9N 9N 9N 9N 9N 9N 9N 9N 9N 9N 9N 9N 9N 9N 9N 9N 9N 9N 9N 9N 9N 9N 9N 9N 9N 9N bN !Q.ie+je+ke+0N bN 9N 9N 9N 9N 9N 9N 9N 9N 9N 9N 9N 9N 9N 0N 9N nS.'_.le+me+6:+ne+oe+pe+qe+re+Mf ,q se+;f he te+ue+%n.qx.M$ 09.ha+@2.ve+we+@2.]Z.xe+ye+ze+Ae+b! Be+Be+Ce+0K De+z!+M$ Xt Ee+I;.Fe+Ge+Y,+gN He+yl.QI #m.Ie+mG.Je+F;.Ke+Le+h,.Me+Ne+Oe+Pe+Qe+Re+Se+Te+Ue+Ve+su .Z We+Xe+P% /,.Ye+Ze+D>+Y: `e+ f+.f+P@.gy -% 'Z.>'+Ye+U`.)L +f+jZ 4N l&+@f+#f+$f+%f+&f+*f+=f+-f+M>.;f+e%+=@+e%+t`.>f+,f+'f+)f+!f+~f+{f+]f+^f+;f+aR.+u /f+(f+_f+",
"r  :f+5g.~1+|f.E9 e9 G,+g>.7#.-d <f+XY.]K Q$ mv.[f+}f+|f+Tr.1f+2f+3f+4f+5f+6f+:v.7f+Wy 8f+z|+ <+9f+]B 0f+af+rg.D'.xg.bf+I>+cf+rs.>q df+H$ ef+ & |<+ff+R1.gf+hf+if+A`.19 [& |`.jf+kf+lf+mf+nf+of+pf+qf+rf+sf+90+#$ *9 tf+#h.(u uf+HM.pg.B:+vf+wf+Fv.xf+yf+M1.S'+N@.5`.zf+Af+:I.Bf+Cf+Df+;|+JH.z7.*` KH 0N 0N JH 9N 9N 9N 9N 9N 9N 9N 9N 9N 9N 9N 9N 9N 9N 9N 9N 9N 9N 9N 9N 9N 9N 9N 9N 9N 9N 9N 9N 9N 9N 9N 9N 9N sP JH M@.Ef+Ff+8~.9N 9N 9N 9N 9N 9N 9N 9N 9N 9N 9N 9N 9N 9N 9N 9N 9N 9N 9N 9N 9N 9N 9N 9N 9N 9N 9N 9N 9N 9N 9N 9N 9N 9N 9N 9N 9N 9N 9N 9N 9N 9N 9N 9N 9N 9N 9N 9N 9N 9N 9N 9N 9N 9N 9N 9N 9N 9N 9N 9N 9N 9N 9N 9N 9N 9N aN RQ KH Gf+}%+Q6.^{.0N 9N 9N 9N 9N 9N 9N 9N 9N 9N 9N 9N 9N 9N 9N 9N aN 9N #%.C>.Hf+=. 6K.[3.If.If+uc Ek.,l.5e 1w Jf+E.+G.+n]+B= 3S :U $x 1!+Qw 1!+d/.-T  }+Kf+9..G[+Lf+k]+Mf+Nf+Tw Of+:x vw W- gb =c `' t).]P.]}+-c Nw 7b gO v*+Pf+Qf+$P n..|8+~, z- [..iD ^!.xh.Rf+Rw oD }4.3T Sf+o9+Tf+Rw Rw [8+]}+Kf jO Uf+hb hb 'b K3.wi.Vf+Wf+Xf+Yf+:- n]+Qw Vh Zf+@x -(.ki.K8 `f+wk 2i P8+5e Uh t:.AD <#.]c vw Zv q: Ew LS ix.Gw ,D.,D.p- Qc  g+[- oD oD ",
"[<..g++g+Ta @g+,_ #g+$g+`2.J!.xb +A %g+Oh.&g+Sb *g+=g+6@ Ka.-g+~S.;g+~K.>g+,g+Sa  3.-M |[+/D.(O T8+2= Dh.c:.'g+S) )g+|[+kf S).6x %c *c xi.5!.9 .wB oc 9 .F.+ x X* .x 9- e* Mh VC t* Gw !g+~g+{g+]g+sw.!P Q* mb oc S= |- :U dw =c S= B= X[+ g+^g+o< ti S~ /g+(g+_g+:g+,B <g+[g+}g+3$.Sm.#%.bN 9N 9N 9N 9N 9N 9N 9N 9N 9N 9N 9N 9N 9N 9N 9N 9N 9N 9N 9N 9N 9N 9N 9N 9N 9N 9N 9N 9N 9N 9N 9N 9N 9N 9N 9N 9N 9N 9N sP bN cN |g+1g+.6.w$.9N 9N 9N 9N 9N 9N 9N 9N 9N 9N 9N 9N 9N 9N 9N 9N 9N 9N 9N 9N 9N 9N 9N 9N 9N 9N 9N 9N 9N 9N 9N 9N 9N 9N 9N 9N 9N 9N 9N 9N 9N 9N 9N 9N 9N 9N 9N 9N 9N 9N 9N 9N 9N 9N 9N 9N 9N 9N 9N 9N 9N 9N 9N 9N 9N 9N 9N SQ SQ hC.2g+]b+SQ 0N 9N 9N 9N 9N 9N 9N 9N 9N 9N 9N 9N 9N 9N 9N 9N 9N 9N bN SQ 3g+4g+5g+6g+7:+7g+Yx.Z] >) K( }] 7^ 1) 1, T, #> I; 1, @> 3, 3, I] g; !' g; 7] F; >) C' R_ BT 9' l! A' $> y) =) B> S' t) Q' M> ,' i' => v: SC 8g+9g+=e /4./> Y~ @> u' I! H! G! Y! |~ !{ _) y' 3] +M.HP.3] Ve %e m! T' T, 8, H; F; 1) )' c, &T 0g+tn.Z! Y! N^ a; v' &) &) K!  ' Vh ,7+ag+]~+p] |) O' I> R> Ri p] 6> ed Kx Y' I< M: 6' /> /h 0i K> M> 3[ W) `, #, ",
"L~ bg+cg+b( k> -> B> v, m> $] v: o~ @) N= B~ ): A/ dg+eg+fg+Md g[ F/ ,* 5: Px [; k> %] /> -> ]* @] U^ =^ r' Y] Z' N; ]* {/ => f! i' => M> 6' M> J) Z; f, &, O) *> h; W^ 1, g; ^~ J; /' t{+[I.gg+hg+l] :' s) {, M) C> M) M) =) =) ], d; +> '> #> 6) 8) j!.X8+ig+^%+A5.jg+qP *` 9N 9N 9N 9N 9N 9N 9N 9N 9N 9N 9N 9N 9N 9N 9N 9N 9N 9N 9N 9N 9N 9N 9N 9N 9N 9N 9N 9N 9N 9N 9N 9N 9N 9N 9N 9N 9N 9N 9N 9N 9N 9N 9N ^{.^{.!D kg+lg+B>.kQ aN 9N 9N 9N 9N 9N 9N 9N 9N 9N 9N 9N 9N 9N 9N 9N 9N 9N 9N 9N 9N 9N 9N 9N 9N 9N 9N 9N 9N 9N 9N 9N 9N 9N 9N 9N 9N 9N 9N 9N 9N 9N 9N 9N 9N 9N 9N 9N 9N 9N 9N 9N 9N 9N 9N 9N 9N 9N 9N 9N 9N 9N 9N 9N 9N 9N 9N JH KH mg+J#+dS.LE 0N 9N 9N 9N 9N 9N 9N 9N 9N 9N 9N 9N 9N 9N 9N 9N 9N 9N 9N 9N 9N o5.ng+Z,+og+v_.XT k; j> ^~ ]~ D( g; 7] <! 4^ &) v' _) <! p( X..p( e^ y' U] '> J; >, x) Y_ [! [! )' 7] '> >) i; #, J) Q, >, a> >, #, '* 'w pg+qg+&a.[: 2' 0; d; rg+]g 5^ %e =T z' {{ x' T' +~ g] I{ X~ v' +_ }{ =~ 8' t) K> M> +> )> d, C, #y 8' k! g^ g; &) %! X, 0; H; E> sg+X$ tg+k[ 3P $) _<  > l; */ ]h k) &/ .> &/ 6! kx +> >) 2) ug+N> f'  C K) >' >' ",
"Rm @e A~ M) => #, j, y) >) `, t) )* [; m> L; n> u[ fm.vg+wg+*j D> `; o! B) Xi J> `, i' >> >) H; >> ,> K> C> i' R, R, ;^ !' V~ x; w; $) W) +> W) M) C> ;) &> ], '' >) *) x; g; a; =, >, mc xg+yg+N=+*A W' a, $) z; a, #) ], {, f, g/ ~' N> ]' #> $> zg+Ag+ZM.^B.=Q +$.kQ JH 9N 9N 9N 9N 9N 9N 9N 9N 9N 9N 9N 9N 9N 9N 9N 9N 9N 9N 9N 9N 9N 9N 9N 9N 9N 9N 9N 9N 9N 9N 9N 9N 9N 9N 9N 9N 9N 9N 9N 9N 9N 9N 9N 9N 0N ^{.e#.C/.Bg+9k.JH 9N 9N 9N 9N 9N 9N 9N 9N 9N 9N 9N 9N 9N 9N 9N 9N 9N 9N 9N 9N 9N 9N 9N 9N 9N 9N 9N 9N 9N 9N 9N 9N 9N 9N 9N 9N 9N 9N 9N 9N 9N 9N 9N 9N 9N 9N 9N 9N 9N 9N 9N 9N 9N 9N 9N 9N 9N 9N 9N 9N 9N 9N 9N 9N 9N 9N sP bN Kb.Cg+P7+$y.!D 0N 9N 9N 9N 9N 9N 9N 9N 9N 9N 9N 9N 9N 9N 9N 9N 9N 9N 9N 9N 9N sP *` S6.Dg+Eg+00.9- F; 2~ d{ 1{ k! @> v' }) k! v' yf }~ 4^ `! #~ |{ H{ +~ O^ 1, Z, ^> J; =~ }) /) F; W, '[ #! >) >) `, O, `^ x! ;> P; /b Xg.zF.Id ~b E, F; a, V! 3! T, &) u' V' n^ j! '< rf $~ =~ G~ T, 1! W^ g^ 1! E, Y; O) b> R_ R_ />  ^ ad G~ G; |) '> ^' F; Z, W> J: bi.Fg+Gg+=1 m[ e' 2) ], j' ,' L) [{ R_ +> N) )' 8' %) )' nf XO.{{ H{ vd %e U' .< ",
"[y ^= W< 6i a- E, O= &/ `; k; I< 4* `] T_ s~ >* Kc G,.ax.VF $b s~ ): '* Y; a- 6; k; P; >^ Cx l; `; 0- tf l> (, #! ]) {~ N{ =( ;{ '' J; J; '> '> j> N= j, ,> x) h; j> O, `, U, J; S, e> -c }9 94+k} o< Q; H, #, ;, ,> G~ '> G~ >) ]) &) @> B! #! :[ |n.Hg+Kb.sP 9N 9N 9N 9N 9N 9N 9N 9N 9N 9N 9N 9N 9N 9N 9N 9N 9N 9N 9N 9N 9N 9N 9N 9N 9N 9N 9N 9N 9N 9N 9N 9N 9N 9N 9N 9N 9N 9N 9N 9N 9N 9N 9N 9N 9N 9N 9N 9N bN bN DR.sz.Ig+tT SQ 0N 9N 9N 9N 9N 9N 9N 9N 9N 9N 9N 9N 9N 9N 9N 9N 9N 9N 9N 9N 9N 9N 9N 9N 9N 9N 9N 9N 9N 9N 9N 9N 9N 9N 9N 9N 9N 9N 9N 9N 9N 9N 9N 9N 9N 9N 9N 9N 9N 9N 9N 9N 9N 9N 9N 9N 9N 9N 9N 9N 9N 9N 9N 9N 9N 9N 9N 0N kQ Jg+Kg+Lg+Xi.9N 9N 9N 9N 9N 9N 9N 9N 9N 9N 9N 9N 9N 9N 9N 9N 9N 9N 9N 9N 9N 9N 9N JH OR Mg+Ng+Og+Pg+Qg+Rg+~z.N^ 1) @> k! Sg+{{ :/ r] .< k! u^ Hz.TR IS Tg+x' '' ;, n^ T' %) 2, '' W, S, R, R, ,' C' *) Z, *) m; !/ F< Ug+Il.Vg+e! '* /> 2' Wg+)' =! D! L{ G! h, 2~ 1, Y! U' 4! B; [{.ke Z!  ~ `! 1, #! @! a{ g, W, 0! ]' Q( ne Y! |{ U' D; ~' o^ *) => #x.B0 qX W} _w =T 5^ a; |) d; '' |) F; |) @> i, T' T' V' E( w' 9/ @~ 3] p: E( i, ",
"8; bg+Y^ N~ W< w! %] n~ 3; r; 6* {* H] 3; 9P j* *; Xg+Yg+Zg+q- {^ 3; #_ `g+GS.B~ #] Z] Y; |; W; Z] xi  h+ { n{..h++{ 9{ E] +h+=] $! 5_ 8{ @h+-S.:Q u#.w> !z j> 6] T) 6] /) z! |) *> f! =b m|+&-.w] .i ;> m> N! l_ 5_ ]) 5_ 5_ .{ $! +! 7~ xg 9~ '! #h+.L.;&.kQ kQ !S 9N 9N 9N 9N 9N 9N 9N 9N 9N 9N 9N 9N 9N 9N 9N 9N 9N 9N 9N 9N 9N 9N 9N 9N 9N 9N 9N 9N 9N 9N 9N 9N 9N 9N 9N 9N 9N 9N 9N 9N 9N 9N 9N 9N 9N 9N bN SQ 0&+$h+%h+&h+uK 9N 9N 9N 9N 9N 9N 9N 9N 9N 9N 9N 9N 9N 9N 9N 9N 9N 9N 9N 9N 9N 9N 9N 9N 9N 9N 9N 9N 9N 9N 9N 9N 9N 9N 9N 9N 9N 9N 9N 9N 9N 9N 9N 9N 9N 9N 9N 9N 9N 9N 9N 9N 9N 9N 9N 9N 9N 9N 9N 9N 9N 9N 9N 9N 9N 9N 9N 9N 0N %Q.ON.DQ.|T JH 9N 9N 9N 9N 9N 9N 9N 9N 9N 9N 9N 9N 9N 9N 9N 9N 9N 9N 9N 9N 9N 9N 9N 9N 9N jQ 0k.o(.*h+=h+-h+;h+>h+,h++~ Tg+:/ Z! Y! V~ I! `! g] L{ -( /~ &) X, 7^ i, b; Q( w^ J! ^~ !' {) F{ :^ () Y, =! ;, %~ k' '~ `M s'.'h+`| ~) =' Y] V> g^ ^~ O{ I! 4~ #~ %! '' %! D; C; lg 7< .< v^ R( :/ 0' N^ m! v^ b; c; (^ f; Y! 2~ O^ &) a; ]' P> e; T~ /' 0).)h+.4+YT V) G{ @> M> 2' S' S' 6' e> h' K> Q, v; d, ], Rx K) f' u' 8' @> ], Q, ",
"Lm !h+E~ H~ j~ j> G~ G~ 6] #, {/ >^ <; O] N= -' I[ ~h+YK {h+)/ 3: d* x~ =_ (* ,> h; @] j> N! f! N' 0( tf $] x! l~ l> 8{ g; Y, !! Z~ Y, @h+'[  : W] L; ^* ;> Z; N= ;> B> j, H~ >_ x) f! Oc -v.]h+f/ ^h+[; (* $, x! 6] P, G; 9] ]) e] U, *! &! h] #! *! /h+(h+w#+jQ rP 9N 9N 9N 9N 9N 9N 9N 9N 9N 9N 9N 9N 9N 9N 9N 9N 9N 9N 9N 9N 9N 9N 9N 9N 9N 9N 9N 9N 9N 9N 9N 9N 9N 9N 9N 9N 9N 9N 9N 9N 9N 9N 9N 9N 9N 9N SQ SQ 0&+_h+:h+<h+sP 9N 9N 9N 9N 9N 9N 9N 9N 9N 9N 9N 9N 9N 9N 9N 9N 9N 9N 9N 9N 9N 9N 9N 9N 9N 9N 9N 9N 9N 9N 9N 9N 9N 9N 9N 9N 9N 9N 9N 9N 9N 9N 9N 9N 9N 9N 9N 9N 9N 9N 9N 9N 9N 9N 9N 9N 9N 9N 9N 9N 9N 9N 9N 9N 9N 9N 9N 9N 9N XK.i0+[h+8^.bN 9N 9N 9N 9N 9N 9N 9N 9N 9N 9N 9N 9N 9N 9N 9N 9N 9N 9N 9N 9N 9N 9N 9N 9N 9N 9N 9N KH IE aV '!+dl.3~+tB }h+|h+ad ^~ W, K! #~ y' i, }] >! j_ g; g; J! ]~ J( J! A; g; T^ () P! 3/ d_ K! =! f] 0! =A @) ~^ 1h+>% 2h+z} 7z @) Z' f, )' G{ w{ y' |{ 0) *! d; |) 0' |) 0; O^ u' O^ O^ g; '' '' :^ :^ b; )' #! (, '' g; )' '' Z, P! `, f! <e -> .=+hI.k4+3h+m#.4^ k! J; h; '> ,' ;' v; -, F; Q> '' 1, O> *~ <! %e +~ H{ v' A; d; ",
"Lm 5/.M^ [) E~ ]) K! X, W, G~ j, G, ;> U) j> m#.x- +$ W(+Iy CT.Eh /< 9( ld 7{ l~ ([ 6) k> $, `, 6) `, k; !/ w, 3^ l; M; O) j, k> $] x! y) 3[ 'T 4h+W; 5; C) I< 6> I> P; 9> *[ zg a) Y] *' =v.5h+-l rx R> v: /' -> O) ], 6) G~ h; *) `, Z, -, J; i; ,> ^' x]+Z8+6h+7~.KH 9N 9N 9N 9N 9N 9N 9N 9N 9N 9N 9N 9N 9N 9N 9N 9N 9N 9N 9N 9N 9N 9N 9N 9N 9N 9N 9N 9N 9N 9N 9N 9N 9N 9N 9N 9N 9N 9N 9N 9N 9N 9N 9N 9N 9N SQ SQ <M.7h+8h+[C bN 9N 9N 9N 9N 9N 9N 9N 9N 9N 9N 9N 9N 9N 9N 9N 9N 9N 9N 9N 9N 9N 9N 9N 9N 9N 9N 9N 9N 9N 9N 9N 9N 9N 9N 9N 9N 9N 9N 9N 9N 9N 9N 9N 9N 9N 9N 9N 9N 9N 9N 9N 9N 9N 9N 9N 9N 9N 9N 9N 9N 9N 9N 9N 9N 9N 9N 9N 9N 9N 9h+0h+Gf.]{.JH 9N 9N 9N 9N 9N 9N 9N 9N 9N 9N 9N 9N 9N 9N 9N 9N 9N 9N 9N 9N 9N 9N 9N 9N 9N 9N 9N 9N bN sP !S kQ jQ v'.:R.ah+W8+&y.bh+=, w{ k! 1, v! >) P> %! H..)' O^ W, !' #> d; F; ^' i; {/ Y~ K! /) |) /) /' n> H] -[+h>.ch+hk X' C~ P, +{ J! O^ e^ 4~ Z! E; c; A; )' _) ]' K( A' T' &) W, y; P! k( Y, !! g, 0) 9] g^ ]' g; #> R, 5! k' C> c' ;_ L^ _x ,I.!f dh+Z] )' k! Y! E; () g; &) 0) 0) A; ;{ g, x{ 4~ D^ u{ 4] re te s6.E; '' ",
"*] Ty _[ S].l~ >> 0( 8T h; N' @] l; 6; x! j> /..x- eh+fh+!y I' i* I[ g> -^ Z' >) 8T 8) n> 9> m; G; 0> 6> i( ,* P= m; ;> m> t; w! -> C^ ^> W+.gh+hh+@_ ): @] 6; ): @) !/ '* x(.8i =' H> ~(.z:+ih+~} YR o~ M' Z; [; O, >) >) `, j, B> B> 8) M) #, B> #, >) ,' ,' jh+kh+Sm.9N 9N 9N 9N 9N 9N 9N 9N 9N 9N 9N 9N 9N 9N 9N 9N 9N 9N 9N 9N 9N 9N 9N 9N 9N 9N 9N 9N 9N 9N 9N 9N 9N 9N 9N 9N 9N 9N 9N 9N 9N 9N 9N 9N 9N SQ SQ DR.lh+mh+nh+^{.9N 9N 9N 9N 9N 9N 9N 9N 9N 9N 9N 9N 9N 9N 9N 9N 9N 9N 9N 9N 9N 9N 9N 9N 9N 9N 9N 9N 9N 9N 9N 9N 9N 9N 9N 9N 9N 9N 9N 9N 9N 9N 9N 9N 9N 9N 9N 9N 9N 9N 9N 9N 9N 9N 9N 9N 9N 9N 9N 9N 9N 9N 9N 9N 9N 9N 9N 9N 9N .$.uO.oh+'C.JH 9N 9N 9N 9N 9N 9N 9N 9N 9N 9N 9N 9N 9N 9N 9N 9N 9N 9N 9N 9N 9N 9N 9N 9N 9N 9N 9N 9N 9N 9N 9N 9N 9N 9N bN [R Yj.6h+ph+qh+rh+sh+A' '' a> Z, S, 2, W, %! #> d; d; (, !' Z, H; !! K! () G; H; H; m> M; 5* p&+0_+h/+DO S' }, W; K( K! E; Y! Z! s^ C; :^ C; %! %! ~' ;{ k! 8] i, 0; F; m; f, y; !' 7^ E; $~ #> *> j> f! =) 6' >) >) `, N; )* Q[ th+uh+vh+Eh Q, (, *> ,' i' ], M> 8) Z, j, Z, F; g, ^~ 2~ Q( e^ X~ Z! {( `, ae ",
"-h q++ET G/ e> N= @] yC 6' v, S' Z' 1( U{ O) ): /b YL ,~+Fh ~..,* 4; ,* 4( P= z, &/  > sx.Y] x, 6' R_ 6> ld 3: f! P! `, >> %~ @) <> i/ B) Ii TC F> f> F/ U^ /> C~ /' 7{ m> cg+X{ ^> /, =~+M6.S'.'/ J< k; `] f> P; '* E, P= t/ I< Y' -> Z; e[ a- qd )* Z' *> i, D( wh+xh+z7.rP JH 9N 9N 9N 9N 9N 9N 9N 9N 9N 9N 9N 9N 9N 9N 9N 9N 9N 9N 9N 9N 9N 9N 9N 9N 9N 9N 9N 9N 9N 9N 9N 9N 9N 9N 9N 9N 9N 9N 9N 9N 9N 9N 0N SQ DR.qh+yh+zh+KH 0N 9N 9N 9N 9N 9N 9N 9N 9N 9N 9N 9N 9N 9N 9N 9N 9N 9N 9N 9N 9N 9N 9N 9N 9N 9N 9N 9N 9N 9N 9N 9N 9N 9N 9N 9N 9N 9N 9N 9N 9N 9N 9N 9N 9N 9N 9N 9N 9N 9N 9N 9N 9N 9N 9N 9N 9N 9N 9N 9N 9N 9N 9N 9N 9N 9N 9N 9N 9N JH Ah+Bh+L].JH 9N 9N 9N 9N 9N 9N 9N 9N 9N 9N 9N 9N 9N 9N 9N 9N 9N 9N 9N 9N 9N 9N 9N 9N 9N 9N 9N 9N 9N 9N 9N 9N 9N 9N 9N 9N 9N 9N v$.=D Ch+Dh+E; g; >) c' ,' 0e V' k! %! '' I; Z~ W, #! 5{ i; $, E, w, `; `; s~ T> =b [t ,B Eh+D< [; s~ [; {) 7^ o{ e^ G{ Y! e^ C; |{ y' T' E; 5] Z! E( &) 8{ #! A> jx 1) !' F{ F{ J; J; a> &] l> >> J; N' G; i; ;> l; co.{u ih+kk D: M; ]] m; 8) 6' bi 6! *> O' &> z; +> n^ P> p^ r] r] p{ L{ V~ ]' P! ",
"qy bg+T< S< C> => J> C> i' 6! *) N; k> Y_ U, `; s/ Fh+a] _Q e! :> C^ p~ 3: Z^ hh U^ k' g< U> t/ -) &/ q> ~R i( Y] 5; Z' n> 5; M' v: [; )d JP ]h a) p] 9> X; &, b( E, W; M; 0> F~ F; I; Gc Gh+Hh+Ih+N!+Y; <; Q; s; w! U^ C~ <h 6; {^ {^ -> n~ fz.@) ]^ L^ {/ a> u; x! Jh+Kh+Lh+w$.9N 9N 9N 9N 9N 9N 9N 9N 9N 9N 9N 9N 9N 9N 9N 9N 9N 9N 9N 9N 9N 9N 9N 9N 9N 9N 9N 9N 9N 9N 9N 9N 9N 9N 9N 9N 9N 9N 9N 9N 9N 9N sP ^{.0&+fC.Mh+_Q.bN 9N 9N 9N 9N 9N 9N 9N 9N 9N 9N 9N 9N 9N 9N 9N 9N 9N 9N 9N 9N 9N 9N 9N 9N 9N 9N 9N 9N 9N 9N 9N 9N 9N 9N 9N 9N 9N 9N 9N 9N 9N 9N 9N 9N 9N 9N 9N 9N 9N 9N 9N 9N 9N 9N 9N 9N 9N 9N 9N 9N 9N 9N 9N 9N 9N 9N 9N 9N 9N JH Nh+Oh+Ph+KH 9N 9N 9N 9N 9N 9N 9N 9N 9N 9N 9N 9N 9N 9N 9N 9N 9N 9N 9N 9N 9N 9N 9N 9N 9N 9N 9N 9N 9N 9N 9N 9N 9N 9N 9N 9N bN rP +-.<P.QN.%] b; +~ 2, q] N^ C; B; g, v^ v{ K! :^ b; @! u; 3/ {/ 4_ O! N= ]* 5; !/ =b Qh+Rh+Sh+R= ~! N; %~ [] 7^ b; D] V/ w^ [].h, L{ 4~ R( p{ (S `e CP.4^ i, ]) s] 2, C; g, :^ 7^ }] i, e^ 0{ o{ V~ e^ ]~ B; :^ 0! ;, nC n#.Th+)| Cx e; -{ '' '' d; 6! '' '' }{ @> #> V' O^ :^ ]A.r] w' G^ >! ^~ W, K; ",
"8; 2~.V] ~i '> `, `^ l> T) B! O! V{ W~ U] tz x! U= 6a+z@..G Y< i> ): ~* A) ,* x) #Q O, 4; ~! i; N' %, 9[ P: >* }, -' ;_ #_ >^ G, `, >) ^' J; ;' fz.n> `; o) `; p0.Y; >^ @) .> >> |, t) _8+Uh+ZP dE h> ,* L^ Y{ n] V) G~ x! x! `^ 4_ C^ j> m~ ^) V) $] 5g [^ $, O, X; t; z: Vh+p$.Xi.JH sP 9N 9N 9N 9N 9N 9N 9N 9N 9N 9N 9N 9N 9N 9N 9N 9N 9N 9N 9N 9N 9N 9N 9N 9N 9N 9N 9N 9N 9N 9N 9N 9N 9N 9N 9N 9N 9N 9N 9N bN bN &*+Wh+0`.+^.SQ 0N 9N 9N 9N 9N 9N 9N 9N 9N 9N 9N 9N 9N 9N 9N 9N 9N 9N 9N 9N 9N 9N 9N 9N 9N 9N 9N 9N 9N 9N 9N 9N 9N 9N 9N 9N 9N 9N 9N 9N 9N 9N 9N 9N 9N 9N 9N 9N 9N 9N 9N 9N 9N 9N 9N 9N 9N 9N 9N 9N 9N 9N 9N 9N 9N 9N 9N 9N 9N JH J$+Xh+`M.JH 9N 9N 9N 9N 9N 9N 9N 9N 9N 9N 9N 9N 9N 9N 9N 9N 9N 9N 9N 9N 9N 9N 9N 9N 9N 9N 9N 9N 9N 9N 9N 9N 9N 9N 9N -Q jQ -_.Yh+v8 B; o{ :^ @> y> ~! '> @> !' a{ D; ]~ g, g, )' '' s] /] P, x> W~ W~ P, y> /' t* 1% Zh+`h+q; 0! i; y> P> K! 8] b; *~ N^ D; i, o{ |{ 5] @~ 0/ R( B; =~ F; C, H, Z, ]' P> c; p^ !' P> 5] 5] C; D; ;( Y! b; -{ ;{ 0; Ch.$:+Z4 67.jP F{ :^ A' )> >) H, =) ], I; h] ]' #! () |) 7^ %! <! G{ W, *> j, [; ",
"Qm i=  i+U,  i+>> `^ x! x! [_ L; [; $, U, T) y~ oc k,.$< .i+I' Mc =' Cx 4( (' V) LS.B~ y~ Y{ :> `^ I~ X+.k; :> 5{ x! x> 4_ i+.(> [_ $, ]* V) ]* 3; y~ '* E{ D, 7> '* Y'  > &/ O) M> 8D _1+*0 +i+~E f) 4> ud !/ Z' f! >) k> k> m> f! m> j, J; Z, f! X; N; m; k' B> k' Z' k' )(.@i+#i+Yj.rP JH 9N 9N 9N 9N 9N 9N 9N 9N 9N 9N 9N 9N 9N 9N 9N 9N 9N 9N 9N 9N 9N 9N 9N 9N 9N 9N 9N 9N 9N 9N 9N 9N 9N 9N 9N 9N 9N 9N JH bN ;P $i+2f+%i+bN 9N 9N 9N 9N 9N 9N 9N 9N 9N 9N 9N 9N 9N 9N 9N 9N 9N 9N 9N 9N 9N 9N 9N 9N 9N 9N 9N 9N 9N 9N 9N 9N 9N 9N 9N 9N 9N 9N 9N 9N 9N 9N 9N 9N 9N 9N 9N 9N 9N 9N 9N 9N 9N 9N 9N 9N 9N 9N 9N 9N 9N 9N 9N 9N 9N 9N 9N 9N 9N uK &i+5`.`M.JH 9N 9N 9N 9N 9N 9N 9N 9N 9N 9N 9N 9N 9N 9N 9N 9N 9N 9N 9N 9N 9N 9N 9N 9N 9N 9N 9N 9N 9N 9N 9N 9N 9N 9N JH |$.*i+=$++x X!+v; |) ^' ^' ;> Z' z, M) 0! |) V' .< sf S, J; 2' */ v: O; ;> z{ /' /' X; 5; oh =i+-i+;i+f> i, y; c; n^ 1, $~ $> w; (^ (^ +> ,' x; a; x' Y! ]' *> -)  ' h~  > J) i' &> ,' (^ e; |, |) W, W, z~ )' W, ^' 0! !! c; >i+,i+'i+={ 9P {' A; ,' 2' .' U> s) C> f! >) *> 8) Q, L) +> J; [{ )> X, )' G; j, ",
"*] )i+&, /> #, A~ #, ;> E, x, r' r' l; m> &~ hi 1P !i+~i+C$.Ch B) }, O) ;, /) N= m> M; Z] ;_ 7{ E, @] w! <> ~! O, {/ x! B> -> 5; n] -> ;> 2; -> '* k* P; '* v: k; O; O; k> ;, ^' ,' 8! ii.s!.0G l:.$/ I, @' :' M' W> C> V> 5; 2( M' J> H, 2'  ' l; [; U> `, f; Z, R, f; L> Q> R, #@+{i+*D w$.9N 9N 9N 9N 9N 9N 9N 9N 9N 9N 9N 9N 9N 9N 9N 9N 9N 9N 9N 9N 9N 9N 9N 9N 9N 9N 9N 9N 9N 9N 9N 9N 9N 9N 9N 9N 9N 9N uK bN +$.$5.]i+^i+KH 9N 9N 9N 9N 9N 9N 9N 9N 9N 9N 9N 9N 9N 9N 9N 9N 9N 9N 9N 9N 9N 9N 9N 9N 9N 9N 9N 9N 9N 9N 9N 9N 9N 9N 9N 9N 9N 9N 9N 9N 9N 9N 9N 9N 9N 9N 9N 9N 9N 9N 9N 9N 9N 9N 9N 9N 9N 9N 9N 9N 9N 9N 9N 9N 9N 9N 9N 9N 9N 9N )C.Y'+/i+TQ 9N 9N 9N 9N 9N 9N 9N 9N 9N 9N 9N 9N 9N 9N 9N 9N 9N 9N 9N 9N 9N 9N 9N 9N 9N 9N 9N 9N 9N 9N 9N 9N 9N uK RC.(Q.(i+D1+J! K! k! G{ g; O> '' R, $~ &) 8] 2~ I! g{ X~ _) )' *> KS.,> f!  ' J) x, U> H> *^ U$._i+Z,+:i+Mc K> z, )> =+.d9.M^ v' 4^ i, i, v' <! 2~ p: h/ A{ x{ 8] 7] h; [{ *> Z, () %! k! ]' ^~ 8] }{ W^ T^ =, 7] 0; l> u; B> [; <i+[i+or.ny.{/.%> p( v' '' P! ^' y) '' () d; :^ k! A' a; .< 3, v' %! ^~ 0) }) R] ",
"C_ 9; S, '> )' #> '' P! 9! i' b' g~ e> N> N) n[ }i+|i+Zr eU P* @) {/ 0! Y~ ;! 8) f, f, ], z{ %~ j, t) `; k' 9, z{ H, J> W> J> R, !! ^' >) j, #, => [; 7{ n> -> ]* L; Q/ `^ .: b> z, X) w!.1i+;q r%.{* m) j< t/ m> => >, k> => S' => H; z, M) 6! j, M; >) W, E; A; () 7^ () g^ |) 6) 2i+vC.3i+Y5.rP aN 9N 9N 9N 9N 9N 9N 9N 9N 9N 9N 9N 9N 9N 9N 9N 9N 9N 9N 9N 9N 9N 9N 9N 9N 9N 9N 9N 9N 9N 9N 9N 9N 9N 9N 9N ^{.LE !D 4i+5i+:P.TQ 9N 9N 9N 9N 9N 9N 9N 9N 9N 9N 9N 9N 9N 9N 9N 9N 9N 9N 9N 9N 9N 9N 9N 9N 9N 9N 9N 9N 9N 9N 9N 9N 9N 9N 9N 9N 9N 9N 9N 9N 9N 9N 9N 9N 9N 9N 9N 9N 9N 9N 9N 9N 9N 9N 9N 9N 9N 9N 9N 9N 9N 9N 9N 9N 9N 9N 9N 9N 9N 9N ^C FA.3M.jQ 9N 9N 9N 9N 9N 9N 9N 9N 9N 9N 9N 9N 9N 9N 9N 9N 9N 9N 9N 9N 9N 9N 9N 9N 9N 9N 9N 9N 9N 9N 9N kQ 7~.SO.:b+6i+7i+T/.LS.i; G~ g^ +> w; j' 5! s' d, d> sh jB.z! Q] *, &, O] V< O= 3^ 9D Hi 8> ,) Eh 0C 8i+Fg.N9 9i+kD `B DC m- 0i+ai+bi+P< Dx A! x) R_ *, =, ![ (#.ci+U< b> @] n> V< &~ G, W< A! J~ l~ B#.m~ &/ v, h- M: v/ M; N= 9> E< qx )x.,0 di+:].ei+u~.>_ D1+}; w, b- D~ J~ %B x) U{ y) L) z, L) ET v, E, 2; e[ 0- B0.",
"-* 9; Y_ Q< O' '> -, >) 8) &/ t/ H> K> 6! 6! I, fi+gi+$g.a0+F%.Pe V; z: hi+%, J) M; =) j, `, => J) x, Z; => J> ,' 6' => 5; Z; >, y) x) M; Z' 5; l; Y; 5( J< Q= r- _; %w kc k: V9+h* jh ii+ji+ki+li+j~+D< 2P ~* D' 6; 9P O] d- d- D' <h r~ Z] mi+c< 2; d- Z^ a- I: 6* V; 6* Ox 9* ,[ c* P; ni+0(.V7.{7.9N 9N 9N 9N 9N 9N 9N 9N 9N 9N 9N 9N 9N 9N 9N 9N 9N 9N 9N 9N 9N 9N 9N 9N 9N 9N 9N 9N 9N 9N 9N 9N 9N 9N 9N ^{.KH !D oi+pi+qi+cN 9N 9N 9N 9N 9N 9N 9N 9N 9N 9N 9N 9N 9N 9N 9N 9N 9N 9N 9N 9N 9N 9N 9N 9N 9N 9N 9N 9N 9N 9N 9N 9N 9N 9N 9N 9N 9N 9N 9N 9N 9N 9N 9N 9N 9N 9N 9N 9N 9N 9N 9N 9N 9N 9N 9N 9N 9N 9N 9N 9N 9N 9N 9N 9N 9N 9N 9N 9N 9N 9N /C ri+%D w$.9N 9N 9N 9N 9N 9N 9N 9N 9N 9N 9N 9N 9N 9N 9N 9N 9N 9N 9N 9N 9N 9N 9N 9N 9N 9N 9N 9N 9N 9N JH si+ti+ui+>d !| r< (x 7/ !k AD ;U I' IO AD L%.L%.w} U| CT.QC 7/ ^k q: AD Ig L%.)| o( _: ~$.j| y} s} kd D/ vi+*z.wi+[V D_.K_.3| 4D 5c ~< !{.X%.Nh L%.-$.]| 5< QC R[ %b S^ tc Nh <} <} 3| Zj kU q} p} V} f .`j x%.rC.,4.&| *| 3| Ig t< Q=+qf Ij.aR wq.xi+)l fk UT UT r/ t< )k r/ mk yi+UT #| _/ <k #| r/ )| Qd a} _! S} 2} zi+",
"L$.Ai+z^ Ah.p, w* Aw J* -< 0U `j u> uf .b -b )B Bi+Ci+Di+*q.BS W} n} P_ P_ mk 'U (f q< Jd Y| ^k o, N] `a o< E< :: r, /b *A uf Gh _b vx 'U i| <k >d UT |^+;| aS DD R~ M} i_ u| Ei+{-+J| _-+Fi+Gi+Hi+e| 'U.5} by }| Ii+Ji+[-+o| 67.q} _| U; p} @&.U; ={ kU n} |' [} 3} 5} >: [} L} D| '/ dE 8| >E WU.Ki+D:.JH 9N 9N 9N 9N 9N 9N 9N 9N 9N 9N 9N 9N 9N 9N 9N 9N 9N 9N 9N 9N 9N 9N 9N 9N 9N 9N 9N 9N 9N 9N 9N 9N 9N sP JH rP Li+'(+Mi+KH 9N 9N 9N 9N 9N 9N 9N 9N 9N 9N 9N 9N 9N 9N 9N 9N 9N 9N 9N 9N 9N 9N 9N 9N 9N 9N 9N 9N 9N 9N 9N 9N 9N 9N 9N 9N 9N 9N 9N 9N 9N 9N 9N 9N 9N 9N 9N 9N 9N 9N 9N 9N 9N 9N 9N 9N 9N 9N 9N 9N 9N 9N 9N 9N 9N 9N 9N 9N 9N 9N 9++pR Ni+jQ 9N 9N 9N 9N 9N 9N 9N 9N 9N 9N 9N 9N 9N 9N 9N 9N 9N 9N 9N 9N 9N 9N 9N 9N 9N 9N 9N 9N TQ GH Oi+Pi+Qi+1E.Ri+Si+Ti+YD TV Ui+SV Y2 Vi+Z2 Wi+'3 Wb+B3 Pb+WU Xi+%W.UV BV BV F^+Yi+)G O2 G^+ID.6n VD.&4+ /+Zi+`i+ j+.j+Zb++j+@j+#j+x| $j+%j+%j+;n ;n x3 %j+VV &j+*j+!V.GV =j+!E.GU N3+-j+W3 $j+&c+$j+W3 ;j+`2 ^=.#E.>j+,j+z3 xV ==.k2+==.'j+)j+!j+$q.~j+{j+]j+^j+/j+w3 (j+nV _j+_j+y3 y3 :j+A^+<j+[j+~3 z2 }j+N3 N3 |j+RU 1j+(q.",
"2j+3j+4j+5j+7b.>+.c2+02+6j+7j+ec+8j+9j+c2+~2+0j+D2 c  ]  aj+bj+QD..=.vl vl !E.cj+!E.SU UU dj+3o.ej+R-+M^+YC fj+5*+gj+g-+2;+sV hj+La.ij+<n =[.&[.jj+kj+R2+lj+mj+nj+A3+oj+pj+y3+GE.qj+rj+'X.sj+tj+uj+Q-+vj+Q3+wj+xj+$c+Im }W [W yj+S=+CV #h zj+cb.@}  } z2 Aj+1=.1j+Bj+Fw.&4+zj+z3+Cj+Dj+Qi+|G Ej+Fj+Gj+H:.T0.TQ JH 9N 9N 9N 9N 9N 9N 9N 9N 9N 9N 9N 9N 9N 9N 9N 9N 9N 9N 9N 9N 9N 9N 9N 9N 9N 9N 9N 9N 9N 9N 9N aN 9N JH Hj+<F.Ij+#%.0N 9N 9N 9N 9N 9N 9N 9N 9N 9N 9N 9N 9N 9N 9N 9N 9N 9N 9N 9N 9N sP bN bN bN 0N bN bN 9N 9N 0N bN bN aN 9N 0N bN sP 9N 9N 9N sP sP sP 9N 9N sP sP 9N 9N 9N 9N 9N sP sP sP !S JH JH 0N sP sP sP aN 9N aN 0N 0N bN sP p4.;,+Jj+jQ 9N 9N 9N 9N 9N 9N 9N 9N 9N 9N 9N 9N 9N 9N 9N 9N 9N 9N 9N 9N 9N 9N 9N 9N JH uK 9N jQ q@+Kj+Bt.Lj+Wd.Mj+Nj+Oj+Pj+Qj+Pj+Rj+Sj+Tj+t-.Uj+Vj+Wj+Xj+or.-O.z. Dr Yj+Zj+`j+ k+K7 f5+.k++k+&5 @k+;d.#k+=_+$k+[d+%k+&k+*k+`c.=k+-k+;k+>k+,k+'k+)k+!6 !k+DF.~k+Sg.*>.{k+]k+Cr ^k+/k+(k+_k+:k+<k+Yj+[k+}k+|k+JT 1k+EC.2k+2k+t% R7 ds 3k+4k+5k+6k+7k+8k+9k+0k+ak+bk+N. 9p ck+dk+ek+(d.fk+gk+Do Yf +w a7 R-.hk+ik+C2+jk+V@ >f kk+s4+-e+",
"lk+mk+Sp _[.m. 9# nk+fc.fc.ok+pk+qk+rk+d. m{ 0. sk+D5+tk+uk+{I vk+wk+IC xk+yk+zk+5I y@ J^.J^.gG dk+#d.Ak+gI yr.Bk+Ck+Dk+Ek+&J Fk+/d+Gk+;7 Hk+>5 B6 Ik+Zj+Jk+Kk+Lk+Mk+Nk+Ok+0e.Pk+cU.Qk+Rk+Sk+Tk+Qa.FY.Od.Uk+Vk+Wk+Xk+Yk+Bq Zk+`k+ l+61..l++l+@l+uc.#l+$l+j+ %l+S@ &l+*l+=l+-l+;l+{[.E7 07 >l+Y/  l+w4+[r.hF.gb+g@.TQ 9N 9N 9N 9N 9N 9N 9N 9N 9N 9N 9N 9N 9N 9N 9N 9N 9N 9N 9N 9N 9N 9N 9N 9N 9N 9N 9N 9N 9N 9N 9N 9N 9N ]%+7f+9$.AJ.*` *` *`  T  T  T *`  T  T  T  T  T  T *` *` *`  T  T  T OR ;Q q!.;_.;_.u$.fS u$.u$.rR H#.u$.j0.,l+,l+!#.VL.p4.<R Hg+7N 7N T6.T6.7N ;&.7N p4.'_.rR rR '_.'_.rR rR rR rR ;_.u$.fS u$.rR rR rR '_.'_.'_.;_.'l+'l+'_.)l+!l+~l+w$.9N 9N 9N 9N 9N 9N 9N 9N 9N 9N 9N 9N 9N 9N 9N 9N 9N 9N 9N 9N 9N 9N 9N 9N JH of.n5.{l+]l+^l+/l+(l+gf.Nf._l+K9 .Z.Up z'+:l+W9 ff.<l+[l+e1.}l+|l+1l+ZX 2l+(P.z@.3l+4l+5l+6l+Zh+/e.k% o9 7l+q2.Ur 8l+9l+4l+N5+P5+0l+ 0 al+bl+cl+q|.Z5+C@.-0 Y7 Y7 aK )e.dl+WZ {Y.el+Vf.b5 EZ />.fl+gl+hl+hL ;u il+jl+.S kl+`< <g.ll+lg.ml+nl+ol+pl+T(.]++hY ql+Cc.` +rl+sl+tl+ul+vl+wl+xl+JY.O,+xJ !~.yl+zl+jG.LR Al+Bl+,g f;.Cl+Dl+El+Fl+TL ",
"U  Gl+.y.Hl+Il+Jl+Kl+Ll+Ml+Je.(t.,B.Nl+Ol+Pl+n}.kA.AZ.Ql+|t.Rl+Sl+Tl+Ul+Vl+Wl+Xl+Yl+Zl+Ts.`l+_L 0K g++ m+n}..m+.m++m+@m+#m+$m+%m+EJ.EJ.&m+Df.*m+/t.=m+`1.Z/.10 <8 ]$.fs.fs.45+J$ M8.m% Zl+Zp 6'+-m+ m+;m+>m+,m+Ac.zy.'m+)m+v0 `8+!~.!m+q>.~m+{m+]m+^m+/m+(m+_m+:m+nu <m+[m+3z g$ jv.qg.dR u9 6R.Kl.w:+e..qQ }m+|m+|'+|$.rP 9N 9N 9N 9N 9N 9N 9N 9N 9N 9N 9N 9N 9N 9N 9N 9N 9N 9N 9N 9N 9N 9N 9N 9N 9N 9N 9N 9N 9N 9N 9N 8k.C'+Q7 Vi.1m+2m+3m+4m+4m+1m+k%.1m+1m+5m+5m+6m+6m+1m+7m+8m+9m+5m+5m+0m+am+j7.bm+cm+F/.dm+dm+em+fm+gm+}D 'a+hm+im+dm+jm+'C ^m+km+*0 it.r>.#_.lm+ t.r>.mm+nm+om+im+pm+pm+pm+/%+em+/%+/%+em+qm+t..t..F/.nm+rm+sm+rm+rm+sm+sm+tm+`7 um+vm+}R 9N 9N 9N 9N 9N 9N 9N 9N 9N 9N 9N 9N 9N 9N 9N 9N 9N 9N 9N 9N 9N bN JH JH +-.89.wm+xm+Km.ym+zm+Am+Bm+;!+[h.-A Cm+Dm+Em+Fm+Gm+Hm+Im+Jm+Km+Lm+Mm+Nm+Om+Pm+Qm+Rm+Sm+@..Tm+U# Um+Vh.Vm+1l.^!+Wm+Xm+Ym+16.Zm+`m+ n+.n+/K.+n+@n+i)+.h.%v P)+#n+P^.$n+%n+&n+MI.*n+*n+=n+lM (i.<g E'.{+ -n+mz.o# ^A Tw.>!.;n+r# 3 .Ks pS :, >n+,n+1M Mh.r# :c e4.'n+)n+!n+&S.~n+{n+O< ]n+^n+-T./n+h# (n+_n+#K.Zb :n+<n+{3.`= [n+L` }n+|n+1n+2n+c:.",
"3n+{]+4n+5n+4=+Ps 6n+v .:` 7n+8n+9n+0n+an+c'.bn+cn+zs 1% d'.dn+en+4=+Gm+fn+gn+hn+h^ Tt in+X7+jn+1D 3w.a{+kn+q~+ln+mn+nn+on+pn+qn+rn+sn+DP &S.tn+un+vn+sb wn+FM.$g+WN uh.xn+yn+#g+zn+$i.Y .An+|/.Bn+R ..4.PI.S .[!+y^.q_ xx Cn+,A.Dn+En+4= Fn+i.+Gn+n0.N# cl+TG Hn+8i.In+sO Jn+Kn+k!.yi.1- K3.Ln+ui.al.3..Lw 8i.Mn+CL Nn+On+=Q 9N 9N 9N 9N 9N 9N 9N 9N 9N 9N 9N 9N 9N 9N 9N 9N 9N 9N 9N 9N 9N 9N 9N 9N 9N 9N 9N 9N 9N 9N [8.o# x- M!.Pn+mw 1[+Qn+Rn+7= ZJ.|[+Z.+O8+lQ.Sn+Ln+Tn+.=+Ln+cN.Un+Un+Vn+Wn+Xn+{!.XS.Xn+@, Xh T= [- w(.sP.Yn+Zn+(x V9+D' tf G; ;, /] [; 3: >* 5( `n+Cx k: D- |i f* +, 1i {b hD E/ l] =; r- V; a[ O: 'T ]> d[ c< /; /; Xa Xa q, I[ A)  o+8N 9N 9N 9N 9N 9N 9N 9N 9N 9N 9N 9N 9N 9N 9N 9N 9N 9N 9N 9N 9N uK JH }R JB..o++o+@o+x, Y; 6; b- b- O: 3^ E, t/ G, k; 5* k* ): 4; :: d* S,.#o+$o+@| x- Ui j> E, ): 7* ^; )b *^ =' M; E, %] 6! A~ a- `: ed x]+D' ): O] Y; }, *[ D~ j> x) ih >) V] -, g^ 0> n> <4.B_ d] 5( i!.Ia mD BO %o+@j.G@.k; ~* ~* '* ): +, 3: k; Z^ %B @] (' XS.A#.X{ }; <h O= U) U^ 0> [{ !> ye ad =, [{ B> 9> {* :: q; q,  b &o+wB /b `} RH *o+M-+P* ",
"e# =o+v+.hD T= 9< Oc 9< E/ -< QC ,j [> R[ R[ R[ Kc r< ]b oc oc w[ K= [- 1i A/ =j E= 7x |f q' oc *; 1i z: P* $^.-o+f4.:^.;o+A} wC :' '* D, H> l) bi e> l; @) M; A! U{ 7* <> V) <h >^ P: +< E< I[ t, 6* a- e- `: Cx `] g[ I[ I[ d* D< bA 1/ BC l- _, jh Y/..f+d .<k vi A~ l_ >o+b^ Y_ >) 8) *> F; 1, S, +> M) L; k> ^' ,o+'o+ah+Z*+^D JH 9N 9N 9N 9N 9N 9N 9N 9N 9N 9N 9N 9N 9N 9N 9N 9N 9N 9N 9N 9N 9N 9N 9N 9N 9N 9N aN y9.)o+#^.H..0' g; () x; (^ 7m.I; ,' *> R, c%.t) z; }< d' }< e' !o+A' '' 0; !( e; H; d; o{ {' B> W> +( &i.~o+{o+/i H, =) B' P> y; L' 9! f! => #, O, ,> g^ *> ;, c; C; N^ f; L' R, ]o+k( F{ _f  ~ _|+)9.Zy.sC.+~ 7] ]' M! l; X; &/ ^o+6O.jQ 9N 9N 9N 9N 9N 9N 9N 9N 9N 9N 9N 9N 9N 9N 9N 9N 9N 9^.kQ rP v$.iQ R8./o+ _ L> w; ,' i' M) P) w; v; i! 3, 3, '> ^' ;' *> 6) 0! => D> (o+_o+J[.ZO U> g; |{ U' x' 8' A' y; R, 1) :/ Z! 9/ p: u^ r] s^ A' %! 0; F{ *~ N^ :^ e^ 9/ s^ v' :e k! %! QB.4) u' F{ -! '! 5{ T~ +, :o+U9 }b <o+U< -S.9] >! 0) {' Y, 6] !! 0) -( [o+Q9+g, Qz @+.T/.-, h] g, X, >! K{ sC.}o+|o+7|+6l.KS *~ |, *) P, {/ ^> Y{ 1o+Q+.N= x- 2o+3o+4o+H] ",
"Qm M~ ^> X; /' f! G; H; C' W> E, X; k' J> Z' l; &/ K> #, C> ^> R_ y) 7] 7] 0> ^> k> #, E, n> O, ^' X, f] Q, 8> Sw 5o+RL 01 X( M' N; ;_ (' k' t; l> Z, K; *) W, Y! %> P! P! 8] &) Z, c' C> H, 3' C> *> +> w; L> c' a, i' M; J> S' o! R> G> F, N~ M; E' /8+6o+a*.7o+ed z~ ]e G! 8] d, '' g; U] +> y; 7) $> ,' Q' w; 6].u' 2A.8o+9o+V~+64.jQ 9N 9N 9N 9N 9N 9N 9N 9N 9N 9N 9N 9N 9N 9N 9N 9N 9N 9N 9N 9N 9N 9N 9N 9N 9N aN b6.0o+ao+], *> F; #> @> #> R, Z, ,' |, 0! W! L( L> 0' rf ^g u' 8< .~ Y! C; @> d; e; Z, y{ g^ S' U> z> C2.hK..P mT.p] l; [; f, y; 0; f, => b' Q' )d Q' ;) L> /, #> *~ )' d; *> ], |, I; !' 7^ Y! IS Ve #~ O^ %! )> -) */ z> I> 8D X[+`*+w$.9N 9N 9N 9N 9N 9N 9N 9N 9N 9N 9N 9N 9N 9N 9N 9N sP -Q h&.4$.$y.bo+t[ L' 9! !( S, 7' 3) c, sC h! #> y) M) C, U{ J) &/ t[ /> ,> }, u, co+do+(>+Th Z; W, V' .< g; %> S, *> M) d, c, ~].A' r] T, rf 4, 1, %> +> y; @> $~ A; !' A' IS H{ e8._) !' 3, g' A' J; ]' )' #, Y' s]+eo+o;.V` F/ M) )' y; @> %! a; A' y; |, A; #~ i5.m! C( $> J> V> t' U! M> Q> ,' J] fo+Ak.go+ho+<k.6^ 3) M) R, I; O) => Ff io+Z^ /> i> B +2Z.jo+>* ",
"Km A= W, 0; [] {) ]) F{ ]' '' '' 0; |, '' }] !! '' d; (, d; ^~ (~ 4^ y' m! g, '' 0; #! 0! f; c; o{ E( a/ v( ;> Cx ko+>h.L, Y< '* >^ P; k; -' C^ C~ ]* 5; ^] d; ~' y; a, !( @> &) e; d; ;' c' => P! !( y; '< /, =) /, L> 5! f, C> W> D, p! */ s' x, S> ~n+@g.lo+je P= ^~ s{ 8z.:/ ye [! mo+no+<) !> +_ )' |, >) S_ 0' u' 0' f' oo+po+S8.qo+3$.8~.uK 9N 9N 9N 9N 9N 9N 9N 9N 9N 9N 9N 9N 9N 9N 9N 9N 9N 9N 9N 9N 9N 9N aN b6.ro+9! >) O, ;] ^' }{ }{ T^ Y~ 8{ W, 8{ #! u; }] 4^ 0{ G{ b; G! '{ H! 4~ m! |) /) x! `_ ,> 6> ): I< so+O5+to+TT Wd >^ $, >> #! *! B! k> C> C' =) i' #) Q> v; )' +! () G~ tf m> $, ^' U, F; !' k! y' ^~ F; %f tf J) e> U> M' G, %++/N.w$.9N 9N 9N 9N 9N 9N 9N 9N 9N 9N 9N 9N 9N 9N kQ kQ [$.B5.uo+@S.vo+,7.() ]) !! o{ G{ G{ g] !{ 6T J{ |~ U] x) #, m> r; Cx F/ 6; U) 6; d* `)+x0 x|+(x 6; 6] #! () g^ y) N' #, `, z, y) +> J; H; b> h; '> h] 1! F; *> h; M) |) ]' 8] !{ 1~ K{ w{ y{ 9{ 4^ () Q, t' C' J> Y] tD wo+xo+yo+x[ o! Z; x, */ C, $> d, ,' `, c' d, S~.W) d' A, =^ Y' s) u) Q, W! d; 8' Rd 5^ .5.Z9..~ zo+4, '> W) j' =^ I, x~ }f ', =' A/ !u F9 Ao+~* ",
"Lm r= R, f; () H; 0! z; 0; '' )' A; Z, I; H; 0! *) q] H; Z, h] 7] W, 8] &) ]' () (, e; O, ;, () P> V~ 0{ P> $, Cx cz.,g 01 q' ,* '* ): 5; ;> /> M; M; P= m; d; #> O' T< P! |) =~ $! F{ *> *) ;, Z, F{ *~ 8' _) |, d; 6) 8) H; B> /' 7{ z_ &/ >_ [; :: ci.m% Bo+Yx. : D] vL.F^ ]' T, 1~.:h X~ yf w{ O{ C; !! Y, b; y' e^ p^.=~ {{ yf j~ Co+Do+Eo+Fo+OR JH 9N 9N 9N 9N 9N 9N 9N 9N 9N 9N 9N 9N 9N 9N 9N 9N 9N 9N 9N 9N 9N _P.Go+Ho+u; P, e] i, e^ g] }~ w{ G{ J! 0; #! u; 3/ ^~ 8] 0{ E( >{ 3~ L{ p{ T' 3, +> /> G; ^' &~ E, f, la Io+Jo+YT dT 1g Ko+$] >> N' l> O! l> x! /) ^' 0! u; ;{ ^~ *! Y~ ^) x! t; >> Z~ ;e Y~ }] 0) x{ I! })  : `^ O, O! B> {/ >> Lo+Mo+w$.9N 9N 9N 9N 9N 9N 9N 9N 9N 9N JH bN sP rP v$.y6.@T No+Vn+/..'[ W, ]) () Y, e^ H! V/ t{ G! C8.#n.d^ M{ U] F; F;  : N' N' ^) B! O, Cx ko+cg.Oo+QC {/ u; ]) $! () #! Y~ /) x! a> h; 6! ^' F; G; B! Z~ }] () F; #! Po+W~ ^~ b; x{ 2/ M{ M{ X~ 7~ 0) +! G~ C> S' O, `, ^' A#.Qo+|^.Ro+*' 1' a) Z; %^ +> Y_ O' y) 8) 2' %^ B, {, d, =+.>> m> 6! '> g, }] '' J! H! te Mg vM.y8.So+To+4^ d> %^ S' CO D: x~ +< Q; YO eu./2.Uo+Mc ",
"C_ H/ B> z{ Q, >> s] f! f! i; `, *> `, 8) =) H; f! O; B> `, C> f! `, 6) 6) '' '' H; =) B> ;> ^' (, f; ]' `, }, ,[ x~+iv.91 %b Z; f! Q, *) F; S, ,' J; z, z{ 0; E; F; A! 0! K! 6~ Wz A] #{ W~ F{ j_ a{ 9) re 2~ j_ ;{ A; o{ K( y] P, M( Uy T) 9~ .: M+.Y3.Vo+O_ *S N! ;! C] ]~ ], &> 1, ;{ {' 3, O^ A; E; 0; *! M{ J{ v^ ##.J! m! &) @> #> n! W+.Wo+0m+~7.q!.aN 9N 9N 9N 9N 9N 9N 9N 9N 9N 9N 9N 9N 9N 9N 9N 9N 9N 9N 9N 8^.Xo+Yo+G~ f; ;{ m! :/ w' m! |{ C; 2, f, C' i' f, '' 0' sf r]  < f' j! z; $) Zo+8j.*/ M> t' a' Zg YB.`o+2).&>+~| Xx }f )* v: Z' X; S' $, {/ V{ V{ [_ V{ ${ d_ u; (, Y, (, L> B> f! f; () ]) F{ A' H{ #~ %! G; #, k> $, `^ `^ U~ 9!+ p+jQ 9N 9N 9N 9N 9N 9N 9N 9N 9N 9N -Q .p+o%.v3.+p+@p+r~ f! `; x, */ f, =) $) $) H..rf H..j!  < 2A.G9.n! *~ |) v; y; ]' |) J; h; I; J> m) #p+$p+%p+48.O, 3/ |, 0; () #> |) /) 8) >> >> K> j, M) C> v! 7^ 8] 1) 0; ;, P, f; g; O^ k! =~ 0' 3, c, +> H; `, 6'  ' v: [^ B> k> tf &p+*p+=p+YO 6; A~ k> h; () z! yf p( X~ h] x! F; 6) ad sC h; >> k> #! X, '! 7^ o{ I! ,{ VB.VB.-k.2B y' 8] ad J; E, i> Q; s~ <; Z] g[ -p+;p+>p+i* ",
"=/ Eg ;> B> `, >> `, `, M) #, B> f! f! f! /' `, O) 5; [; ^> >> /' >> b> F; y) F; >> 5! => m; z{ O, e; =) [; I: s, ,p+'p+x@+rc [; +> =~ F{ Y, A; A; +! ^' K; ;{ {~ K! ]) !! C; g{ N{ A] =] [] d_ p#.=( e_ G! w^ -{ :^ b; }~ 7^ {) B! M( M( l> 6] u! (' mw )p+!p+@a.x] ;> 2, F; &~ x, f, f, c' M> C' P! L> `, Z, =~ <! m! b; 8] g^ H; L> L> M> #, ~p+|= 05.<}+{p+I4.-P bN kQ sP 9N 9N 9N 9N 9N 9N 9N 9N 9N 9N 9N 9N 9N 9N ]p+Xo+^p+], f, x; x' A' T' ~].sf n^ $) w; ,' 1) A; s^ s^ 6< 0/ ke RR g' ~' g/ $) N> ], f, 4' uh /p+^, (p+_p+C: $&.vz u/ [; /] 8, jx f! m> w, P; 3: 5; n> B> m> => f! j, S' H> )* u/ <e /] =) |, j! f' c, $) 2' t/ P= Y; ;> 0- -> :p+/N.w$.9N 9N 9N 9N 9N 9N bN JH bN #%.Pg.'+.<p+.B.[p+}p+J> t) C' C' Q> |, {( z; 1) C( x' .< :/ *~ *~ !o+T' N> /, e> i' C> &~ )d [;  > |p+m[ 1p+2p+pF w} I> W; F( 5! L> v; ,' z{ X; k; P; D, 8/ Y] 0, L( 2, T' S_ &> c' B> /^ {, R, P> E; D; Y! k! g; 2, Q> *> l) 9> => `, X; ^; 3p+4p+5p+f* -' (> 4_ 0( Y~ 5_ x{ K{ J{ 0) M! i; O! () _) ,> l; /_ t; G~ J; H; F; G{ s^ %e w' |{ U' n^ w; '> #! [; <> A) o~ -' U^ Xh R'+;d.g@+A/ ",
"*] H/ &, N' 5{ => `, *> y; C~ B> `, `, z{ ~! i; >> m; [; C^ j, z{ H; (, F; '> y) 6) `, B> %~ +( H; f; /] [; O] )b 6p+7p+)E 3> => b> h] /) e] 0; F; F; #, P! c; x{ 8] (, (, '! J! A; {' 0; 3/ ;] 3/ C; y' T' 8p+!( I; y; $> R, =) *) <e <e =) >) M; E_ 9c 9p+K;+0p+E< ): >> a> C~ N: y) >) ^> j, f! m> >> Z, u; i, u^ /0+]k.Y! V' u; *) f! P! /' Z' ~! O! ap+bp+cp+dp+-_.>_.IH bN 9N 9N 9N 9N 9N 9N 9N 9N 9N 9N 9N 9N 9N <h++ +ep+!( d; (, c; k! A' V' E; %! T, 3, P> {( p^  ~ `e te Ng 0/ `! J{ &) (, 0; X, ^' ;, 6) 3^ /, W) fp+iz.mz ^k 3: N; z{ T../^ Z, *> X; =^ D> 7{ n> M: C' C' M) *> H; [; G, L_ ]^ W; L; H; '' V' :/ k! O> 6) => C, 3^ [; K> O) gp+hp+w$.9N 9N 9N 9N 9N 9N rP }$.q1.ip+jp+kp+F!+m> G, (' n] B> j>  : e; 0! !' &) {' {) I; }{ >! ]' %! =~ () |) 6! P= E, P= P= l; 2( U> S> Q: lp+mp+np+JB ,, s; L; f! !! ]' /g ;, $, -> 2( P: Q; l; P! d; V~ 2~ ]' ], l> K; R, N> P> !' 2~ I! m! I! v' ]' d; >> K> j> /) d; M; i> op+pp+qp+fg P: p..L^ O; >> G~ &) 2~ 9{ ]) [; m; ]* H; g; G~ O, *) f; ^' y; |, M) V' H{ _S >e #~ O^ #> '> ^' M) Y; A) I) rp+Ff '* L= sp+tp+up+Vd ",
"=/ ;h 6! R_ G; i; z{ C' 6) >> %~ P, W~ .].M( Y, l> i; P! ;, ;, K; i; B> #, *> 8~ #! >) H; y> Z, ^) Y, z{ .' l; Q; r8 n& C|+x- ;> N= ;> $] ;] T) >) >> k> `, W, k! !' 0! K; (, c; ]' |) y; `, F( ^] ,' +> #y >@.Q' )d F, 0@.;g V> U> v: r' 0, => 9> Ri vp+LA.g4 0p+Zi 6; C~ >> V) c> () y) (, ^) G~ G~ Z, 0; D( {' s6.h/ rQ @~ b; V~ Y, ^' Q/ 4_ ;> ^* $] $, Z] v> 5/.Zt y&+^7.4(.e#.TQ JH 9N 9N 9N 9N 9N 9N 9N 9N 9N 9N <h+1i+wp+;l.:^ o{ {' ]~ 2~ b; o{ g, {' (, _^ ae 3/ Y! -( 4e L9+]e |] >! #! G; U, a> 6] .: .: C~ J; }] /d xp+`|+7/ ~* L; H; (, (, ,> O: /' K> U! C' Q, d> [{ y) g^ '! X, #, ;> O; n] ]* T) +! J( t{ K{ G! J! 0) ]' 7] d, M) R_ ;' [7.wz.TQ 9N 9N 9N Kb.!@.|8.&%.yp+t2.zp+0- C^ :> [; :> {^ 5; i; x! l~ /) `, u; '! K! B! e] U, G~ >) -, S, P! ^> N' ^> w! <h 9P V) Z] P= 5> '* Ap+u.+Bp+^k +, (> O! U, =~ v^ ]~ b^ 5{ (> Uy w! {^ L; x> Z~ C! 9) /~ }] H; K; `, 7] =~ C! K{ (~ ]~ 8] Qz G; 4_ L; /] 5{ #! () >) }, Cp+*< Dp+(b x~ f>  g ^^ m; M) +> )' a> $, v: /' S' X; R, F; '' ]' 0; |, d; !' g; Y! %e g5.4~ x{ &) 1, '> 6! J) Y' Fd Yx.p< Mc i( 9( Ep+Fp+.[ Gp+",
"Va l~+Q, [{ >) K; ae i' h; ;, y> W~ B! QP ${ ]) #! u; (, ]' d; H; H; O; #, J; *! u; f; 0; K( G; (, }] ^'  > M; Xn+@9 H:+*F /< A> #, M; $] ~! >> F; T^ U, 3/ b{ =! Y, )~ k( !! 7^ ^~ ^~ g, 7^ ;< /^ R, I; G/ L) t) ae J> => N; J) =) v: N; => M; 7{ )* vn+HK <>+yb+P: )* G, n> l> T) ^' g^ 8) #! F; '' M) #> :^ A; |{ w^ ;( R( O^ X, W, )' ,> 5; k; Z] ;> A~ &, (* {/ l' Hp+4h.Y++Z{.SO.p5.#%.9N sP 9N 9N 9N 9N 9N 9N 9N 8^.Ip+Jp+y> (, 7^ ': K! 2~ E; K( a{ Y, {/ ;_ ;_ <e x; T' F+.0z.Kp+VB.H! {' 3/ /) T) :Q >) Z] I: G~ p^ &e Lp+Mp+Bz Y; `, |) @> g; ;' >, f! M; 6! x) 6) Q, R_ ]> Y_ '! &) h; j, /' W; z{ /) 9{ o{ /~ x{ G! #~ 0) &) k! #> C' j, j, Np+Op+TQ 9N TQ aV `S Pp+Qp+a7.c].m; N= [; >^ ;_ -> N= C~ ^> 6] .: ]) () W, }] K! Y, QP ^_ 0; ^' ,' )> ,' f, j> M) j, O) N= Z] ;> P= 1( 2' h] Rp+P9 Sp+Hh k* Uy U~ e] &) ]~ y{ /) $] {^ s; (' :> L; {/ P, Z~ i, 2~ ^~ j, [; f! h; U] E( vd 1~ ]~ C; )' >> $] ]* M! k> Qe B> Q, 6i |a Tp+Up+(b 3: -' /' 6#.k> j, F; #> g; F; #, /> R_ (, 6) +> z; ^' P! {) {' C; C; Y! %e u{ p{  ~ Q( ~' ,' $> +> P= o> k^ -e x- 5> i=+a~ 76 yl cD ",
"=/ 7d G; X, g, u; [] [] }] W~ l> {) ]) {~ [] {) G; !! =] -] =! ;e $! y] !' 8] i, ]) s] e; ${ m> *) k( C; ]' !' Vp+Wp+Xd l:.&( m/.d; F; t; ;] a> K! ^~ W, }] }] tz '! )! P/ 3/ 7^ =! :^ 7^ d_ k( {) k( W, h, g] 9{ K( -{ p#.@y a{ Z, /' m> (, i, d; C) T,.;m+Xp+&U o] %~ k> M) 0) 9{ W, a; !' 0; P> ;{ !' C; 0{ h, r{ Vx.g{ t{ ]~ 8] }] I; 0> ]* @) E, M; C~ `^ +#..{ d_ J! g] Yp+Zp+`p+ q+.q+4$.D^.TQ kQ sP 9N 9N 9N 9N +q+RM.@q+/] Q/ #! W~ k( ]) J; #! 6] 8~ x! $, k' /' (, k! G! d{ +k.#q+p: u' x; Q> R, ^' *> P= }, j, o^ $q+%q+&q+Jd ;> 5{ ]) A; )' F; T) b> b> #! G; #! l> ^' ^' U, '! W, T) >> N; O; {/ B! *! a{ k( a{ :h :h Z~ !' [! h] i; ]* O, ;K.*q+1(.(}.=q+-q+X0.yb ;q+-{ O! m> M; `, %~ W; V) Q, m> #, H; T) Z, )' O^ :^ N^ a; M! ]* k> H; (, h] |) 0; '' w; ,' 6) O) =) B> J) x, M; ,> z8 ]w >q+/| {* n> V) P/ 5{ G; U, ^> =_ #_ 6; &~ &/ s) C' j, 0; '' (, =! !~ @#.&b+D! @! E; y' ,q+'q+T, h] >) m> A~ >> }, Bj.B~ E, 5i _~+`p )q+f) Y' /> l> W~ G; O, /' (, 0) z~ V] N' E~ T^ g; T, 7] J; (, H; e; 0; |) b; D^ vL.G^ VB.!q+c8.9{ 2~ x{ *! N= V; ,* <h 2; uD ~q+7s {q+P: ",
"l< 9e /) U, 5_ Y~ x> .].W~ B> M; /^ i; (, `, => =) i; e] -{ Z~ J' u! .].u; ^' z{ J> m; X; L; U> U> B> ;{ d; I; <h ]q+5f+^q+p] 9! f! >) /] z{ ]' 0; 3/ H; f! f, d; *> +( O; m; i; H; 8) Z, t; K; z{ y> k( C! 9) C! a{ J( 5~ la+G}+i; %~ C~ Z, )' #y /q+`x (0 (q+>d `] z{ #, H; g; 1, f; P> ]' i, |) X, C; W, g, 0{ >{ se K{ @~ o{ F{ Z, Q> Q, Z^ g- x, D> k' :> -R 4_ f; 7] *#.@! a> w) :w (!+_q+:q+<q+[q+;_. T KH sP sP !@.}q+|q+[; X; C, ^' m> =) M) y) Q, H; `, O, +( >> () f] =~ o{ -( jS x' v; {, i' l> L> C> G, 5* l; #, .,.1q+_W (f (' P, 0! 0; g^ U, N' a> (, F; !' a> F; F; f; l> F; 6) /> m> /' B> 5{ () i, (, v! ]' T, )' 6) d; g^ 0; {/ X; ;> %x 8a+2q+EP [k+3q+B} (b `; a> b> 6) #, =) => ;> m> &, ;> m> B> f! f, C, ,' z; ], ,' Y' :' C) k' 8) g^ +_ }) 1) ,' ;' M) k> i; M! U^ &~ 3' V> 4q+oK 5>+aU t, X] P= => W> N~ Y_ %[ !/ '* 6; X] 1< j' u) U{ 8) 8) f! P, 5q+-M.6q+E^ >! |) ad 7q+8q+1! d> U{ O) c- N~ I< a[ :[ D> h) -v.VK 9q+px 1( b- C' ;, M) C> e> v; y; +> [{ d, 7' $~ 7] g^ [{ ], 6! c' Z' W> 2' sf R( G^ 5|+Mg xk.[~ g] |{ ]~ ]) /' N= }; z, d> (0.0q+Yj+(D.Dx.",
"l< 8l.c( O; Z' ;> -' W; [; 7{ U> 8, O; 2' J) C> s) X; O, ;> $, :> -> {^ 5; /' k' )d Z; G, 2( p! G> (' M( U> G> A/ +h.aq+t&.Q: 0@.^] /' m; jx R, f; P! P! W> S' i' J) m; X; z{ f! j, C' ae z{ 0! I; (, y> #! G~ 0; 0; i; i; 5{ ;, B> ~! H; 8{ A; M> xC bq+#0 cq+2} $/ k' B> => 6) M> /] R, f; Z, *> J; h] 0; I; N> U' Y! Z! 0' |, /^ 5! >) S' `; o] B) o] r' k; 5; B> L> v; i! +> j, e> Qx 2^.qI.9<.)B FA.dq+eq+w5.4$.g@.(T.fq+gq+H; *> J; x; |, z; v; $> ,' Q> 8) |, ;^ v{ b; X~ 8] C; -( >< U' S, ], M) f! => z{ ]* M= @) T_ ]M.F,+OS bA `, g, C; O^ 4^ ]' J; A; A; &) _) a; A; #> :^ &) +> #) L> e; `, e; P> x' %! ~' c; u' S, ;' &> *> () v! *) R, j, j, *> 4' hq+iq+jq+e0.U$.Ii J; u; R_ '[ 6) ^> >> N' a> b> j, O) >, M) >) `, f! d; d; v: p! =^ L> S, 8' 8< (~ g; @> K) )> 6) j, k> 0> k) kq+l) >[+E_+;d -$.Vd .' 3' x, z> t' L..l) Xi T_ e[ k; Z; N~ s' s' M) M) y) ^' P> v^ @~ m! @> ;' r[ lq+Mn.R9.d9.hh e> %/ q) z/ Y; &, %/ %o.mq+^l+n`.ki 1}+s) i' -) B, Q' nq+e' b, i! oq+$> i9+pq+2) )> 6! =) ;' {, *9+j< )d (< 2) A' :/ Ue l! %(.>h w; C, ;) g< z/  %.h~ sn.qq+rq+sq+tq+)e ",
"L$.3@.>^ '* 2( W; -' P; 5; [; >) 0! K; Z, G; ^' l> i; X; N; 5; m> n> 4( L_ O; H; 0! `, z{ L; B> S' O, i; &( [A Gw n)+uq+Ej =j Z; 8) H; >) 2, ]' 0; 0! y> i; 3/ 0! ]) ]) !! P> W, F; W, {' K( B; 1{  B.[] ;] B> #, ,> m> k' C~ M; l; (> u! @P.!~ l> '~ vq+#5+wq+a} fg W; t; j, M) => W; O, 5{ l> O, 5{ 8~ a; $> N> sf r] :/  < >' Q> O! >> {/ n> l; Z] 1( E, x, HP )d c' /, B, #) c' b' xq+yq+zq+na.z} Aq+Bq+s- Cq+No+Dq+Eq+Fq+Gq+)' ]' ]' N^  < sf rf x' .< P> ,M.P> H6.E( *: I! {{ 5^ .5.]{ {{ '> Q> ;' 8) ,> z{ j; VP 9> a) Hq+Iq+Jq+YR ,> ad !> =, !> g^ |) |) g^ )' 4, l! 8' %! {{ Nn.Q) *> y; x; '' ~' k! H{ <! 8' k! 4, ad [{ v; y) )> R, `, >, u) N~ L) 6i Kq+Lq+Mq+`| <0.F1+[{ =) Y_ Dz.KS.A! ,> '> 6! >_ R_ [{ P< L: 1! R_ ,> )> Y_ n> E, 6! y; T, M^ X4.Ed !> 3( Nq+%(.-, M) O) DT U! LP Oq+&P.kA.qb I' R].x, E> &~ p0.l) W..%9+W..`( H< V< QB w/ ^8.P) /h G/ ,> 6' L..Pq+Qq+]h wh zP Nn.Rq+Sq+Tq+x1+/h u) M: t[ =' Z] E~ =+.u~.Uq+Vq+Wq+p]+p[ E>  ' 0i bi X] LP ^h qC Xq+Yq+Zq+`q+7, Hn.^8.=+.g! 7' &T Q) W) u)  r+.r++r+{i @r+(0.#r+%9+$r+FB z(.ui %}++o.-o.%r+|A HM.&r+*r+L%.",
"e# =r+O] Qe -> O] y~ <; -' :> T) 6] x! j> %f %f -r+tf E, -> |; O= U) C^ ]* j; +] T) j> x! j; 7_ <h `^ W] '~ `/ z^ Fu iv.aA ti p~ C~ Z] C~ k> T) T) Q/ x> 8~ _h h] !! Y~ b^ 9] z! ]) () K! J( 0{ N{ r{.@! /] -' 6; U^ U^ w, E, P= 9> ^* .: ;r+.h+7_ wC b=+2t.*(+ED >r+V; |; 6* c* H] k* v> '* 4; >^ :> w! V< QB M: L) b( {[ R_ t/ E, B_ :> |; |; r; D' k* '* o! 4> =' ,[ 7> a) `; G, 5> 4P ,r+ :+!j _T i=+,[ 7* b- `; VC 7!.O%+&~ e[ }, t/ b- *[ t[ yC D~ N: X] o] _, a) /> Y^ U^ *[ h- 'r+ET &^ Ji n) )i h) m- 4x _, D: 3j.ji {` eI.tq.]| l] i* %; g* $j i* r- s/ Lc I[ e~ @; @; ', `: x]+n- G< _, f> {* ~* Cx Ox 7* I< 5* @, ^; +,  _ )b BC 1' F< =b *; Lg Pc QC )r+mZ !r+K} r/ U| E/ K^ ~^ CC >D.Lc x[ 9( D< w(.Ih Ai m- m- m- m- h) 3B ^..Xa X< ]; `] Cx :w y- [..sD G(.FB ), -i w[ /< Q_ 4x px AO Ot *2.qp.)k ~$.R= F< ~^ E: r< [: (x.Q[ O* %~.CO Ih &j.$; g[ e~ ', g* q; l(.~r+80./{ w[ e* q~ /8.x]+!, 0}+Jh w[ [- n< s< K< 9[ n< J* {r+fs.]r+[( :4.tc 5< (b Lg hD t~ /< D< F= /4.0] CC Q_ w(.lw P* x[ t, )b ,, H] h> T= V| G3.2g S{  | V{.2g EC q: ao.Q). 1 <#.'j .1 ^r+/r+(r+_r+zD ",
"N(./b.D< p- H= *; S= H= rx bA l] o< S~ oc T= =; Li v* *; *; r- /b YO YO 1i Li n< @b /b D< .b C* G= oc l] `| 6h R).}{+:r+W=+lU 0o.a0.'U q< ~d t! q' `a `a H= x- x- q; Ki q; 1i =b q; q; Mc e* ), ,, ,, ', F< Ki 48.m' x[ P* `> RC -b <| `a 3* l] _: j_.<r+4Z.[r+@V 6^+P_ #| O#.'j zE +) *$.*$. ] |' W} *| A} mk Nh .U zh.o, S{ I{.+| kD #| u> !| `| FC bU Y} f| 5k |^+VO |D.EA.EA.m} *$.ZB 9F v] }r+|r+O]+B_.O%.ff ]j 8( 5j |} fE ED wo.n{ wo.j_.B_.VE D/ ;^+b_.1r+7l 5:.-U ,y X=+0D.U_.%F ++.(1 2r+Qo.(a.wk *U A&.0E -U.Ko.V^.P_.3r+4r+i2+tj 5r+ol ol 92+7/+52+ql x&.+p.c@.il +p.%V uE ~D.6r+Qj t^.7r+tb+@V 8r+9r+0r+.[ zx %&+S8+ar+{b.o&.br+wF cr+s..;=.dr+JV er+fr+.v.gr+Xp.>q+P^+[B `p.p^+hr+uU ir+jr+kr+jK.fF lr+**.mr+nr+or+pr+qr+rr+sr+tr+ur+-G vr+4c wr+xr+yr+zr+8}+Ar+Br+Pa.]4.hr+Cr+6F 'a.Dr+Er+Fr+d(+Gr+Hr+Ir+Jr+8a.IU Kr+0F Lr+Mr+Nr+Or+xr+=a.'~+Pr+[%+Qr+Bs [%+Rr+np+Sr+uF (:.<:.<:.Z..0r+!y &*.Tr+0r+b1 5E #G =E ]b.hl }:.Ur+83+Vr+*  Wr+TV Xr+o2+^j+Wp.=E Yr+mF Zr+m^+YC tF `r+ s+.s+H' +s+;W @s+Ca.#s+$s+]=.R*.%s+&s+*s+=s+]a+-s+;s+>s+,s+'s+)s+)s+Q3 !s+BE.IE.~s+{s+]s+^s+",
"QT !q._a./s+8p.8p.i~+(s+_s+S&.1o.1E |E.1E :s+ p.*^+<s+[s+So.=F bl }s+|s+}F 1s+2s+7a.3s+4s+5s+6s+a_.7s+*^+8s+Ao.gj 9z 9s+Xi+Q&.oj 0s+[E.HV as+bs+cs+ds+Pk es+4s+fs+gs+-*.es+hs+is+js+3s+ks+ls+ms+ns+os+ps+qs+rs+ss+ts+qs+us+vs+ws+xs+|a.IV ;*.es+ys+zs+B3+As+Bs+Cs+Ds+ya.Es+Fs+Gs+Hs+Is+Js+Ks+Ls+Ms+Ns+Os+Ps+!n m^+HD.)q.)q.4-+Qs+U[ 7V.Rs+Ss+Ts+Us+Vs+Ws+4M 0E.Xs+Ys+&:.Zs+`s+}>+z0.z#. t+.t++t+@t+#t+$t+%t+S;+w2+&t+*t+m&.S1 =t+/c.1X.-t+;t+>t+,t+iX 't+)t+!t+~t+{t+]t+^t+/t+(t+^m _t+:t+<t+[t+}t+|t+Z[.^X.1t+2t+3t+&&.4t+5t+6t+7t+8t+9t+0t+P1 at+at+bt+ct+dt+(m 2m no et+ft+gt+ht+it+jt+kt+lt+mt+nt+ot+pt+qt+rt+st+tt+ut+-J C2+vt+wt+xt+yt+zt+At+Bt+Ct+Dt+Et+Ft+Gt+Ht+It+Jt+Kt+Lt+Mt+Nt+Ot+Pt+WW.Od+Wr JX.V;.`4+Qt+Rt+^[.St+Tt+Ut+Vt+Wt+UB 3I.,k+E2+*J LX GW Xt+Yt+Zt+$J !W.&J `t+ u+}c.hd.q@ .u++u+@u+#u+D7 @e.$u+%u+&u+*u+=u+Oc.-u+;u+>u++H.Tt+46 ,u+'u+Ty.m7 )u+Fp+!u+~u+{u+]u+ld.^u+uX )G./u+(u+_u+:u+As.<u+[u+}u+|u+{W.1u+2u+lt+E#.3u+4u+5u+6u+7u+Y@ e>+dx 8u+9u+Yg b1.K@ Wk+0u+>G.C. au+6f+bu+Jv cu+du+eu+c7 5-+fu+gu+hu+iu+W'.2e+af.M8.M8.+q ju+W$.ku+lu+mu+e@.Tc.nu+>e+ou+pu+V_+",
"qu+ru+TX [@.2G.su+tu+uu+E-.RQ.vu+wu+xu+yu+zu+;u+Au+Bu+Cu+Du+Eu+Fu+Gu+Hu+Iu+gL.Ju+Ku+Lu+Mu+Nu+Ou+Xt+Pu+Qu+Ru+Su+Z0 Tu+Uu+Vu+Wu++<+Xt+$J Xu+a7 Yu+*m >W.!m Ou+Zu+`u+ v+.v+&l++v+@v+#v+h5+$v+_u+%v+Ft+Ft+&v+*v+=v+-v+Ju+;v+bu+=@.>v+,v+'v+sy )v+{5+!v+Su+p7 ~v+{v+]v+^v+/v+)0 $t.(v+/v+_v+:v+<v+[v+}v+|v+1v+2v+3v+n;.5l.E9 4v+*H.5v+{[.6v+7v+8v+yp %q+9v+0v+2Y.av+bv+y#.x5 cv+dv+6r ev+8& fv+gv+`5 hv+iv+pY.jv+&|.kv+lv+mv+nv+ov+pv+RZ b(.<5 qv+rv+we._Y.sv+0>.|e+Kk+k7 g7 tv+uv+vv+wv+l`.4g.,%.m0 IJ.nr v|.|^ [s j5 xv+yv+De.1J.zv+Av+}8 OZ Bv+CW a>.Cv+Dv+Ev+Fv+3].y5+1e+Gv+Hv+yp d{.Iv+Jv+Kv+Lv+Mv+Nv+pv+Ov+Pv+$@ Qv+Rv+Sv+dH.U9 uZ.dr Iv+Tv+Uv+Vv+[K q:+Fv+Wv+MK Xv+(K Yv+{L 49 je.hf.LZ SZ.SZ Zv+$q $q TZ `v+;` Nf.n%  w+^0 Ct.ZO.fI..w+pG.+w+!d+*m 3].@w+#w+$w+%w+ye+&w+*w+9;.=w+EM -w+Il+cm.wv+;w+>w+,w+#g.'w+)w+!w+~w+{w+9H.yG.]w+^w+ZN./w+b8 (w+_w+Te.Qe.kA.bt.mp :w+ag.Lk+xH.S5 <w+[w+tG.}w+|w+1w+uZ.Jv+2w+3w+4w+)1.5w+6w+7w+8w+9w+0w+aw+ne+'J bw+cw+dw+ew+fw+gw+hw+fK iw+oG.jw+=w+kw+lw+mw+nw+se+ow+pw+^w+8@.qw+rw+sw+q~+^a af tw+nu uw+4u.0<+vw+ww+Z{ xw+b@.Oa yw+zw+B<+*:+%5+Aw+",
"h  Bw+HK 6:+Cw+>/ Vs.Dw+*`.,f.Ew+=m+*m+6Y.(0 `e.8f.6:+d}.Fw+Gw+Fq Hw+zf.*m+S/ B0 Iw+A$ AA.}I.#q SX.#o+&m+Jw+zf.WL.6;.Kw+1K =g+C9 qx.-S LA.Lw+`8+'a ju+[0 zy.ie.ie.5q Mw+/! g.+Nw+Ow+Pw+Qw+E|+Ze.Rw+Z5+C@./s.Ke./t.{e+Sw+I,+!6+yZ Tw+Uw+ q Tx.Vw+Ww+(g.n|.Xw+Yw+~,+Zw+`w+ x+.x++x+Us.PO.Qs.f& <s b9 b9 E9 7s.@x+vx.#x+$x+tu.f<+%x+E,+&x+*x+=x+-x+aq+;x+a$ >x+X0 Hd !T ,x+2k+du. 7.'x+N0 c;.)x+/: Hy i[ !x+~x+{x+]x+jv.We+^x+Gl. u C1.xu.wn.g$ P~ /x+!$ |3.(x+_x+_u M<+:x+7K <x+{w :%+[x+}x+FM.|x+1x+2x+2x+3x+4x+5x+6x+7x+8x+9x+/!+4S |.+0x+ax+#C.<g V .bx+cx+&7.sM }` dx+ex+<a A: 5t fx+gx+hx+ix+~).jx+|#+c,.Al+kx+lx+iz 2M NS mx+;y `` %g+1A nx+ox+A: sM px+rn+qx+rx+sx+tx+Ww.ux+vx+Xw.%O wx+xx+.3.yx+^O r# zx+Ax+Bx+nM XP g9+Cx+cy di.^~+Dx+P!+Ex+Fx+Gx+Hx+f).YN Ix+pi.Jx+RN pi.Fs Kx+Lx+Mx+Nx+Ox+Px+Qx+b.+Rx+Sx+Tx+ 4.Ux+^/ Vx+Wx+Xx+Yx+Zx+F$.`x+ y+.y++y+o6.fx+vM qa 6M <i.@y+VZ Wj+#y+jA.cy Q` $y+SJ.}^ Zz %y+&y+>!.2M *y+=y+-y+;y+{8+.i.>y+ii.T].c:.[x.Y).G).,y+@}+'y+tw.PN )y+Es !y+zb PO Ji.XJ.~y+(c Y).|4.vw+S$ {y+]y+^y+/y+tb (y+k= wi.Bh._y+Cf kb YJ.:y+<y+[y+Rw.Wv ai.XN }y+|y+",
"1y+2y+6t YO.zm+=!+3y.3y+fn+,A..4.4y+km.s)+Is km.5y+_*+lM 6y+Tc.un )b.7y+8y+Mh.k .9y+0y+zw.EQ ay+]z O< MT +A ]f 6).aO by+cy+!c Ob Jw.=S Sa m .6g+dy+6P.]z /L.PN ey+3K./= Zy ZJ.1[+WN |M fy+6[+gy+hy+eJ iy+km.j.+uh.R,.^: i[+> +VN jy+ky+Nb _m.G7.&g+1M WN )K.ly+my+Iw.Wx ny+oy+py+s|+<!+bc V= qy+ry+=K.Cw y!+3- sy+io.-B DT.4x.V.+ty+6f.Rt.*s+uy+S).l|  w S).Z| PO y.+2g 5U r< KC Y< ]b eb ET.V{.Y< Gw U| ab R).%b =j oc S= q' |f lc G= E= -< g .Bz Bz 1* .b $b S~ o| 9:.:f.vy+bU g[ 6; ): `] T{ 2P '~ hi 1' `] D: '* e[ U^ K> O) .> g- }, r; ,* w- U= f> +< o> Cx ): Z] :> <h Qe <; c* Cx a- E> Ai ^; w[ wy+LA xy+oc ,, i> P: q( D_ q> w- Cx k; P; 5* ed ed F/ 9> k; f> >* q> H] -^ >^ [; w! Z^ x, k; k; G, 1( X] w, T_ ,* o! 5> `; '* x~ PO yy+XX.[F 1/ Q= 6> M' n> }, I: Y' `] !/ r; Z^ %B %B .> f> 3: i> q> x~ u]+*^ `; Z; }, s~ 6> '* k; I: P= t/ 1( 5> Cx `: )b s/ cT JB zy+Ay+By+b0.io.d* 9> P; Z; *[ v, Z; D> 9> '* a- yC M: *[ J> *) K> h; &, Q, 8) &> $> zP ~i /h Cy+S' Y; Z^ b- O) >) b> j> &, c> 6; @k.#7+39 ,$+f) 5> I> f> A) 5* >) 6! H; E, B> &/  ^ Dy+k) w, v/ N~ .> w- 3> ",
"-* nK.-^ D: 1' s/ q( H[ +< *^ q> M/ sx )/ K^ ~^ Fd cT I) x# v(+Ey+Zj `B H] O/ 1' A/ sx 5: Fd r- sx :: f> u/ `; k; N; k; 9> o! p] o! Y' P; Q; q> O/ O/ q( M/ x~ u, o] 3: u/ P; 2( X' E' -^ u/  1 H[.Fy+/].9( Eh D: D_ j( f> f> 4> Y] M' v: =' k; w- Y' X' G, @) ,* Pe x] {_ 3: k; n> }, 3; ,* M/ ,* 3; `; Z; U> '* 7{ 9> 9> `] o! U$.c<+Hq Gy+w[ c* '* *^ ,, o] @; T_ }, ;> P= ;> G, G, '* )* =' 6> o) Y' o! ,* <> 9> `; 2; Z] <; W; [; ;> l; 5; P; @) N= P= S' 5* )/ r< fa Hy+F3.t[ *> *> 8) /> 1( h' K> l> ,> m> j> c, Q( ne -( k! U] $~ >) i; b> U{ Y_ M; j, '> () }{ V~ K! X, 0! j, C> Q, {, e> ]> 3^ Iy+=i+8&.o> k' k' Y' G, 7{ ,: M; z, k> >> a> #, j> H; `, `, i; ;> &~ ;> L; H; 8~ a> ;' 6' j, O) z, h; M) j, `, O, 5{ b> Z, O) %~ Jy+>h.js.hm.Q; r; n> m; l> l> ^> n> 5; W; m> #! }{ 4^ )' >> => E, X' P; 3: P= '> F; X, g^ b> c> 6! F; i, f; >) K> f! f! }, G, Y' 6: / .(,+Ky+ay+3j.=> () *> #> T' %! |, 1) 6! ^' *> J; G~ g; C; O^ 3, +_ 7] g; E; 4! =T K~.Rd _) 3, N> $~ 1, $~ |) )' )' J; O' W, C> FB Ly+W'.My+/< H> w, [; n] l> g; a; 1) +> S, Rx a; J] T, 1, {{ X~ 1, [{ u) ",
"*] A@.Z] `; O] ): ): ,, `] 6> '* q> Mc h> x~ d* ~* ,* sx V` Yd.Ny+j| xC C) '* t/ Z( $[ 9* ed f- _, ][ b- [; E, `^ F; a> M) j, O) M) O) `, ^> 3^ E, l; Y; 6; }, .> 3^ 5; [; ^> => Z' x, X; /' w= Oy+!.+={ t, `: i> 4> Q; 9> &( k; J> M; C> f! Z; [; [; f! ^' k> n> 4; C< L_ ;> J) #, K> C~ 5; 5* Z] O= `, j, => [; v: `; w, `: _, oi qu `$+Py+t, ): ): Q; s~ k; E, %/ #, 8) 6! x) E, Z; M; S' M; l; &~ K> C~ B~ $, /> f! &, M) `, $, C> ^> #, #, => X; m> k> f! X] t, [: ,7+Qy+y.+7; z; @> 9' 1! [{ Q) ], Z, G~ 8) I; 8' >< )< 0+.E( Y, 0; d> h; ;, ,> Y_ J; z~ T, )' +! C! /~ g; u; *> *> >) y; ;' m~ 2! }^.Ry+Sy+=' => Z' l; `; l; /] B> >, j, x) >, jx ;, f! H; e; >> i; O) G; [_ #! ]) (, Z, C' >) C, G/ Y_ ], `, >> P, ^' () /) j> X; E: ['.3e+Ty+4> ): E, ^] j, |, M; C> l; w! ^> J; )' A; '' e; j, 6' => l; [; &, )' {' )' +_ h; x! j> F; }{ Z, J> #, l> 3/ C~ E, Z; o> Uy+m`..6+Vy+Q: c' |) y) =~ <! %! P> '' |) S, #> ]' X, )' :^ U' 8' u' W, @> O^ 3] <k.g5.IS C; #> n^ K) 8' K) ]' (, #! ,> Y_ 0; Q, z(.Wy+62.Xy+/< s) M; M; ]* H; J; |, 6) *> *> |) !' _) _) =~ 5^ Q( #> F; 6) ",
"l< zd 0( U, ^> >, j, >, O) E, n> ): D' Q; Q; 5* m> ;> 5* Yy+Zy+`y+Ee aD s' W+.P< j, U^ v, &/ Iz V< 6! w) 5! => g^ =, Y, Y, T, T, ^~ ]' +! W, h] m~ h] '> x) j> j, 0> H; i; U, Z, H, )d P= >) g!+F1. z+ w 4> k; Q; )* H> t[ .' 5; /' i; `, B> M; z{ O, >) ,> #, K> n> ~/ >^ ^> H; >> k> M; X; N= P= /> O) >, k> W; G, X; 3^ I< *^ .z++z+@z+#z+Eh k; O] P; 5* 6; O) R_ a> #, 0> A! /> f! O, C' >) => Q, C, H; k> G; ,> ,> 6! k> G; N' 6) M; M; j, => => /' (' l; &/  _ 70.V$.$z+S{ 3^ d; &) =, !' H; J; 1, =~ ^~ !! 3/ E; ){ _|+ R g] ^~ () ,> ^' Z, G~ G~ U, [! *#.0) ^~ &) &) &) '' y> y> F{ A; $> 7] J> H).=i+)]+5* J) k' G, k' S' ;> L; L; $] B> k> 6) >) `, j, `, Q, f! C' {, k> l> $! ]) () F; M) J; -, 1! ;' Q, j, e; 6) J; l~ b> 2; O* %z+&z+*z+y~ 7_ Z^ A> P= h; #! z, M; X; f, ^' F; ]' 7] )' 0; ,' 6) >> N; >> 0; J; a; +_ g^ {/ => ;, )' j, v: X; U, () h; @] N= _, =z+-z+U(.7b $~.*> g; () f] k! 8] ~' #! F; g^ 8' 1, A; ]' u' 8< 5^ E; () m! @~ KS HP.Ak._) ]' ]' ~' )> !> )> d; e; F; '> -, ^~ 0> %o.;z+>z+tq+D: c' P! X; z{ 8) y) Z, #, _^ ae G; !' 7] @> W, 4^ 4^ c; |, d; ",
"l< ,z+]) +! +! 0) X, [! X, i; n> Z] w! k; Y; >> F; G; m> 'z+)z+|*+%( i) S, :) !z+'> ^' b> F; Q] 6! |) Q< 6) {) i, w{ J! J( |{ p: 0/ d{ I{ h, X~ |~ z..'q+c, ^' 0; +! K! P> !' W, 1, N) S< T, >n.h& ~z+t:.7: L^ G, Y' ;g Q, C> X; O, Z, 0! i; h; u; P/ u; 8{ e; z{ -> (' 5; {/ '' 1, y; >) f! => #, k> H; ^' 5{ ~! [; X; l; =' 1' {z+[J.lA 8R G< }, Z] P; <; W; ^> '> F; l> c> j, G, X; P! ], h; Z, e; P! i; P! *) d; F; M) e; #! 9] G~ ^> #, j, m> => L; ;_ => P= BC 70.]z+^z+ w l; 0! %! ^~ W, !' T, T, =~ }{ A; D( /~ H! z8.A{ G! g] @> f! 5! C' 0! #! ]) }) >! o{ !! D( W, F{ Z, +( |z !! C; k! _) K> qw./z+(z+`] e> #, 5; L^ 5; N= >> i; /' B> H; V] G~ `, k> >> >) C' => i' f! *) 0; |) d> '> H; *) M) y) h; ^' j, O, ae i; h; h; M; ^!.K>.rA _z+5; C^ e[ <: @) >) #! 6) ^> m; 5! >, 6) #> J! }{ ]) S, y) T) L; k> F; y; d; [{ h] H; P! G; |) 8) X; C> 8{ () ^' j, ^> n> :z+Vp #[.Jd ), h; i, u; {' E; 4^ *~ 0; H; Z, z~ }{ S, P> 1, y' Z! >! yf O^ R( `e KS KS #~ c; 0; %> K) 1! J; (, (, z! g^ @+.(~ [{ y/ ]` -L <z+5> L> Z, B> m; H; x) ;, P! B> K; 2, '' 7] 1, {' 8] |{ g; }{ |) ",
"Rm %7.7^ /~ x{ >! >! w{ J! !' M) N= /_ k; M; l> d_ e] w! [z+g0 }z+%( 8D Z, ^~ 7] () 8~ G; 2, G; O! 0! S, %> !' G{ te ]{ te ,{ (S Lj.s{ re te J{ ]{ ]{ .~ {{ E; ^~ ]~ ]~ B; o{ o{ %! $> Q) g; L.+l& K(+ic p] X' l; X; /' O, O; O; O, P! P! u; g; +! 2, P, W~ *) %~ f! B> /] (, g; %! %! G~ `, X; B> >> j, (, l> F( O, M; `; )b u, a]+5Z |z+3p.K[ X; ;> 2( ;_ /_ O! ]) #! {/ k> m; 2( k' P, () )' !' F; H; u; M! K; (, W, G; {) u; #! >) M; m> m> m; => w! [; `, B> D: 1z+1`.2z+[> k' u; ]' D( g; b; v' g; g, %! A; G{ 2~ e^ a/ dQ.R( =: O^ `, z{ *) #! d; ;{ w{ ]~ J! !! W, h] 2, y> e; e; 7^ &) %! =~ C, G).%.+rr+H] D> .> v: &z )* /> >) h; j, /] f! ,> y) O, 5! C' j, C' =) C> f! z{ e; |) sC Y_ j, ;, 6! G~ h; j, `, k> P, G; F; j, j, F!+L(.r_+q_.X; ;> 6> 7h z_ 8) F; Z, a> K; B> j, d; '' P> () Y, +> ^' l> O, Z, G~ () d; $~ H~ >, => l> c> => `; =) a> U, ,> i; k> X; &!.dR.3z+#&.5> d; T^ Z, a; m! T' E; () 0! O! (, ]' %> S, ]' g; +~ I! 4^ {' |{ -( 4] bR.4z+V' (, #> K) %> v; '' d; G~ J; ;$.m! 6! Q_ 5z+vs 6z+F> C, J; H; H; ;' x) m; t) >) d; w; g^ @+.() () i, w^ E; $~ 6) ",
"Rm 7z+;e v{ g] _~ a+.8] x{ +! Z, -' 9B -> ;> O! 8~ B! m> 8z+%Z.9z+0z+p! M! (, '' u; 6] f; !! #! ]] ]/ i; 6) 2, o{ ;( g{ d{ m0+(S Pz.t{ m0+Q( L{ 4~ 0{ =~ v' *~ g, {' ]~ w^ {~ g, P> M> 6) !' -{.az+K(+Md =' X; m; k' B> N; B> M! m> k> `, a> 0; 5_ #! W~ ]] B> L; m; -> %~ Z, g; 8] 8] |) O, $] k> ,' L> l> k> L; O, O) b- 8> *^ Qc bz+cz+dz+1i v: n] 2( A( 5; ;, Z~ ]) P, L; v: qd [^ )! !! 2, Z~ !' 8{ f; b/ K; ;, e; 3/ 5{ e; l> O! X; O, n> AB B> f! /' f! 5; i( ~}+[g.(~+`| S' u; Z~ P> P> =( X~ k! {' ~' {' J! &) H6.e^ h, c{ 0{ ]' +( O, f, #! 7^ 0; 0) o{ J! d_ G~ *! (, e; Z, (, Z~ }] |, Z, J> N,.['. G q( {* 4; =' <> Y; m> >) '' z, C> j, >) M) `, K> M) d; P! B> W> C> H; 0; |) 1! d> y) k> j, 0> 0> >, m> m; ^' T^ V] k> V) Ny.: +ez+GC.S' 3; 4( fz+G, z, 6) M) >) $] %~ j, C' M> *> '' ]' 6) k> t; /] >) '' |) U, X, -, H; %~ ;, l~ *) X; =) a> U, l~ m> l> C~ wy+7:+gz+|( Kx ^' X, 0! h] _) m! i, 8{ u; W, ~{ +_ d, v; x' H{ ne m! E; a{ s6.F+.SR wR lS T' ]' P> d, #> 1, X, F; #! d; G/ g; R_ z(.hz+iz+)b.T{ C> *> l> H; C, U{ H; Q, F; T, %> g^ Qz Y, 0; {' e^ w^ ]) {/ ",
"[y r= ]) Y~ c; =~ }) *! +! '> H; L; ;_ (' [; k> a> .: f! jz+<H.kz+lz+@' B> K; 3/ ;, f; ;, (, G; K; T~ ~! z{ {) 7^ ]~ Z! b; @~ w' B; b; 5] p^ p^ E; 7^ 0! 0; d; '' ]' g, ;{ }] $! [] 5! #, ;, )}+.Z mz+u> D> V> W> =A Z' => Z, O! N; N; m; j, H; >> O, y> e; K; B> W; 4( 7{ t; () v' |~ [! ^) ;> M; k> /' m> >> T~ L; O) U^ s~ u/ m' nz+oz+ly.1' N; t; k; @) 7{ /' {) l> ;, O; /' N; W; P, 5{ (, #! (, 0; u; K; i; e; *) P! 0! e; u; G; B> O; L; L^ 2( L; => >> E, x~ (- T(.pz+-f C~ F{ ]' )' -{ Y, K! F{ q] 9! 2, c; A; V~ nf |+.7~ g, F; b/ `, (, y> B! #! Y, =! G{ 7^ U, #! 0; 0; ]) 8{ ~~ () d; G; E, <1+qz+jo+%z u/ p~ f> >^ N= Q, Z, y; h; l> M) h; O' #, C~ h; j, B> l; m; m> 0! U, |) '> )> 3[ H; `, F; '> '> K> O; >) z! )> >, L; Vh rz+sz+_z+3' 3; !/ 2d 5; => => 5! t; [^ $] j, i; Q> ^' J; d; j, $] O! M! >> (, 0; I; g^ 6) /' =A H; 7] d; )d B> >) +! Q] U^ Q, O= %P.9'+tz+rx CO v; =~ ^' #! E; v' !' Z, 5{ ^~ ,q+,q+rC y; 8' K~. ~ B; b; |{ L{ _|+uz+vz+<k.{{ _) A; a; %! =~ U] g^ W, +> +> )' Y_ z/ na wz++G $/ O; f! 5! m; >) [{ Q, j, Z, $~ xz+J] }{ '' (, i, E( 7^ ]) ;, ",
"Rm Vb u; x! {) 0! ^' U, T) ^> k> <; <> 4( >^ >^ X; ;> -' a` yz+*/+B]+Mc B> F( t; j, z{ [^ /] 5! P! i; z{ /] 3/ W, J! g, K( '' #> P> 1) I; f; Z, P! *) *) (^ I; g/ '' !' c; () !! 5{ L; |; %~ RB D0 zz+U; 5> t/ N; (' /' >, 8) /' o~ 1g 2( X; f! H; `, *) ;, K; [; >^ >^ G, k' Z, _) M^ }{ 3[ 5; >^ 5; l; k> >, %~ m> 6! U^ 5* Y' x[ Az+XX Bz+u[ [;  { J) M; l; W; /] => i; %~ m; /' O; t; >> #! U, #! G; ;, ;, l> ^' Z, ^' >) 6) U, 0; H; i; f! L; %~ f! ,> ^' w) o> Cz+Dz+Ez+Nh C> f; /] K; W~ {' ]) T../] f, #! ]' g; N^ r] 2~ G{ o{ @! P> F; ]) k( ]) ^' ]) J! x{ K! 2, H; Z, 2, ]) Z~ x> =) K> l> X; Fz+u6+Bf I) A) *^ O/ '* #, h; H; >) >) G; >> ,> L: ^' ;, >) i; N; l; n> => i; >) G; G~ a> >) ;, k> O! b> j> H; O, ^' U, J; M) => RO Gz+5A E&.Y] O] <; >/.)* 5; 7{ ;> `, u! M! i; *) C' M; j, i; => W; n> L; m; |, () #> g^ H; $] _^ d; 0) '' K> B> l> G~ j> M; Q, /> Hz+Iz+Jz+0C CO #y T, h; ]' A; 8] A; (, 5{ W, k! S, >) O, J; {{ I! V~ C; |{ R( /0+F+.le Kz+Rd 8' )' ]' $~ }{ 7] F; Z, M) ;' ^~ '> Wi Lz+`R.o|+r, A( ;_ N/ m; *> |) ^' #! *> 6) |! Mz+!> G; (, c; V~ We W, !' ",
"8; )i+l> >> {/ $] /] E, N= B> [; <> <> P; o~ ud '* @) )* Nz+)H.fn by 1/ l; 5; O; `, `, <e N; A> ae `, H; M! y> g, O^ () H; ,' f! /] z{ `, jx => +( 5! 9! I; 1) ^' F; }] !' ]) B! /) O, 7{ S( /O Oz+n( || f> l; @) @) W; @] A! #, Q; <d i( 2( => z, j, z{ P, 8, Z' '* N; -> [; `, |) T, g; 3[ G, 7{ G, P= /> >> -> ;> U{ R_ O= n> N[ VR ]B Pz+^; `, 0! M) 6! &~ v: N; => `, `, f! => m; b> >) Z, >> #! ,> ;, /] f! ,> >) l> #! ^' >) C' H; ^' ,> i; B> B> >> >) A~ u[ Qz+Rz+Sz+_/ => y> Tz+S( M! !! }] f; e; C> H; '' ]' 1) E; p^ E; C; 0) J! W, g, ]' h; u; l> !' ]~ Z~ ]] O, `, e; #! 0! /' ,: L^ -> X' Uz+Vz+Wz+(( A) q> O/ q> ;> J; (, H; ;, H; j> V] '> Z, j, k> O, n> ;> W; (' k> #! Z, G; l> j> ^' 5{ `^ >> B> =) Z, U,  : #, => Z; =++Xz+q7+,A Q; `g+s~ -^ !/ P; Y' B> l> O! P, P! Z, j, m; l; m; k' /' Y; (' <e f, '' '' h] ^' H; i; () }) '' M> /' k> >, n> L^ w, X] Yz+aB.Zz+f) ), =+.1, ^' |) g; <! =~ F; u; y{ J! `z+[{ K; Q> x' ,{ @~ U' Z! `e 8z. A+0/ 3] 8< +_ $~ g^ f] )' () Z, (, ^' +> g; 6! m- .A+S7 Wz+H[ `; qd jx R, |) W, #! u; Q> e; }{ |! K) i, }] g, ]~ :^ F{ f; ",
"=/ *g *) m> >> ]* ;> k; Y; O] ;> n> -' 5; 5; !/ [; E, l; ;.+|r +A+/| }f B( O; ae O, ;, y> 9! K; y> (, () {) !! ^~ J! >! g, g; (, M( q] *) b/ t; v! e; q] ]' ^~ X, *! '! ^~ }] ]] x> 5{ m> t; @A+#A+$A+n| P; O, => ;> /' @] 6! X; G, i/ o~ !/ i; ^' ;, W~ u; *) z{ m> 0! $, [^ i; i, X~ [! 7] i; {/ j, d; j, #, ;> ;> O) >, C~ m> Lc %A+7u.&A+9P M) c' >, i' J> J) H; ,> 6) 6) (, `, *) ^' ,> b> l> U, h; `, O, f! G~ () !' i, $! b> z; F; G; j> ^' b> ^> H; #! V] N: *A+1).:i+ k 6' 0! <e ae 0! ~~ Y, l' ;, H; |z 0! 2, c; g; ~' Gk.;{ D( {~ C; !! (, F; f; {) $! E; -{ 0! R, Z, f; (, H; m> /' ;_ $] 2( =A+*f -A+;A+v: Y; [; ~! M! ^' F; /) G; Z, 0! U, a> #! ^' W~ i; `; Y; {^ n] ^* b> F; F; h; J; M) >> >> ^' k> O! l> ^) h] ^' >) Z] []+{& >A+4A f> <; [; 2( (' n> k> {/ 5{ 5{ B! 8{ Y, h] i; M; i; P! j, #, Z' %~ l> ^' I; X, T^ !' l> F; U] ]' H; K; l> `, n> o~ >^ `; ,A+'A+)A+K^ t/ ;' P] ]) K! >! !A+M{ [] e] y{ C! <! )' Y, 7] Z! 0/ te  ~ G! !< !< 9/ v^ ^S <k.T' D; 4^ yf U] h] (, !' W, +! h] `, p) ~A+p% vw.3> `; 5; C' K> S, -, F; F{ I; I; h] G~ i, f] J! |] H! v{ 8{ i; ",
"=/ PP *) K; l> `^ k> C^ n> 9> ;> P= C~ m> >> {/ {/ O! `, {A+]A+^F.^A+>^ !/ $] ]] ]] 3/ P, {) G6.]] [] F; e; [] $! ]~ |+.E( g, 0! ]] F{ :^ 2, u! 0! !! k( {~ O{ ^~ Z~ 7^ 7^ d_ ^] O, +#.t; H; /A+(A+{(+G} ;_ B> /] H; i; k> => 2( /' ;_ 2( O; 0! W, !! <^ V~ 2, e; k( e] )! ]] G; 1, 0) }) =~ {) W~ (, !' T) K> ;, `^ ^' a> => Z' J= sd 5A nD C~ M) 6' 6) 8) j, >, >) M) #! Y, () () u; u; H; G; Y, ^~ |) H; /' `, '> X, v{ g{ ]~ ]) d; X, !' }] W, () Z, G~ 8{ 4^ *~ +d Sf _A+I' i' k> B> 0! 0; ^~ @! }] ]) ,> L! 0; =! ~' G{ &) {' F{ }] i, ]) u; H; L> z; ;{ 7^ v( 3/ ^' #> |) (, e; *) m> /_ k' {/ 6; :A+<A+[A+Bz G, M; >> x> ;, /] /' ;, F; () P> '' |) )' ]' {' ^' .' Z' i; Q/ $] d; a; S, G~ 6) R, H; ^' y; a> 6] U, '> a> `, c> A~ }A+|A+_$ &A+1' H, O; l; L; `^ 6] 0! 8~ B! ]) i, 8{ X, ]' ^' Z, d; d; H; %~ O, G; |, O> T' J! {' ]) a> '> J; l> m; B> B> m> @) u/ p! 1A+2A+3A+)/ y) J; ,h ^' U, {~ @! @! K! =! /~ C] h, g] g] G! d{ s{ *n.4e ne 4A+BM.:/ Q( sC.5A+T' b; y' 4^ }{ () Z, !' G{ V'  > S' /..6A+7A+8A+q- 7{ /' Q, #, #, G~ '' g; C; g; >! V~ j_ &! 7~ z] s{ h, )' 8) ",
"L~ PA f; n/ u; u; >) k> %~ 3: P; `; 2; ;> j; $, `^ $, L; 9A+ ,+0A+aA+<> -^ <; (' ,* @) <; <; N; (' => J> M' m; f! ], N> a; J; j, ]* O, f; f! n> (> ^> f! *) z; L> 5! s) )d m; p! D, :> p] Vf bA+cA+dA+%| Q; [; ~] i; ^' x! k> 2( P; P; @) W' E, >) #, >) *> m; W> Wf ae /] %~ )d t) )d t) c' H, H, t' M> => f, e] F; C; p^ z; *) M* eA+y_+0k 5* M;  ' &> F; F~ tf j> b> x! x! G; #! #! {) l> ^' ~~ a{ P> 8) /' ;> O) j, (, i, *! j, f! F; (, *) u; G; k( '' '> +! <^ ~}+BL fA+N] S' >^ X; j> b> U, Y~ #! >, z, `, F; () (, z~ T^ () I; ^' ;, 0! a> h' Q' 2' ^' 8~ ]) Y, U, F; |) |) /) /] ~* P: B) Zi q!+gA+hA+iA+!k P: @) O] m> &~ n> o! l; S' J> f! J> => e> 6! {' ],  > /, o{ K( v! .< 5] *> z, C> => m; M> y) +> d; z; M> M> {, -) e> >n.jA+kA+T).Q: I> X' `; Z; `, 8) ], 1, y; y; *> >) (, |) y) 0! i' M> H; /] m; m> C' v; 1, ]) u; 5{ P= 2' E, E, t/ H, t/ Z] ,* +< lA+mA+`e.xq.K^ Q) G/ t[ )d C, &> {, w; W) d, 1) k! 4) k! @> T' v^ s6. R  R XB.nA+oA+pA+%M.JS PB.j! v; %> &> ;' -) {, i' )> Q) ~h g) r~ qA+rA+I&.:; /] P! 5! C' *> )' 1) %! 7] a; O^ E; *~ C; R( (S s{ E( %! 2) ",
"Va Jf m> K; k> V) tf V) ;> (' <> 7{ n> m> /' ]* N= O] k* sA+tA+uA+vA+f> s/ {* <> @) 5; '* -' O] <; E, Q, m; H, ], d' z; $) Rx J; 0! R, Z, f, C' +( ], x; $) X! $) #) ;) a, c' +C.A( $] Y' Ri wA+xA+yA+T@.4> /' ;, J; h] b> O) ]* [; <; k; /' >, j> j, h; J; W! i' {, =) ;, L> $) (< &> i' /^ f! L> C, {, W> H, R, w; V' u' v; 6) /4.&l.zA+AA+Kc w[ S> D> I: P= .> .> D> P; `] '* @) 3^ j, X] &/ h; () >) t/ #, H; *> =) i' S, U, 6) 6' 2! 3' U> Y] G, l; 3' .> A~ => &!.bC BA+ A.A/ $/ 6; ^' G~ 5{ *! tz g; 6) F; +! &) :h [! x{ +! W, )' J; F; b> Q, ], +> '> F; y) 7] 3[ () G~ G~ j> m> -^ 4* w- s/ KA CA+DA+EA+)U H] 4( ): N= J) P= 6> Z] /> V< 6; 5; k; I: /> #, =^ hi &~ '[ >) => %> _) &/ Z^ Z] Z] C~ v, v, M: t[ t) 5! &~ 2! q) u@.FA+[g.GA+*z+[: u, Q; Ai Ii b- 6' A, j' %^ A, #y K>  ' L) g! ;> `, j, M; 5; C^ M; z, %^ e> N= N= E, P= P= S' N= ;> N= V< N= y~ !* t/ HA+IA+JA+~B Qz Q< %^ 5' KA+LA+MA+*9+*9+NA+B, NA+OA+PA+QA+RA+i! SA+:9.TA+V}+uC.UA+VA+WA+5A+XA+YA+zg ZA+p0.7; 0]+8D F> }, u~.`A+5D r*  B+.B++B+E= =' Kx E' I, gi QB h' j) z/ Qx p0.0@.R' RA++A.zz r[ R' k) .A.",
"8; Jf /> >> @] O) O) E, C~ /> ): Y' '* =' P; 9> ): '* &; rz+ZO.KE.7[ D< /{ 6: q> 5* l; -' n> N= n> O) k~ l> ^> ,> ]> U{ `, d; |) c; L' 8) y; g^ c; |) g^ z~ S, S, 6) M) d; 6! U! O] M+.4; o) @B+#B+_t+BD Mc O] m> f! K> O) 2; -' n> V) $, {/ >, N' 0( y) z~ O' -, Q< 6! >, M) y; +> 6) j, O! >, 6! ,> C' [; o!  ' 6i K> &/ &~ a) fc E-.$B+Pk Q).ao. | YO %; g: JK.%B+Dh DO px SC v[ -i  _ X(.$; Z( O= jP :; s~ m> J> Q' gi  r+JP wh pC ii w[ Yi m' Zi 4x ./ Jh g[ .C &B+M'.f~.u&.Nh UT ;j q( x- %j I[ d* t, :: U= ^; Q+.:w 7* D' V; Pe )b BC 1i @b q; I[ L= n< q- X< U= K= i* n< :; 3> n< l] L* Q* r< R(.*B+5Z =B+|} ~k o( dd 'w uf KC $f QC =j E= $b Jd }( uf -< -< `| M]+)U hD 6x [> *'  _ M* =; H= .b H= D< $b *' 9< ~^ (b f) Ch KC Ch i).E'.-B+P).k_.$&.U/ AD 1d |f P* C1+/4./b [- Yf+~(.Y< E/ oD *; $/ *w i* 3> n< D< w[ P[ $b N] -b 8^ Oc jh 9( =j |( (b H= s< Jd -b /{ ;B+}0 >B+_/ U= I[ R[ jC 3j.N[ $d 5D ,B+'B+O1+*' m' l(.1P q!+A0.Vi ,i N[ N[ h) ^y.)B+%B+ji 80.1P jC V{.V{.F3.y= !B+7[ 0o.Jy ~B+i_.7+.{B+]B+^B+_1 [&.[x.zE /B+ A.Q(.,4.pi (B+M]+V_.v} e:.w} 4j.D3.'D.ao.T| 4j.",
"e# _B+m- ), uD f[ y/ tD sD X(.F< jh jh .! /{ jh .! Ch Jy W++36 :B+_! +1 <B+(k /k N] Jd Jd s< z( Ki v+.+i #j k^ [B+H= QK.`a D_ ,, 4* 0g S~ G< )b f> %j K< Hc h* q; q; ;b o< P* T= F%.6*++&.rc }h.S4+}B+6^+AD =h f) z( .! 1/ `> 48.2: n< R= YR (b )/ !] fg X< n< i* :!.qc `a =j Mc T{ R: Bz F%.e! Xa fg rx Jd !k t! 7x x= t! Rf )U dz+|B+9F.@=.Cj f/ Vj L} M^.u< L%.T$..k Y_.GT.5_./B+B} A} 6h -f <| a0.~M.={ f| t:.Kz Rw.1B+y[+pi 1d ic  A.g| )k 3| 2B+Y} B} X} |' 5_.3B+5. wp.@=.*G ,E 4B+5B+6B+Rk 5E 6B+P&.5B+Z..So.si [s+,l %< 1a.7B+8B+9B+>*.Cr+&G 0B+0B+c@.q&.aB+r&.q&.sE aB+hl 6r+sE Hj |j gl t^.;l bB+cB+dB+)p.eB+}E.fB+NT.Go.gB+hB+RT.iB+jB+kB+lB+/0.|p.mB+OD.%q.P^+nB+oB+pB+f/+,f Oe A$+qB+#f b1 pw G].i:.rB+>E ,E up+Ca.sB+OD zx tB+1t+uB+vB+iB+wB+xB+yB+zB+ap.AB+sL.Y0.BB+CB+Z .2v Mi 3s+rs+e=.DB+EB+FB+{^.}a.`T.GB+HB+IB+JB+fF KB+LB+MB+NB+[a.OB+es+U&.OB+PB+a_.QB+Hs+RB+SB+4F TB+UB+VB+WB+XB+ND O| bF CU zV YB+@:.er+@E SU HV ZB+|E qF al ZD hb. =.`T.`B+ C+.C++C+@C+#C+AE.Gq.O9+|;+*/+F*.$C+%C+&C+uc+*C+=C+-C+Kl ;C+>C+,>+1-+,C+'C+)C+VI ~T wq+[>+!C+~C+bq.eA {C+]C+6/ ^C+y*+",
"^j ;:.&k 4j 41 =U.)( H&.*U U_.eE ~} $k >j.u&.>j.Gj /} 8r+tV /C+(C+_C+7D.:C+c2+(-+2E ]V <C+}E ^:.bj+92+k/.<:.[C+uF Qk KV /a.ml aB+cd }C+|C+1C+W=+$G 2C+3C+p++uk 3E Oy 4C+;*.ZB+5C+&q.S*.S*.&a.o3+6C+7C+_!.#:.%< Pz H| q&.dl 8C+9C+6s+~D.@9+Wk Ar+U&.0C+ll 1C+Oy Tk wF zD.>E.UU T*.=o.aC+Ca.i:.&G i:.Ae .b.:p.bC+dj+0b.:p.cC+=< >[.dC+MU.eC+ 4+fC+gC+hC+iC+.y jC+z;+$A+kC+lC+Zq.(! mC+MO i% RV.nC+oC+kx.~j.pC+'X jE qC+X:+rC+js.sC+tC+uC+:B vC+wC+xC+yC+7P zC+an.AC+BC+CC+Tk+DC+*e+EC+e>+FC+GC+HC+IC+JC+KC+LC+MC+MW NC+OC+PC+LW QC+QC+RC+SC+TC+UC+VC+xt+su+WC+XC+YC+ZC+`C+ D+.D++D+`C+UW U+ @D+3# 4# #D+t}+wY.Xv+$D+%D+&D+*D+=D+-D+;D+>D+,D+'D+)D+!D+~D+{D+]D+U-.^D+1d./D+(D+_D+/q :D+<D+Pd.Nq g1.[D+}D+Xr 11.'>.|D+`t+1D+ik+2D+>v+3D+4D+d>+5D+6D+7D+8D+9D+0D+aD+bD+*u+Zr ee.cD+dD+v>+.g.35 eD+fD+gD+hD+5H.iD+Wv+jD+IF.kD+2@ lD+mD+nD+oD+pD+qD+rD+sD+tD+Lu+uD+vD+;m -v+wD+#<+xD+yD+zD+AD+U. h-.`X B. BD+CD+46 (6 DD+ED+FD+GD+HD+ID+JD+KD+LD+MD+bD+ND+[6 OD+PD+QD+RD+SD+TD+UD+VD+Qr.WD+sF.x6 XD+YD+ZD+x5 oD+`D+ E+.E++E+@E+#E+$E+%E+&E+ZY.*E+=E++_+-E+;E+>E+HZ ,E+'E+)E+7& !E+}[.~E+H=+{E+]E+",
"M%.^E+cn Y[ W<.mm /E+0_ (E+_E+:E+<E+[E+}E+|E+f4 u;+1E+E+ 2E+3E+4E+5E+6E+^J 7E+ H 8E+9E+0E+F{.aE+bE+bE+y@ OF.1D+Ld.cE+dE+eE+fE+vu+],+gE+hE+iE+x. jE+kE+lE+,m mE+6@ nE+,>.CC+oE+Ud+pE+qE++6+;p rE+sE+tE+uE+1^..f |n+x@ Sp 3. D<.wd.vE+wE+xE+yE+@R zE+AE+BE+CE+4s Hw+v(+4+ DE+EE+FE+GE+1s A-.HE+Ud.2D+S-.[D+IE+e>+JE+<u+a7 KE+FW )D+Y>+*e.4>.LE+ME+NE+OE+PE+QE+RE+af.N9 9& 7t.Ql+SE+}Z.[K TE+UE+VE+WE+;I.XE+YE+ZE+`E+ F+.F++F+@F+YZ.#F+$F+%F+Ql+SZ &F+*F+=F+Fw+(w+-F+;F+>F+,F+'F+)F+!F+~F+{F+ov+/K ]F+^F+/F+(F+_F+:F+<F+[F+}F+|F+1F+2F+3F+4F+5F+6F+97 7F+8F+9F+0F+aF+bF+1F+cF+9e.E}.dF+eF+fF+gF+hF+r5 Ep iF+jF+kF+lF+mF+D}.u}.nF+5F+oF+Tf.pF+// 9v+#Z.ZZ./>.J}.qF+rF+ze.#,+sF+tF+Q4+k}.uF+vF+wF+W5+@` Ax.xF+]6+Mf.j)+Pf.W~.yF+_;.zF+#Z.9v+AF+`v+75 EZ BF+Ip I5 CF+DF+EF+pI.,i+<l+Ex+b;.:w+uI.B}.a5 FF+v{.GF+yF+[i+EF+HF+UZ IF+OF.Rf.JF+K}.'5 de.KF+}F+LF+MF+NF+OF+PF+QF+RF+Hv+SF+TF+UF+VF+WF+8Y.XF+YF+V4+&,+ZF+Se.`F+(K U5+dF+ G+.G+tZ.4I.;H.+G+@G+#G+PE+$G+%G+&G+*G+}w+vZ =p.a-+=G+$,+75 -G+I5 hF+rZ F,+Y9 j)+o0 ;G+5I.>G+Dt.=0 +f.4e+,G+Ax.'G+'G+xZ k% )G+!G+.Z.wg.[u.o0 M|+h].'a M< ~G+{G+",
"x  ]G+YK m:+%g.$g.#g.Ts.;'+#a ^G+~G+/G+(G+_G+,9 rJ (Z.18 6|.:G+<G+[G+}G+3r .Q |G+1G+nt.2G+3G+2G+4G+5G+6G+v|.+L 1q+7G+gG.EJ.8G+9G+u}.0G+Dr.aG+bG+cG+dG+eG+.:+fG+gG+hG+iG+jG+kG+lG+U9 q9+mG+%Z.Ke.YJ r>.e}.mp -r K/.nG+oG+jr [2.Jf.pG+qG+rG+/G+sG+tG+uG+vG+fg.wG+xG+9f.e8 $6 yG+np 0g.``.c7+=g+$Z.zG+AG+ 1.i`.P9 ;g.BG+CG+.S e/.DG+>0 EG+'A+FG+GG+HG+IG+[0 JG+J>+KG+LG+MG+k& Bl+NG+&~+HM OG+PG+QG+RG+#7+>5.q0 f7 SG+Hq.Zz+TG+UG+VG+WG+I<+XG+L1.0< .f+am.0T Kl.YG+J:+ZG+`G+&l. H+u% .H+-x+f& gZ e'.l2.r2.P7++H+6s.w$+j'+Sf @H+r6+gZ ;#.#H+]M.;v $H+%H+&H+*H+=H+uy.-H+;H+>H+#9 kk.~{+,H+'H+y`.g,.)H+!H+}y :1+~H+{H+t +]H+^H+Kv.bp+/<+bp+/H+Gn+5i.23.ua 6% (H+F]+I2.j^._H+b%+6A+:H+3.+S!+<H+[H+}H+|H+.g+1H+2H+3H+4H+d3.@n+Gy ]).2M |).Cx+jx+cy 5H+6H+Lz.cK.7H+8H+v .>).^- 7K.@#+sb 9x.)n+.i.9H+0H+[h.5K.aH+bH+zn+cH+5K.$n+dH+eH+fH+,A.gH+cC.vv bw.@[+PI.hH+=!+nk.iH+jH+kH+e5.}c /3..h.Tt 9$+F{+Pt lH+1 +;#.K8 ^h.mH+y)+nH+[t o8 oH+rl.pH+qH+rH+/A.sH+QA.tH+a] /k+uH uH+vH+wH+xH+yH+3y+YI.zH+AH+BH+CH+DH+EH+FH+33.GH+HH+IH+JH+JH+Hs GN +N h5.KH+LH+MH+({+/l t7.NH+OH+PH+S3.R2.4../L.QH+RH+'- ny+",
"SH+TH+UH+OY.v9 P~ fZ B=+VH+:u n; o +yN WH+Jt  N :<+F]+%. UM u2.XH+YH+ZH+`H+[u R7+&v {A+ I+.I++I+@I+Xg+#I+=[ $I+*M 8z %I+&I+*I+2^.=I+g8.-I+;I+>I+,I+'I+ON )I+!I+8y+_).F' =[ .N Iy.fy ~I+@a+{I+]I+5= l( Wx.^I+/I+(I+uv.$7+L6+_I+A# :I+T{.<I+bw.2R -..[I+}I+7h.|I+6H+hN 1I+/: SH c: !]+)n+O- 2I+3I+&I+4I+sb MT Rn+Z.+5I+6I+7I+R* sc xb 8I+d= 9I+Uf+lT Xe 0I+8!.aI+W.+9..QK.~(.Qw }- /4.%b `* 9..Xf+jc mb 1b bI+cI+dI+3j n} )U e:.B[ `j 5x qc eI+Wc S* Wc /x fI+G* R* 0U a0.Bw ~; %c Fw T* Q* S= =; gI+~x p- T* pc =; p- `- P* C* =; oc .b r- q' hI+SL iI+jI+,U q* /; M* =b H= /b X< /b =j l] e* )x h .g .p/.eP.5e }..^/.6* +, +, U= w- Z^ O= O] Cx 9[ @_ C< {* Cx D' X< ZO `i ii y[ kI+lI+mI+f| %b l] `a Bz YR bA `a 6z ~* 4> ,* '* I< Z^ /> &~ j) C~ O] 4; r- %j 8* 4h+7_ 1( a) f> =' =' 1' f> i> 4* @_ XS.p..Pe X< (- nI+oI+pI+M= A~ 5* %j R= >]+@j.d- 1; s; ]: _C._C.)Q D~ a[ v- ]; B- 8..Ya =j s/ U= Xh #; (o.d- ): Cx `h $; 1i hD o< H[ Q_ 8> @' KA l( 6o+Mp.)k 9m.Qi g> 4* x- _, i> 4> `] O] k; 4* >* !* B- 7* N= tf 2; 5* G< Lc qI+F< q( D: o> `] f> q( 6: X< K[ Qw 1i 4x 1/ $f :: 3_ ",
"-* rI+sI+}!+y).#z 'f x).E.+Q[ RA </ !{.tI+uI+Qc %b Y| 2> !| -< =j $f _: N] Uh RC 7C E.+&; =j $b q, N* [- P* }( I' .! F< 1' d* *_ ay+vI+(E kD F< l* r- )/ p~ n- d* x- :: 1/ s/ U= D, 4> u, 3> 9( $/ q( v[ 1/ q( J< c* wI+~, *^ Q: SC jh px Dh D: *; D: s~ r, d* H] *; xI+yI+-g++| hD d* :: h> x~ t, s~ 5> d* >* P: `] 9> s~ H] P: H] /< Nx.P: qx C@+~* -> j( u, )b r; k* ~* 8> 4; 5; f> :: aD 9D g< x~ SC w: zI+AI+u| R: Vd 5: ~) Mc {* i( u/ o~ Q; P; I< x, Y; p] f> ~* [; W> Y' @) o! o> '* Y; D' Y; ): '* o> 4> D, `] P; ~* =' &( Wd 5: C@+X` BI+GB+,4.o! `, 8) S' _, _, }, .> t/ G, k' (, M! <; G, K> 6! j' ]h O: X; 3' s) %/ )d /, /, C'  > C> J) k' `; J) 3^ Z; Y; M; C' E' SJ.CI+6k  | g: Ai p[ H(.i) Ai e~ I, P= t[ K> C' z, [{ 1! d> kL.2) 7' -) 7; X] N) X4.z~ z, k) J) v, &/ J> h' t[ z, N~ O) M; Qx CO fi+DI+EI+u:.P; R, ^] )* D, l; M;  ' J) N~ 6' &/ &~ f! +> ET *[ l) 5! Z; '* Mc p] 5> I< K> O) M; #, x) U^ F/ I< u, 4* _, ): 6; W> D> o# FI+j[ X%.oh J: C~ B~ O] D~ O: Q, 8) >) #, W> 8, H, X; ai i! T' ad '> j> >, ]> ^> l> V] X, W, 0> e> E, _w Z^ c< 6> 9> A) v[ l; tf ",
"=/ l~+x, z/ C) q> 3: ;> j, t/ I< q> ud U> J) E, 7{ o~ Q; P; >^ >^ ,* P; X' 9> t) M: K> n> )* G, X; 6; Z; >^ !/ ~* @) n> B> k' &( !h+GI+HI+(f x~ <; (' <; [; /> f! ]* => U> -' ;> [; => `, N= j, O, N; D> D> 5! ;, G; 7] z~ M; Z; Y' 9> x,  > Y] M' Y] e> O: M; 2( ~* [O II+JI+o( Wd )* B( ,: W; f! O! ;, {/ 5; O; `, Q, z, C> X; ): @) X' Y' &( i( 5; C' Z' .> U^ /> O, E, Y; @_ B_ k* 4; H>  ' Q; ^R Qi KI+LI+hd 5< Zi @_ N; l; k; @) v: X' N; M; P! ,> >) 8) S' `; M; X; Z' %~ k' [; [; Y; => M; >> C~ K> H, => %~ `, k> /' 6; Y' q> &( K^ MI+1u NI+a]+J) 6) ,> J> J> 6) [{ v; $> M) 8) () 2, ;, x; E; V' a; c, `R M) #, ,' C, ], 7' Q) +> z, M) M> f, Q, Q, z, %^ ], (, Q> v_ ii.9h.8A.P[ b- `n.CT wh ZA+.o.8o+Ji U{ J] 7] J; a; {{ %e H{ z' g' 9' N) 6' /h th 4, KS.W^ )> X^ 7' G/ H; z~ T, !> J] 1! CT OI+V@.PI+QI+RI+AD X' H, N/ R> @) C~ f! x, 3^ O) Q, Q, j, *> w; [{ U{ g! *> C' 5! G, k' J> M> G~ +> Z, 0; W, N' C~ Y; k; '* Z] k; @) l; D> O< Z$ SI+S{ n- 5* 6> }, m> U^ wh u) j, m> C' M> ;' J; !' $~ T, _) %> #! G; >) h; j, *> +_ #~ 7] y) j, f! J> M; 5; '* n> [f QA k; O) ",
"l< >$.5; C) G, !/ >^ k> `, X; n> X; B> z{ O, j, /' <> @) 5; 5; 5; 5; <> Z' >) #> }{ y) #, (' $, x! `, /' L; %~ k' H, S' k' N/ 4> be TI+HI+dd 1' (' C^ L; ~! /] B> z{ *) *) `, O) /> ;, G; F; #! B! G; j> m> O, >) X, U, j> $, m> => /> C> X; ;> ;> S' s) 6) 6' k; G, UI+VI+WI+Y0+j( !/ v: 7{ m> Z, *> d; (, /] y^ ;, () |) e; i; ;, /] /] B> 2( 7{ /' H; f, ,> w) b> z{ m> 5; Q; ,* >^ N; ;g ;> k; D, p] Gd G5 dq.$S E' O] 4_ /' [; Y; n> N; Z' #, H; G; (, (, H; X; #, $] :> {/ /' /] ;> W; %~ k> /) 5{ ,> H; H; f, e; #! 5{ V) 5; <> Vd x~ XI+iZ CB+YI+L: 3[ 6! M) |, U] f' u' c, '> ,> |) B! F; A; G{ G{ D; Z! 3{.T^ () G~ G~ F; =, T, V] y) '> ,> *) `, l> h; 6! X, 0; H, 7; F] -v E&.<..w) `R R9.ZI+c^.X] Py `I+xf M..g, +! w' 3] F+.vz+_S .~  C 6, %> $> 7, E@.P] i#._) ad T, z~ ^' Qz `! [! -, Y_ 7T  J+^8..J+Az++J+z( `; 6; O, 9, H> ^> >> X; => *) x! V] G~ () |) )' =, ad J; j, `, `, *) 0; K) %) k! W, A; A; F; j> f! ]* >^ 2; 6; 9> X; I< o# @J+#J+I' T_ N: `: a- &/ @[ *[ J> &/ J> C> j, *> W, 9{ 7~ %! T, %> |) F; (, R_ hh C, -, }{ G~ M) K> X; v: l; k' k; ): O/ sx s~ X] ",
" @.$J+W' t/ a- Q; >^ Z; B> F( 5; [; %~ K; P! `, l; (' P; W' (' :> @) 2( O; ,> 1, 8' E@. ^ -' N= 6) R_ k> /_ sz /_ J> V> k' Z' q> SA %J+&J+48.H] Z] @] $] 5! m; -> => *) *) >> l> >, k> Z, X, ]) }] U, b> j, {/ Z, F; 5{ ^> C~ N= B> N= M; /' /' O; f! i' |) ], 6; n> NB *J+R{+F%.f> G, D> k' #, `, ;, z; d; P, G6.(, }{ |) /) 5{ 5{ i; t; W; 5; -> l> 8) *> ,> b- {/ B> N= G, 4( ,* P; m; A( ]* ): `] 5> &!+=J+-J+z( hi 5* (* W; ~* '* 4; <; [; n> O) >) i; f, j> f! B> B> m; m; Z' k' Y; [; $] (> B> C^ j> O! 8) H; 5{ ;, /) V) s; ,* +< cT ;J+GL >J+,J+x) ,> j, +> F; =, J] @> 1, |) ^' |) 0; +! p^ 8] g] 4^ &) W, G; F; ^' 6) #! F; J; () 6! Y_ M) O, O! *) >, M; l> F; j> D> 'J+vu )J+U= /> hh d9.K$.S< R' a- Z^ -, }{ () T^ H{ `! d8.wR lS y' w' %) N^ ad 4, !> W^ jB.8{ }{ !> )' () )' =~ |) 6! M) -~ %T hh !J+9d ~J+}( 9> Cx j> X; x, C^ j> M; /' l> 8~ -, G~ ^' F; 0; 0' #> d; >) i; m> H; '' 7] $~ g; |) #> |) 6) G; >, V) [; /> T_ }, t/ `: lN.9p+{J+%( O= n~ 1( a- v/ hz d[ &~ &/ 2' J> f! /' R, !' ^~ h] y) ;' }{ F; >) y) O: ;> N= ^' V] >, j, 5! m; X; k' 9> 9* Q= x~ q> 6> ",
"L$.]J+p] $[ wd q> ld k; ;> [; 5; -' O; X; H; k> l; @) k; N; 5; [; W; (' 5; B> I; ad S< N~ W; B> C, O' M; Z; <> ~/ I: `; @) G, o! a9.*& ^J+Ch o> ): L; Ez l> M) f! B> t; [^ O, O, m> M; O! 8{ () /) 0! >> H; 0! G; #! 5{ tf N= G, [; M; j, O; U> N; [; f! 6) =) 6; 4( /J+a~ Y0.`a f> @)  ' C> #, H; Z, ,' !' G; l> '' g; F; i; i; 0! Z, i; (' (' /' k> m> 8) N~ Z; ]* B> @] 5; 4( ,, k; f! J> N= 3; o> p! (J+M< /( uf D_ >* {^ P; q> o> Q; P; =' ): w! ;> C~ O) O) M; O, f! i; P! B> <; >^ !/ 2( (' ]* ;> [; ;_ N; O, j> /' ~! -' <> x~ qx 2: _J+:J+<J+`> 9> -> $, C> =) Z, J; Z, z; >) >) g^ i, =~ 8] 4^ y' k! k! }] 3/ l> ;, *> |) H; ;, M! >> 6) >) >) j> 5! H; => M! #! O) r' .[+Zt UE Q= C~ N) d> y) [{ M> 5; $, *> () A; g; X~ Q( -7.p: +~ C; v' =~ c; $~ 7] g^ h] g; |) W, W, h] 1, S, 1, '' j, B> p! D> Q, hi.[J+}J+Jd k; D> Z] y, 3' C^ C~ C~ [; m> l> >) a> ^) l> e; 0; |, O, $, B> B> H; 6) F; h; '> F; d; '> J; b> O) E, l; E, .> Y; `] :: 6[+k8 |J+uf [^.O) `; I: v, 1< Z^ E, >, L) i' Q, `, `, ^' y; y) M) f, )' F; >> /> w, 5; I: P= K> >, 8) `, 5! ;> Y' 9> 6* >* $/ A) ,, ",
"e# BO '* `: `h g> lR u/ I< O] Y; :> /' H, j, m> 7{ v: X; %~ ,: 7{ L^ L^ 5; O; *) $~ X^ O) 5; k; &~ K> 3; $[ ~* -^ 6; _, <> 4; 1' >M 6u 1J+`> G< Y' Ez 5g f! `, => k' %~ [; k> C~ m> /' t; () U, #! 3/ P! i; i; G; 0! ;, >, v, G, n> J) K> J> J> => z{ ;, 0; =) 9> r; 2J+9]+3J+hD D: L_ 5; l; S' H; '' ]' (, 0! G~ |) G~ (, K; 0! (, H; `, E, -> (' [; f! ], t' &/ #, %~ Z; =' o) 7> 4( k' )d Y; p..q> o] YO.FI+=B s< !d *w ]^ q> +< D: x~ sx }f x~ 3: >^ E, &/ M; k> #, *) 0! *) B> 2( 8/ Q; !/ u/ Y' `; @) Y{ ]^ Z' X; 7{ o~ !/ j( !d u]+C@+4J+5J+6J+QC @) 7J+Y{ B> /] i; H; /] => m> >> #! G; |) }{ _) k! *~ =~ )' y> K; K; (, ^' K; y> P, O, f! 0! l> `, O, 9, [; >> #! X; o> 8N.I`.#k Fd Y; E, #, R, ,> #, => j, *> ^' )' ;{ C; x' Z! :/ Q( w{ m! 0) X, g; y; ^' U, h] ^' () h] !! F; (, A; ,' O, O, X' 5> K> Fb [J+~J+,j )* w, E, y, E> m> C~ k> k> O, `, (, #! W, (, (, ^' f; `, O, O; >^ /_ f! ,> &, 6! ,> f! >) >) j, k> 5; l; P= &/ r; P; !] 8J+9J+2:.=h C~ X; E, `; U^ t[ Z] l; K> 6) Q, M) *> C> *) M) ;' M) z{ ^' (, j, E, Z] i> I< 0- ;> C~ f! X; O; O; 7{ ~* ,* #b Pc D_ 5: ",
"-* 0J+'* 6> Pe !d .A ld 5* 4( '* >^ /' [; => `; L^ >^ -' 5; P; l; -> L^ :> %~ `, J; ,> E, @) 4; [; C~ Z] f> M/ {_ {* d* ,* ,* :: -M aJ+Sj.;U !] P; W; (' H, j, j, `, *) m; ;> k> P! W> B> #! W~ u; u; H; 0! 3/ ^' 0! i; O) _w 5; Y; j, C' f! f! f! m; O, f; jx P; 4; bJ+][+cJ+hD 4> P; 9> 7{ l; j, '' d; H; b/ 3/ '' h] ^' e; (, *> |, =) f! (' 5; -> f! 8) t/  ' C> m; ;> w, 4> Q; L_ ,: l; I: ,* Ri c* w8 Qw+h=+s< sx Az qe D_ 6: 9( D_ )/ 6: ;A+&z Cy ~* a- >> ^' h; f; Z, O, B> (' o~ ld Ff Ff L_ @) ~* L^ @) Z' U> @) u/ L_ {_ !] X( @g dJ+eJ+fJ+CT.T_ {! '* O) j, m> m; P! /' L; %~ z{ *) ^' 0; (, A; ]' A; 1, *) T..K; l> #! G; u; 0! O! B> i; Z, `, H; z{ ]* Z, $! N= )b Ag z].oU K^ 2( [; ;> i; k> >> i; 8) j, >) 6) d; ^~ k! `! #~ `! G! Y! W, 0; A; F; Z, ^' )' ]' 7] g^ (, G~ e; u; k> W; m> o) G, O) 1M Tv+RI+7/ P; 5* [; sz '* A~ ,> f! k> B> j, |) J; |) ]' W, d; F{ `, O, /' W; N; X; H; `^ z, >, f! #, H; `^ M; 7{ Y' &~ }, P; O/ sx gJ+Nt.A/+9m.C~ k' Z; x, C' 3^ m> [; ]* O, Q, C> K> 8) =) j, L> K> f! H; =) >> Y; '* o> u/ F/ 6; /' /' #, Z, f! 5; P; -^ ;A+0C !] 0g ",
"-* >$.s~ ): V; h> hJ+ld =' ~* =' @) N; N; ;> /> >^ {* P; >^ ]^ [; /' ,: P; (' |, Q) u) Z] 4( Y; C^ >, ): ,* {_ _%+x] `] {* M/ P: 8I+GL.iJ+z( +< !/ L; (' %~ O) 6) 8) f! => $, /' => N/ B> P, W~ B! Z, f, l> W~ l> (, O! C^ 6; '* Y; `, => => k' i; `, ;, ^' L> k* s~ jJ+kJ+Ya.z( x~ )* @) ,: l; F; y) >) ;, ;] ;] (, () #! P! 0! |, B' f! f! [; [; /_ z{ ;' R' s) C> k' /' l; 7f A) 2( L^ <> 2; w- &( t, |.+~e+t0+fg d* %j !* 2[ $; u[ h> cT Mc q( A) <d u/ Cx [; => ^' Y, (, *) => -' -^ A) R> Ff i/ 2( Q; qd v: 5; k' v: L_ a( cz Xx &j (f lJ+mJ+nJ+oJ+w- |; w, 6! Y_ z, X; m; /' -> /] y> l> (, y> v! a; &) V' 1, 0! 0! ;, G; Z, e; (, H; i; %~ B> m> `, >) ;, C~ ^' !! Z] c* pJ+E'.6V cT 2( H, ;> {/ k> k> O! `, =) `, e; d; !' k! `! =T y' w{ b; {' e; ^' F; l> ^' h] d; )' h] |, J; i; ;, X; ]* C^ Y] Z; c> := qJ+t]+dd s~ =' V) 7{ Q; w! k> X; i; B> >> g^ |) P> P> d; 9! Z, ;, `, `, w! X; O, P! j, y) ^' B> E, j, x) >, W; G, Z; I: D, 3: D: `h.rJ+sJ+C@+C~ /> Y] }, Z^ n> => => {/ k> k> k' k' f, ], () Z, Q, z, '> *> B> <; Y' s~ -^ F/ 2; #, O) C' 8) 8) => 4> -^ O/ qx O/ :: ",
"tJ+3@.,* k* i> h> ;A+4> 1( 9> 4( k; /_ Z' ,> O: @) <> @) -' qd 7{ [; -> 5; X' *) L: ;$.Z^ 2( 4( O] C^ Y; <; D#+_' 4( ~* 3: Q; `] uJ+vJ+wJ+xJ+E{ P; /_ W; m; #, i; f, H; O! B> t; #, Z' %~ Q/ ;, u; >) `, C' H; [_ G; h] xi n> 5; X; O! z{ W> O; ;> j, l> '' 8) f> Q= !i.ou 6J+-j q> =' >^ ^^ Z' 6' Z, /] +( O! B! ^' ^' ^' 5{ ^' F; |, `, f! l; [; =A 3/ 6) C, M> j, => $] (' !/ {* @) Z' 2( ^* k* *^ D, yJ+zJ+vw./< Kx e~+AJ+P{.BJ+$[ D: Q_ <!.q> D, P; qd @) o~ 9, z; '' )' S_ u) ;> ,[ ~* P; 4( Z; N= 6; Y; l; ;> m> m; 5; n> Wd Fd 9( $f CJ+z7+DJ+Th f> Y{ M; 6! >, &/ l; @) n> ^> (, H; *) P! P! 0; !! 0; A; () ;, 0! P, P, Z, *) (, R, f! L; [; [^ $] H; B> n> l> O! B_ :; q8 :^.EJ+sx X; C> ;> -' (' -' n> ;> %~ O, f! (, @> _) m! |{ )' !' () (, y> >> >) l> Z, 0; f; (, ]) 3/ l> P! => [; ;> (> B( x, O= I).FJ+GJ+dd '* '* ]* k' Y; ;> m> => `, i; *) G~ h] G; (, d; f; *> P! m; N; k' `, H; 0! 6) d; d; ;, O, #, ,> >, -> k; Z] a- @) Y' t, m .6p HJ+0z+C^ /> D> `; N= => M; >> m> V) k> B> Q, d; )' +> >) H; Q, M) F; Q, n> -> <; Y; 2; @] O: >) i; 0! *) => @) Q; *^ cT A) u/ ",
"L$.IJ+N; 9> ,[ ld j( ,* '* I< @) @) 5; ;> N~ I: a( 1g L^ W; L^ >^ 5; -' 2( W' ae M) P) v, !/ 3: r; E, @) '* o~  g 7{ 4( L_ '* ed ,M JJ+.C.,j P: P; ;_ /_ %~ j, /] O, ;, m; %~ /' => [; m; i; $] M! O, k> C' l> {/ G; 7] #Q m> [; O, Z, H; `, L; /' k> Z, F; 8) P; $R KJ+p& 6b+Yx.Wd Q; N; N; => C, >) e; e; H; !! (, e; 0! u; #! 0; *> J> m; n> [; /' 8) J; J; ,' `, i; G; P! ;_ (' 5; /' Z' -> h+.Wd A) va p& l!+w[ `: ]!.LJ+MJ+v) g- 7> NJ++; o) =' 5* 2( @) L_ ;_ Z, {' @> z; u) 3^ OJ+%/ Z^ E, J) U^ U^ O) f! O, O, z{ Z' N= 3: Vd 4x Kc PJ+QJ+RJ+_: I< /' `, 6! #, x, }, [; ;> >> H; 8) P! `, (, W, #! I; a; a; d; F; (, ;, G~ 0! *! J; `, W; /' O; t; l> i; /' >> k> 4; L= SJ+R'+Rh 7z E, 5! 5; Q; o~ o~ >^ Y; N; m; K> I; )' a; g; O^ ~' J; d; H; z{ %~ k> >) Z, '' '' W, ]) 3/ G; u; i; N; (' $] o! Y' 3; nx+P!+TJ+QC =' 9> -> k' X; C~ #, => m> k> i; >) F; H; !' |, K; I; `, O, N; k' (, !' 0; 7] () Z, ;, ;, j> ^> O) ;> 5; M; N: w, x, s~ != Od F0.4&.w! E, ): ;> O) f! #, >, j, `, >> k> >> |) _) }{ 0; H; l> >) H; O) >, E, [; j> >) K> &/ 2' H; ]) l> l; u/ u/ i( Zi )* I> ",
"Dg P3.O, &~ `: j( !B ld 3: 6; 4( u/ 5; #, &, O= <; 3: ^^ ,: 2( @) (' |; s; /_ $, >, b( Z^ Q; 4( >^ n> -' k; X' L_ W; Z] P; u/ u, ig UJ+I_ ,j S> Y' /' ]* N/ P! ;, Z, k> ;, k> %~ O; l; i; W] 3/ W~ T) m> z{ f! >) W, ad V] ^> L; B> l> j, Z, i; x> O, H; F{ i; r; >B VJ+D7+WJ+[B+E_ P; I> 7{ m; f! (, Z, F; (, 0! (, H; e; f; 0! ;, i; N/ N; ;_ /' m> >) h] g^ +> e; i; (, H; W> n> l; m; 5! }, k* D, o> XJ+'8+YJ+Oc !, mi+<b+D~ s' yC `: l- ', k; }, a- Y; Y' G, k' e; A; }{ ^' X; 6; v, &/ z, U{ x) ,> Q, Z, P! z{ `, H; ;> M; X' 4> 1' H[  Q ZJ+#j+I' I< m> k> C' ^> -> <; <; 7{ m> 8) /] /' Z, 6) (, h; 2, c; F; 0! k> `, z{ z, /) F; G; O, y, l; f! ;, 0! f! [; /' /] >^ x~ iN ` +`J+E{ M; Z' L^ '* q> &( !/ Y' (' $] >) 6) ]' !' V' O^ y; d; d; Q, m; ~! [; C> H; G~ +> F; U, W~ (, 2, B> X' v: $] G, 5> ,* $y+ K+ei N] Cx I< n> Z' v: ;> k> m> m; ;> W] >) F; f; |, *> 3/ u; ^' ], M; n> *> ]' '' T, $~ e] 2, g/ ^' `, k> n> 5; -> &~ J) x, s~ ni._L .K++K+5* @) @) E, 0> j, k> j, j, ^' ^' ^' d; i, 4^ y' J! () #! l> O, m> z, u) K> ], '> z, Z; J) *) #! h; X; H] @) G, Xi E, Vy.",
"8; Ie /' '* '* A) A) 3: p~ ~* 3: :d /_ $, N= w! (' @) Z' 5; >^ 4( >^ r; 2( L^ B> j> 0> w! ~* k; 7{ <; {^ @) >^ <; l; 6; <; )* =' tw @K+#K+Jd p] Z] W; M! 9! W~ {/ Z, {/ O, >> t; i; G; 8~ u! W~ =] Z~ y> /_ P, $! |) W^ b> j> j> G; |) 8{ (, G; Z~ 3/ {) !! O, <..N.+n +P>+%s+rc )* E, C~ l; /' X; P! *) d; !! e] (, #! `_ B! Q/ t; b/ %~ $, ;] >> !! Z, *> s' P) J; f; !' l> k> S' m; 3/ d; J) 2( @) +, $K+<;.+B+l(.,, r; Qe U^ *> H; Y; 4( A) Q; p] k; 5; v: k' i; >) ^~ v' +> z, l> U, R_ P< w) ,> >) u; 0; R, z{ 8) 6) k> w, 9> k; E> !, ]- %K+94 A[ p] v: L; (' X' !/ '* ,*  g ;_ /' 2( W; Q> C, +> 6) (, [{ J; P! +( /] v: }, G; 0; i; B> /' O, ;> ;> H; J) m> X; x, o) Eh IM &K+V1+4x O= /' W; F/ [; r' B) P; m> z, ^' h; S, )' T, &) )' ^' Z, >, f! %~ Z' f! Z, '' ^' P! k> u; '' d; f! M' X; ^> /> ~* ^e *K+=K+-K+$| I< Z] => I> m) yC yC b- O, => 4_ ;, () !! }] 0; H; #! 0! e; 3/ /] z{ *> 8) ;) C, *> 6) A; ^' E, => G, !/ =' a) 8> I< Ii XN ^G+Jq+Hx.CO r' $[ s' g! Q, E, C> m> E, J) w; N> %! m! m! %) 8' @> -, ,> f; |) g^ 6) Q> w; hh R' 6! M) Z, x) w, 4> X' 6' U! K> z/ ",
"-* ;K+<> u/ c( ;_ c( (' (' P; <> 9B ~! $] ;> <; >^ O; f, O, >K+[f u/ 2( ud L_ Q/ Y, g^ O, k' E, N/ 7{ (' 5; L_ <> P; k; k; 7{ o! := !3.,K+U/ u, l; m> B! ,' >) /_ [; ;> k' ;> i; e] U, #! .].y] u; W~ M! ]* !' P> `, ^> j> N' Z, *> a; |) 0; !' {' ;{ c; }] P! }0.'K+FJ.)K+yF ^k `; #, >, Q, >) >) O, /' H; !! 7^ W, !' ^~ Y, )! U~ {) H; X; M! D( _f y; %^ e< %^ ;' ]' V' z; S' G, m; #! 0;  > v: C~ |8+!K+~K+{K+T$.Pe r; P; 5; Z, f; [; 5; !/ ;_ B( o! Y' G, l; {/ >) h] ad $> d; }] =] Y, j> N= M; 0; E; ^~ g, ]' '' >, [; '* Z; Y; 2' `$.8<+0q $b.~$.Eh o! N= =' '* @) )* >^ L_ L_ L^ 2( n> Q, C, Q) 6! 6) G/ '> m; +( m; Ri G< (, :^ H; B> l> O) ;> n>  ' Z; k> C) ]K+o! z: ^K+/K+(K+oc k* 5; O) }; M; x, p] 4> &~ r) g! T< sn.sn.kx +> Q) S, h; &/ l) 2' K> Q, Q, L) g! N~ J> j, L) e> r' $(.G, >) 3^ P: `| _K+:K+9W CD x- ;> Y; Vi <K+[K+}K+Vy.e[ /> n> B> M) F; #! M) h' 6! h; ]' '' => 7{ Z; 6; ^{ ^{ 3' R, 7] ,> I< 9> o> p] ', u, ,, I, |K+1K+%K.2K+3K+4K+yi `( 8i ai j) 8> 7> CO K[ ,, *[ N) ;' [{ 7, .0.%(.rC $~ g! e, )> c, Q) zg 5K+6K+&^ yC &/ P= I< ', hi 7> j' hh g- jh ",
"-h l~+)d 2' M> f! O; [^ l; B) D, A) X' l; .' )* <: v: H; P! <> i/ v: N; 7{ O; f; V' #> *) =) M> L> m; N; X' A) &( Gp+u/ x, l; p] 7K+nJ.t&.`| Dh B) Z; &/ |< z/ E{ 7: *^ E' u, o] 4> o] r' 1' `] B) E' `] ;> ^' M> h' D> `; a) x, `;  ' E> t/ P= =^ e< J) ;> E> 8K+9K+0K+aK+bK+@1 g[ }, .> w, `( $[ ~* ~* `; 3^ v, .> 6; O) #, ;> Z] 3^ p) 1' o) C' L> ai 0]+ _ 6> O= &, Y_ /> '* H] S> z/ ,) cK+dK+hi 70.eK+fK+gK+BD =j Mc DO 9( o) Y' 1' D: D_ 5: Fd E< +< t, CO BC k; e[ lx l) I> /' >) >, d- }, g- u) L) O) `^ j> J) e[ Pe x~ d* t, g) !b vt hK+OU iK+IT ~(.in._, U= V; 5* `] ,* {* ~* 4( >]+6* r; jP D' @, 3d }; I< Z; w, T{ 4x }; y) e[ I: 9P 9* c* ~* ,, p~ w- n<  | #b }w #7.jK+KV ={ Y| y[ Q[ ji ji `B w!+Bx hx.g: ii }0.uj.}0.}0.uj.H(.n[ G(.}4.Q.+>i kK+f[ Jh DC JK.-i Oc r, }4.H[  | JB `> ;i m' 1d ,^+]l lK+ ! pU `j cT m/ 4j.mK+nK+<- Q[ /4.9< F< '~ g) n) o> 4x Q.+pD $~.v_ u~.CO y/ q~ V; g) m[ Vi m) ): 5* L= s/ T{ r, Sw qx .! .! )4.oK+pK+qK+tE ny.1d (x 8^ =; QK.2g y.+'4.u> u> d/.9< *' S!.>B }8+rK+[0.[0.<0.$d uj.e~ ui U$.sK+^U IT ~(.$b G= Be ic tc T| QC Lg <| AE ",
"tK+;* x, J> H; O, Z; Y; ;> o! &( u/ 7{ l; U> !/ @) x, M> /> 9[ 3: 5; Z; I< 6; w, F/ 5> !$.Zi  _ Wi hi E/ m/ dd x0.a]+mi px ~^ (x uK+vK+[s+,U.3B.3&.QC ui s]+wC (x QC Y| 'w `> jC +K+JB l(.5D CT.Be `> Ch *' N[ <0.x[ V{.5w h: *j Ch /< P* ui /4.(b $b T= (x wK+xK+yK+zK+AK+fj+BK+Y_.S| Q).-$.W( rC.)| [_.Ig T$.,4.|P [&.[&.<B+hU 5A.GC.yn.i_.BD V_.Ig T$.V_.n, 67.W} tc -f i| kU I} =1 BD 5k O]+]j [} X=+CK+DK+EK+p&.Vj c^+O]+D/ r_.`_.6k y_.]j xE D/ +y B| D_.D_.`E 4} *$.ZA.bk BD )| Nh ~k *$.)k Ig 6h z} A} ~k #| )| zE 4} qf l} 3k 'U.aA n3+Ll FK+XQ.-y.11 $B ak ak DD 5k j_.5k 8( 0k BS dE 2j d} %k c} e| BS mU 8( {g  ] xE ok B} GK+Jz.A* ;| ff +y lj 0E oU l:.g^+hl b2+A..HK+AF Vi+:C+(y |r+Zo.S8+IK+i:.Tr+:p.2p.Do.)b.5p.JK+ G V..KK+LK+MK+NK+`F :a.!y 0r+OK+ G Oe wf <&.PK+:{ hj Il Cl Cl QK+]b.c@.kl Pb+C^+<<.p3 RK+SK+I0.Ko.(y ;k j:.TK+z< si ~D.gz *~.UK+|s+VK+}s+H) Mk |s+VE I_.x_.#d WK+;S BS Q]++y Q]+&k dE eE 'U.fi 6} Fy cE 6} >j.zx kX d;+XK+-} uj YK+ZK+`K+(j t^. L+F&+<)+.L+;=.Oy il `o.J@.si -F a1 -F gj Tk vF 7r+9r+if n7.+L+&*.Wk i:.zx 6F 68.O| @L+#L+$L+%L+S%.SU ",
"3n+^$.$P t:.-f o( [> @1 i| #| _/ id 2U Jd 7/ YT !| r< 1P `| qT.n| TT AD !| TT j| r/ )k -1 @a.Kj *$._! 'U.)U.iU.]U.Gj _-+_-+aE aB+Q%.2>+&L+7j+!-+uE Fj ]-+>j.Rh 3j *L+ij ar+ar+=L+p++rE 1j BK+6r+QU.r&.r&.|j -L+<-+g^+dl }@.c@.p++;L+g^+k:.P).6V gl +p.~D.91 So.>L+{~+e2 ,L+'L+)L+(=.Gl ,f !L+sl RF 'h+~L+!p.OD. E 0F =q.`r+!L+qF ND !L+8F 9a.^=.Aj+{L+-:.]L+^L+/L+|q.w/+=:.da..>+(n (L+1j+VD.VD.Q-+QD A-+_L+:L+<L+[L+vE.}L+Ay.%: Rx.'C+9i+|L+pf Xp+1L+kg 2L+:E+Zm 3L+1B 4L+Hl.eE.5L+7n 6L+CV 7L+:W 8L+6V.9L+pj Qs+0L+4E.V2 aL+zU rW.@c+bL+Fm cL+dL+eL+p=.fL+gL+1W hL+iL+<n :n 4>+=c+jL+rV kL+lL+mL+mL+nL+oL+p2+pL+qL+u^+rL+sL+tL+uL+d .vL+eX wL+xL+O0.xL+yL+zL+8=.AL+/W.u. BL+,;+Rp CL+DL+EL+AL+X[.RG FL+GL+vE+Ak+HL+C@ ,B :[.Du.C'.T:+-r ]].9_+0L OJ Qw+uF.IL+{A.JL+KL+LL+y7+ML+NL+OL+PL+QL+RL+SL+TL+UL+VL+II WL+XL+YL+ZL+`L+jq  M+.M+/X +M+@M+#M+$M+K+ %M+:f+&M+fz 5f [G.*M+=M+-M+X'+k*.MO eF.#H ;M+8b+9S :t+>M+,M+.c 'M+)M+!M+~M+l4 0W W<.{M+Bn 'X ]M+^M+/M+(M+ V._M+8=.9(+x=.:M+;I <M+n7 n7 Y@ [M+}M+T2+|M+1M+2M+3M+wt+CE+4M+5M+6M+7M+8M+9M+0M+aM+bM+_u+Wd.cM+),+Qc.dM+eM+fM+gM+hM+Eu+",
"9E.kj+PD c1 #G :C+`D iM+sF jM+kM+Gl 3o.0a.]L+Q:.+E lM+8j+==.]E.mM+nM+oM+6;+pM+#q.qM+ty rM+4G $q.Fp.^L+sM+tM+uM+vM+yp.wM+xM+yM+zM+ 6+AM+BM+CM+DM+EM+FM+GM+o#.HM+m. IM+JM+2d.}+ <M+a#.KM+LM+MM+MM+NM+OM+PM+!c.QM+RM+SM+TM+`W {G.UM+|B+VM+WM+~(+XM+a#.YM+au.ZM+,p f/.xG `M+ N+.N++N+w+ i8 t@ @N+Il.xA.yd.`'+#N+9G $N+[v.%N+n5 C@ o5 o5 K#+Pj+ C.&N+*N+=N+-N+;N+>N+,N+'N+8p YK G_ _2.)N+!N+Ef.~N+{N+]N+^N+/N+(N+_N+:N+<N+st.81.[N+ ,+98 )E+[8 8:+}N+k|.,|.S_+|N+[t.1N+2N+b5+(8 Q4+3N+4N+Va.5N+6N+$Y.7N+e1.zo [_+hy.8N+<T 9N+0N+Ty.:k+aN+bN+&l.'H.cN+~v+dN+eN+fK fN+gN+St+%t.hN+iN+*o+<>.Z-.jN+kN+p;.0w+lN+mN+nN+oN+/Y.Er cT.pN+qN+rN+8p q>.SZ l5 sN+tN+i}.b&.tN+ 8  8 uN+vN+wN+xN+v}.L}.yN+Y}.[r iz.a:+sq+zN+V`.AN+KY.r>.`s.BN+(A+BL k7.lZ 5}.8;.CN+DN+Xo+6:+EN+FN+GN+67+PI ZK 89 HN+0L IN+10 h%.JN+KN+rJ  q rZ =J+H% LN+MN+NN+5p  :+og+,( $0  q ON+Ee.OA.L;.P9 'm+PN+{% Ra+bH.<;.%x+zq+Yu.QN+)z+RN+SN+TN+ g.UN+og+VN+g5+WN+.1.XN+TX.{>.`-.6o+fI.zG+YN+*O.'5 ZN+U5+`N+ O+-u.,u.IK k:+Ee.G5 =u.PE+.O+Gw++O+@O+er #O+$O+%O+&O+*O+=O+m}.VF+-O+;O+>O+,O+'O+hr )O+!O+jp )q r0 ~O+tp (Y.{O+]O+r0+^O+",
"6  /O+:q Q(+N).(O+_O+xd+:O+<O+[O+}O+>d.xA.|O+1O+2O+3O+4O+5O+rg 6O+7O+8O+9O+0O+aO+NL bO+df.n,+cO+YK.W7 dO+$: %E+%e.@`.eO+fO+ut.Pt.gO+hO+iO+jO+kO+h5 _L tB Dp 9e.AZ.2).8F+lO+Ql+Qe.lp H,+K9 U4+(l+JK 8;.Ss.!6+mO+nO+Kf.oO+pO+pG.~6+ht.qO+CN+kp i5 mp b8 rO+E|.sO+tO+*r 4G+uO+vO+wO+Zl+xO+yO+zO+AO+BO+YF+u|.mp Ol+:++CO+DO+EO+GJ /0 FO+=w+sG.c8 K}.GO+HO+IO+JL+QJ JO+KO+LO+MO+lL KL+NO+OO+PO+QO+RO+SO+TO+UO+VO+WO+XO+n}.Jc.f_++f.st.Ae.F,+a9 YO+>K pT ZO+!2.>u.e0 Bt fT.`O+ P+,0 .P+pe.+P+iG @P+#P+=u l0 ~ +$P+%P+&P+mN.5m.xf+(T *P+=P+Y'+-P+;P+>P+,P+'P+af )P+$' LQ %0 i: P% 0T Q9 pv.'z Lu.!P+`Y ~P+{P+.).]P+^P+/P+d;.&g.(P+_P+:P+2& 1f !1+<P+H+ bN+u] @r s'.Ph S'.>y.2u./Z [P+}P+|P+1P+h^ }3.cQ 9A eK.nO GN /3.hz.2P+3P+4P+3I+i).5P+6P+`3.u0+hI+Rm+7P+8P+9P+KZ ]c.#f 0P+nO SQ.aP+bP+cP+;/ Ms dP+|i.1U MI+TS.jw.ei.Rx+!..eP+fP+gP+hP+iP+^P M` ox+l7.$).jP+{I+,^ 3I+<z 1U @3.kP+/ .lP+_a+~I+%I+mP+nP+oP+pP+qP+rP+sP+tP+]5.uP+vP+wP+t` xP+ '.`b yP+[` ]5.NM zP+.$ |#+(.+AP+BP+ua 43.CP+DP+EP+ys G,.FP+_t 3.+GP+HP+G8 2 +Fh+E)+IP+JP+`<+KP+LP+MP+N- wD NP+OP+Ja PP+QP+RP+SP+v .TP+=[ xx 4K.9K.",
"UP+8u.VP+WP+F,+XP+,B.YP+pp ax.xF+*F+ZP+[s ;1.oz+Z!+[0 8e+:v.`P+ Q+.Q++Q+@Q+#Q+,@.Cg.E'.$Q+~j.bC -p+%Q+&Q+*Q+=Q+*]+P@.5++-Q+FL ;Q++#+>Q+3& #9 o +*M BN ,Q+'Q+)Q+!Q+6$+~Q+5v.Wv.{Q+]Q+U .ZC.ft ^Q+/Q+(Q+7h.~g._Q+:(+:Q+My <Q+(t in+[Q+gt na }Q+it |Q+1Q+Pv.^.+Y!+Jl.2Q+3Q+#: uA.P^.in+4/ 4Q+5Q+~N 6Q+YO.7Q+#O ]3.Fn+3P+;!+Fz 8Q+@3.8M Ds . .9Q+:u E}.0Q+aQ+4++Q3._O lO Q).c:.9i.Q- (= ,!.bQ+8_ cQ+dQ+Em+cQ+*i.eQ+fQ+|` gQ+=d fw.hQ+iQ+jQ+c!.Uw.H3.]M 5t Js xx 2i.5K.Lh.{].TJ.KQ kQ+lQ+.t.mQ+nQ+Jw L.+gT _9.D&+a= 2L.QS :U 2g 4!.0b oQ+8- Fw 5A.1D.u= 4!.lb E%.pQ+qQ+9P.y!+xi.2- g!.R).lb 9T (c A.+wS hc 3- rQ+g!.]c *++iQ+F|+L=.@F yw Yv pQ+Q).nD sQ+my+u= K!.u8+tQ+bw Bw s* yh.E: e! $w 3> s/ q; S~ y[ E/ $/ R= d* U= Q; p] `] 6> =' B) o] &( 1/ .| I' |_.uQ+m: vQ+%l l(.i* sx ~^ Fd +< I[ H] ): 1( o> P: R].o] Y; M) t[ I< Ri v[ .! jC $b 9< ui Px q( f[ H] r- D: x~ i( {* 1' !$.Zi E{ T{ `> wQ+xQ+yQ+zQ+>i D: Oc BC r~ Wi /< SC H[ Lc BC K[ 9( $/ x[ P[ Oc Kc P* T= V* B* T= ]b w= 8).3b Zv ]c Ow 8^ Kc Qc AQ+U).=c hb lb w!+Q: BQ+CQ+DQ+Ki 6> n- X< |f 0] =b ;b ~b 1..cb E* X_ D' ): 7* ",
"3  VS.EQ+FQ+GQ+ee HQ+IQ+JQ+KQ+9[+LQ+MQ+'I+uK+NQ+)M pS mO OQ+PQ+&B QQ+RQ+SQ+T|+Qy S(.TQ+j_.BD Uv Kw.cf Jw.8A.Z= di.UQ+VQ+*z+ w Uh #1 .1 z( jh dd x%.Pc ', .R Ih ^U Y< $f R[ (b Y< jh %z &j hD /b ~^ (b q: y~.WQ+XQ+m| 2g SC f) $f T= 9< F= G( U$.=h y[ ,D.^b X< Pc /4.Dh y[ 2: K^ _: 1/ *^ Y] =^  ' c* *_ Zi u/ `] i> Q; P: i( x~ i> f> v[ o> vp+YQ+z;._| r- F< Q: `/ I) xC li xC -i A/ W%.~P ji i( 2: I' 1' 9> H] Vd ;i H] Q; *^ 8> z/ 8> `] Wd 4> ,[ 8> o> Q; A) :: g[ o> /_ G< ZQ+`Q+E&+5k f) I> Q; !] D_ C) T< T< bi =^ 4> o! H> 3^ j> n> 5; l> *) n> l> ;> f> )* G, 6i 3^ `; Z' r' `; F/ V; 4( '* 4( 9[ a- I: r'  R+.R++R+zE 1' T> E{ uS 6: P: `] B) o! $[ 8> a- U{ >_ N{.'> 0( 0( 6! Q, 6; 5* _, I< q~ 3; N= O= ^> O) O= U^ Z^ X; 3^ l; P; *; R= cT 7y+e-.@R+%l -i ): )* =' =' r; p] }, R_ L) M; M; C, L) W, v' U] 0> e> Hi ', 5* D' 6> 9> <; @) 3^ 6; Y; ): r; 4; w! O= =' Y' Y] =' Pc Y .l8 *{ qT.g- /> 3d b( pg 8{ k~ V) C~ #Q *, Cz.j> 6' j' */  > D> 8> `: `h I< t/ 0]+#R+$R+%R+&R+*R+'1+7i p) 8[ =R+-R+J[ !{+T{ .C 8> ;R+ZX 8r+q- 2; 2; _, Fd u, 6> s~ 6> ed d* q> X; '[ $~ 1! ",
"U  >R+4* _, n- e- ,R+'R+,D.q( B- w- 2[ c* 4* ld #_ <h s~ 6: o! O] )R+!R+~R+%| 3> P: $/ |g E< x~ '* ~* D_ (( *_ q, ui Oc H[ K[ n- Q_ T{ <> -' 4> +< J> W) wh  ' =' Vd 7: S> &( >* f> i( Wd 7: >* p~ o> w[ LM Z(.{R+]R+4* f> K> p] H] {* <: m) C) u/ W' 1( K> #, =' Wi G> )* o! )* Vd o! #, ,' )' J; J> v: w, X; Y; Z; l; 7{ G, C^ -' >^ Eh 9> ^R+/R+(R+u> i> I, p] 7h 7: `] =' p] 5> !/ q> H] 4; V) :: $S 4; O= r; D, E{ =' C~ P= t[ R'  ' J> G, V> }, w, l; n> k' I> o] G, t; 4> _R+:R+<R+Jz.wC U> 2( :: p] J) |) C, k) b' P; Y; B> M; #! >) C> o{ ]' /> 8~ b> n> G, F, Qq+*/ x, V> e< w, k; =' '* Y' P; '* G, I< o) [R+}R+|R+;| g: Qx m) r' m) F> Hi 1( g< _w t/ 8{ f] +> S, yf tz X^ r[ %> G; M) O: 6i 1< U^ 6! ,> k> m> C^ A~ A~ B> C~ O! f! =i Xh :' 1R+2R+3R+d} D< 4( L_ 5* Qe O] D' Z] z, ,> 6) g^ $~ %! &) +_ [! =, -, v/ C~ 7_ tf Q, e> Q, j, N~ O) J) E, Y; ;> 3^ /> [; ;> e> 1( n< ...4R+5R+sc O= >, Gi v/ '> g; U< 8~ U, X, -, '[ a> +> 2) f' $> W) J) J) Z, !( ], M: g- Sf+_x.FB F> =^ u)  ' J) 5i =' Q; ~* &( h) 6R+7R+-p 1E D_ C^ M; 7; H> .> J> M;  '  > G, v: u: ,' 3, 7' ",
"wp.8R+P= O: Q] V^ 9R+o0.Cx 4( `; '* q> f> Q; E_ @) j, ^> Y] H, G; hi.NP 0R+uf k* {^ <> @) `; V) O! L; >^ i/ O/ ,, )b Q; f> k; 6> r- O/ $] M! Y; I< +> 4^ m! g^ j, W; ]* ^> #, W; <> L^ -' <; <; k; ): 1i aR+-l+bR+cR+p..!/ j> Uy 9B L; /' H; 5{ V{ ;] ;, Z, A~ `] A) z_ '* l; 4( ~/ 7{ k> G~ 0) f] F; /' m> tf 6; C^ ^> :> L; tf ^> -> B) P; dR+{O+KW.r| 1' ,[ B_ /_ 5; 2; Z] -' [; v#.5* n- XS.O] 5: 2y Q= s; ,* M/ 5: ~* O] C^ j, W+.e> Z; W; n> N= C~ f! j, M; `; '* -> 4_ Pe Sx eR+fR+)J+K[ {/ /_ 4( Z] V] W, U, >, X; (' C^ `^ m#.+] /> 3' ,' ;) z/ #, @] 6; X; 6! [{ G~ f! B> O) A~ >) k> $] X; $, B~ $] -> {^ TJ.3o+`[.BS h+.Z; B~ B~ 0- 3d c> LS.C^ x! $^ LP.C! h] &) K{ 4^ L: >h :/ @~ `Q {{ rf c, rf T' _) !' !! W~ {' ~~ B! J; i, e^ |) x) f, gR+hR+iR+%2+M/ E, f! M; C~ i; $, z{ *> 6) {' J! y' @~ R( #~ 9/ s^ +~ :/ o{ ;! C! %! sf :^ g; )' () 1) I; Z, !' #! `, *> x; w; C> t, |I+@5+In 1d K> &> l) ]h &> 0' +~ +~ m! O^ a; 0' a; D; Pj.jR+p: k! ]' h] h, >%+R( {{ 0; #, /> Q, ^' Z, +! {' d; G; /] [; ]* ;> t[ a> 1m.kR+QF i( K; C, L) K> h; Z, Z, P> '' (, d; d' N^ r] k! ",
"lR+mR+0- x) W^ ad #0.nR+c> m> m> /> ;> X; [; P; -> k> #, E> M; |) o}+Bl+z*.S^ 4; Y; <> 2( n> @] G; $] -' -' @) Y; Y; }, 9> @) r; @) 5; $, m> <; n> >) h] '[ j, C^ @) n> E, ;> 5; y~ L_ 4( @) @) o~ ]^ L= bh.oK %>+2..k* H] `; L; N; P= M; >> O! O, i; M) V) -' !/ ,* [; n> 5; 4; G, O, (, )' 0) 1~.E~ m> [^ G; ^> B> ^* ^* (' ]* A~ D> p] q( oR+;:+DM+>d I[ s~ -> /_ L; m> O, w, `; >^ =' T_ V< 0- f> 7z H] Y{ '* P; o~ <> /_ B> $, &, &, ;> >^ 5* P= Z^ m> w! 3; Y; l; #] r; 4> :c pR+h[.%U =' l; ~! 4( L; F~ 6! ,> tf N' `^ x/ `^ V) ]* ;> S' i' i' }, `; ;> n> >> g^ zP H~ 6! k> j> ^' x! W; ]* Z] ]* M; => n> Y; WJ.qR+=o C} P; $] j> W< V< rR+`^ l~ j> 6] +: 5~ 0{ v' Y! k! k! _) G{ E( @~ Q( Q( 6< 5^ H{ p: Q( O^ *~ g, 2~ &) {' |) h] O^ #~ g^ [; yw.sR+tR+R~ !d :' l; l; k' m; 7{ X' => Q, R, |) &) N^ G{ ke u^ Y! Y! A' sf E; p^ '' z; K; 5! 8) L' (, ]) Y, ^~ () f! Q, =) t) v: sx 9Q._w+_4+P(.6> ,' N) sn.v; u' 6^ Ak.IS %) x' Tg+sj.9/ Q( @~ `! v' g, X, Z! R( =: re X~ {' h] X, Qz W, &) i, I; 6] >> ;> (* L; Z; ;, uR+N0+vR+A/ 2' RA+L) O' 3( :) @+.Qz +! #! '' 1, 1, V' }{ ",
";(+oO wR+cg+E~ @+.[) xR+A! C^ [; ^> >> ]* m; Z' $, M; 6i w, n> j, s1+<f.yR+YT f> <; 3: 1g 2( @] z, M! $, w! n> E, P= b- X; G, `; n> m> >) k> ;_ /_ => M; O: J> k; 3: 3: P; '* <; 4; Ff qe Q; 1( 4> ld 9( 1Q+Zc Ap.vx ^; c* '* =_ 7{ w, O= &, /> k' M; U{ &, w, 7{ (' f! O, (' y~ -> i; 2, ]' O^ =, 3[ N= N; j, j, [; -' s; L^ O] N: g- '* sx /n+zR+47+j| X< s~ Z] N; O; ;> C> Y] D> P; Q; c< c- `$.=' u/ Q; <> E, C~ /' L; /' #, j, &, /> ;> k; X; W< D~ <h 6* @_ N; D> ]* 4> Ri >n+<;.AR+bA D> #, B> P; [; k> t[ &/ j> LS.>, T) z, z, => C> f! B> m> ]* Z' l; n> >) S, T/.7' +> H; j> M) M; G, Y; G, 4; k; Y' X; `( ~O e& #X B} a) j, >) =+.DT n~ >> >) 6! 6! B> Z, 8] &) O> N> v' m! R( p{ C; E; C; ]~ 4^ v' w{ J! i, &) C; m! :^ '' H; f! i' g; ^' 4> BR+tL.CR+_R Wd )* Y' G, l; x, l; F> t/ &~ C> H; d; O> Z! Q( Z! :/ %! sf u' V' H; R, W) e> B> M; m; 0! #! ]' !' #! O) &/ M: g! S' s/ h[ eN+Tq.B} ,, H; |) Q) S, V' +_ l! %! :/ IS sj.Tg++~ :/ Y! <! 8' W, @> 0' %! 2~ D! G{ 8] 8] (, G; l> F; ^' Z, j, j> m> N; ;_ G, )d DR+~g+ER+px H> a, ], H~ FR+~i ES.P] P] ]' h] @> '' ]' )' ",
"G;+dP+GR+LJ+X{ L: HR+IR+s[ /> -> (* N= -' E, 5; c( [; 6i w, @) 6) Rf+C:+JR+67.E< +h A) <d <> a[ A! `^ W; >^ 5; G, Z( a- !/ u/ @) -' $] N= B> W' ;_ B> O) L) P= `; 3: C< Q; Q; D, D, 1g j( q> I< '* P: D< yS.kr KR+H= `h 4x 4> L^ (' Z] X; }, /' N; W; f! Z] I< !/ 2( #, ;, c( 4( W; i; *> S, 7) 7' u) S' 5; *) B> @) 6* 3: 1g @) Y; X' ,* q( LR+l{.MR+k| $/ _, }, !/ ;_ E, h' k; o! q> f> 4; F/ `] {* -^ A) 4( O, -> :> ;_ 5; #, ,> g].O) [; -' 6; Z] }, 4; p~ >* [; 3^ B~ U= &( NR+@O+OR+;U W; => k> >^ ;_ V) &, M; C> G; {/ H; b( QB M; O! /' 2( W; n> <> L_ 7{ => *> Y_ S, '> j, A~ M) /> l; }, Y' ~* k; Y; P= Dy+>x.r_ a4+yo.', M; A~ z, j> 6! C' m> k> f, ae B> f; Z, e; ^' &) E( L{ G{ {' ]' !! !! :^ W, !' e; |, }{ V' V' {' d; m; l; N= j, Z' Zi ~).{m+PR+3| hi 3' q)  o.ai %/ S' R' &~ f! #, => j' %> X~ Y! ke =T %) l#+#> %! }{ S, +> 6' M> L) Q, '' ^' (, (, R, z, bi N) d> %^ d* `C.U].Qq.@| Pe B> `, >) d; 1, 1! U] g; g; Y! .< sj.z' Z! #~ 5^ 4^ i, g; !' ]' K! a{ ^~ g; F; t; $] /' {/ m; B> /' /_ v: O; n> X; W> +y+WJ QR+z( o) O; y> h; z~ 6) F; Y~ W^ g; W, I; 2, 7] k! "};
