/* XPM */
static char * 0_xpm[] = {
"200 180 252 2",
"  	c #000000",
". 	c #0A0400",
"+ 	c #120500",
"@ 	c #230B00",
"# 	c #190700",
"$ 	c #380F00",
"% 	c #431400",
"& 	c #1C0A00",
"* 	c #2B0C00",
"= 	c #5B1B01",
"- 	c #631C01",
"; 	c #3C1200",
"> 	c #491600",
", 	c #7C2301",
"' 	c #832501",
") 	c #6A1E01",
"! 	c #932901",
"~ 	c #902701",
"{ 	c #A32D01",
"] 	c #9C2C01",
"^ 	c #AB3202",
"/ 	c #A92F01",
"( 	c #8B2701",
"_ 	c #742201",
": 	c #511700",
"< 	c #320E00",
"[ 	c #711F01",
"} 	c #541B01",
"| 	c #B43302",
"1 	c #BB3502",
"2 	c #C33701",
"3 	c #C63903",
"4 	c #C34409",
"5 	c #AB3C06",
"6 	c #DA3D01",
"7 	c #D43B01",
"8 	c #EA5113",
"9 	c #DD4E14",
"0 	c #E13E00",
"a 	c #F85917",
"b 	c #FE6219",
"c 	c #DC4305",
"d 	c #DB4909",
"e 	c #CB3A02",
"f 	c #EB4604",
"g 	c #E54304",
"h 	c #341200",
"i 	c #F34B05",
"j 	c #F94D06",
"k 	c #742905",
"l 	c #FD5306",
"m 	c #FD5B06",
"n 	c #FC5508",
"o 	c #F14C09",
"p 	c #FD5C09",
"q 	c #FF6306",
"r 	c #8C2801",
"s 	c #FC6816",
"t 	c #FF6C0A",
"u 	c #FF7511",
"v 	c #FF7D19",
"w 	c #FF6409",
"x 	c #FF8622",
"y 	c #FF8828",
"z 	c #FF740B",
"A 	c #F65609",
"B 	c #FF9B32",
"C 	c #FF942B",
"D 	c #FF8B25",
"E 	c #EC4A05",
"F 	c #FF821D",
"G 	c #FF7C13",
"H 	c #FF8B1C",
"I 	c #FF7B0B",
"J 	c #FF8411",
"K 	c #FFA336",
"L 	c #FFB140",
"M 	c #231100",
"N 	c #FF9225",
"O 	c #FFA939",
"P 	c #FF820C",
"Q 	c #FF9D2B",
"R 	c #4B1B01",
"S 	c #140800",
"T 	c #FF8B12",
"U 	c #2B1300",
"V 	c #D44205",
"W 	c #E84C08",
"X 	c #A43405",
"Y 	c #0E0800",
"Z 	c #6B2402",
"` 	c #E44D09",
" .	c #5B2204",
"..	c #642304",
"+.	c #F55B09",
"@.	c #ED5209",
"#.	c #FF9C22",
"$.	c #832D05",
"%.	c #FDB22B",
"&.	c #792B08",
"*.	c #632605",
"=.	c #FFB834",
"-.	c #98350A",
";.	c #943105",
">.	c #421B00",
",.	c #FF8B0B",
"'.	c #FF9313",
").	c #FF9A11",
"!.	c #FFC737",
"~.	c #C74508",
"{.	c #883604",
"].	c #7B2B05",
"^.	c #FFCB44",
"/.	c #FFB435",
"(.	c #B83C05",
"_.	c #BB4107",
":.	c #FF940B",
"<.	c #FFD946",
"[.	c #E45309",
"}.	c #FF9C0B",
"|.	c #FFC32C",
"1.	c #FFD646",
"2.	c #542302",
"3.	c #FEA515",
"4.	c #FFA30B",
"5.	c #FFB31C",
"6.	c #FFD43E",
"7.	c #3B1B01",
"8.	c #FFAB13",
"9.	c #A33906",
"0.	c #6C2C03",
"a.	c #F56306",
"b.	c #FFCC2C",
"c.	c #FFC424",
"d.	c #FFBB1D",
"e.	c #FFAB0B",
"f.	c #E96808",
"g.	c #9E3203",
"h.	c #DD5805",
"i.	c #753302",
"j.	c #843302",
"k.	c #D86505",
"l.	c #F46C09",
"m.	c #FFB213",
"n.	c #FEBC21",
"o.	c #FFD431",
"p.	c #1F1000",
"q.	c #FFD32C",
"r.	c #FFDA33",
"s.	c #FFBB15",
"t.	c #FFB30A",
"u.	c #FD9303",
"v.	c #FFE43C",
"w.	c #FDAF1F",
"x.	c #FFC51C",
"y.	c #FFE740",
"z.	c #FFCA22",
"A.	c #A64505",
"B.	c #FFEA41",
"C.	c #FFC314",
"D.	c #FFBB05",
"E.	c #FFB205",
"F.	c #BA4A07",
"G.	c #FFDF3B",
"H.	c #FFED3C",
"I.	c #FFF443",
"J.	c #FFCB1C",
"K.	c #BB5606",
"L.	c #FFE433",
"M.	c #FFBC0A",
"N.	c #FFAB04",
"O.	c #FFDB23",
"P.	c #FFD422",
"Q.	c #B44404",
"R.	c #331900",
"S.	c #F7A20F",
"T.	c #FFFF42",
"U.	c #FFD21B",
"V.	c #7B3502",
"W.	c #FFCA14",
"X.	c #F78606",
"Y.	c #8A4401",
"Z.	c #FFEA2D",
"`.	c #FFC509",
" +	c #F67405",
".+	c #4B2802",
"++	c #FFF33A",
"@+	c #FFDC1B",
"#+	c #442301",
"$+	c #FFEB33",
"%+	c #FFCB01",
"&+	c #FFD413",
"*+	c #FFCB0B",
"=+	c #FFF432",
"-+	c #FFDA14",
";+	c #FFE524",
">+	c #5C2C01",
",+	c #FFD20C",
"'+	c #FFFE3C",
")+	c #FFF22C",
"!+	c #4B2200",
"~+	c #954A04",
"{+	c #FFFD34",
"]+	c #FFE41C",
"^+	c #FFEC23",
"/+	c #7C3901",
"(+	c #CB5703",
"_+	c #FFF325",
":+	c #854502",
"<+	c #FFFC2C",
"[+	c #FFA304",
"}+	c #FE9C03",
"|+	c #FFE213",
"1+	c #FFDC0B",
"2+	c #FFF51A",
"3+	c #FFFA25",
"4+	c #FFE20C",
"5+	c #FFEA1B",
"6+	c #FFEA14",
"7+	c #FFDB04",
"8+	c #B45403",
"9+	c #FFD403",
"0+	c #E78809",
"a+	c #FFF119",
"b+	c #C56504",
"c+	c #FFEB0D",
"d+	c #6B3603",
"e+	c #FFE42B",
"f+	c #E87A04",
"g+	c #583103",
"h+	c #FFE104",
"i+	c #DB8F0A",
"j+	c #FFDE2D",
"k+	c #3E2102",
"l+	c #BC6804",
"m+	c #FFEA05",
"n+	c #F59608",
"o+	c #784205",
"p+	c #A55A04",
"q+	c #D57706",
"r+	c #EF910C",
"s+	c #DD8A19",
"t+	c #EB971A",
"u+	c #743D04",
"v+	c #8A4C06",
"w+	c #FFC403",
"x+	c #AB6009",
"y+	c #96550A",
"z+	c #623604",
"A+	c #C67816",
"B+	c #FBAA28",
"C+	c #B56D14",
"                                                                                                                                                                                                                                                                                                                                                                                                                ",
"                                                                                                                                                                                                                                                                                                                                                                                                                ",
"                                                                                                                                                                                                                                                                                                                                                                                                                ",
"                                                                                                                                                                                                                                                                                                                                                                                                                ",
"                                                                                                                                                                                                                                                                                                                                                                                                                ",
"                                                                                                                                                                                                                                                                                                                                                                                                                ",
"                                                                                                                                                                                                                                                                                                                                                                                                                ",
"                                                                                                                                                                                                                                                                                                                                                                                                                ",
"                                                                                                                                                                                                                                                                                                                                                                                                                ",
"                                                                                                                                                                                                                                                                                                                                                                                                                ",
"                                                                                                                                                                                                                                                                                                                                                                                                                ",
"                                                                                                                                                                                                                                                                                                                                                                                                                ",
"                                                                                                                                                                                                                                                                                                                                                                                                                ",
"                                                                                                                                                                                                                                                                                                                                                                                                                ",
"                                                                                                                                                                                                                                                                                                                                                                                                                ",
"                                                                                                                                                                                                                                                                                                                                                                                                                ",
"                                                                                                                                                                                                                                                                                                                                                                                                                ",
"                                                                                                                                                                                                                                                                                                                                                                                                                ",
"                                                                                                                                                                                                                                                                                                                                                                                                                ",
"                                                                                                                                                                                                                                                                                                                                                                                                                ",
"                                                                                                                                                                                                                                                                                                                                                                                                                ",
"                                                                                                                                                                                                                                                                                                                                                                                                                ",
"                                                                                                                                                                                                                                                                                                                                                                                                                ",
"                                                                                                                                                                                                                                                                                                                                                                                                                ",
"                                                                                                                                                                                                                                                                                                                                                                                                                ",
"                                                                                                                                                                                                                                                                                                                                                                                                                ",
"                                                                                                                                                                                                                                                                                                                                                                                                                ",
"                                                                                                                                                                                                                                                                                                                                                                                                                ",
"                                                                                                                                                                                                                                                                                                                                                                                                                ",
"                                                                                                                                                                                                                                                                                                                                                                                                                ",
"                                                                                                                                                                                                                                                                                                                                                                                                                ",
"                                                                                                                                                                                                                                                                                                                                                                                                                ",
"                                                                                                                                                                                                                                                                                                                                                                                                                ",
"                                                                                                                                                                                                                                                                                                                                                                                                                ",
"                                                                                                                                                                                                                                                                                                                                                                                                                ",
"                                                                                                                                                                                                                                                                                                                                                                                                                ",
"                                                                                                                                                                                                                                                                                                                                                                                                                ",
"                                                                                                                                                                                                                                                                                                                                                                                                                ",
"                                                                                                                                                                                                                                                                                                                                                                                                                ",
"                                                                                                                                                                                                                                                                                                                                                                                                                ",
"                                                                                                                                                                                                                                                                                                                                                                                                                ",
"                                                                                                                                                                                                                                                                                                                                                                                                                ",
"                                                                                                                                                                                                                                                                                                                                                                                                                ",
"                                                                                                                                                                                                                                                                                                                                                                                                                ",
"                                                                                                                                                                                                                                                                                                                                                                                                                ",
"                                                                                                                                                                                                                                                                                                                                                                                                                ",
"                                                                                                                                                                                                                                                                                                                                                                                                                ",
"                                                                                                                                                                                                                                                                                                                                                                                                                ",
"                                                                                                                                                                                                                                                                                                                                                                                                                ",
"                                                                                                                                                                                                                                                                                                                                                                                                                ",
"                                                                                                                                                                                                                                                                                                                                                                                                                ",
"                                                                                                                                                                                                                                                                                                                                                                                                                ",
"                                                                                                                                                                                                                                                                                                                                                                                                                ",
"                                                                                                                                                                                                                                                                                                                                                                                                                ",
"                                                                                                                                                                                                                                                                                                                                                                                                                ",
"                                                                                                                                                                                                                                                                                                                                                                                                                ",
"                                                                                                                                                                                                                                                                                                                                                                                                                ",
"                                                                                                                                                                                . . . . . .                                                                                                                                                                                                                     ",
"                                                                                                                                                                              . . . . . . . .                                                                                                                                                                                                                   ",
"                                                                                                                                                                          . . + . + + + + .   .                                                                                                                                                                                                                 ",
"                                                                                                                                                                          . + + + + + @ @ + . .                                                                                                                                                                                                                 ",
"                                                                                                                                                                      . . . + + # # # $ % + + . .                                                                                                                                                                                                               ",
"                                                                                                                                                                      . . + # & & @ * = - # + . .                                                                                                                                                                                                               ",
"                                                                                                                                                                    . . + + # @ $ ; > , ' # + + .                                                                                                                                                                                                               ",
"                                                                                                                                                                    . . + # # ; = = ) ! ~ & + + . .                                                                                                                                                                                                             ",
"                                                                                                                                                                    . + + # @ = , , ' { ! & # + .                                                                                                                                                                                                               ",
"                                                                                                                                                                      + # # @ ' ! ] { { ! & + + . .                                                                                                                                                                                                             ",
"                                                                                                                                                                  . . + + & % ! ^ ^ / { ( & # + .                                 .   . .                                                                                                                                                                       ",
"                                                                                                                                                                  . . + # @ = { ^ ^ ^ / , & # + . .                             . . . . . .                                                                                                                                                                     ",
"                                                                                                                                                                    . + # * _ / ^ ^ ^ { _ # + + .                             . . . . . . . .                                                                                                                                                                   ",
"                                                                                                                                                                  . . + + * ~ { ^ ^ / { = # + . .                           .   . + + + + + . . .                                                                                                                                                               ",
"                                                                                                                                                                  . . + # * ! { ^ / { { > # + . .                         . . . + + * @ + + . . .                                                                                                                                                               ",
"                                                                                                                                                                  . . + + @ _ { { ( ] { $ + . .                           . . + + # : $ # + + + .                                                                                                                                                               ",
"                                                                                                                                                                    . . + # : ] ] - ' ] < + + . .                         . + + # ; [ = * & + + + .                                                                                                                                                             ",
"                                                                                                                                                                    . . + + $ ] ( % = ' @ + + . . .                     .   + + # = ~ ' % $ + + .   .                                                                                                                                                           ",
"                                                                                                                                                                      . + + @ ] , @ ; = & +   . . . . . . .           . . . + + @ , { ~ ) : @ + + .                                                                                                                                                             ",
"                                                                                                                                                                      . . + * ! [ + # $ + + . . . . . . . . . . . . . . . . + + < ! { { ( _ $ + . . .                                                                                                                                                           ",
"                                                                                                                                                                      . . . @ ! [ + + # + + + + . + + + + + + + . .   . . . + + % ] ' ~ { ! % + + .                                                                                                                                                             ",
"                                                                                                                                                                        .   # ' [ . + + + + + + + # # # + # + + + + + . . . + . = ( ) ' { ] % + . .                                                                                                                                                             ",
"                                                                                                                                                                          . + - = . . . + + + + # # # # # # # # + + + + + + + + ) [ % ) ] ' ; . .                                                                                                                                                               ",
"                                                                                                                                                                            . % % . . . . + + + # @ * * @ @ @ @ # # # # + + + + = : @ % , - * . .                                                                                                                                                               ",
"                                                                                                                                                                              @ @ . . . . + # @ > = = : ; * * * @ @ @ # # . + . $ * + * : $ + .                                                                                                                                                                 ",
"                                                                                                                                                                              . +     . . + # ; ) , , _ ) % < < < < * # # # . + & + . # * # .                                                                                                                                                                   ",
"                                                                                                                                                                                    . . + & $ - ( ] { ] ~ ) } = > : > @ # # + + . . . + . .                                                                                                                                                                     ",
"                                                                                                                                                                                    . . + * > [ ] | 1 2 | ] ( ~ , ' , % @ # # + . . .                                                                                                                                                                           ",
"                                                                                                                                                                                      . . * > [ , ! | 2 3 2 | 4 5 | ] ) @ @ # . . .                                                                                                                                                                             ",
"                                                                                                                                                                                      . . @ % : = [ { 2 6 7 7 8 9 9 3 ~ < # # + . .                                                                                                                                                                             ",
"                                                                                                                                                                                        . + @ @ * > [ 2 7 6 0 a b a c | $ # # + .                                                                                                                                                                               ",
"                                                                                                                                                                                          . . + # * : { 7 6 0 8 b b d 2 % @ # . . .                                                                                                                                                                             ",
"                                                                                                                                                                                          . . + # # $ ' e 7 0 f 8 b d e : @ # + .                                                                                                                                                                               ",
"                                                                                                                                                                                          .   + # @ * : 1 6 0 0 g 8 c e ) @ # + .                                                                                                                                                                               ",
"                                                                                                                                                                                          . . + # # @ $ { 0 0 0 g g 6 2 ) # # . .                                                                                                                                                                               ",
"                                                                                                                                                                                          . . . # # @ < ( 6 0 0 0 0 7 / = # + . .                                                                                                                                                                               ",
"                                                                                                                                                                                  . .   . . . + # @ @ * , 7 0 0 0 7 e ( % # + .                                                                                                                                                                                 ",
"                                                                                                                                                                            . . . .   . . . + + # # @ < ' 7 0 0 6 7 1 = @ + . .                                                                                                                                                                                 ",
"                                                                                                                                                                          . . + + + + + + . + # @ @ * $ { 0 0 7 2 | ( < + + . .                                                                                                                                                                                 ",
"                                                                                                                                                                        . . + + @ # + # # # # # @ @ * = 1 6 7 | ] ( - # + + .                                                                                                                                                                                   ",
"                                                                                                                                                                      . . + + + $ < & & # @ @ @ * * < , 7 e { ( [ - $ + . .                                                                                                                                                                                     ",
"                                                                                                                                                                      . . + # @ : : @ * * * < < < $ > / 6 { [ : ; * # + . .                                                                                                                                                                                     ",
"                                                                                                                                                                    . + + # @ @ ' , h ; h h $ ; ; % - 7 7 , > < & # + + .                                                                                                                                                                                       ",
"                                                                                                                                                                    . + # & @ % / ] % % % > > > : = ( i 1 = $ * @ # + . . .                                                                                                                                                                                     ",
"                                                                                                                                                                  . . + # @ $ _ 6 1 : : } = - ) _ ! e j | > $ < @ & # + .                                                                                                                                                                                       ",
"                                                                                                                                                                  . + + & @ % | i 6 _ _ k ~ ] { | e i j | : > $ * & # + .                                                                                                                                                                                       ",
"                                                                                                                                                                    + # @ * } 6 l i | ^ 1 e 6 g f j l l 7 = > % < @ # + . .                                                                                                                                                                                     ",
"                                                                                                                                                                  . . # & < _ j m n o o j n m p p q q m f r = : % * @ # + .                                                                                                                                                                                     ",
"                                                                                                                                                                  . + # @ * ( l p m s s t t u v u t w q m 1 _ [ = h * & + . .                                                                                                                                                                                   ",
"                                                                                                                                                                  . + # @ < ( l p w v x v x x y x z t t q f { ] ! % * @ + + .                                                                                                                                                                                   ",
"                                                                                                                                                                  . + + & < , A p w x B C B C C D v t t w m c 6 e = < @ # + .                                                                                                                                                                                   ",
"                                                                                                                                                                  . . # @ < ) j w w y B B C C D D D u z t q n l E ' $ * # + . .                                                                                                                                                                                 ",
"                                                                                                                                                                    + + & < : E w w x C D D F G H C F z z t w q m / ; * & # + . .                                                                                                                                                                               ",
"                                                                                                                                                                  . + + & * ; f w w v x v v I I J B C v u z t w m 2 ; * & # + . . . . .                                                                                                                                                                         ",
"                                                                                                                                                                    . + & @ ; e w w u G u u t I J K K y G z t t w e % * @ # + + . . . . . .                                                                                                                                                                     ",
"                                                                                                                                                                    . + # & < / n w t z z t z I I K L K H z z t w e % < M & # + + + + . . . .                                                                                                                                                                   ",
"                                                                                                                                                                    . + # & * ' j w t t z z z I I N O L N I z t w 1 % $ * @ # # # # # + + + . . .                                                                                                                                                               ",
"                                                                                                                                                                    . . + # @ = f w w t t z z I P H Q L Q I z z p ^ > < * @ @ * @ & # & # + + + .                                                                                                                                                               ",
"                                                                                                                                                                      . + + & ; 2 m w w t z z I I J H O Q I z z p ! > $ < * * = ; @ * @ @ & # + . .                                                                                                                                                             ",
"                                                                                                                                                                      . . + # * ~ E m p w z z I I I J Q C I u z p , R ; * < % ~ = $ h < * * & # + . .                                                                                                                                                           ",
"                                                                                                                                                                        . + + & - | E i l t z u I I J N N I I z p _ > ; h < - e ! ; ; ; h < * @ # + .                                                                                                                                                           ",
"                                                                                                                                                                          . + S * [ { ^ 2 p z u I I J H T P I z w ! R ; h U , j V , = } - : h @ & # + .                                                                                                                                                         ",
"                                                                                                                                                                          . . + # $ - ) ' W t u I P J J J I I u w 1 > ; h h , o i 1 { r X ( % h @ # + .                                                                                                                                                         ",
"                                                                                                                                                                            . Y + # < ; : 3 q u I P J J J P u I t 6 R ; $ h Z 7 f o d 7 ` 3 Z < M & + . .                                                                                                                                                       ",
"                                                                                                                                                                              . + # @ * $ ] w u I J J J J J I u t ` } ; $ ; = { 3 m m m p n ] ; < @ + + .                                                                                                                                                       ",
"                                                                                                                                                                              . . + # M h _ A t I P J J J T P I w 6 } % ; $ R _ ! p t t z t V % < & # + .                                                                                                                                                       ",
"                                                                                                                                                                                . + # @ * } e t z P J J T H J I a X  .> > > R } ..+.z z z t @.> h * # + .                                                                                                                                                       ",
"                                                                                                                                                                                  . S & * % ] n z T P T T #.T u V $. .R R R } = ..+.u I I z +.} $ M # + .                                                                                                                                                       ",
"                                                                                                                                                                                . + # & U ; Z V z P T T T %.#.z X &... .} }  .*., w I I I z p - h M # + .                                                                                                                                                       ",
"                                                                                                                                                                        .   . . . + # & * % } ] t P T T H =.%.F -.&.k ..*.Z ..Z ;.z I I I I w - h * # + .                                                                                                                                                       ",
"                                                                                                                                                                  . . . . + . + + S # @ U >.} k t ,.,.'.).=.!.#.~.{.&.&.].-.].$.4 z I I I u w - < @ S + .                                                                                                                                                       ",
"                                                                                                                                                                . . Y + + + S S S # & * h R = $.t ,.,.'.).=.^./.s ~.5 X (.d _.(.@.I I I I I +.} U @ # . .                                                                                                                                                       ",
"                                                                                                                                                            . . Y + S S & & & & @ @ U < % R ..5 u :.:.:.).=.<.^.N w +.E p w +.m t I I I I z d ; * # + . .                                                                                                                                                       ",
"                                                                                                                                                          . . + + & & @ @ @ M M U U h ; R  .].[.P :.:.}.).|.<.1./.P z t u I z t z I I I z z _.< @ # + .                                                                                                                                                         ",
"                                                                                                                                                        . . + S & @ * < h $ $ $ $ $ ; R 2...(.w ,.:.}.}.3.!.<.<.!.).,.P ,.,.P t t t z z z t X M & # . .                                                                                                                                                         ",
"                                                                                                                                                        . + S & M h ; ; >.R } R R R R 2.*.-.+.P :.}.}.4.5.6.1.<.!.3.}.:.:.,.I +.8 ` n t u p _ @ # Y . .                                                                                                                                                         ",
"                                                                                                                                                      . . + & M < 7.>.2.k &.-.k  . .*.Z k V t ,.}.}.4.8.|.6.6.6.!.8.}.}.:.:.z ~.5 X _.W +.d > # S . .                                                                                                                                                           ",
"                                                                                                                                                      . + S @ h ; R &.9._.~.d 5 Z 0.k ].9.a.,.:.4.4.4.5.b.b.|.c.d.e.4.}.:.:.f.$.0.*.&.g.4 ;.@ S + .                                                                                                                                                             ",
"                                                                                                                                                    . . S & M $ >.k 3 @.p w s h.].i.j.9.[.I :.4.4.4.8.c.b.d.d.d.5.4.4.}.}.'.k...} % ; - ].} S . .                                                                                                                                                               ",
"                                                                                                                                                    . Y S @ * 7.Z _.+.z u P P l.5 5 ~.h.t '.4.4.4.m.n.o.c.m.e.e.e.e.4.4.}.:.k.*.} 7.h < ; p.Y . .                                                                                                                                                               ",
"                                                                                                                                                    . Y & M h 2._.+.I '.:.}.}.P a.a.t I ,.4.4.e.m.c.q.r.s.t.e.e.e.e.e.4.}.}.f...} 7.< @ & Y . .                                                                                                                                                                 ",
"                                                                                                                                                  . . + & < ; k A I :.}.4.4.4.}.P P P u.4.e.e.t.c.o.v.q.t.t.t.e.e.e.e.4.4.}.l.*.} 7.h @ & + . .                                                                                                                                                                 ",
"                                                                                                                                                    . + & U ; {.t P }.4.4.e.e.5.5.w.5.8.e.m.s.x.o.y.v.z.m.t.t.t.t.t.e.e.e.}.I 0.2.>.h M & Y . .                                                                                                                                                                 ",
"                                                                                                                                                  . . S p.< 7.A.P :.4.4.e.e.d.q.r.r.q.z.c.z.q.r.B.B.q.C.t.t.t.D.t.E.t.m.8.4.,.$. .R 7.U & S . . .                                                                                                                                                               ",
"                                                                                                                                                  . Y S p.< >.F.P }.4.e.e.s.b.v.B.B.v.G.r.r.v.H.I.v.J.t.D.t.t.t.t.t.t.s.t.4.,.A.*.2.>.U M # S . .                                                                                                                                                               ",
"                                                                                                                                                  . . S @ h 7.K.,.}.4.e.t.J.v.I.I.I.I.B.H.B.I.I.I.L.C.M.M.M.M.D.t.t.t.x.t.e.}.h.i. .R 7.U @ # Y .                                                                                                                                                               ",
"                                                                                                                                                  . . S p.h % K.P 4.N.e.s.r.I.I.I.I.I.I.I.I.I.I.I.O.M.M.M.M.M.M.M.M.M.P.t.E.4.I Q.i.2.>.R.U # S . .                                                                                                                                                             ",
"                                                                                                                                                  . . S p.U >.F.,.S.e.e.x.H.I.I.I.I.I.I.T.T.I.T.B.U.M.M.M.M.M.M.M.M.C.P.s.t.e.:.a.A.V.R >.U @ # Y .                                                                                                                                                             ",
"                                                                                                                                                  . . S @ * 7.A.,.}.e.t.c.I.I.T.I.I.I.I.I.I.I.I.H.W.M.M.M.M.M.M.M.M.W.P.M.t.t.4.X.a.K.0.>.R.M & S . .                                                                                                                                                           ",
"                                                                                                                                                  . . Y & U 7.Y.,.4.e.t.J.B.I.I.I.I.T.I.I.I.T.T.Z.`.`.`.`.`.`.`.`.`.U.P.`.M.t.t.4.,. +F..+7.U & Y Y .                                                                                                                                                           ",
"                                                                                                                                                    . S & M 7.j.,.4.e.t.C.Z.++Z.I.I.I.I.I.I.T.T.Z.`.`.`.`.`.`.`.`.`.@+W.`.M.D.M.t.4.,.a.V.#+R.M # Y .                                                                                                                                                           ",
"                                                                                                                                                      Y & M R.j.,.4.e.E.s.O.O.O.6.@+Z.T.T.T.T.T.$+`.`.`.%+`.`.`.`.&+O.*+`.`.M.M.M.e.4.P F.R R.M S Y .                                                                                                                                                           ",
"                                                                                                                                                    . + # M R.i.,.}.e.e.M.W.U.*+J.W.O.=+T.T.T.T.=+-+*+`.`.`.`.`.*+O.;+*+`.`.`.M.M.t.E.}.a.>+7.M & Y . .                                                                                                                                                         ",
"                                                                                                                                                    . . S p.U *.I }.e.e.M.M.`.`.`.`.,+=+T.T.T.T.'+;+-+*+%+*+*+*+*+Z.)+,+*+`.`.`.M.D.t.4.X.0.7.U & S .                                                                                                                                                           ",
"                                                                                                                                                    . . Y & M !+h.,.4.e.t.M.M.`.`.*+*+)+T.T.T.T.T.'+;+*+*+*+,+*+-+'+'+;+&+*+*+*+M.M.t.e.:.i.7.U p.Y . .                                                                                                                                                         ",
"                                                                                                                                                        S S M R.~+ +4.e.t.M.`.`.`.*+-+{+T.T.T.T.T.'+=+,+%+*+@+-+]+'+'+=+^+-+-+*+`.M.t.e.}./+7.U M S . .                                                                                                                                                         ",
"                                                                                                                                                      . + Y & U  .(+:.e.e.t.M.`.`.*+;+'+T.T.T.T.T.T.'+-+,+-+_+;+^+'+'+'+=+Z.;+@+*+M.M.t.}.:+7.U & S   .                                                                                                                                                         ",
"                                                                                                                                                      . . Y # M R.j.X.4.e.t.M.M.`.,+=+T.T.T.'+T.T.T.'+)+;+;+'+<+=+'+{+'+'+'+'+)+-+M.t.t.4.Y.7.U p.Y . .                                                                                                                                                         ",
"                                                                                                                                                        . . S p.U !+k.}.N.E.M.M.`.@+'+'+T.T.T.T.T.T.T.{+<+<+'+'+'+'+<+{+<+<+'+'+;+`.D.E.4.Y.7.M p.Y .                                                                                                                                                           ",
"                                                                                                                                                        . . Y S @ R.K.u.[+N.E.M.*+;+T.T.T.T.T.'+'+T.T.'+'+'+T.T.'+'+{+{+^+^+'+'+=+W.D.E.}.Y.7.U & S . .                                                                                                                                                         ",
"                                                                                                                                                          . . S & M /+ +u.}+N.D.*+=+T.T.T.'+'+{+{+'+'+T.T.T.T.T.T.T.T.<+|+1+_+T.'+-+D.E.}./+R.M & . .                                                                                                                                                           ",
"                                                                                                                                                          . . Y # p..+(+ +X.u.E.U.++T.T.T.{+<+_+2+3+{+T.T.T.T.T.T.T.'+{+4+,+5+'+T.O.D.E.}+0.R.M S Y .                                                                                                                                                           ",
"                                                                                                                                                            . Y Y S U /+Q.k. +E.P.'+T.T.'+3+6+6+6+5+<+'+T.T.'+T.T.T.T.'+4+7+-+{+T.;+D.E.X..+U p.S Y .                                                                                                                                                           ",
"                                                                                                                                                            . . . S p.R.>+j.8+}+J.T.T.T.{+|+1+4+6+5+3+'+T.T.T.T.T.T.T.{+4+9+1+{+T.Z.D.N.k.#+U p.Y . .                                                                                                                                                           ",
"                                                                                                                                                              . . . # p.U >.i.0+J.T.T.T.<+4+4+a+3+3+<+T.'+T.T.T.T.'+T.=+4+9+1+{+T.$+D.[+~+R.M & S . .                                                                                                                                                           ",
"                                                                                                                                                                . . Y p.M R.!+b+s.++T.T._+7+c+<+{+{+'+'+T.T.'+T.T.T.'+3+1+7+1+{+T.Z.D.u.d+R.M # . .                                                                                                                                                             ",
"                                                                                                                                                                  . Y S M U 7.Y.8.++T.T._+1+a+{+T.'+'+T.T.T.T.T.T.T.'+a+7+7+|+'+T.e+E.f+#+R.p.S . . .                                                                                                                                                           ",
"                                                                                                                                                                  . Y Y & U R.g+S.H.T.T.)+h+3+'+T.T.'+T.'+T.T.T.'+T.<+c+7+7+|+'+'+O.[+K.R.U S Y . .                                                                                                                                                             ",
"                                                                                                                                                                  . . Y & U R.!+i+e+'+T._+h+<+'+T.T.T.T.T.T.T.T.T.'+3+h+7+7+5+'+'+x.X.d+R.p.S Y .                                                                                                                                                               ",
"                                                                                                                                                                  .   Y # M R.#+i+j+T.T._+c+{+T.T.T.T.T.T.T.'+T.T.{+a+h+7+7+^+'+=+m.b+#+U p.Y . .                                                                                                                                                               ",
"                                                                                                                                                                    . . S p.U k+l+P.'+'+5+c+{+T.T.'+T.T.T.T.T.T.T.<+m+h+7+9+^+'+e+n+o+R.M p.Y . .                                                                                                                                                               ",
"                                                                                                                                                                    . . Y p.U R.p+W.'+'+6+6+{+T.T.T.T.T.T.T.T.'+'+<+m+7+7+7+)+=+C.b+#+U p.S . . .                                                                                                                                                               ",
"                                                                                                                                                                      . Y S M R.o+t.++'+|+6+'+'+T.T.'+T.T.T.T.T.'+<+m+h+9+1+=+e+}.Y.R.M # Y . .                                                                                                                                                                 ",
"                                                                                                                                                                    . . Y Y p.U g+S.$+'+-+4+'+T.'+T.T.T.'+T.T.T.T.<+m+7+9+1+=+x.q+.+U p.Y . .                                                                                                                                                                   ",
"                                                                                                                                                                      . . Y S U R.b+j+{+-+1+<+'+T.T.T.T.T.T.T.T.'+<+h+7+9+,+e+r+:+R.M # Y . .                                                                                                                                                                   ",
"                                                                                                                                                                      . . . Y M U :+n.++@+%+<+'+'+'+'+'+'+'+'+'+'+3+h+9+%+,+z.l+.+M M Y Y .                                                                                                                                                                     ",
"                                                                                                                                                                        . . . p.M .+s+G.U.%+]+'+'+'+'+'+'+'+'+'+{+3+7+9+%+%+t+u+R.U S Y . .                                                                                                                                                                     ",
"                                                                                                                                                                          . Y Y & U v+t+8.D.-+{+'+'+'+'+'+'+'+'+'+a+9+%+w+N.x+k+M p.Y . .                                                                                                                                                                       ",
"                                                                                                                                                                          . . Y # p.k+y+q+}+`.Z.'+'+'+'+'+'+'+'+{+4+%+w+E.0+z+U M Y Y . .                                                                                                                                                                       ",
"                                                                                                                                                                            . . Y S M .+v+q+n+J.)+'+'+'+'+'+'+{+_+,+w+D.[+p+7.M S Y . .                                                                                                                                                                         ",
"                                                                                                                                                                              . . Y & M #+:+l+r+x.O.)+'+'+'+'+<+@+`.D.N.q+g+M p.S . .                                                                                                                                                                           ",
"                                                                                                                                                                              . . Y Y S p.#+o+p+0+S.n.q.j+$+++=+U.`.N.0+v+R.& # Y . .                                                                                                                                                                           ",
"                                                                                                                                                                                . . . S Y S U .+y+x+A+s+t+B+%.%.t+0+q+v+#+p.Y Y . .                                                                                                                                                                             "};
