/* XPM */
static char * 1_xpm[] = {
"200 180 254 2",
"  	c #000000",
". 	c #0A0400",
"+ 	c #110500",
"@ 	c #230B00",
"# 	c #190700",
"$ 	c #3C1200",
"% 	c #511700",
"& 	c #1C0A00",
"* 	c #2B0C00",
"= 	c #742201",
"- 	c #5C1A00",
"; 	c #380F00",
"> 	c #431300",
", 	c #852601",
"' 	c #8A2701",
") 	c #7C2301",
"! 	c #6B1E00",
"~ 	c #310F00",
"{ 	c #8D2901",
"] 	c #4B1600",
"^ 	c #942A01",
"/ 	c #641D00",
"( 	c #9B3305",
"_ 	c #6B2402",
": 	c #AC3102",
"< 	c #A42F01",
"[ 	c #B93501",
"} 	c #9D2D01",
"| 	c #B33402",
"1 	c #A92F01",
"2 	c #C63902",
"3 	c #C13702",
"4 	c #D33D03",
"5 	c #D74608",
"6 	c #DA4D15",
"7 	c #CC3B02",
"8 	c #E45219",
"9 	c #DA3F02",
"0 	c #341200",
"a 	c #E34505",
"b 	c #FB4E06",
"c 	c #F34B06",
"d 	c #FC5405",
"e 	c #541A01",
"f 	c #FD5C06",
"g 	c #DC4304",
"h 	c #FE5C09",
"i 	c #642303",
"j 	c #FF6403",
"k 	c #FD5409",
"l 	c #FA4F08",
"m 	c #FF6409",
"n 	c #A33203",
"o 	c #4B1B02",
"p 	c #EA4A06",
"q 	c #FF6C0A",
"r 	c #FF730B",
"s 	c #E74B07",
"t 	c #BA3C06",
"u 	c #140800",
"v 	c #FF7B15",
"w 	c #FF7712",
"x 	c #FF881C",
"y 	c #FF7B0C",
"z 	c #FF9C31",
"A 	c #FF8923",
"B 	c #ED5608",
"C 	c #FFA434",
"D 	c #FFAD3B",
"E 	c #DA5308",
"F 	c #FFB341",
"G 	c #D54A09",
"H 	c #E65507",
"I 	c #FF9A2A",
"J 	c #FF9229",
"K 	c #0E0800",
"L 	c #F55B09",
"M 	c #D75906",
"N 	c #F4620B",
"O 	c #FF820C",
"P 	c #FF8C12",
"Q 	c #FF9325",
"R 	c #C54407",
"S 	c #FF8412",
"T 	c #FF9419",
"U 	c #AA3A07",
"V 	c #431B00",
"W 	c #BB4306",
"X 	c #2C1300",
"Y 	c #FFAA35",
"Z 	c #FF9D21",
"` 	c #732A04",
" .	c #FCA827",
"..	c #FF9312",
"+.	c #782B08",
"@.	c #FFB73A",
"#.	c #FEA41C",
"$.	c #933308",
"%.	c #5D2203",
"&.	c #F55B06",
"*.	c #F56907",
"=.	c #542202",
"-.	c #FFCC3B",
";.	c #F56C0A",
">.	c #FFC639",
",.	c #FF940B",
"'.	c #822A03",
").	c #682705",
"!.	c #FFC440",
"~.	c #FF9A13",
"{.	c #FF8B0C",
"].	c #B54206",
"^.	c #FF9C1D",
"/.	c #FFBB2D",
"(.	c #8A3503",
"_.	c #993A06",
":.	c #FEB42B",
"<.	c #FDA91C",
"[.	c #E76706",
"}.	c #C64906",
"|.	c #FFC233",
"1.	c #FFD945",
"2.	c #FFA212",
"3.	c #241100",
"4.	c #FEB523",
"5.	c #FF9B0B",
"6.	c #C35503",
"7.	c #FFD33C",
"8.	c #FFA30B",
"9.	c #C45D04",
"0.	c #FFC72B",
"a.	c #FFBB1D",
"b.	c #D96606",
"c.	c #3C1B00",
"d.	c #1F1000",
"e.	c #FFEA44",
"f.	c #FFBC24",
"g.	c #F87906",
"h.	c #7C2C04",
"i.	c #FFB31A",
"j.	c #FFE442",
"k.	c #FFE43C",
"l.	c #FFAB0A",
"m.	c #662901",
"n.	c #FFAC12",
"o.	c #FFCA23",
"p.	c #FFDB3A",
"q.	c #BB4C04",
"r.	c #B64A04",
"s.	c #FFD22D",
"t.	c #2F1801",
"u.	c #B65903",
"v.	c #8A3603",
"w.	c #7C3301",
"x.	c #FFB30A",
"y.	c #FFB512",
"z.	c #FFBB13",
"A.	c #FFB204",
"B.	c #492301",
"C.	c #341A00",
"D.	c #FFC21C",
"E.	c #FFC423",
"F.	c #FFDB33",
"G.	c #FFD433",
"H.	c #FFF443",
"I.	c #FFC313",
"J.	c #FFCC1B",
"K.	c #793602",
"L.	c #F98803",
"M.	c #FFEC3C",
"N.	c #FFBC0A",
"O.	c #FC9502",
"P.	c #E67804",
"Q.	c #552D03",
"R.	c #FFD422",
"S.	c #FFBB03",
"T.	c #FFE333",
"U.	c #9B4A02",
"V.	c #EA8805",
"W.	c #5B2B01",
"X.	c #FFFF42",
"Y.	c #FFDC2A",
"Z.	c #FFF53B",
"`.	c #EE9705",
" +	c #AA4804",
".+	c #FFC50A",
"++	c #FFDC24",
"@+	c #FFEC33",
"#+	c #FFCB12",
"$+	c #FFE32C",
"%+	c #3D2201",
"&+	c #FFD314",
"*+	c #FFE225",
"=+	c #FFF334",
"-+	c #FFD41C",
";+	c #FFAB03",
">+	c #FFDB1B",
",+	c #FFEC2C",
"'+	c #FFCC0A",
")+	c #FFF32C",
"!+	c #FFDB15",
"~+	c #FFFE3C",
"{+	c #F6960A",
"]+	c #FFFD34",
"^+	c #FFE21D",
"/+	c #FFEC23",
"(+	c #FFD40B",
"_+	c #FFE415",
":+	c #FFCC02",
"<+	c #FFD403",
"[+	c #FFC403",
"}+	c #FFA403",
"|+	c #FFDC0B",
"1+	c #FFF323",
"2+	c #D47506",
"3+	c #FFEC1C",
"4+	c #FFFC2B",
"5+	c #FE9B03",
"6+	c #4B2903",
"7+	c #FFEB16",
"8+	c #FFE20C",
"9+	c #FFDC04",
"0+	c #C76A03",
"a+	c #643605",
"b+	c #824303",
"c+	c #A85803",
"d+	c #FFF312",
"e+	c #FFE403",
"f+	c #FFE80D",
"g+	c #7A4204",
"h+	c #9A5506",
"i+	c #733C04",
"j+	c #FFFC1D",
"k+	c #6C3A04",
"l+	c #FFF813",
"m+	c #FFEC04",
"n+	c #FFFD23",
"o+	c #FFF30B",
"p+	c #A76807",
"q+	c #D98309",
"r+	c #744206",
"s+	c #EDB42B",
"t+	c #D68114",
"u+	c #BD7419",
"v+	c #F49F1C",
"w+	c #C67916",
"x+	c #B56C13",
"y+	c #E69223",
"z+	c #5B3405",
"A+	c #A66310",
"B+	c #E68A12",
"C+	c #884D07",
"D+	c #422201",
"E+	c #FFFFFF",
"                                                                                                                                                                                                                                                                                                                                                                                                                ",
"                                                                                                                                                                                                                                                                                                                                                                                                                ",
"                                                                                                                                                                                                                                                                                                                                                                                                                ",
"                                                                                                                                                                                                                                                                                                                                                                                                                ",
"                                                                                                                                                                                                                                                                                                                                                                                                                ",
"                                                                                                                                                                                                                                                                                                                                                                                                                ",
"                                                                                                                                                                                                                                                                                                                                                                                                                ",
"                                                                                                                                                                                                                                                                                                                                                                                                                ",
"                                                                                                                                                                                                                                                                                                                                                                                                                ",
"                                                                                                                                                                                                                                                                                                                                                                                                                ",
"                                                                                                                                                                                                                                                                                                                                                                                                                ",
"                                                                                                                                                                                                                                                                                                                                                                                                                ",
"                                                                                                                                                                                                                                                                                                                                                                                                                ",
"                                                                                                                                                                                                                                                                                                                                                                                                                ",
"                                                                                                                                                                                                                                                                                                                                                                                                                ",
"                                                                                                                                                                                                                                                                                                                                                                                                                ",
"                                                                                                                                                                                                                                                                                                                                                                                                                ",
"                                                                                                                                                                                                                                                                                                                                                                                                                ",
"                                                                                                                                                                                                                                                                                                                                                                                                                ",
"                                                                                                                                                                                                                                                                                                                                                                                                                ",
"                                                                                                                                                                                                                                                                                                                                                                                                                ",
"                                                                                                                                                                                                                                                                                                                                                                                                                ",
"                                                                                                                                                                                                                                                                                                                                                                                                                ",
"                                                                                                                                                                                                                                                                                                                                                                                                                ",
"                                                                                                                                                                                                                                                                                                                                                                                                                ",
"                                                                                                                                                                                                                                                                                                                                                                                                                ",
"                                                                                                                                                                                                                                                                                                                                                                                                                ",
"                                                                                                                                                                                                                                                                                                                                                                                                                ",
"                                                                                                                                                                                                                                                                                                                                                                                                                ",
"                                                                                                                                                                                                                                                                                                                                                                                                                ",
"                                                                                                                                                                                                                                                                                                                                                                                                                ",
"                                                                                                                                                                                                                                                                                                                                                                                                                ",
"                                                                                                                                                                                                                                                                                                                                                                                                                ",
"                                                                                                                                                                                                                                                                                                                                                                                                                ",
"                                                                                                                                                                                                                                                                                                                                                                                                                ",
"                                                                                                                                                                                                                                                                                                                                                                                                                ",
"                                                                                                                                                                                                                                                                                                                                                                                                                ",
"                                                                                                                                                                                                                                                                                                                                                                                                                ",
"                                                                                                                                                                                                                                                                                                                                                                                                                ",
"                                                                                                                                                                                                                                                                                                                                                                                                                ",
"                                                                                                                                                                                                                                                                                                                                                                                                                ",
"                                                                                                                                                                                                                                                                                                                                                                                                                ",
"                                                                                                                                                                                      . . .                                                                                                                                                                                                                     ",
"                                                                                                                                                                                  . . . . . . . .                                                                                                                                                                                                               ",
"                                                                                                                                                                                . . . . . + + . . .                                                                                                                                                                                                             ",
"                                                                                                                                                                              . . . . + @ @ + + . . .                                                                                                                                                                                                           ",
"                                                                                                                                                                              . + + + # $ $ @ + . . .                                                                                                                                                                                                           ",
"                                                                                                                                                                            . + + + # @ % % $ @ + . . .                                                                                                                                                                                                         ",
"                                                                                                                                                                          . . + + & & * = = - ; + + . .                                                                                                                                                                                                         ",
"                                                                                                                                                                        . . + + # & @ > , ' ) % + . .                                                                                                                                                                                                           ",
"                                                                                                                                                                        . . + # # @ * % , , ' ! # + . .                                                                                                                                                                                                         ",
"                                                                                                                                                                      . . . + & * ~ > = { , ' = # + . .                                                                                                                                                                                                         ",
"                                                                                                                                                                      . . + + ~ > ] - { ^ ' , = # + . .                                                                                                                                                                                                         ",
"                                                                                                                                                                      . . + @ % / ! ) ( ^ , , - # . .                                                                                                                                                                                                           ",
"                                                                                                                                                                      . . + ~ ! ) ) ' ( ^ , / > + . .                                                                                                                                                                                                           ",
"                                                                                                                                                                      . . + ; ) , , ' ^ { _ > * . .                                                                                                                                                                                                             ",
"                                                                                                                                                                        . + ~ ) , , ) = / ] * . .                                                                                                                                                                                                               ",
"                                                                                                                                                                          . @ ! , = / - ] * . .                                                                                                                                                                                                                 ",
"                                                                                                                                                                            + ] ! % > ; * +                                                                                                                                                                                                                     ",
"                                                                                                                                                                          . . @ ] ~ & # . . . .                                                                                                                                                                                                                 ",
"                                                                                                                                                                        . . . + * + . . .     .                                                                                                                                                                                                                 ",
"                                                                                                                                                                                . . .           .                                                                                                                                                                                                               ",
"                                                                                                                                                                                                                                                                                                                                                                                                                ",
"                                                                                                                                                                                                                                                                                                                                                                                                                ",
"                                                                                                                                                                                                                                                                                                                                                                                                                ",
"                                                                                                                                                                                                  .       . . .                                                                                                                                                                                                 ",
"                                                                                                                                                                                                  .   . . . . . . .                                                                                                                                                                                             ",
"                                                                                                                                                                                                .   . . . + . . . . .               . . .                                                                                                                                                                       ",
"                                                                                                                                                                                                . . + + + + & # + + . .         . . . . . .                                                                                                                                                                     ",
"                                                                                                                                                                                              . . . + + # & > ~ # + + . .     . . . . @ @ + .                                                                                                                                                                   ",
"                                                                                                                                                                                              . . + # @ @ ; ! ] & & # + . . . . . . . $ > ; + . .                                                                                                                                                               ",
"                                                                                                                                                                                            . . + + # @ * % ' ! @ @ # + . . . + . . . % / - @ . .                                                                                                                                                               ",
"                                                                                                                                                                                            . . + # @ ; % ) : , * @ @ # + + . .   . . ! ) = & . .                                                                                                                                                               ",
"                                                                                                                                                                                          . + . # & ~ / ) < [ } ] * @ @ # + . . . . . / ! ! & . . .                                                                                                                                                             ",
"                                                                                                                                                                                          . . . + @ % , < | [ : ! % * @ # + + . . .   ] ] ] +     .                                                                                                                                                             ",
"                                                                                                                                                                                          . . + & @ ! 1 [ 2 2 2 ^ ! ] @ @ + + .   . . ; * * .                                                                                                                                                                   ",
"                                                                                                                                                                                          . . + & ~ { [ 3 2 4 4 3 } = > @ # + . . .   # . .                                                                                                                                                                     ",
"                                                                                                                                                                                          . . + # ~ < [ 2 2 5 6 7 [ ^ / * # + + .                                                                                                                                                                               ",
"                                                                                                                                                                                          . + . # ; : [ 3 7 5 8 4 2 | ) * # + + .                                                                                                                                                                               ",
"                                                                                                                                                                                          . . + & ; 1 [ 3 2 5 8 4 2 3 < ; @ + + .                                                                                                                                                                               ",
"                                                                                                                                                                                          . . . # ~ < : : [ 7 9 4 2 [ | > & + + .                                                                                                                                                                               ",
"                                                                                                                                                                                            . . + # ' ' ' ^ 3 7 7 2 [ | > # + + .                                                                                                                                                                               ",
"                                                                                                                                                                                            . . + + / ! - = : 2 2 [ [ < ; + + . .                                                                                                                                                                               ",
"                                                                                                                                                                                            . . + + ] ] ; ] ' 3 3 [ | , * # + .                                                                                                                                                                                 ",
"                                                                                                                                                                                            . . . . @ @ @ * / 1 [ [ : / & + . . . . .                                                                                                                                                                           ",
"                                                                                                                                                                                      .     . . + + # & ; > / { : | ^ > + + . .                                                                                                                                                                                 ",
"                                                                                                                                                                                      . . . . . + + + @ ] / ! ^ ^ ^ ! @ + . .                                                                                                                                                                                   ",
"                                                                                                                                                                                          . . + + + + @ / ) , { ! ! > + . .                                                                                                                                                                                     ",
"                                                                                                                                                                                        . . . + + + + @ - { 1 ^ ] > @ + . .                                                                                                                                                                                     ",
"                                                                                                                                                                                        . . & + # # # @ % ! 1 } * @ + . . .                                                                                                                                                                                     ",
"                                                                                                                                                                                      . + + ] @ & & @ @ ~ ] ' ) @ + + . .                                                                                                                                                                                       ",
"                                                                                                                                                                                      . + + ! ; @ @ @ @ @ ~ ! - @ + + .                                                                                                                                                                                         ",
"                                                                                                                                                                                      . + @ } - @ @ @ * @ * ] > # # + . .                                                                                                                                                                                       ",
"                                                                                                                                                                              .   . . . + ~ [ , > ~ ; ~ ; ~ ; ~ @ # # . . .     .                                                                                                                                                                               ",
"                                                                                                                                                                                  . . . # ~ 2 1 ! ] > > > ; ; ~ @ @ & + . . . .                                                                                                                                                                                 ",
"                                                                                                                                                                                  . . . + ~ [ 4 < ) ) = ! / % $ ~ * @ # + . . .   . . . . . .                                                                                                                                                                   ",
"                                                                                                                                                                                    . + # * ^ 4 7 : 1 : < ^ ' ! > 0 @ # + . . . . . + + + . . . .                                                                                                                                                               ",
"                                                                                                                                                                                    . . + @ = | a a 9 9 9 2 [ } ! > ~ @ & + + + . . + + + + . . .                                                                                                                                                               ",
"                                                                                                                                                                                    . + + @ > , 9 b b b c b c 9 : ) $ @ & # + + + # # # # # + + . .                                                                                                                                                             ",
"                                                                                                                                                                                    . . # & ~ - 3 b b b d d d b 9 1 e * @ & # & # # @ @ & * & + . .                                                                                                                                                             ",
"                                                                                                                                                                                    . . # @ * $ < d d f f d f d b g ) ~ @ @ # # & @ @ ; ] / ~ + . . .                                                                                                                                                           ",
"                                                                                                                                                                                  . . + # @ ~ > ) d d h f f f d d b < ~ @ @ @ @ @ ~ ] = { ^ $ # + . .                                                                                                                                                           ",
"                                                                                                                                                                                  . . # # * ; > i d f j j j f h k d 1 ~ * @ @ * * > , : 2 2 $ & + . .                                                                                                                                                           ",
"                                                                                                                                                                                . . . # @ ~ > ] = h f j j j j h k l } * * @ @ * ; = [ g c 2 $ & # . .                                                                                                                                                           ",
"                                                                                                                                                                                . . # @ * ; > e ^ h m j m m j f h b ) ~ @ @ * ~ ~ n c k l < * & # . .                                                                                                                                                           ",
"                                                                                                                                                      . . .                   . . + & @ ~ > o - 3 m m m m m j f k g e ~ * * * ; $ 2 k k l , * @ # . .                                                                                                                                                           ",
"                                                                                                                                                    . . . . .     .         . . . # & ~ $ ] - ) p m q q m m m h l : > * @ * ~ 0 $ 5 k k c - ~ @ # + .                                                                                                                                                           ",
"                                                                                                                                                  . . . + . . .   .         . . # & * ; > e = | f m q q q m m h a = ; @ @ @ ~ 0 % p h h a ] ; @ # + .                                                                                                                                                           ",
"                                                                                                                                                  . + + + + . +   .         . + # @ 0 > - ' | p m q q r q m m d | ] ~ @ @ * ~ $ , l h h [ > 0 @ & + . .                                                                                                                                                         ",
"                                                                                                                                              . . + + * @ # # + + . .   . . . # & * $ - ( 4 c m q r r q r q m s = 0 * @ @ @ ~ ! t k h h < > 0 @ & . .                                                                                                                                                           ",
"                                                                                                                                              . + + u > - & & u + . . . . . . # @ ~ > ' a k m q v w r r q q h t ] 0 @ @ & @ > < p h h h | ] ; * & # . .                                                                                                                                                         ",
"                                                                                                                                              . + u & e ^ ] & # + + . . . . + & @ ; e 2 h m r r x x w r q q h { $ ~ @ @ @ & > 3 l h h h g ) ~ * & + . .                                                                                                                                                         ",
"                                                                                                                                            . . + # @ - 4 { ~ & # + . . . + + & * ; = l q r r y z z A v r q B - $ ~ @ # & & > [ a k h h l [ ] @ & # . .                                                                                                                                                         ",
"                                                                                                                                            . + u & @ ] p 7 ] @ # # + + . + + @ ~ > ( m r r r v C D z A w r E e $ 0 @ & # # 0 { < g h h h s _ @ & . . .                                                                                                                                                         ",
"                                                                                                                                          . + + # @ ~ $ 5 l = @ & # + . + + + @ ~ > 7 q r r r y z F D z x q G e > ~ @ # # & @ o / : k h h k ^ & & + .                                                                                                                                                           ",
"                                                                                                                                          . + # @ * 0 0 G h n ~ @ u + . . + u & ~ > H q r r r y I F F D J w E e > 0 @ # u K u # @ / a h k k | # + . .                                                                                                                                                           ",
"                                                                                                                                        . + + & @ 0 $ > E m t ~ @ & + + . + & @ ~ > L q w r y y A D F F J r M - > $ @ # + + + + # 0 1 a 4 g ( # + . .                                                                                                                                                           ",
"                                                                                                                                        . + u @ ~ 0 > - B m G ~ @ & + + . + + & ~ > N q r w y O P D F C Q v N _ ] 0 ~ & + + + + # & _ n ^ ( = + + . . .                                                                                                                                                         ",
"                                                                                                                                      . . u & * 0 $ o ( h m R 0 * & + + + + u @ ~ $ B q r y y S x D F J P y q , o $ * & + + . . + + @ e > e 0 . .                                                                                                                                                               ",
"                                                                                                                                      . + # @ 0 $ ] = g q q R 0 @ @ + . + + u & ~ $ 5 q w y y S T D C P S y r U e > ~ & + + . . . . . # + u + . .                                                                                                                                                               ",
"                                                                                                                                    . . # @ * 0 V i W L q q U $ X @ u + + + u @ ~ $ n h r y S S I Y Z S S S r E ` o ~ & # . .   . . . . . .   .                                                                                                                                                                 ",
"                                                                                                                                    . + # @ ~ $ e ( k q r q ^ $ ~ @ & u u u & @ ~ > ` g q y S P D  ...S S S y f t = 0 @ # + . .       . .                                                                                                                                                                       ",
"                                                                                                                                    . + # @ $ V +.5 r v r q ` > ~ * & & & & & * 0 > - U N S S ..@.#.P S S S O q p $.~ & # . .                                                                                                                                                                                   ",
"                                                                                                                                  . . # @ X $ %.R m A x y N i ] $ ~ * @ @ @ * ~ $ o %.` E S P Z @.#.P S P S y y h $.0 @ u + .                                                                                                                                                                                   ",
"                                                                                                                                  . . u @ ~ > $.&.y Q Q y *.%.e V $ ~ X X 0 0 $ o =.i +.M P P  .-.T ..P P S O y h $.X & + + .                                                                                                                                                                                   ",
"                                                                                                                                  . + u @ 0 ] 5 q y C C S ;._ =.o V $ $ $ $ V o =.i +.n *.P ..@.>.T ,.P P S O r G i X @ + .                                                                                                                                                                                     ",
"                                                                                                                                  . . # @ 0 %.N y S Y D P y '.i =.o o o o o e %.).+.U B y ..#.!.@.~.,.P ..{.O r $.> 0 & + . .                                                                                                                                                                                   ",
"                                                                                                                                  . + u @ 0 _ q y S D D T v U i %.%.=.%.%.%.i +.$.].B q {.^.@.-./.~.......{.O ;.i $ * & + .                                                                                                                                                                                     ",
"                                                                                                                                  . . u @ * ).q v S D D Z S G (.= ).).+.'.(._.].E N v T Z :.>.>.<.~.~.,...{.O [.o $ X & # . .                                                                                                                                                                                   ",
"                                                                                                                                  . . + @ X - N y S Z ^.Z {.q G ].].W }.G E B m w I  .:.|.-.1./.2.~.~.,.,.{.{.M =.V * @ + . . .     . . . . .                                                                                                                                                                   ",
"                                                                                                                                    . + & 3.> R r S P P T O y f &.&.L h m q q y ^./.-.-.1.1.1.4.2.~.5.5.~.,.{.6.=.V X @ u + .   . . . . . . . . .                                                                                                                                                               ",
"                                                                                                                                    . . u @ 0 '.;.y O O {.O O y q q r r y O {.~./.7.1.1.1.1.1.4.2.8.5.5.5.,.{.9.%.o 0 3.& u . . . . . + K K . . . .                                                                                                                                                             ",
"                                                                                                                                    . . + & 3.V M y y O O O O r q q {.{.,.,.5.2.0.1.1.1.1.1.1.a.8.8.5.8.5.,.,.b.).o c.X d.# + + + + + u # u u + . .   .                                                                                                                                                         ",
"                                                                                                                                      . + # @ 3.].r y y y y r j H &.y ,.,.5.5.8./.7.1.1.1.e.1.f.8.8.8.8.5.5.,.g.+.=.V 0 3.& u & u & & d.d.& # u . . . .                                                                                                                                                         ",
"                                                                                                                                      . . + & @ h.L r r y y &.W U W ;.5.2.2.8.8.i.0.-.j.e.e.k.a.l.8.8.8.8.5.~.O $.%.o c.X 3.@ & & @ 3.3.3.V X # + .                                                                                                                                                             ",
"                                                                                                                                        . + + & ] ].E &.f &.R ` m.h.M ~.4.<.8.8.n.a.o.p.e.e.j.a.l.8.l.8.8.8.5.,.}.).=.o 0 0 3.X X X 0 0 0 h.V & & + .                                                                                                                                                           ",
"                                                                                                                                        . . + u @ ` _.].q.].+.o =.i r.<./.f.n.l.l.n.a.s.j.e.j.a.l.l.l.l.8.8.8.~.[.(.m.e V c.t.0 0 c.c.> m.}.m.@ & u . .                                                                                                                                                         ",
"                                                                                                                                            . . + 3.o i ).i $ V o i u.4.1.7.i.l.l.l.l.o.e.e.j.i.l.l.l.l.l.l.l.n.P M v.%.=.V V V V V o w.r.;.w.X 3.u u .                                                                                                                                                         ",
"                                                                                                                                              . . + u @ * X X c.o ).M |.1.1.o.x.x.y.y.o.j.e.k.z.y.A.x.x.x.i.a.a.4.S M '.i =.=.B.=.=.v.}.*.y h.C.X # u + .                                                                                                                                                       ",
"                                                                                                                                                  . . + & & * c.o v.g.|.1.p.s.D.a.D.E.F.e.e.k.z.x.x.x.z.z.D.s.G.>.4.x 6.` m.%.%.m._.M *.O O ` c.t.3.u K .                                                                                                                                                       ",
"                                                                                                                                                  . . + u & 3.t.V q.{./.7.F.s.0.s.F.F.k.H.H.k.I.x.x.z.J.s.F.k.e.k.p./.w q.K.` ` _.[.y {.,.L.m.V C.3.& u .                                                                                                                                                       ",
"                                                                                                                                                  . . . K u @ C.V b.,.4.E.o.o.s.k.M.M.H.H.H.H.J.N.x.I.F.k.e.e.e.e.e.p.<.;.v.w.K.q.y O.5.5.{.m.=.V X 3.u . .                                                                                                                                                     ",
"                                                                                                                                                  . . . + u @ X c.P.~.2.i.z.z.o.k.H.H.H.H.H.H.o.N.N.J.k.M.H.H.M.e.e.e.0...q.(.(.b.,.8.8.5.,.v.Q.V C.3.& u .                                                                                                                                                     ",
"                                                                                                                                                  .     + u # t.c.[.,.5.8.l.x.z.R.M.H.H.H.H.e.J.S.N.J.T.T.H.H.T.k.e.e.k.o.;.r.U.V.l.8.l.8.8.6.W.=.c.X 3.u K .                                                                                                                                                   ",
"                                                                                                                                                  .     . K & 3.C.M ,.5.8.l.x.I.o.F.X.H.X.H.T.I.N.N.I.Y.T.Z.M.R.Y.Z.H.H.p...*.M `.l.x.l.l.8.P.(.Q.V C.3.u u .                                                                                                                                                   ",
"                                                                                                                                                  .     . + u 3.C. +O 5.8.l.y.J.R.p.X.X.H.X.Y..+N..+I.++@+H.Y.#+J.M.H.H.M.a.L.y 8.A.x.x.x.l.L.6.v.B.c.X & u .                                                                                                                                                   ",
"                                                                                                                                                        . . u d.X m.[.5.8.l.z.$+T.$+X.X.X.X.$+#+.+.+J.@+Z.X.$+#+.+$+H.H.H.Y.i.5.l.N.S.N.x.x.8.y M K.V t.d.u + .                                                                                                                                                 ",
"                                                                                                                                                  .     . . u d.X %+r.,.8.l.z.T.@+$+H.X.X.X.@+++&+&+*+Z.X.X.=+-+&+++@+Z.H.=+-+N.N.N.N.N.S.x.;+,.g. +o C.3.u K                                                                                                                                                   ",
"                                                                                                                                                        . . K # 3.c.w.g.8.l.z.++Y.++Z.X.X.X.H.M.*+*+=+X.X.X.H.@+++>+*+,+@+Z.,+'+.+.+.+S.N.N.x.l.,.[.=.C.3.u K .                                                                                                                                                 ",
"                                                                                                                                                          . + u 3.t.=.b.8.l.x.J.-+&+=+X.X.X.X.X.)+,+Z.X.X.X.X.X.,+*+!+-+*+=+Z.-+'+.+.+.+N.N.x.l.8.L.m.c.3.# K .                                                                                                                                                 ",
"                                                                                                                                                          . K u & t.V U.5.l.x.N..+.+@+X.X.X.X.X.@+,+=+~+X.X.X.X.X.=+!+'+&+,+X.,+'+.+.+.+.+N.N.x.8.5.m.c.3.& K .                                                                                                                                                 ",
"                                                                                                                                                    .     . . u & X c.m.{+8.x.N.N.'+@+X.X.X.X.]+^+>+*+@+X.X.X.X.X.Z./+'+'+>+X.]+!+'+'+'+.+S.N.x.l.5.m.c.3.# K .                                                                                                                                                 ",
"                                                                                                                                                            . K & 3.C.=.`.l.l.N.N.'+=+X.X.X.X.)+(+'+&+_+]+X.X.X.X.X.)+(+:+!+~+~+/+'+'+'+'+.+N.x.l.5.Q.$ 3.u u .                                                                                                                                                 ",
"                                                                                                                                                            . K & 3.C.B.V.8.x.A.N.#+]+X.X.X.~+/+(+<+<+&+=+X.X.X.X.X.]+(+:+&+=+~+*+:+'+'+[+.+N.x.8.V.B.C.3.u K                                                                                                                                                   ",
"                                                                                                                                                      .   . . K u d.X C.P.}+l.x.N.&+~+X.X.~+]+/+!+!+&+<+)+~+~+X.X.X.Z.!+|+(+1+X./+<+:+'+'+.+N.A.;+2+c.C.d.u . .                                                                                                                                                 ",
"                                                                                                                                                              . u & 3.C.2+}+}+x.x.-+~+~+]+=+)+)+/+3+_+(+1+X.X.X.~+~+]+_+<+&+^+~+3+(+:+'+'+.+N.A.;+9.c.X & u .                                                                                                                                                   ",
"                                                                                                                                                        .     . + u 3.t.u.O.}+A.A.-+X.~+/+)+]+]+]+4+1+!+1+X.X.~+]+4+)+(+|+(+^+~+^+(+<+'+'+[+S.A.}+U.C.X & u .                                                                                                                                                   ",
"                                                                                                                                                          .   K . u & 3.K.g.5+}+x.++X.,+>+)+~+X.X.~+]+3+4+~+~+4+3+_+_+|+(+(+_+]+_+(+<+:+:+[+S.A.5+m.C.3.& K .                                                                                                                                                   ",
"                                                                                                                                                          .     . K u d.6+6.g.L.8.++Z.>+!+]+X.~+X.~+X.4+]+~+4+3+_+|+|+|+<+|+_+]+7+<+<+<+:+[+A.A.V.B.t.3.u K                                                                                                                                                     ",
"                                                                                                                                                            .   . . u # X K.9.b.g.o.Z.!+!+~+X.X.X.X.X.]+~+4+7+8+9+9+9+9+|+<+!+]+_+<+<+:+.+[+A.;+0+C.X d.K K .                                                                                                                                                   ",
"                                                                                                                                                            .   . . K K & C.a+b+u.#.M.&+!+~+X.X.X.~+X.~+~+3+8+9+9+9+9+9+|+<+8+4+7+<+<+:+[+S.A.;+c+C.3.& K .                                                                                                                                                     ",
"                                                                                                                                                              .     K K u 3.C.B.K.2+T.(+_+~+~+X.X.X.X.X.]+d+9+9+e+9+9+9+8+<+f+]+7+<+:+:+[+S.A.5+g+t.d.& + .                                                                                                                                                     ",
"                                                                                                                                                                K . . K u d.X c.6+h+o.'+>+~+X.X.X.X.~+X.4+f+e+9+9+e+9+9+9+9+f+]+_+<+:+:+[+S.;+P.Q.X & u .                                                                                                                                                       ",
"                                                                                                                                                                  . .   K d.3.c.6+i+I.'+^+~+X.X.~+~+X.~+j+f+8+e+e+e+e+e+9+9+f+4+8+<+:+[+S.A.5+u.c.3.u K .                                                                                                                                                       ",
"                                                                                                                                                                  . . . K u 3.C.V k+N.&+1+X.X.~+X.X.X.~+d+e+d+f+e+e+e+e+9+e+f+1+|+<+:+S.S.;+P.k+X & u . .                                                                                                                                                       ",
"                                                                                                                                                                    .   K u 3.C.B.b+N./+]+~+X.X.X.X.X.]+l+m+n+o+e+e+e+e+9+e+8+7+<+:+:+S.;+L.U.C.d.u K .                                                                                                                                                         ",
"                                                                                                                                                                  . . . K u 3.C.%+h+-+=+~+X.X.X.X.X.X.]+o+m+n+j+m+m+e+e+e+e+8+|+<+:+[+;+L.0+Q.3.& K .                                                                                                                                                           ",
"                                                                                                                                                                    . . K u & C.%+p+*+~+~+X.~+X.X.X.~+~+l+o+4+4+o+m+e+e+e+e+8+8+<+[+S.O.2+b+t.d.& K K                                                                                                                                                           ",
"                                                                                                                                                                    . K K u d.t.%+p+=+~+X.X.~+X.X.~+X.~+j+l+4+~+n+m+e+e+m+e+f+7+:+[+5+0+K.%+3.u u .                                                                                                                                                             ",
"                                                                                                                                                                      . K u & t.%+p+=+~+X.X.~+X.X.X.X.~+4+n+]+~+n+m+e+e+e+9+7+4+<+S.q+g+%+t.& u K                                                                                                                                                               ",
"                                                                                                                                                                      K K K d.X %+h+=+~+X.~+~+X.X.~+X.X.~+]+]+X.]+o+e+e+e+9+7+]+&+A.c+6+t.3.u u .                                                                                                                                                               ",
"                                                                                                                                                                      . . K & 3.t.r+T.~+X.X.~+X.X.X.X.X.~+~+X.X.]+o+e+e+9+9+3+~+>+`.Q.C.X & K . .                                                                                                                                                               ",
"                                                                                                                                                                      . . K u d.X Q.F.~+~+~+~+~+~+~+~+~+~+~+~+~+~+l+f+9+9+<+3+~+^+q+c.t.d.u K                                                                                                                                                                   ",
"                                                                                                                                                                          . K d.3.%+s+X.~+~+~+~+~+~+~+~+~+~+~+~+~+n+d+9+<+<+)+Z.J.u.C.3.d.u K                                                                                                                                                                   ",
"                                                                                                                                                                          . K u d.t.t+p.Z.~+~+~+~+~+~+~+~+~+~+~+]+]+3+<+:+'+,+T.`.k+3.d.u K                                                                                                                                                                     ",
"                                                                                                                                                                          K   K u 3.r+:.T.~+~+~+~+~+~+~+~+~+~+~+~+~+1+:+[+&+s.4.0+%+3.u K K                                                                                                                                                                     ",
"                                                                                                                                                                            . . K d.6+u+ .p.Z.~+~+~+~+~+~+~+~+~+~+]+!+S.A.n.v+w+r+3.& K K                                                                                                                                                                       ",
"                                                                                                                                                                              . . u d.a+u+ .7.k.=+Z.Z.4+]+~+~+~+~+,+.+5+L.t+x+g+C.& K K                                                                                                                                                                         ",
"                                                                                                                                                                              . . . & 3.a+x+y+:./.0.o.o.Y.M.Z.=+T.a.V.0+c+h+z+C.# u K                                                                                                                                                                           ",
"                                                                                                                                                                                  . K u d.6+g+A+u+w+t+q+B+v+:.:.v+w+h+r+Q.C.& u K .                                                                                                                                                                             "};
