/* XPM */
static char * 2_xpm[] = {
"200 180 256 2",
"  	c #000000",
". 	c #0A0400",
"+ 	c #110500",
"@ 	c #230B00",
"# 	c #2C0D00",
"$ 	c #190700",
"% 	c #431300",
"& 	c #4B1600",
"* 	c #641D00",
"= 	c #3B1200",
"- 	c #742201",
"; 	c #6A1F01",
"> 	c #701F01",
", 	c #5B1B01",
"' 	c #541700",
") 	c #320F00",
"! 	c #1B0A00",
"~ 	c #380F00",
"{ 	c #9C2D02",
"] 	c #832501",
"^ 	c #AB3202",
"/ 	c #8B2701",
"( 	c #BA3501",
"_ 	c #A32F01",
": 	c #B43402",
"< 	c #7B2401",
"[ 	c #C33A04",
"} 	c #CB4206",
"| 	c #D34607",
"1 	c #D44A11",
"2 	c #DB501A",
"3 	c #CC3D04",
"4 	c #EC5A21",
"5 	c #C84708",
"6 	c #B23A08",
"7 	c #932A01",
"8 	c #C23702",
"9 	c #BD3A04",
"0 	c #D43E04",
"a 	c #E44505",
"b 	c #F24905",
"c 	c #EC4604",
"d 	c #341100",
"e 	c #FB4B04",
"f 	c #6C2101",
"g 	c #FC4E08",
"h 	c #541900",
"i 	c #FC5408",
"j 	c #F34B06",
"k 	c #FD5107",
"l 	c #FE6414",
"m 	c #FE5C09",
"n 	c #FF630A",
"o 	c #FF7925",
"p 	c #FF6A1D",
"q 	c #140800",
"r 	c #9D3204",
"s 	c #ED4A06",
"t 	c #4C1A01",
"u 	c #FB5A16",
"v 	c #FF6C0A",
"w 	c #FE6A18",
"x 	c #FF9332",
"y 	c #FF8729",
"z 	c #A63806",
"A 	c #842B03",
"B 	c #DC4305",
"C 	c #FF7512",
"D 	c #FC741B",
"E 	c #FF7C1A",
"F 	c #0E0800",
"G 	c #FF8A24",
"H 	c #FF932C",
"I 	c #F45808",
"J 	c #FFA435",
"K 	c #FF9C33",
"L 	c #E2490B",
"M 	c #FF730B",
"N 	c #FFAB39",
"O 	c #FFA937",
"P 	c #FF7C14",
"Q 	c #652303",
"R 	c #F56407",
"S 	c #E65417",
"T 	c #EC4D09",
"U 	c #FF9B2D",
"V 	c #FD831C",
"W 	c #8C2901",
"X 	c #E64C07",
"Y 	c #FFB23D",
"Z 	c #FFB442",
"` 	c #FF9323",
" .	c #FF7B0C",
"..	c #FF8411",
"+.	c #5B2302",
"@.	c #FF8C18",
"#.	c #FFA42B",
"$.	c #792B04",
"%.	c #FF8C11",
"&.	c #FF9A22",
"*.	c #FFBD42",
"=.	c #FF941C",
"-.	c #FF9B1B",
";.	c #FFC442",
">.	c #FFCA45",
",.	c #FFBC3A",
"'.	c #FFB435",
").	c #FFC73B",
"!.	c #FF8B0B",
"~.	c #FFA92A",
"{.	c #FFBC34",
"].	c #FEA421",
"^.	c #FFA41B",
"/.	c #FFAB24",
"(.	c #FEB32B",
"_.	c #FF9411",
":.	c #FF9B12",
"<.	c #2B1400",
"[.	c #532301",
"}.	c #FFC433",
"|.	c #FFA312",
"1.	c #FF820C",
"2.	c #672D01",
"3.	c #E47418",
"4.	c #FFCC34",
"5.	c #FFAB1B",
"6.	c #FFB423",
"7.	c #441C01",
"8.	c #FFBB2B",
"9.	c #FFD945",
"0.	c #FD8D05",
"a.	c #3B1B01",
"b.	c #893703",
"c.	c #FFB51A",
"d.	c #FFD33B",
"e.	c #FFAA14",
"f.	c #FF9B0C",
"g.	c #FF930B",
"h.	c #FA8506",
"i.	c #FFD442",
"j.	c #241100",
"k.	c #4B2400",
"l.	c #FFA40B",
"m.	c #FFC224",
"n.	c #FFBA24",
"o.	c #E76A06",
"p.	c #FFBA1B",
"q.	c #FFDC3C",
"r.	c #D95A04",
"s.	c #FFCB2B",
"t.	c #FFAB0B",
"u.	c #FFE23D",
"v.	c #341A00",
"w.	c #FFB313",
"x.	c #FFCA25",
"y.	c #FFEA45",
"z.	c #E75607",
"A.	c #943C03",
"B.	c #FFC42B",
"C.	c #B04A04",
"D.	c #9D3B04",
"E.	c #FFD333",
"F.	c #FFB40A",
"G.	c #763501",
"H.	c #1F1000",
"I.	c #C55904",
"J.	c #FFD12B",
"K.	c #FFE442",
"L.	c #FFC41E",
"M.	c #FEB504",
"N.	c #F67606",
"O.	c #FFBC0A",
"P.	c #FFF543",
"Q.	c #FFDB35",
"R.	c #FFBD13",
"S.	c #FFDA2B",
"T.	c #FFE434",
"U.	c #FFBB04",
"V.	c #FFAC04",
"W.	c #FFC313",
"X.	c #FFC40A",
"Y.	c #964703",
"Z.	c #FFFF42",
"`.	c #FFEB34",
" +	c #FFCB14",
".+	c #FFCB1A",
"++	c #FFEC39",
"@+	c #8B4504",
"#+	c #FFF43B",
"$+	c #FFCC0A",
"%+	c #FFD423",
"&+	c #9A5706",
"*+	c #5B2B01",
"=+	c #442301",
"-+	c #693302",
";+	c #FDA503",
">+	c #FFD21C",
",+	c #FFFF3C",
"'+	c #FFE12B",
")+	c #B96304",
"!+	c #FFF433",
"~+	c #FFCC02",
"{+	c #FFD214",
"]+	c #D77908",
"^+	c #643201",
"/+	c #D96702",
"(+	c #FFE426",
"_+	c #FFEC2A",
":+	c #FFDC1B",
"<+	c #F19816",
"[+	c #FFEB25",
"}+	c #FFE31D",
"|+	c #FFDC13",
"1+	c #FFD50A",
"2+	c #FFD303",
"3+	c #E77B02",
"4+	c #FFFD33",
"5+	c #FB9A04",
"6+	c #FFF42C",
"7+	c #4D2A03",
"8+	c #FFE313",
"9+	c #6C3903",
"0+	c #743D04",
"a+	c #FFEC1D",
"b+	c #FFDB0A",
"c+	c #FFFD2C",
"d+	c #FFC404",
"e+	c #3C2101",
"f+	c #FFF423",
"g+	c #FFD906",
"h+	c #A75804",
"i+	c #FFEB14",
"j+	c #FFE403",
"k+	c #FFF21C",
"l+	c #FFFC23",
"m+	c #FFE10D",
"n+	c #C87503",
"o+	c #E59101",
"p+	c #FFF30C",
"q+	c #FFF819",
"r+	c #FFEA0C",
"s+	c #A96502",
"t+	c #FFEB02",
"u+	c #C86703",
"v+	c #EB8503",
"w+	c #5B3203",
"x+	c #532C02",
"y+	c #F7AD15",
"z+	c #D98A0C",
"A+	c #774207",
"B+	c #B78113",
"C+	c #B47212",
"D+	c #E58B15",
"E+	c #C67918",
"F+	c #8D530C",
"G+	c #EC8F25",
"                                                                                                                                                                                                                                                                                                                                                                                                                ",
"                                                                                                                                                                                                                                                                                                                                                                                                                ",
"                                                                                                                                                                                                                                                                                                                                                                                                                ",
"                                                                                                                                                                                                                                                                                                                                                                                                                ",
"                                                                                                                                                                                                                                                                                                                                                                                                                ",
"                                                                                                                                                                                                                                                                                                                                                                                                                ",
"                                                                                                                                                                                                                                                                                                                                                                                                                ",
"                                                                                                                                                                                                                                                                                                                                                                                                                ",
"                                                                                                                                                                                                                                                                                                                                                                                                                ",
"                                                                                                                                                                                                                                                                                                                                                                                                                ",
"                                                                                                                                                                                                                                                                                                                                                                                                                ",
"                                                                                                                                                                                                                                                                                                                                                                                                                ",
"                                                                                                                                                                                                                                                                                                                                                                                                                ",
"                                                                                                                                                                                                                                                                                                                                                                                                                ",
"                                                                                                                                                                                                                                                                                                                                                                                                                ",
"                                                                                                                                                                                                                                                                                                                                                                                                                ",
"                                                                                                                                                                                                                                                                                                                                                                                                                ",
"                                                                                                                                                                                                                                                                                                                                                                                                                ",
"                                                                                                                                                                                                                                                                                                                                                                                                                ",
"                                                                                                                                                                                                                                                                                                                                                                                                                ",
"                                                                                                                                                                                                                                                                                                                                                                                                                ",
"                                                                                                                                                                                                                                                                                                                                                                                                                ",
"                                                                                                                                                                                                                                                                                                                                                                                                                ",
"                                                                                                                                                                                                                                                                                                                                                                                                                ",
"                                                                                                                                                                                                                                                                                                                                                                                                                ",
"                                                                                                                                                                                                                                                                                                                                                                                                                ",
"                                                                                                                                                                                                                                                                                                                                                                                                                ",
"                                                                                                                                                                                                                                                                                                                                                                                                                ",
"                                                                                                                                                                                                                                                                                                                                                                                                                ",
"                                                                                                                                                                                                                                                                                                                                                                                                                ",
"                                                                                                                                                                                                                                                                                                                                                                                                                ",
"                                                                                                                                                                                                                                                                                                                                                                                                                ",
"                                                                                                                                                                                                                                                                                                                                                                                                                ",
"                                                                                                                                                                                                                                                                                                                                                                                                                ",
"                                                                                                                                                                                                                                                                                                                                                                                                                ",
"                                                                                                                                                                                                                                                                                                                                                                                                                ",
"                                                                                                                                                                                                                                                                                                                                                                                                                ",
"                                                                                                                                                                                                                                                                                                                                                                                                                ",
"                                                                                                                                                                                                                                                                                                                                                                                                                ",
"                                                                                                                                                                                                                                                                                                                                                                                                                ",
"                                                                                                                                                                                                                                                                                                                                                                                                                ",
"                                                                                                                                                                                                                                                                                                                                                                                                                ",
"                                                                                                                                                                                                                                                                                                                                                                                                                ",
"                                                                                                                                                                                                                                                                                                                                                                                                                ",
"                                                                                                                                                                                                                                                                                                                                                                                                                ",
"                                                                                                                                                                                                                                                                                                                                                                                                                ",
"                                                                                                                                                                                                                                                                                                                                                                                                                ",
"                                                                                                                                                                                                                                                                                                                                                                                                                ",
"                                                                                                                                                                                                                                                                                                                                                                                                                ",
"                                                                                                                                                                                                                                                                                                                                                                                                                ",
"                                                                                                                                                                                                                                                                                                                                                                                                                ",
"                                                                                                                                                                                                                                                                                                                                                                                                                ",
"                                                                                                                                                                                                                                                                                                                                                                                                                ",
"                                                                                                                                                                                                                                                                                                                                                                                                                ",
"                                                                                                                                                                                                                                                                                                                                                                                                                ",
"                                                                                                                                                                                                                                                                                                                                                                                                                ",
"                                                                                                                                                                                                                                                                                                                                                                                                                ",
"                                                                                                                                                                                                                                                                                                                                                                                                                ",
"                                                                                                                                                                                                              .                                                                                                                                                                                                 ",
"                                                                                                                                                                                                        . . . . .                                                                                                                                                                                               ",
"                                                                                                                                                                                                .       .   . + .                                                                                                                                                                                               ",
"                                                                                                                                                                                                        . . @ # . .                                                                                                                                                                                             ",
"                                                                                                                                                                                                    . . . $ % & . .                                                                                                                                                                                             ",
"                                                                                                                                                                                                  .   . . # * * . . .                                                                                                                                                                                           ",
"                                                                                                                                                                                                .     . . = - ; . . .                                                                                                                                                                                           ",
"                                                                                                                                                                                                      . . & > , . .   .                                                                                                                                                                                         ",
"                                                                                                                                                                                                .     . . % ' % .                                                                                                                                                                                               ",
"                                                                                                                                                                                                      . . # ) @                                                                                                                                                                                                 ",
"                                                                                                                                                                                                  . . . . $ + .                                                                                                                                                                                                 ",
"                                                                                                                                                                                              . . . . . .                                                                                                                                                                                                       ",
"                                                                                                                                                                                              . . . . . .                                                                                                                                                                                                       ",
"                                                                                                                                                                                          . . . + + . . . .                                                                                                                                                                                                     ",
"                                                                                                                                                                                        . . + + # $ + + . . .                                                                                                                                                                                                   ",
"                                                                                                                                                                                      . . + + ! ' # + + . . .                                                                                                                                                                                                   ",
"                                                                                                                                                                                      . . + $ ~ - % $ $ + + . .                                                                                                                                                                                                 ",
"                                                                                                                                                                                      . + $ ! ' { , ! ! + . . .                                                                                                                                                                                                 ",
"                                                                                                                                                                                    . . + $ @ ] ^ > @ @ $ + . . .                                                                                                                                                                                               ",
"                                                                                                                                                                                    . . + ! ~ { ^ / ~ @ ! $ + + .                                                                                                                                                                                               ",
"                                                                                                                                                                                    . + + ! % ^ ( _ ' # @ $ + . .                                                                                                                                                                                               ",
"                                                                                                                                                                                    . . + ! , : ( : < = # @ $ + . .                                                                                                                                                                                             ",
"                                                                                                                                                                                    . + + @ , : [ [ { * ' @ ! + . . .                                                                                                                                                                                           ",
"                                                                                                                                                                                  . . . + ! ' : } | ( / - ) $ + . .                                                                                                                                                                                             ",
"                                                                                                                                                                                    . + + @ % _ 1 2 3 : { ~ ! + .                                                                                                                                                                                               ",
"                                                                                                                                                                                    . . $ @ ) ] 1 4 1 ( : ~ ! + . . .                                                                                                                                                                                           ",
"                                                                                                                                                                                    . . $ $ @ , 5 4 2 ( : & $ $ + . .                                                                                                                                                                                           ",
"                                                                                                                                                                                    . + + $ @ ~ 6 2 2 ( ( , ! + . . .                                                                                                                                                                                           ",
"                                                                                                                                                                                  . . + @ ~ # # _ 1 1 ( ^ , $ + . .   .                                                                                                                                                                                         ",
"                                                                                                                                            . . . . .                             . + + ~ * = @ 7 8 8 _ / & + . . .                                                                                                                                                                                             ",
"                                                                                                                                        . . . . . . . .                         . . + + ~ < , @ 7 ( : / ; ~ + . .                                                                                                                                                                                               ",
"                                                                                                                                      . . . . . . + . . .                       . . + ! = - ' ! / : _ * % $ + . .         .                                                                                                                                                                                     ",
"                                                                                                                                      . . + . + + $ . . .                     . . + + = % , & $ > ^ 7 ~ $ + . . . .   . .                                                                                                                                                                                       ",
"                                                                                                                                    . . + + + @ ~ % + . . .                   . + + + ' & ~ ~ $ ' _ ] $ . . . . . . . . .     .                                                                                                                                                                                 ",
"                                                                                                                                    . . . + @ % , ' + + . . .                 . + + $ > , @ @ $ ) / * + . . . . . . . . .   . .                                                                                                                                                                                 ",
"                                                                                                                                    . . + + & > ] , $ + + . .                 + + $ $ ] > ! @ ! ! , % . . . . . . . . . . . . . .                                                                                                                                                                               ",
"                                                                                                                                    . . + + ; { ^ , $ + + . . .             . . + ! @ _ ] @ @ $ $ = # . . . . . . + + + + + + . .                                                                                                                                                                               ",
"                                                                                                                                    . . + . / 8 ( = $ $ + + + . . .     . . . + ! @ ~ ( { @ @ ! $ $ + . .   . . + + @ ! $ + + . . .                                                                                                                                                                             ",
"                                                                                                                                    . . + + _ 8 9 ) $ ! + + + + + . . . . . + $ $ @ ' 0 : ) @ @ ! + . . . . . . + ! = = @ ! $ + + . .                                                                                                                                                                           ",
"                                                                                                                                      . . + / 8 8 = ! $ $ $ $ + + + . . + + + $ @ # ] a 3 & ) @ ! $ + . . . . . + $ , ; ' ) ! $ + . .                                                                                                                                                                           ",
"                                                                                                                                      . . . * { ^ & $ $ ! @ $ ! ! $ $ + + + $ ! @ ~ ( b c ; d ) @ ! + + . . + + $ @ ; ^ / * # $ + + .                                                                                                                                                                           ",
"                                                                                                                                      . . . % ; ] % $ @ d = @ @ @ @ ! $ $ $ $ @ # ~ 0 e e 7 ~ ~ # $ $ + + + . $ ! @ > 0 8 7 = @ ! . . .                                                                                                                                                                         ",
"                                                                                                                                      . . . ! & , ~ @ @ ' f & ) ) # @ @ @ ! @ @ # & b e g 8 h = # @ ! + + + + $ ! @ * c c 3 & @ ! + . . .                                                                                                                                                                       ",
"                                                                                                                                        .   . $ # @ @ ) - : / & = ~ ) ) @ @ @ # ~ ' g e g a 7 & ) @ ! + . + + $ @ # ' e e c ' # @ $ + . .                                                                                                                                                                       ",
"                                                                                                                                        . . . . $ @ # ) ] c 8 < & % ~ d ) ) ) ) d , g i i i [ < ~ # $ $ . + + $ @ # h g e c h ) @ $ + . .                                                                                                                                                                       ",
"                                                                                                                                    .   . . + $ ! @ ) = ] i j ( / ; h % ~ ) ) d ~ , k i l m b ^ , # @ + $ + + $ @ ) f g g a % ) # @ $ + . .                                                                                                                                                                     ",
"                                                                                                                                        . . + $ @ ) ~ % ; i m j 3 : { < % = = ~ = ' b n o p m a / # @ q + + + ! @ ~ r i i s % ~ ) @ ! $ . . . . .                                                                                                                                                               ",
"                                                                                                                                    .     . + $ @ d % t < m n m g c 0 : f % % % % ' 0 u o o l i _ ) @ ! + + + $ @ % 3 i i s , % ~ ) @ ! $ . . .                                                                                                                                                                 ",
"                                                                                                                                    .   . + $ ! # ~ t f { n n n v n i b { h & % & t ^ w x y p i z ) @ + + + + ! @ ' s i i k A & % d ) @ ! $ + . .                                                                                                                                                               ",
"                                                                                                                                    .   . . $ @ ) & ] _ B n v C D E v m B ] t t t t ] l x x p j / # @ ! + + + $ @ , s g m m 9 , & % ~ ) @ @ $ F . . .                                                                                                                                                           ",
"                                                                                                                                      . . + ! @ ) - ( B i n C G y H E v I ^ , h h , f w x x p 3 * ) @ ! + + + ! @ ' [ B g m s { , & % ~ ) # @ ! + . . .                                                                                                                                                         ",
"                                                                                                                                      . . + ! # ) 6 j m n v G x J K H C m 3 * * * ; < D x y l { & ) @ ! q + q ! @ & 7 _ B n m L z * h t % ~ ) # @ $ + . .                                                                                                                                                       ",
"                                                                                                                                      . . + $ # = a m n v M y N O O x P n 3 f Q f Q z o x E R ; & ) # @ $ $ $ ! # ~ * < [ n v p S z f , t & ~ ) # ! $ . . .                                                                                                                                                     ",
"                                                                                                                                      . . . ! @ ~ j n n v v G K O K H P n 9 < < ] r L H H C m ; & = ) @ @ $ ! @ # ~ & , 6 v C y o S 6 A f , & % ) # @ + . . .                                                                                                                                                   ",
"                                                                                                                                        . . $ @ ~ T n n n v P U O H V C I { W { [ T o J G v n W h & = # @ @ @ # d % t f B v C U K o p S [ r f t % ~ ) ! + + . .                                                                                                                                                 ",
"                                                                                                                                        . . + @ ) B m n v v M y O V C M R 5 3 B i p x O G M M 9 , t % ~ ) ) ) ) % & , 7 m M P H O J x o u X : < h % ~ # @ + . .                                                                                                                                                 ",
"                                                                                                                                        . . + ! @ _ m n n v v E U D M M n j g m w x O Y G M M L - , t % % = = % & h f 3 v M C V K Z N x o n j 9 < t % d # ! + + .                                                                                                                                               ",
"                                                                                                                                          . + + ! * 0 m n n v C V M M M M n v C G K Z Z `  .M n z f , ' ' t t ' , Q W I M  . ...H Z Z Z N V v i } f h % ) @ ! + . .                                                                                                                                             ",
"                                                                                                                                            . . ! # 7 a i m n n w M M M M M M ..` U Y Z H  . .M T W f * , +.+.+.f < } v  . . ...` Z Z Z Z U P v i { , t = ) @ $ + .                                                                                                                                             ",
"                                                                                                                                              . F ! h r 3 c j T j n v M M M C P @.` O Z #... . .m 0 7 $.f f f - ] ^ I V @.....%.&.Z *.Z Z O .. .v | $.h % ~ # $ + . .                                                                                                                                           ",
"                                                                                                                                            . . . $ ! & < { r r : X v v v M C  . ...U Z J ......C m B 6 r r r 6 | I E K #.&.=.-.O ;.*.;.;.Z V  . .n 9 A f % # @ $ . .                                                                                                                                           ",
"                                                                                                                                              . . . + $ = h , , Q 9 n v v M M C  . .` Z #.........M n T X T T j i D U Y Z O #.O Z ;.Z *.>.*.=... .M g } 6 f d @ $ . . .                                                                                                                                         ",
"                                                                                                                                                  . . . + @ @ @ ) $.j m n v v v P  .V Y #.%.%.......C v n n n v M H N Z Y ,.Y ,.;.,.#.'.;.).@.!... .n I T r ~ @ ! + .                                                                                                                                           ",
"                                                                                                                                                  . . . + + $ ! @ % 6 L g i g u M  .%.~.&.%.%.%.%.%... .M M M  .=.~.J '.'.'.;.;.;.{.-.~.;.{.@.%..... .v m } = # ! + . .                                                                                                                                         ",
"                                                                                                                                                      . . . . + $ @ - _ 9 } 9 | v  ...-.@.%.!.%.%.%.!.%.%.%.!.%.-.~.].^.]./.).>.>.~.@.^.(.~.%.%.%... . .M 5 = ) ! + .                                                                                                                                           ",
"                                                                                                                                                          . . . + q @ t Q - f $.I  ..._.%.%._.:.:._.%._.%.%.%._.-.-.:._.@.-.,.>.>.^._.:.].-._.%.%.%... .M 5 d ) @ + .                                                                                                                                           ",
"                                                                                                                                                              . . + q @ <.~ % [.| ..%.%.%._._.-.^.:._._._._._._.:._._._._.:.,.>.;.-._._.:._._._.%.%... .M z ~ # $ + F .                                                                                                                                         ",
"                                                                                                                                                              . . . F ! @ ) % h 6 ..=.%.%._._.-.(.~.-._._._._._._._._._._.:.{.>.{.:._._._._._._.%.!... .M A = @ ! + .                                                                                                                                           ",
"                                                                                                                                                                  . F ! @ ) % h $.D #.%._._._.^.}.}.(.|.:.:.:.:.:.:.:.:.:.^.).)./.:._._._._._._.%.%.1.1.M Q = @ $ . .                                                                                                                                           ",
"                                                                                                                                                                . . + $ @ ) % [.2.3.'._._._._.-.}.>.4.5.:.:.:.:.:.:.:.:.^./.4.6.|.:.:.:._._._.!._.!.1. .R t ) @ $ . .                                                                                                                                           ",
"                                                                                                                                                                . . + ! <.~ 7.+.Q 3.{.^.:.:._.:.8.9.9.8.|.:.:.:.:.:.:.^.6.}.}.5.:.:.:._._._._.0.!.1.1. .1 7.<.! $ . .                                                                                                                                           ",
"                                                                                                                                                                . . $ @ # a.t Q b.V >.8.-.:.:.:.c.9.9.d.e.:.:.|.:.|.|.6.4.4.c.-.:.:.f.f.f._.g.f.g.!.h.M r = ) $ . . .                                                                                                                                           ",
"                                                                                                                                                              . . . $ @ d 7.+.A | ` >.).e.:.f.:./.9.9.i.5.|.|.|.|.|.5.d.9.}.e.:.f._.:._.g.f.g.!.g.!.1.v Q d j.$ . .                                                                                                                                             ",
"                                                                                                                                                              . . $ @ <.a.k.A 5 R ~.9.d.5.|.f.l.m.9.9.d.e.|.l.l.l.|.n.d.9.n.:.:._.f.0.f.g.!.!.!.!.1. .o.t <.@ q . .                                                                                                                                             ",
"                                                                                                                                                              . + $ j.) 7.+.1 v =.}.9.i.5.|.l.5.4.9.4.m.e.l.l.l.l.e.4.9.9.n.f.f.f.g.!.!.!.0.!.!.1.1. .o.d ) @ + . .                                                                                                                                             ",
"                                                                                                                                                            . . F ! <.= t b.v &.{.d.9.d.5.|.e.p.d.q.m.c.e.l.l.l.l.|.d.9.d.^.f.f.f.!.!.!.!.1.1...1. . .r.# @ $ + . .                                                                                                                                             ",
"                                                                                                                                                            . . q @ <.7.[.5 @.{.).9.9.s.t.e.p.s.u.d.c.t.t.t.t.t.l.e.4.9.i.e.f.g.!.!.h. .v M M  . . .v 5 j.! $ . . .                                                                                                                                             ",
"                                                                                                                                                          . . . q @ v.7.$.R ^.d.9.9.q.m.t.w.x.q.y.q.w.l.t.t.t.t.t.t.4.9.i.e.g.g.0.M v m z.z.z.R v M R b.@ $ F . .                                                                                                                                               ",
"                                                                                                                                                          . F + ! <.a.t A. .8.9.9.q.B.c.t.p.q.y.y.u.w.t.l.t.t.t.t.t.4.9.d.|.f.!.M I | C.r D.z 5 z.I C.[.$ + . .                                                                                                                                                 ",
"                                                                                                                                                          . . + ! d 7.[.C.f.B.9.9.E.p.t.t.m.y.y.y.u.p.t.F.t.t.t.t.t.s.u.d.:.g.v r.z G.+.7.7.7.Q b.D.Q ! + . .                                                                                                                                                   ",
"                                                                                                                                                          . F $ H.d 7.+.I.f.8.9.y.J.t.F.F.x.y.y.y.K.L.F.F.F.F.t.t.F.x.9.B.:.1.r.A.+.= <.@ @ $ @ 7.Q ! + . . .                                                                                                                                                   ",
"                                                                                                                                                      . . . + q @ v.7.$.o.:.c.q.y.x.F.F.M.J.y.y.y.y.J.w.F.F.F.F.t.t.m.q.n.:.N.D.+.v.j.@ ! $ + + $ ! . . . .                                                                                                                                                     ",
"                                                                                                                                                          . F ! j.a.k.5 h.f.e.x.q.J.O.F.F.E.y.y.y.P.Q.R.F.F.F.F.F.F.x.K.n.f.I.Q 7.# @ q + . . . . . . .                                                                                                                                                         ",
"                                                                                                                                                  .       . . ! j.a.[.R !.l.l.p.E.x.F.F.F.S.P.P.P.P.T.R.F.F.F.M.F.F.x.u.n.f.D.t a.j.! q + . . . . .                                                                                                                                                             ",
"                                                                                                                                                          . + ! <.a.$.1.f.l.t.F.L.x.F.F.O.S.P.P.P.P.T.R.U.O.F.F.F.F.L.u.m.f.G.t a.# ! + . . .                                                                                                                                                                   ",
"                                                                                                                                                  .     . F + ! @ a.b.@.f.l.t.V.F.W.O.O.O.S.P.P.P.P.T.X.O.O.O.U.R.R.p.Q.m.:.$.7.v.j.! F . .                                                                                                                                                                     ",
"                                                                                                                                                  .       . + ! # v.Y.g.f.l.t.F.M.F.O.O.O.Q.P.Z.P.P.`.X.R.O.O.O. +.+R.J.E.|.G.k.v.# ! q . .                                                                                                                                                                     ",
"                                                                                                                                                          . F ! j.d Y.f.f.l.l.t.F.F.F.O.R.u.Z.P.Z.P.++ +U.O.O.U. +S.R.x.E.e.b.[.a.j.! F . .                                                                                                                                                                     ",
"                                                                                                                                                  .       . F + j.<.Y.!.g.f.l.t.F.F.O.U.X.`.Z.Z.Z.Z.P. +X.X.X.X..+++.+W.Q.p.Y.[.7.<.j.$ . . .                                                                                                                                                                   ",
"                                                                                                                                                          . F $ ! <.@+0.g.f.f.t.t.F.F.O. +#+Z.Z.Z.Z.P..+X.X.$+X. +#+%+R.J.L.&+*+=+<.j.$ F . .                                                                                                                                                                   ",
"                                                                                                                                                          . . + ! j.-+N.!.f.f.;+t.t.M.O.>+,+Z.Z.Z.Z.,+ +X.X.X.X..+P.'+O.x.J.)+*+k.v.j.! F . .                                                                                                                                                                   ",
"                                                                                                                                                            . . $ H.=+r.h.0.f.f.l.t.F.X.S.#+++Z.Z.Z.!+$+~+X.X.X.{+#+`. +.+Q.]+^+[.a.<.H.F . .                                                                                                                                                                   ",
"                                                                                                                                                              . + $ # @+/+M h.h.0.l.F.W.`.`.(+#+Z.Z._+$+$+$+~+$+:+,+,+ + +S.<+D.*+=+<.j.$ F .                                                                                                                                                                   ",
"                                                                                                                                                    .     .   . F + ! 7.@+C.r.r.o.!.F.%+T.:+{+[+Z.Z.}+$+$+$+$+~+:+,+Z.(+ +>+c./+Y.=+v.j.! F . .                                                                                                                                                                 ",
"                                                                                                                                                    .           . F + ! =+G.A.@+Y.N.O.S.(+$+$+:+Z.,+|+$+$+$+$+$+}+Z.Z.!+{+.+R.!.I.[.a.# H.q F . .                                                                                                                                                               ",
"                                                                                                                                                          .       . F + ! v.k.k.^+I.R.S..+X.$+{+Z.#+1+~+~+~+~+2+[+,+Z.,+}+X.X.l.3+*+=+v.j.q F . .                                                                                                                                                               ",
"                                                                                                                                                            .       . . + @ j.a.k.@+L.%+X.X.$+$+!+4+1+1+1+1+1+1+[+Z.Z.Z.[+X.X.M.5+2.k.v.j.H.+ F .         .                                                                                                                                                     ",
"                                                                                                                                                      .             . . + $ j.v.k.G.x..+X.X.$+2+!+4+|+1+1+1+1+1+6+Z.Z.,+(+$+X.U.V.-+7+7.v.j.q + . .                                                                                                                                                             ",
"                                                                                                                                                            .       . . q ! j.v.=+G.x.X.X.X.$+2+6+,+8+1+1+1+1+1+6+Z.Z.,+}+$+X.U.M.9+*+=+v.j.! + . .   .                                                                                                                                                         ",
"                                                                                                                                                                    . . F q H.<.=+0+.+R.U.~+~+1+6+,+a+1+1+1+1+b+c+Z.,+,+8+~+d+d+U.b.^+*+7.<.j.q . . .                                                                                                                                                           ",
"                                                                                                                                                          .         . . F + H.<.e+G.W.O.d+~+2+2+c+Z.f+b+1+g+1+b+4+Z.Z.4+|+~+~+~+U.h+&+Y.=+v.@ q F .                                                                                                                                                             ",
"                                                                                                                                                              .     . . F + H.<.a.G.F.U.d+~+2+g+!+Z.4+i+b+j+b+i+4+Z.Z.6+g+1+2+~+d+3+/+/+^+v.j.$ F                                                                                                                                                               ",
"                                                                                                                                                                .     . . + ! <.a.-+V.U.d+~+g+b+4+Z.,+c+k+k+k+l+,+Z.Z.4+j+2+2+~+~+5+0.0.Y.a.j.! F .                                                                                                                                                             ",
"                                                                                                                                                              .       . . F q <.a.*+V.U.~+2+2+|+4+Z.Z.4+c+c+c+4+,+4+,+c+m+g+2+2+~+d+V.V.)+v.j.H.F .                                                                                                                                                             ",
"                                                                                                                                                                  .   . F F H.j.v.[.5+U.d+~+2+i+,+Z.Z.,+4+,+,+,+c+l+c+4+k+b+g+~+$+{+U.V.n+v.j.! + .                                                                                                                                                             ",
"                                                                                                                                                                .   . . . F q <.v.=+o+d+~+2+g+l+,+Z.Z.,+Z.Z.,+,+l+p+q+c+l+k+8+1+:+:+U.M.)+v.H.$ F .                                                                                                                                                             ",
"                                                                                                                                                                    . . . F H.j.v.7+n+d+~+2+8+c+Z.Z.Z.Z.Z.Z.Z.c+r+j+r+l+c+c+f+|+(+'+U.;+h+v.j.$ F .                                                                                                                                                             ",
"                                                                                                                                                                  .   .   F q <.v.7+s+d+~+g+i+,+Z.Z.Z.Z.Z.Z.Z.l+t+j+j+r+c+,+4+[+6+'+U.h.9+<.! + .                                                                                                                                                               ",
"                                                                                                                                                                  . . . . F H.j.v.7+&+d+~+g+f+,+Z.Z.,+Z.Z.Z.,+l+t+j+j+j+c+,+,+!+`.>+;+u+e+j.q + .                                                                                                                                                               ",
"                                                                                                                                                                    . . . F H.<.e+7+s+d+2+g+l+Z.Z.Z.Z.,+,+Z.,+l+t+t+j+j+q+,+,+_+(+w.v+@+<.H.q .                                                                                                                                                                 ",
"                                                                                                                                                                    . . . F q <.e+7+n+~+2+i+4+Z.Z.Z.Z.Z.,+,+Z.l+t+t+t+j+i+4+4+:+R.v+h+=+j.! F .                                                                                                                                                                 ",
"                                                                                                                                                                    . . . q H.j.e+7+o+~+g+l+,+,+,+,+Z.Z.Z.Z.,+l+t+t+t+j+8+4+[+M.0.)+w+<.! q F . .                                                                                                                                                               ",
"                                                                                                                                                                      . . F H.<.a.x+;+~+8+4+,+,+4+c+Z.Z.Z.Z.Z.l+t+t+t+j+m+4+>+h.u+9+v.j.$ F F . .                                                                                                                                                               ",
"                                                                                                                                                                      . . q q <.e+^+M.2+f+Z.,+c+l+c+,+Z.Z.Z.Z.c+q+p+p+r+j+6+y+s+0+v.j.$ F . .                                                                                                                                                                   ",
"                                                                                                                                                                      . . + q <.v.9+U.2+6+,+,+l+q+l+,+,+,+,+,+4+l+l+l+k+b+a+z+A+=+<.H.q F . . .                                                                                                                                                                 ",
"                                                                                                                                                                        . q ! <.v.9+d+~+4+,+c+p+p+l+,+,+,+,+,+,+4+c+c+c+8+a+B+7+e+j.H.q . . .                                                                                                                                                                   ",
"                                                                                                                                                                        . F q H.<.^+U.$+!+,+c+j+t+c+,+,+,+,+,+,+,+,+,+4+a+{+C+e+<.j.+ F . .                                                                                                                                                                     ",
"                                                                                                                                                                          . F H.j.7+;+X.!+,+c+g+j+l+,+,+,+,+,+,+,+,+,+,+6+{+C+v.<.H.F . . .                                                                                                                                                                     ",
"                                                                                                                                                                          . F + @ v.z+d+(+,+c+b+2+i+4+,+,+,+,+,+,+,+,+,+!+{+s+<.j.q q . . .                                                                                                                                                                     ",
"                                                                                                                                                                            F F ! <.h+5+>+!+4+|+2+b+c+,+,+,+,+,+,+,+,+,+++c.&+j.H.q F F .                                                                                                                                                                       ",
"                                                                                                                                                                            . F q j.9+]+y+>+!+}+d+~+[+,+,+,+,+,+,+,+++q.m.D+9+H.! + F                                                                                                                                                                           ",
"                                                                                                                                                                              . F $ <.A+)+D+(.n.V.V.X.'+++!+++++q.4.(.D+E+F+v.q + F                                                                                                                                                                             "};
