/* XPM */
static char * 4_xpm[] = {
"200 180 256 2",
"  	c #000000",
". 	c #0A0400",
"+ 	c #230B00",
"@ 	c #140800",
"# 	c #320E00",
"$ 	c #2B0C00",
"% 	c #110500",
"& 	c #3C1200",
"* 	c #4B1500",
"= 	c #441300",
"- 	c #621C00",
"; 	c #742201",
"> 	c #190700",
", 	c #7C2301",
"' 	c #380F00",
") 	c #1C0A00",
"! 	c #6B1E00",
"~ 	c #8D2A02",
"{ 	c #5C1B01",
"] 	c #9B2C01",
"^ 	c #942A01",
"/ 	c #A32E01",
"( 	c #AB3A0A",
"_ 	c #B94313",
": 	c #983604",
"< 	c #C74917",
"[ 	c #521700",
"} 	c #A53304",
"| 	c #541A01",
"1 	c #B53C0A",
"2 	c #AB3203",
"3 	c #A92F01",
"4 	c #8B2701",
"5 	c #AB3907",
"6 	c #711F01",
"7 	c #842501",
"8 	c #BB3602",
"9 	c #B33402",
"0 	c #C43903",
"a 	c #DC511C",
"b 	c #DB501A",
"c 	c #C84509",
"d 	c #E95920",
"e 	c #D54D16",
"f 	c #BB3B05",
"g 	c #C23702",
"h 	c #CB3B03",
"i 	c #D33D03",
"j 	c #DE3E01",
"k 	c #EB4504",
"l 	c #E64B09",
"m 	c #F05513",
"n 	c #E54404",
"o 	c #F74B05",
"p 	c #FE641A",
"q 	c #FF6E21",
"r 	c #FE5B09",
"s 	c #FF7323",
"t 	c #FB5405",
"u 	c #F44C06",
"v 	c #F55304",
"w 	c #FF842A",
"x 	c #F25409",
"y 	c #FC5409",
"z 	c #ED4905",
"A 	c #FF731C",
"B 	c #FF7D24",
"C 	c #FF6A16",
"D 	c #FF6414",
"E 	c #FE5B05",
"F 	c #FF6409",
"G 	c #FF6A1A",
"H 	c #FF6403",
"I 	c #DC4204",
"J 	c #FF7512",
"K 	c #FF8424",
"L 	c #FF8A2D",
"M 	c #FF7E1A",
"N 	c #D74808",
"O 	c #FF6B0A",
"P 	c #FF7A15",
"Q 	c #FF9431",
"R 	c #FF831C",
"S 	c #FF740C",
"T 	c #FF8C25",
"U 	c #341200",
"V 	c #FF9A31",
"W 	c #FF9224",
"X 	c #FF932C",
"Y 	c #6C2202",
"Z 	c #8A3303",
"` 	c #FFA433",
" .	c #4B1B01",
"..	c #FF8C30",
"+.	c #FFAD3C",
"@.	c #FFB642",
"#.	c #F25E09",
"$.	c #FF9D2D",
"%.	c #0F0800",
"&.	c #E75B08",
"*.	c #FF7B0B",
"=.	c #FE8B1C",
"-.	c #F4650A",
";.	c #2C1300",
">.	c #FF8B12",
",.	c #FFB13C",
"'.	c #FF8411",
").	c #1F1000",
"!.	c #E86308",
"~.	c #F77413",
"{.	c #441B00",
"].	c #D55806",
"^.	c #FF9413",
"/.	c #D76405",
"(.	c #642304",
"_.	c #832B04",
":.	c #FF840B",
"<.	c #FFAA35",
"[.	c #532301",
"}.	c #2E1801",
"|.	c #5C2303",
"1.	c #FEB32B",
"2.	c #FEA826",
"3.	c #FFCA44",
"4.	c #FFB534",
"5.	c #FFC640",
"6.	c #782B06",
"7.	c #3D1C00",
"8.	c #6B2B01",
"9.	c #B84707",
"0.	c #FFBB34",
"a.	c #FF9C12",
"b.	c #FFC13D",
"c.	c #FFB839",
"d.	c #E56D14",
"e.	c #FFBB2B",
"f.	c #C65504",
"g.	c #FEA71C",
"h.	c #FFCB3C",
"i.	c #FFC533",
"j.	c #FFB323",
"k.	c #FC991B",
"l.	c #FFAB14",
"m.	c #FFA412",
"n.	c #FF8C0B",
"o.	c #FFD943",
"p.	c #FFBD24",
"q.	c #FF930B",
"r.	c #FFCA33",
"s.	c #FFB618",
"t.	c #FFA40C",
"u.	c #FFD639",
"v.	c #FEC329",
"w.	c #241100",
"x.	c #863303",
"y.	c #FFC325",
"z.	c #FFAC0B",
"A.	c #4B2401",
"B.	c #FFD72C",
"C.	c #FFE641",
"D.	c #FF9D04",
"E.	c #C96605",
"F.	c #351A00",
"G.	c #FFCA2B",
"H.	c #542C02",
"I.	c #D7841B",
"J.	c #FFCB24",
"K.	c #FFBB13",
"L.	c #FFB40A",
"M.	c #FFAC03",
"N.	c #E68915",
"O.	c #B77017",
"P.	c #FFC316",
"Q.	c #E89A23",
"R.	c #A8510B",
"S.	c #FFDD33",
"T.	c #FFE53B",
"U.	c #F19E24",
"V.	c #984603",
"W.	c #773902",
"X.	c #9B5D10",
"Y.	c #FFE334",
"Z.	c #FFD323",
"`.	c #743301",
" +	c #F97705",
".+	c #FFBC0A",
"++	c #FFCA1B",
"@+	c #B85904",
"#+	c #FFF342",
"$+	c #FFF33A",
"%+	c #FFEB36",
"&+	c #FFE42B",
"*+	c #FFB303",
"=+	c #FFC409",
"-+	c #D77705",
";+	c #FF9C0B",
">+	c #FFEA2C",
",+	c #FFFE41",
"'+	c #FFC304",
")+	c #FFCD13",
"!+	c #FFDC24",
"~+	c #FFD213",
"{+	c #F48602",
"]+	c #FB9403",
"^+	c #FFCB0A",
"/+	c #FFDB1B",
"(+	c #FFD51A",
"_+	c #5C2B00",
":+	c #452301",
"<+	c #FFFF3C",
"[+	c #FFF633",
"}+	c #FFE424",
"|+	c #FFDB13",
"1+	c #FFFE33",
"2+	c #FFD40B",
"3+	c #EB7903",
"4+	c #FFF32E",
"5+	c #FFCC02",
"6+	c #FFEB23",
"7+	c #FFE41C",
"8+	c #FFF423",
"9+	c #FFD403",
"0+	c #5C3204",
"a+	c #894704",
"b+	c #FFFD2C",
"c+	c #FFEC3A",
"d+	c #FEA102",
"e+	c #FFFC25",
"f+	c #FFF21B",
"g+	c #FFDB0A",
"h+	c #FFDC04",
"i+	c #7B4507",
"j+	c #4D2A03",
"k+	c #FFE414",
"l+	c #FFEC18",
"m+	c #FFE30B",
"n+	c #3D2001",
"o+	c #ECA713",
"p+	c #FFE403",
"q+	c #E79915",
"r+	c #FFF414",
"s+	c #D98705",
"t+	c #FFEB0D",
"u+	c #FFF914",
"v+	c #FFBB03",
"w+	c #FFFC1C",
"x+	c #9C5508",
"y+	c #B86607",
"z+	c #FFF10A",
"A+	c #673603",
"B+	c #AC6306",
"C+	c #EA8504",
"D+	c #FFEC02",
"E+	c #CE7614",
"F+	c #543207",
"G+	c #FFFFFF",
"                                                                                                                                                                                                                                                                                                                                                                                                                ",
"                                                                                                                                                                                                                                                                                                                                                                                                                ",
"                                                                                                                                                                                                                                                                                                                                                                                                                ",
"                                                                                                                                                                                                                                                                                                                                                                                                                ",
"                                                                                                                                                                                                                                                                                                                                                                                                                ",
"                                                                                                                                                                                                                                                                                                                                                                                                                ",
"                                                                                                                                                                                                                                                                                                                                                                                                                ",
"                                                                                                                                                                                                                                                                                                                                                                                                                ",
"                                                                                                                                                                                                                                                                                                                                                                                                                ",
"                                                                                                                                                                                                                                                                                                                                                                                                                ",
"                                                                                                                                                                                                                                                                                                                                                                                                                ",
"                                                                                                                                                                                                                                                                                                                                                                                                                ",
"                                                                                                                                                                                                                                                                                                                                                                                                                ",
"                                                                                                                                                                                                                                                                                                                                                                                                                ",
"                                                                                                                                                                                                                                                                                                                                                                                                                ",
"                                                                                                                                                                                                                                                                                                                                                                                                                ",
"                                                                                                                                                                                                                                                                                                                                                                                                                ",
"                                                                                                                                                                                                                                                                                                                                                                                                                ",
"                                                                                                                                                                                                                                                                                                                                                                                                                ",
"                                                                                                                                                                                                                                                                                                                                                                                                                ",
"                                                                                                                                                                                                                                                                                                                                                                                                                ",
"                                                                                                                                                                                                                                                                                                                                                                                                                ",
"                                                                                                                                                                                                                                                                                                                                                                                                                ",
"                                                                                                                                                                                                                                                                                                                                                                                                                ",
"                                                                                                                                                                                                                                                                                                                                                                                                                ",
"                                                                                                                                                                                                                                                                                                                                                                                                                ",
"                                                                                                                                                                                                                                                                                                                                                                                                                ",
"                                                                                                                                                                                                                                                                                                                                                                                                                ",
"                                                                                                                                                                                                                                                                                                                                                                                                                ",
"                                                                                                                                                                                                                                                                                                                                                                                                                ",
"                                                                                                                                                                                                                                                                                                                                                                                                                ",
"                                                                                                                                                                                                                                                                                                                                                                                                                ",
"                                                                                                                                                                                                                                                                                                                                                                                                                ",
"                                                                                                                                                                                                                                                                                                                                                                                                                ",
"                                                                                                                                                                                                                                                                                                                                                                                                                ",
"                                                                                                                                                                                                                                                                                                                                                                                                                ",
"                                                                                                                                                                                                                                                                                                                                                                                                                ",
"                                                                                                                                                                                                                                                                                                                                                                                                                ",
"                                                                                                                                                                                                                                                                                                                                                                                                                ",
"                                                                                                                                                                                                                                                                                                                                                                                                                ",
"                                                                                                                                                                                                                                                                                                                                                                                                                ",
"                                                                                                                                                                                                                                                                                                                                                                                                                ",
"                                                                                                                                                                                                                                                                                                                                                                                                                ",
"                                                                                                                                                                                                                                                                                                                                                                                                                ",
"                                                                                                                                                                                                                                                                                                                                                                                                                ",
"                                                                                                                                                                                      .                                                                                                                                                                                                                         ",
"                                                                                                                                                                                . .   . .                                                                                                                                                                                                                       ",
"                                                                                                                                                                              . + @ .   . . .                                                                                                                                                                                                                   ",
"                                                                                                                                                                              . # $ % % % .                                                                                                                                                                                                                     ",
"                                                                                                                                                                          . . . & * % % % % . .                                                                                                                                                                                                                 ",
"                                                                                                                                                                          . . % = - $ % % % % .                                                                                                                                                                                                                 ",
"                                                                                                                                                                          . . % & ; = + > % % % . .                                                                                                                                                                                                             ",
"                                                                                                                                                                          . % > $ , - ' ) > > % . .                                                                                                                                                                                                             ",
"                                                                                                                                                                          . % % + ! , - & + > > % .                                                                                                                                                                                                             ",
"                                                                                                                                                                        . . % > ) ! ~ ; { ' + ) % . .                                                                                                                                                                                                           ",
"                                                                                                                                                                        . % % ) + - ] ^ , { ' > % % .                                                                                                                                                                                                           ",
"                                                                                                                                                                      . . % % ) + - ] ] / , - + > % .                                                                                                                                                                                                           ",
"                                                                                                                                                                      . . . > + + ! ( ( ( ] ; # > % . .                                                                                                                                                                                                         ",
"                                                                                                                                                                      . % % > + + , _ _ _ ( ~ = > % . . . .                                                                                                                                                                                                     ",
"                                                                                                                                                                      . % > > + = : < < < ( ^ [ > % .   . .                                                                                                                                                                                                     ",
"                                                                                                                                                                    . . > > + $ { ( < < < ( } | > % . .   .                                                                                                                                                                                                     ",
"                                                                                                                                                                      % > > + = , _ < < < ( ^ [ % % .                                                                                                                                                                                                           ",
"                                                                                                                                                                      % > > = - ] 1 _ 1 _ 2 ] & > % .                                                                                                                                                                                                           ",
"                                                                                                                                                                    . % > $ { , 3 ( 3 ( _ / 4 $ % . .                                                                                                                                                                                                           ",
"                                                                                                                                                                    . . % = , ^ / 3 / / 5 ] 6 ) % . .                                                                                                                                                                                                           ",
"                                                                                                                                                                    . % % = 4 / / / ^ 7 ^ 4 [ > . . .                                                                                                                                                                                                           ",
"                                                                                                                                                                    . . % # 7 ] / / 6 - 6 6 # % .                               . . . .                                                                                                                                                                         ",
"                                                                                                                                                                    . . % $ { 4 ^ ] [ = * * > . . .                       . . % % % % % % %                                                                                                                                                                     ",
"                                                                                                                                                                      . . > = , ^ ^ # > $ $ . . . .                     . . % % % > > > > . % .                                                                                                                                                                 ",
"                                                                                                                                                                      . . . + { ] ^ $ > > > . . . .                   . . . % > + ) ) ) ) > % % .                                                                                                                                                               ",
"                                                                                                                                                                        . . . ' 4 ^ $ > > % . . . .                   . % % > ) ' = # $ + > > % % .                                                                                                                                                             ",
"                                                                                                                                                                          . % + ! 4 $ > > . % % . .                   . % > > + { ! { * & $ + ) % % .                                                                                                                                                           ",
"                                                                                                                                                                        . . % % * 6 # % % % % . . .                 . % % > + # 7 4 , 6 - * + + ) % . .                                                                                                                                                         ",
"                                                                                                                                                                        . . . % $ [ # > > > % . .   .               . % > + # { ] 8 ( } ~ 6 = + ) > % .                                                                                                                                                         ",
"                                                                                                                                                                        . . . % > $ # $ ' + % . . .               . . . > # [ 6 9 0 < < 1 / { + + ) % % .                                                                                                                                                       ",
"                                                                                                                                                                      .   .   % % > & * [ & > . .       .           . % > [ 6 ] 9 < a a b c , # + + > % % .                                                                                                                                                     ",
"                                                                                                                                                                            . . % > [ 6 ; - + % .         .       . . % > 6 ^ / 9 < a d a b } # $ + ) > % .                                                                                                                                                     ",
"                                                                                                                                              . . . .   .             .     . . % ) 6 4 ^ - $   .           .   .   . . ) ; 7 4 3 c < b a b 1 [ & $ ) ) % . .                                                                                                                                                   ",
"                                                                                                                                              . . . . . .                   . . . # 4 ] ; [ + . .         . .   .   . % ) ! - ! 7 } < < e e < ; - = $ ) % % .                                                                                                                                                   ",
"                                                                                                                                          . . . . . . . . .                 . . . = ] 4 { # ) . .         . . . . . . % > * = * - 7 3 8 c e e ^ , ! * + % % .                                                                                                                                                   ",
"                                                                                                                                        . . . . % > % . . . .               . . . = , 6 ' % . . .     . . . . . . . % % > $ > $ & { , ] 9 < e 1 ] 7 6 # > % .                                                                                                                                                   ",
"                                                                                                                                        . . % % > ' > % % . .                   . ' [ = % . . . .   .   . . % % . > > % % % % % > # [ ! 4 ( < f 9 3 ~ = % . .                                                                                                                                                   ",
"                                                                                                                                      . . . . % $ - $ % . . . .                 . + # + . . .   . . . . . % . % > # $ . . % % . % > # * - 7 1 9 9 3 3 & % . .                                                                                                                                                   ",
"                                                                                                                                      . . . % % = 7 [ > . .   . .     .       .   % > . . . . . .   . % . > > > + [ & % % % % % % . > + ' [ ^ 9 2 3 4 ' % . .                                                                                                                                                   ",
"                                                                                                                                    .   . . . > ! / ; + . . .   .     .       . . .   . . . . . . . % . > ) > # [ , * > % % % % % % % > > $ ! 3 3 7 - + . %                                                                                                                                                     ",
"                                                                                                                                    .     . % @ 4 ^ 6 $ . .   . . . . . .   . . . . % % % . .   . % % > > ) # [ , / * > . % % . . % . % > % [ 3 ^ - ' > . . .                                                                                                                                                   ",
"                                                                                                                                          . . % ^ 4 { $ . . .       .   . . % % % . % . % % % % % . % % > # { , / ] = > % % % % % % . % % % = / 6 & > . .   .                                                                                                                                                   ",
"                                                                                                                                          . . % 7 ; ' > .           . . . . % % % > > > > > % % % > > ) + { 4 / 9 7 # > > % % . % % % % % % = , * % . .                                                                                                                                                         ",
"                                                                                                                                            . . { { @ . .       . . . . % % @ > ) ) + ) > $ $ > > > > + + 7 3 g 2 - $ + > > > % . % % % % % ' { $ . .                                                                                                                                                           ",
"                                                                                                                                              . ' ' . .         . . . . > ) + + + + $ + + * * > ) > ) + $ / g g ] * + + ) > > ) ) > % . % . # $ . .                                                                                                                                                             ",
"                                                                                                                                                > )           . . % % @ ) + $ # $ $ $ $ = , , $ ) + + + # 3 h i 7 ' $ $ + ) + = * & + % . . > % .                                                                                                                                                               ",
"                                                                                                                                                . %           . . % > + + # = [ [ = & = ! 3 / ' + + + $ # 3 i i 6 & # # $ + # 6 ! - * > . . .                                                                                                                                                                   ",
"                                                                                                                                                              . % % ) + ' { ; 4 7 ! { - ^ h g & $ + $ # ' 3 j j ; = & # # $ = , 6 7 ! % . .                                                                                                                                                                     ",
"                                                                                                                                                              . % > + $ [ 4 / 8 ( } ^ ] g i 3 = $ $ # ' & 8 k k 4 * * & # # * 7 6 4 6 % . .                                                                                                                                                                     ",
"                                                                                                                                                            . . % ) + ' 4 8 i l m a < g n 8 ^ = # # ' & [ h o o 9 - * { - = * { [ - ! % .                                                                                                                                                                       ",
"                                                                                                                                                            . % % ) $ { 8 k o p q q p o k ^ ! = & & = * , k k o j ^ ; ^ ] ; * = $ = = > . .                                                                                                                                                                     ",
"                                                                                                                                                            . . > + # , n o r s s s q t k ; [ * = = * [ 9 u v v u h 5 0 h 3 | # $ + + % .                                                                                                                                                                       ",
"                                                                                                                                                            . % > + ' 2 k u p w s q s r k ! [ [ [ [ [ 6 j o v v x y l z z j 7 # $ ) % % . .                                                                                                                                                                     ",
"                                                                                                                                                            . % > ) = j o y A B C D C r v ^ - { { { ! 9 t v t E F G D v v o 9 = # + ) % % . .                                                                                                                                                                   ",
"                                                                                                                                                            . % > + = k o t B s r E F F y g ; - - ! ^ n E E E H G w A t t t I = # $ ) > % . . . .                                                                                                                                                               ",
"                                                                                                                                                            . . > + ' i o y B s E E F D D k 3 ^ 4 ] h t E H H J K L A E E t u * ' $ + ) @ . % . .                                                                                                                                                               ",
"                                                                                                                                                            . . . ) $ ] z y s s r r H J M r l N N n t H H H O w L w C H E t o { & ' $ + ) ) % . % . . .                                                                                                                                                         ",
"                                                                                                                                                              . % ) $ ! i y J C r H H M K J p C p D F F F F P Q w R O H r r y ! = ' $ $ + + ) > > % . .   .                                                                                                                                                     ",
"                                                                                                                                                              . % > + = / y C C r H H O M K B w B B P O F O R Q R S F H E r r ; * & ' ' # $ $ + ) > % % .                                                                                                                                                       ",
"                                                                                                                                                              . . > + $ - o r r r r H O J K w T L Q w P O O K Q J F F H r r y 9 - = = & ' ' U $ + ) % . .                                                                                                                                                       ",
"                                                                                                                                                              . . . ) $ & n y r r r r H F J M P K Q V T S O K W O F H H r r r i ~ * = * = = * [ # + ) % .                                                                                                                                                       ",
"                                                                                                                                                                . % > + # g y y r r r r r F S C P T V X J O M R F F F F r y v I 8 Y - { { { 7 ~ { $ ) ) % .                                                                                                                                                     ",
"                                                                                                                                                              . . % > ) + ~ z y y r r r z t F O O J X V P S M M O F F r u j h h j 3 ^ Z ^ ] 0 h ~ U + % % .                                                                                                                                                     ",
"                                                                                                                                                                . % > ) + { 9 j k u o u f I F O O S R V R S S S F H F u f / ^ ] i I h h c e o o h * + ) % .                                                                                                                                                     ",
"                                                                                                                                                              . . % ) ) + ' ; ^ / 9 8 9 ; ] r F O O P X T P S O O F x 8 , { | { / y y y p s D r u { + ) % . .                                                                                                                                                   ",
"                                                                                                                                                              . . % @ & $ + & { ! ; 7 , * Y x F O S S w V K S O F F n , = ' ' ' ! t r D B L G r y { + ) % . .                                                                                                                                                   ",
"                                                                                                                                                              . . % ) | = + + # ' = = = & * i O O S S T ` X R S O r 9  .' U U U * x r C L ..C r I | + > % . . .                                                                                                                                                 ",
"                                                                                                                                                            . . % % ) { 4 # + + + + + # ' = ] F O S S T +.` T J O x ! & # $ $ $ U l r D L B D y ] ' ) > . % . . . .                                                                                                                                             ",
"                                                                                                                                                            . . % ) + ! f { + + + + + $ U = Y F S S S X @.+.X O O N [ U $ + $ + + N r C s q r n - + ) > % % % . . . . .                                                                                                                                         ",
"                                                                                                                                                            . . % ) + | z : # + + + + $ U = | #.S S S $.@.+.X S F } = ' $ + ) ) + 5 z r G r y 2 U ) ) % % . % % % % % % .                                                                                                                                       ",
"                                                                                                                                                            . % ) ) $ ' y I { $ + + + $ ' = [ #.S S S X @.+.M S F ; = ' + ) ) ) ) ; } i y y h - ) ) % @ % %.> > @ %.% % . .                                                                                                                                     ",
"                                                                                                                                                          . . %.> + # = #.y 7 $ + + + $ # = | &.S S *.=.+.+.R S -.{ = $ + ) % % % & ! ~ c I 4 ;.) @ . @ > ) > ) > ) > % . . .                                                                                                                                   ",
"                                                                                                                                                          . % @ ) $ # { r r } # + + + $ # =  .&.S *.*.>.` ,.'.S &.{ = U + @ % % % ) $ [ ~ ]  .> % % % % > ) ).+ + ) ) % %.. .                                                                                                                                   ",
"                                                                                                                                                      .   . . @ + $ ' 7 F F ( # $ $ $ # &  .{ !.P P *.'.W ,.=.~.N { = ' + @ % % . . % % {.[ > . . % % @ ) ) & Y | # ) ) % % .                                                                                                                                   ",
"                                                                                                                                                        . % @ > + ;.& f F F ( ' # # $ # = * { #.=.>.'.>.=.,.W P ].{ {.U + % % . . . . . % % . . . . % . > $ ; 5 : Y ' ) % % .                                                                                                                                   ",
"                                                                                                                                                        . . %.> + U  .l O F Z = U U U U {.| Y -.W W '.'.^.,.V './.(. .' $ ) % % . . . . . . . . . . . % ) { 5 l < } ; + @ % .                                                                                                                                   ",
"                                                                                                                                                          . % ) $ U _.r O r Y {.= & & =  .{ _.*.$.$.>.:.>.,.,.=.-.(. .& $ ) % . .               . . . % + , 1 p y l : + % % .                                                                                                                                   ",
"                                                                                                                                                          . @ + $ U f O S #.{  . .{.{. .| (.5 *.` ` >.>.>.<.@.$.J ^ [.= # + @ %..                 . . . + , } e r y } + %.% .                                                                                                                                   ",
"                                                                                                                                                          % @ ) }.U l S S &.(.{ | | | |.(.; N '.` 1.>.>.>.2.3.,.=.N (. .' $ @ % .                   . . ) - - _.N x _.) . .                                                                                                                                     ",
"                                                                                                                                                        . . % + ;.& #.S S -._.(.(.(.(.(.; Z F >.4.,.^.>.^.2.5.@.$.O 6. .& $ ) %.. .                   . ) ' + 7.Z 0  .% . .                                                                                                                                     ",
"                                                                                                                                                        . . @ ) }.& !.S S S c _.8.Y 6.6.6.9.P >.0.5.a.^.^.a.b.3.+.=.1 | {.;.+ > % .                     . . . %  ._.) . . .                                                                                                                                     ",
"                                                                                                                                                        . . @ + ;.' &.S *.*.F N ( : Z Z ( #.>.^.b.b.a.^.^.a.c.3.c.<.d.(. .' + ) % .                       . . . > U . .   .                                                                                                                                     ",
"                                                                                                                                                          % % ) $ U ].S *.:.S F x l N e x *.^.a.5.b.a.^.^.a.e.3.c.,.B :  .7.$ ) @ . .                         . . .                                                                                                                                             ",
"                                                                                                                                                          . @ ) $ ' f.S *.:.:.S O F O O S >.^.g.h.i.a.a.a.a.j.3.1.0.$.f.|.{.U + > . .                                                                                                                                                                           ",
"                                                                                                                                                          . . ) + ;.9.S *.:.:.>.:.>.=.k.k.a.l.e.h.j.m.a.a.a.j.3.2.1.4.~._. .U + ) . . .                                                                                                                                                                         ",
"                                                                                                                                                            . @ ) ;.: S *.:.:.n.^.g.1.e.e.m.j.h.i.l.m.a.a.a.1.o.p.g.4.W 9.| & }.) > . . .                                                                                                                                                                       ",
"                                                                                                                                                            . @ ) $ 6.F *.:.:.q.g.0.r.r.i.s.i.h.j.t.m.m.m.m.j.o.e.a.1.<.!.|.& ;.).> % . . . .                                                                                                                                                                   ",
"                                                                                                                                                              . % + {.c O *.:.q.1.b.r.e.r.i.u.r.l.m.m.t.m.t.v.o.i.m.g.c.K 6.{.' w.) > @ . . . . .                                                                                                                                                               ",
"                                                                                                                                                            . . @ ) $ x.N F S ^.i.3.e.j.y.o.o.p.t.l.m.t.z.t.v.o.r.a.l.0.2.:  .& ;.w.) > @ @ . . . .                                                                                                                                                             ",
"                                                                                                                                                            . . . ) + {.: c -.k.5.h.l.m.j.u.u.s.z.z.t.z.z.l.y.o.h.t.a.e.4._ A.{.' $ + ).) > @ . . .                                                                                                                                                             ",
"                                                                                                                                                            . . . @ ) $ [.x.c k.3.i.l.m.s.u.B.l.z.z.z.z.z.z.v.C.r.t.D.2.i.E.[.{.F.}.$ w.).) > % %.. .                                                                                                                                                           ",
"                                                                                                                                                          .   . . % > + U  .x.L 3.c.m.t.z.u.G.s.l.z.z.z.z.l.G.C.G.z.t.g.i.d.H. .{.& F.}.w.+ ).) @ . .                                                                                                                                                           ",
"                                                                                                                                                                  . @ ).;.{.[.I.3.1.t.t.z.J.y.K.K.L.z.M.z.z.J.C.y.z.t.l.r.N.(.|. .{.7.& & ;.& ).> @ %..                                                                                                                                                         ",
"                                                                                                                                                    .             . @ ) $ F.| O.3.j.t.t.z.y.p.P.J.L.L.L.L.L.J.C.s.z.t.m.G.Q.(.|.[.|.|. .7. .6.w.) %.. .                                                                                                                                                         ",
"                                                                                                                                                                  . % ) w.&  .R.3.s.t.z.z.K.K.K.S.K.L.L.L.L.G.T.K.z.t.l.i.U.8.(.(.V.: x.8.x.9.}.).@ . . . . .                                                                                                                                                   ",
"                                                                                                                                                  .             . . @ ) w.F. .R.h.j.t.M.L.L.L.K.S.J.P.K.L.L.B.S.L.L.z.t.y.Q.W.(.Z !.!.].9.].!.F.) > . .                                                                                                                                                         ",
"                                                                                                                                                                  . %.> w.F. .X.i.l.t.z.L.L.L.K.S.Y.Z.J.P.K.S.S.L.L.z.z.v.Q.W.`.9.*. +O H O !.}.).% %.                                                                                                                                                          ",
"                                                                                                                                                  .               . %.) w.F. .R.s.t.z.z.L..+L..+B.T.Y.S.Z.++Y.S.L.L.z.z.p.Q.`.`.E.q.q.:.:. +f.;.) @ . .                                                                                                                                                         ",
"                                                                                                                                                                . . %.> w.F. .@+l.m.z.L..+.+.+.+++Y.#+$+%+S.$+&+K..+*+L.y.Q.x.`.!.q.q.:.:. +x.).) @ .                                                                                                                                                           ",
"                                                                                                                                                  .               . % ) $ F.{.E.t.t.M.L..+.+.+.+=+Z.Y.#+#+#+#+Y..+.+L.K.B.Q.Z W.!.q.q.q. +/.|.+ > %..                                                                                                                                                           ",
"                                                                                                                                                                . . % @ w.F.{.-+;+t.L.L..+.+.+.+=+++&+>+#+,+,+%+.+.+L.++S.g.: x.f.n.q. +].: }.).@ .                                                                                                                                                             ",
"                                                                                                                                                  .               . %.@ w.F.{.-+;+t.z.L..+'+=+=+=+=+)+!+>+#+,+#+P.=+.+B.S.s.].V.V.n.q./.: [.w.) @ .                                                                                                                                                             ",
"                                                                                                                                                              .   . %.@ ).}.{.-+D.t.z.L.=+=+=+=+=+=+=+~+!+$+,+#+~+=+=+&+++L. +].f.{+n.@+A.F.w.% @ .                                                                                                                                                             ",
"                                                                                                                                                                  . . @ ).}.7.-+D.z.z.L.'+=+=+=+=+=+=+=+)+&+,+,+!+=+=+&+)+.+D. + +]+ +W.{.}.+ > %..                                                                                                                                                             ",
"                                                                                                                                                                  . . @ ).w.F.-+a.t.z.L..+=+=+=+^+=+=+=+^+/+$+,+&+^+=+(+=+.+L.q.:.t./._+:+F.).> %..                                                                                                                                                             ",
"                                                                                                                                                        .     .   . . @ ) w.}.E.;+t.M.L..+=+=+^+~+~+^+^+^+~+>+<+[+^+^+^+=+=+.+L.z.z.@+_+:+F.w.) %..                                                                                                                                                             ",
"                                                                                                                                                    .               . %.@ + ;.R.q.t.z.L.L.=+)+/+}+}+|+^+^+^+/+<+[+^+^+^+=+=+=+.+L.L.E._+A.F.w.) @ .                                                                                                                                                             ",
"                                                                                                                                                    .               . . %.).w.W. +D.z.L.L.=+/+>+1+[+}+^+^+^+/+<+[+2+^+^+^+^+=+=+.+*+3+`.[.7.;.) @ .                                                                                                                                                             ",
"                                                                                                                                                          .         . . @ @ w.H./. +D.L.L.(+>+<+<+<+4+|+2+2+>+<+4+2+5+5+^+^+^+=+.+.+]+V._+{.}.w.> %..                                                                                                                                                           ",
"                                                                                                                                                                      . . @ + }.W./.]+z.L.&+$+,+,+,+<+6+7+}+1+,+8+2+2+5+9+5+^+^+=+.+*+E.0+A.F.$ ).%..                                                                                                                                                           ",
"                                                                                                                                                      .     .         . . % ) w.{.a+3+M..+>+,+,+,+,+<+1+b+b+<+,+7+2+2+2+2+2+2+5+=+'+.+{+W.H.:+}.).) . .                                                                                                                                                         ",
"                                                                                                                                                        .         .   . . . > ).}.[.@+D.P.c+,+<+<+1+<+1+1+<+,+,+7+2+2+2+2+2+|+|+2+=+'+d+@+_+:+}.w.) %..                                                                                                                                                         ",
"                                                                                                                                                                        . . %.) w.F.W. +++$+$+4+6+8+8+e+b+1+<+<+f+g+h+2+2+2+7+6+/+2+=+L.3+i+A.7.w.).@ .                                                                                                                                                         ",
"                                                                                                                                                          .         .     . %.) w.}.j+f.J.%+>+7+7+k+k+k+l+8+b+1+e+k+k+g+9+9+l+8+8+7+~+'+D.@+H.:+}.).@ . .                                                                                                                                                       ",
"                                                                                                                                                                      . . . . @ w.}.:+a+p.&+/+g+2+9+2+g+g+k+f+b+1+8+8+k+h+h+m+8+1+b+7+^+*+3+i+:+F.w.> %..                                                                                                                                                       ",
"                                                                                                                                                                        . . . @ ).;.n+H.o+)+^+5+9+9+9+h+h+h+m+l+1+<+1+f+p+h+h+k+1+<+b+~+'+d+E.H.7.w.) %..                                                                                                                                                       ",
"                                                                                                                                                                        . . %.@ ).}.:+j+q+=+'+9+9+h+p+h+h+m+m+r+1+<+<+b+m+h+h+m+e+,+<+7+'+*+3+W.F.w.).%..                                                                                                                                                       ",
"                                                                                                                                                                          . . @ ).$ 7.:+s+'+5+5+9+h+h+m+t+r+u+e+<+,+,+1+m+h+h+h+8+,+<+}+5+v+D.a+n+w.).%..                                                                                                                                                       ",
"                                                                                                                                                                          . . %.) w.7.:+s+5+5+9+9+h+m+u+w+e+b+1+<+,+<+1+t+p+h+h+8+<+1+7+5+v+M.x+7.w.) %..                                                                                                                                                       ",
"                                                                                                                                                                            . %.@ w.n+:+s+'+5+9+h+t+u+b+1+1+1+,+,+,+,+1+r+p+p+t+b+<+8+|+^+v+M.x+F.w.> %..                                                                                                                                                       ",
"                                                                                                                                                                            . %.) ;.n+j+s+'+5+9+m+w+b+1+,+,+,+,+,+<+<+1+u+m+r+e+1+<+7+|+/+)+M.a+}.w.) %..                                                                                                                                                       ",
"                                                                                                                                                                            . %.) ;.n+j+y+9+9+9+r+b+<+,+,+,+<+<+1+b+b+b+u+z+w+b+1+<+6+7+&+Z.D.A+}.).%.. .                                                                                                                                                       ",
"                                                                                                                                                                            . %.).}.n+H.B+5+9+m+e+<+,+<+,+,+<+1+e+w+w+e+u+z+u+e+1+<+4+4+c+B.C+j+w.) %..                                                                                                                                                         ",
"                                                                                                                                                                            . @ ) }.n+H.B+9+h+l+1+,+,+,+<+<+1+e+r+z+D+z+z+t+r+k+f+<+<+$+Y.j.x+}.).%.. .                                                                                                                                                         ",
"                                                                                                                                                                            . %.).}.:+A+-+5+k+e+<+,+,+,+,+,+e+u+D+D+D+D+D+p+p+h+g+1+<+%+j.E+0+$ ).@ . .                                                                                                                                                         ",
"                                                                                                                                                                            . @ ).}.n+x+]+2+e+1+<+,+,+,+,+<+w+z+D+D+D+D+p+h+h+9+9+>+c+y.N.a+}.).@ . .                                                                                                                                                           ",
"                                                                                                                                                                            . %.) ;.7.-+*+|+1+<+,+,+,+,+,+<+u+D+D+D+D+p+p+h+9+9+5+&+y.E+i+n+).> %..                                                                                                                                                             ",
"                                                                                                                                                                            . %.) w.F.s+v+7+<+<+<+<+<+<+<+<+u+D+D+D+p+p+h+9+9+'+5+J.q+a+n+w.> @ .                                                                                                                                                               ",
"                                                                                                                                                                            . %.) w.n+-+v+7+<+<+<+<+<+<+<+<+w+D+D+p+p+h+9+9+5+'+.+k.x+:+w.).@ . .                                                                                                                                                               ",
"                                                                                                                                                                              @ > ).}.x+M.6+<+<+<+<+<+<+<+<+e+D+p+p+h+9+9+5+'+M.{+B+j+w.).@ . .                                                                                                                                                                 ",
"                                                                                                                                                                              . @ ) }.A+C+7+<+<+<+<+<+<+<+<+1+D+p+h+9+5+5+v+D.{+y+F+w.) %.%..                                                                                                                                                                   ",
"                                                                                                                                                                              . %.) w.n+B+++<+<+<+<+<+<+<+<+1+t+9+9+5+'+v+d+-+B+i+w.) @ %..                                                                                                                                                                     ",
"                                                                                                                                                                              . . @ w.w.i+q+c+<+<+<+<+<+<+<+<+m+9+5+'+M.]+-+x+A+}.) @ %..                                                                                                                                                                       ",
"                                                                                                                                                                                . %.) ).n+y+v.$+<+<+<+<+<+<+<+|+5+'+M.C+E.a+j+w.) @ %..                                                                                                                                                                         ",
"                                                                                                                                                                                . . %.) ).F+I.e.Y.$+<+<+<+<+1+~+*+]+-+x+A+n+).> @ %.                                                                                                                                                                            "};
