/* XPM */
static char * 6_xpm[] = {
"200 180 256 2",
"  	c #000000",
". 	c #110500",
"+ 	c #1B0A00",
"@ 	c #0A0400",
"# 	c #310E00",
"$ 	c #341200",
"% 	c #431400",
"& 	c #541A01",
"* 	c #6C2302",
"= 	c #230B00",
"- 	c #5B1B01",
"; 	c #3B1200",
"> 	c #140800",
", 	c #180700",
"' 	c #4B1600",
") 	c #641D01",
"! 	c #511700",
"~ 	c #711F01",
"{ 	c #6B1E00",
"] 	c #2B0C00",
"^ 	c #642203",
"/ 	c #732302",
"( 	c #9B360A",
"_ 	c #873306",
": 	c #A73D10",
"< 	c #963506",
"[ 	c #B74618",
"} 	c #A73A0B",
"| 	c #832501",
"1 	c #8D2A02",
"2 	c #992C01",
"3 	c #932C02",
"4 	c #7A2B07",
"5 	c #882B05",
"6 	c #7B2401",
"7 	c #C33702",
"8 	c #D33E04",
"9 	c #E13F01",
"0 	c #DC3D01",
"a 	c #AA3203",
"b 	c #BA3502",
"c 	c #CB3C04",
"d 	c #F44B05",
"e 	c #EA4504",
"f 	c #F64D06",
"g 	c #FD5409",
"h 	c #A63404",
"i 	c #FD5D14",
"j 	c #DC4305",
"k 	c #C33A04",
"l 	c #D84707",
"m 	c #E75616",
"n 	c #FF6513",
"o 	c #FD651A",
"p 	c #FE6D21",
"q 	c #F4530A",
"r 	c #FF7523",
"s 	c #FF852B",
"t 	c #FE8A2E",
"u 	c #FE7C24",
"v 	c #EE631F",
"w 	c #FF8422",
"x 	c #FB7524",
"y 	c #FF6A1C",
"z 	c #E74B07",
"A 	c #FF630A",
"B 	c #FF5C09",
"C 	c #E34203",
"D 	c #B63603",
"E 	c #A32E01",
"F 	c #B43C08",
"G 	c #FF7219",
"H 	c #F75912",
"I 	c #E85408",
"J 	c #FF6C0B",
"K 	c #FF9432",
"L 	c #C95018",
"M 	c #4C1B01",
"N 	c #C84607",
"O 	c #FF7A15",
"P 	c #FF7512",
"Q 	c #FF730C",
"R 	c #FF7E1A",
"S 	c #FF9A33",
"T 	c #F66820",
"U 	c #FF831D",
"V 	c #FF8B24",
"W 	c #FFA436",
"X 	c #D5540D",
"Y 	c #FF992D",
"Z 	c #FF922B",
"` 	c #FFAB3A",
" .	c #BC3B04",
"..	c #FF8311",
"+.	c #FF7D0B",
"@.	c #FF9024",
"#.	c #F6661A",
"$.	c #842A03",
"%.	c #FF8C1B",
"&.	c #FE820B",
"*.	c #F65809",
"=.	c #B94805",
"-.	c #FF931A",
";.	c #732C02",
">.	c #FFB341",
",.	c #FF9A23",
"'.	c #FF8C12",
").	c #C74812",
"!.	c #2C1400",
"~.	c #FFB939",
"{.	c #FEAD2A",
"].	c #FEAA25",
"^.	c #FFC743",
"/.	c #431C01",
"(.	c #E96F22",
"_.	c #FFA321",
":.	c #FFC639",
"<.	c #FDB22B",
"[.	c #542301",
"}.	c #FF9412",
"|.	c #F89B1C",
"1.	c #FFA41D",
"2.	c #FFBC33",
"3.	c #FF940B",
"4.	c #FF9B12",
"5.	c #FF8A0C",
"6.	c #241100",
"7.	c #FEB423",
"8.	c #0E0800",
"9.	c #FEA413",
"0.	c #FFD33D",
"a.	c #FF9B0B",
"b.	c #FFBC2B",
"c.	c #FFD742",
"d.	c #682902",
"e.	c #F46907",
"f.	c #FFAC0B",
"g.	c #FFAB14",
"h.	c #FFCC34",
"i.	c #4B2301",
"j.	c #FFA40B",
"k.	c #FFB31B",
"l.	c #FFBC22",
"m.	c #FFC329",
"n.	c #FFD943",
"o.	c #E48A14",
"p.	c #3B1B00",
"q.	c #FAB514",
"r.	c #FFD334",
"s.	c #F58907",
"t.	c #592402",
"u.	c #1F1000",
"v.	c #341A00",
"w.	c #FFE342",
"x.	c #FFCC2C",
"y.	c #FFE43B",
"z.	c #FFEA44",
"A.	c #FFD22D",
"B.	c #5B2900",
"C.	c #FFBA1A",
"D.	c #FFC31C",
"E.	c #FFC423",
"F.	c #FFB40A",
"G.	c #FFDA34",
"H.	c #FFDE3A",
"I.	c #FFB403",
"J.	c #E46706",
"K.	c #FFCB23",
"L.	c #FFD422",
"M.	c #532B02",
"N.	c #D86505",
"O.	c #FFBD13",
"P.	c #FFBC09",
"Q.	c #FFC215",
"R.	c #763802",
"S.	c #9C4203",
"T.	c #FFEC3B",
"U.	c #A74A02",
"V.	c #432301",
"W.	c #FFF542",
"X.	c #683503",
"Y.	c #E57705",
"Z.	c #F37508",
"`.	c #FFC403",
" +	c #FFDC23",
".+	c #FFBA03",
"++	c #FFFF42",
"@+	c #FFC40A",
"#+	c #FFCB0B",
"$+	c #8A4702",
"%+	c #FFCB17",
"&+	c #FFF43A",
"*+	c #B85B07",
"=+	c #FBAB1B",
"-+	c #FFD21A",
";+	c #FFFE3C",
">+	c #FFE433",
",+	c #FFF434",
"'+	c #FFDC1C",
")+	c #FFE522",
"!+	c #FFE825",
"~+	c #FFEB2A",
"{+	c #FFD413",
"]+	c #FFF22C",
"^+	c #A74E09",
"/+	c #FFE21C",
"(+	c #FFFE34",
"_+	c #FFD50A",
":+	c #3D2101",
"<+	c #C66C05",
"[+	c #FFDB15",
"}+	c #FA9602",
"|+	c #FFDB0B",
"1+	c #FFFD2C",
"2+	c #EB980A",
"3+	c #FFE313",
"4+	c #FFD403",
"5+	c #FFCC02",
"6+	c #D8890C",
"7+	c #934C04",
"8+	c #FFF523",
"9+	c #D29012",
"0+	c #FFDB04",
"a+	c #FFFC25",
"b+	c #FFEC1B",
"c+	c #EA930E",
"d+	c #FFF41B",
"e+	c #FFEB13",
"f+	c #FAAB07",
"g+	c #5B3204",
"h+	c #FFE30B",
"i+	c #FFFB1C",
"j+	c #6C3B05",
"k+	c #FFE402",
"l+	c #FFEB0A",
"m+	c #DC7C14",
"n+	c #FFF614",
"o+	c #B76305",
"p+	c #492803",
"q+	c #F8A827",
"r+	c #FFF40C",
"s+	c #FFEA30",
"t+	c #BA7117",
"u+	c #95590C",
"v+	c #FFEC01",
"w+	c #FFF106",
"x+	c #ECB015",
"y+	c #774408",
"z+	c #DDA21B",
"A+	c #A8610B",
"B+	c #D68919",
"C+	c #EE9923",
"D+	c #C77B16",
"E+	c #93580E",
"F+	c #AB6611",
"G+	c #FFFFFF",
"                                                                                                                                                                                                                                                                                                                                                                                                                ",
"                                                                                                                                                                                                                                                                                                                                                                                                                ",
"                                                                                                                                                                                                                                                                                                                                                                                                                ",
"                                                                                                                                                                                                                                                                                                                                                                                                                ",
"                                                                                                                                                                                                                                                                                                                                                                                                                ",
"                                                                                                                                                                                                                                                                                                                                                                                                                ",
"                                                                                                                                                                                                                                                                                                                                                                                                                ",
"                                                                                                                                                                                                                                                                                                                                                                                                                ",
"                                                                                                                                                                                                                                                                                                                                                                                                                ",
"                                                                                                                                                                                                                                                                                                                                                                                                                ",
"                                                                                                                                                                                                                                                                                                                                                                                                                ",
"                                                                                                                                                                                                                                                                                                                                                                                                                ",
"                                                                                                                                                                                                                                                                                                                                                                                                                ",
"                                                                                                                                                                                                                                                                                                                                                                                                                ",
"                                                                                                                                                                                                                                                                                                                                                                                                                ",
"                                                                                                                                                                                                                                                                                                                                                                                                                ",
"                                                                                                                                                                                                                                                                                                                                                                                                                ",
"                                                                                                                                                                                                                                                                                                                                                                                                                ",
"                                                                                                                                                                                                                                                                                                                                                                                                                ",
"                                                                                                                                                                                                                                                                                                                                                                                                                ",
"                                                                                                                                                                                                                                                                                                                                                                                                                ",
"                                                                                                                                                                                                                                                                                                                                                                                                                ",
"                                                                                                                                                                                                                                                                                                                                                                                                                ",
"                                                                                                                                                                                                                                                                                                                                                                                                                ",
"                                                                                                                                                                                                                                                                                                                                                                                                                ",
"                                                                                                                                                                                                                                                                                                                                                                                                                ",
"                                                                                                                                                                                                                                                                                                                                                                                                                ",
"                                                                                                                                                                                                                                                                                                                                                                                                                ",
"                                                                                                                                                                                                                                                                                                                                                                                                                ",
"                                                                                                                                                                                                                                                                                                                                                                                                                ",
"                                                                                                                                                                                                                                                                                                                                                                                                                ",
"                                                                                                                                                                                                                                                                                                                                                                                                                ",
"                                                                                                                                                                                                                                                                                                                                                                                                                ",
"                                                                                                                                                                                                                                                                                                                                                                                                                ",
"                                                                                                                                                                                . .                                                                                                                                                                                                                             ",
"                                                                                                                                                                                + + @                                                                                                                                                                                                                           ",
"                                                                                                                                                                                # $ @                                                                                                                                                                                                                           ",
"                                                                                                                                                                            @ @ % & . @                                                                                                                                                                                                                         ",
"                                                                                                                                                                            @ @ % * = @ @                                                                                                                                                                                                                       ",
"                                                                                                                                                                          @     $ * =     @                                                                                                                                                                                                                     ",
"                                                                                                                                                                                = - + @ @                                                                                                                                                                                                                       ",
"                                                                                                                                                                          @     . ; >   @                                                                                                                                                                                                                       ",
"                                                                                                                                                                                  = @                                                                                                                                                                                                                           ",
"                                                                                                                                                                                                                                                                                                                                                                                                                ",
"                                                                                                                                                                                                                                                                                                                                                                                                                ",
"                                                                                                                                                                                                                                                                                                                                                                                                                ",
"                                                                                                                                                                                                                                                                                                                                                                                                                ",
"                                                                                                                                                                                                                                                                                                                                                                                                                ",
"                                                                                                                                                                                                                                        @ @ @ @                                                                                                                                                                 ",
"                                                                                                                                                                                                                                      @ @ @ @   @                                                                                                                                                               ",
"                                                                                                                                                                                                                                      @ @ + , @ @ @                                                                                                                                                             ",
"                                                                                                                                                                                          @                                         @ @ @ # # , @ @                                                                                                                                                             ",
"                                                                                                                                                                                                                                    @   @ ' ' # @ @                                                                                                                                                             ",
"                                                                                                                                                                                        @     @                                     @ @   ) ) ! > @                                                                                                                                                             ",
"                                                                                                                                                                                      @ @ @ @   @                                   @ @ @ ) ~ - . @                                                                                                                                                             ",
"                                                                                                                                                                                      @ @ . . . @ @ @                             @   @ @ ) { - >                                                                                                                                                               ",
"                                                                                                                                                                                    @ @ . ] ] . . @ @ @                               @ @ ) ' ; .                                                                                                                                                               ",
"                                                                                                                                                                                  @ @ . . # ' = . . @ @                                   ' # + @ @ @                                                                                                                                                           ",
"                                                                                                                                                                                  @ . . . ! ^ % = . . @ @                               @ # ,                                                                                                                                                                   ",
"                                                                                                                                                                                  @ . , + / ( ^ # , . @ @                                 +                                                                                                                                                                     ",
"                                                                                                                                                                                  @ . + = _ : < ! , . @ @                                                                                                                                                                                                       ",
"                                                                                                                                                                                  . . + ; ( [ : ) + , . @                                                                                                                                                                                                       ",
"                                                                                                                                                                                  @ . = ) } [ [ | = , . @ @                                                                                                                                                                                                     ",
"                                                                                                                                                                            @ @ @ @ . # | ( [ [ 1 # , . @ @                                                                                                                                                                                                     ",
"                                                                                                                                                                            @   @ @ @ # 1 2 [ : 3 $ . . @ @                                                                                                                                                                                                     ",
"                                                                                                                                                                              @ @ @ @ % 3 3 ( 4 1 % . @ @ @                                                                                                                                                                                                     ",
"                                                                                                                                                                              @ @ @ . # 5 5 ^ - ~ ; . . @ @                                                                                                                                                                                                     ",
"                                                                                                                                                                            @ @ @ @ @ = ~ ) ; ; ) ! , . @ @                                                                                                                                                                                                     ",
"                                                                                                                                                                              @     @ . ! ; . ] ) - ] @ @                                                                                                                                                                                                       ",
"                                                                                                                                                                                    @ @ # = . ; ) { ; @ @                                                                                                                                                                                                       ",
"                                                                                                                                                                                      @ . @ @ ; ) { % @ @ @                                                                                                                                                                                                     ",
"                                                                                                                                                                                        @ @ @ ; ' ' ; @                                                                                                                                                                                                         ",
"                                                                                                                                                                                            @ ] ] # =                                                                                                                                                                                                           ",
"                                                                                                                                                                                              @ @ @ .                                                                                                                                                                                                           ",
"                                                                                                                                                                                                                                                                                                                                                                                                                ",
"                                                                                                                                                                                                                                                                                                                                                                                                                ",
"                                                                                                                                                                                                                                                                                                                                                                                                                ",
"                                                                                                                                                                                                                                                                                                                                                                                                                ",
"                                                                                                                                                                                                                                                                                                                                                                                                                ",
"                                                                                                                                                                                                                                                                                                                                                                                                                ",
"                                                                                                                                                                                                                                                                                                                                                                                                                ",
"                                                                                                                                                                                                                                                                                                                                                                                                                ",
"                                                                                                                                                                                                @                                                                                                                                                                                                               ",
"                                                                                                                                                                                        @ @ @ @ @ @ @                                                                                                                                                                                                           ",
"                                                                                                                                                                                        @ @ @ @ @ @ @ @ @                                                                                                                                                                                                       ",
"                                                                                                                                                                                      @ @ . . . @ . @ @ @                                                                                                                                                                                                       ",
"                                                                                                                                                                                    @ @ @ . = = , , . . @ @                                                                                                                                                                                                     ",
"                                                                                                                                                                                @   @ @ . . ! ' = + , . @ @ @                                                                                                                                                                                                   ",
"                                                                                                                                                                                @ @ . . . = { ~ ; ] , , . . @                                                                                                                                                                                                   ",
"                                                                                                                                                                                @ @ @ . , = | 2 ) ; ] , . . @ @                                                                                                                                                                                                 ",
"                                                                                                                                                                                  @ . + = ] 6 7 2 ~ ; = , . @ @                                                                                                                                                                                                 ",
"                                                                                                                                                                              @ . . + = = # ~ 8 7 2 ! = + . . @                                                                                                                                                                                                 ",
"                                                                                                                                                                      @ @ @ @ @ . , = = # # ~ 9 0 7 | ] = , . @     @                                                                                                                                                                                           ",
"                                                                                                                                                                      @   @ @ . , = = # # % 2 9 9 0 a # = , . @   @                                                                                                                                                                                             ",
"                                                                                                                                                                      @ . . . , = ] ] $ % ) b 9 9 9 c ' = , . . @ @                                                                                                                                                                                             ",
"                                                                                                                                                                    @ @ . . + = ] # ; % ' 2 9 d d e 0 ) = , . @ @                                                                                                                                                                                               ",
"                                                                                                                                                                    @ . > > = ] # ; ' ' { 7 d d f d 9 ~ = , . @ @                                                                                                                                                                                               ",
"                                                                                                                                                                    @ . , = ] ; ! & - ) 2 e d g g d 9 { , , . @ @                                                                                                                                                                                               ",
"                                                                                                                                                                @ . . , = ] $ { 1 2 2 h 8 g g i i j b ! + . . @                                                                                                                                                                                                 ",
"                                                                                                                                                                @ @ . , = ] & 2 k 8 l m i n o p m b 5 # , . . . @           @ @ @ @ @                                                                                                                                                                           ",
"                                                                                                                                                                @ @ . + ] # | j q i o p p r r p [ 5 ) = , . @ . @     @   @ @ . @ @ @ @ @                                                                                                                                                                       ",
"                                                                                                                                                              @ @ . . = ] ' 7 g p r s s s t u v 4 ' # = , . @ . @     @ . . . . . > . . . . @ @                                                                                                                                                                 ",
"                                                                                                                                                                @ @ . = ] { e o u t t t s w x m ' $ ] = , . . . @ @ @ . . . , , , , + , , . . @ @ @                                                                                                                                                             ",
"                                                                                                                                                            @ @ @ @ . = ] | f y t u r r x r n z % $ ] = , . . . @ @ . . > + ; ] = = = = + + , > > @ @ @                                                                                                                                                         ",
"                                                                                                                                                                  @ . , ] 1 g y s y n n n A B z & $ ] = = , , > . . . > + # | ' ] ] # ] ] ] = + , . @ @                                                                                                                                                         ",
"                                                                                                                                                                @ @ . = = ~ g n r A B B B B g g - # # = = = + + . . , , , - b ) # ; ; ; ; # # ] = , . @                                                                                                                                                         ",
"                                                                                                                                                                @ @ . , + - e i o B B B B B g f ! $ # ] = ] = + , , , + = | e 5 % % ' ' ! ' ; # ] + > . @                                                                                                                                                       ",
"                                                                                                                                                                @ @ @ . + ; c g g g g g B g g C ' # # # # & ; = = , , = = a g b - - { 6 | | - ; # ] + > @ @                                                                                                                                                     ",
"                                                                                                                                                                @   @ . > = 1 C e j 8 e g g f D % ; $ # ; 3 / # = = + = = a d 8 3 2 a 7 c k < ) ; ] = , . @                                                                                                                                                     ",
"                                                                                                                                                                      @ @ . ' E a 3 3 a d d 8 6 ; ; ; % ! 8 D ) ] = = = = | 7 7 8 C d g g B m F - ; ] + > @ @                                                                                                                                                   ",
"                                                                                                                                                                      @ @ . = ) ~ - & ) c c 2 ! ; % % % 3 g d 3 ] = = = = ) 3 E f g B A A G x H 5 % # = . .                                                                                                                                                     ",
"                                                                                                                                                                        @ @ . ] $ = ] $ 3 3 ) % % % % { c i g D ] = = = = ; ) 6 I J J J J G K u L % $ = , . @                                                                                                                                                   ",
"                                                                                                                                                                          @ @ . . , = = - & % % M & - a q B B N # ] = = ] ] % M I O P Q P R S K T ^ $ = , .                                                                                                                                                     ",
"                                                                                                                                                                            @ . . , + ] ; % % & & - 1 C A A B F # ] = = ] # % ' I w w U R V W W s _ $ ] , . @                                                                                                                                                   ",
"                                                                                                                                                                            @ @ . , = # ; % M & { 1 N B J A B E # # = = ] # % M X w Y Z V S W W K } $ ] , . @                                                                                                                                                   ",
"                                                                                                                                                                            @ @ > + ] ; % - / 3 F j B J P J d / # # ] ] # # % & l U S S S S ` ` K : $ = , > @                                                                                                                                                   ",
"                                                                                                                                                                            @ . , = $ ; M _  .j f B J P U J c & ; # # # $ ; ' - N ..Z S Y Y W W K : # ] > . @                                                                                                                                                   ",
"                                                                                                                                                                            @ . , ] $ ' / c q B J J Q U V H < & ' ; # ; ; % M & N P U V w V W W s 3 ] = > @                                                                                                                                                     ",
"                                                                                                                                                                          @ @ , = # % -  .B J U U +.+.@.Z N / - & ' % % % M & ^ l Q +.P O w W K #.) = + . @ @                                                                                                                                                   ",
"                                                                                                                                                                          @ . , = $ ' $.q Q ..S %...&.S Z } / ^ & & M M M M - 3 *.Q Q Q Q w S u l ; = , . @                                                                                                                                                     ",
"                                                                                                                                                                        @ @ . + ] ; ! =.J ..V ` -...%.` @.( $.;.* ) - & & & / N J Q Q Q G t s v ( ] + . @ @                                                                                                                                                     ",
"                                                                                                                                                                        @ @ . = # ; ) q O @.W >.,.'.-.>.Z l h } ( _ * ^ ^ * h q J Q Q Q U s p ).- + > .                                                                                                                                                         ",
"                                                                                                                                                                          . , + !.% _ G @.W ` ~.{.,.].^.W A q z z N F < < } z A J Q P G r T )./ ] , . @                                                                                                                                                         ",
"                                                                                                                                                                        @ @ > = # /.L Y W W ` ~.{.].{.^.~.V J J A A q z z I *.A A Q G T m : ^ ] . . @                                                                                                                                                           ",
"                                                                                                                                                                        @ . > = # M (.` W _._._.].].{.:.:.<.%...+.Q J A B B B q q i i L < [.= > > @   @                                                                                                                                                         ",
"                                                                                                                                                                      @ @ @ > + # M t W ,.-.}.-.|.1._.2.:.~.{.}.'.'.+.Q Q q N } F ).[ _ % = > > . @                                                                                                                                                             ",
"                                                                                                                                                                      @   @ . = !.M S Z '.'.'.3.}.}.4.1.<.:.2._.'.'.&.+.J  .$.- ) 4 ) # , > @ @   @                                                                                                                                                             ",
"                                                                                                                                                                        @ . . + # M K %.5.'.}.}.}.4.4.4.1.2.^.<.4.}.5...I 4 % $ = ] = > . @ @ @                                                                                                                                                                 ",
"                                                                                                                                                                      @ @   > , 6./.x ..O 5.3.}.3.4.4.4.4.7.:.:.].-.5.+.N & ; !.= , > . @ @ @                                                                                                                                                                   ",
"                                                                                                                                                                        @ @ 8., = ; L G ..5.3.3.4.4.4.4.4.9.:.0.2.<.|.+.$.M ; !.+ , @ @ @                                                                                                                                                                       ",
"                                                                                                                                                                          @ @ , = !._ I Q 5.5.3.a.4.4.4.4.4.b.c.0.2._.+.d.M ; = + , @ @                                                                                                                                                                         ",
"                                                                                                                                                                        @ @ @ > + ] & =.e.5.3.3.a.a.4.f.9.g.7.h.c.^.<.+.* i.; !.+ , . @ @                                                                                                                                                                       ",
"                                                                                                                                                                          @ @ 8., !.; d.N 5.3.a.j.j.9.k.l.b.m.h.n.n.2.o.* [.p.# = , @ @ @                                                                                                                                                                       ",
"                                                                                                                                                                          @ @ 8., 6.$ M < 5.3.3.j.j.q.m.h.0.h.r.n.n.:.s.4 t./.$ !.u., @ @ @                                                                                                                                                                     ",
"                                                                                                                                                                          @ @ @ > = v./._ 3.3.a.j.g.m.0.n.n.w.c.n.n.h.'.< ^ M p.!.= , 8.@ @                                                                                                                                                                     ",
"                                                                                                                                                          @               @ @ . > ] ; M ;.5.}.a.j.k.x.0.y.y.z.w.n.c.b.4.).* t.M $ !.u., 8.@                                                                                                                                                                     ",
"                                                                                                                                                                          @ @ > , 6.$ M ;.5.a.j.f.k.x.x.A.r.y.z.w.c.k.a.e._ B.& /.!.!., , 8.@ @                                                                                                                                                                 ",
"                                                                                                                                                                          @ @ , u.] p.i.d.4.j.j.f.q.C.C.D.E.r.y.z.0.k.9.5.N ;.B.& p.!.] , > @ @                                                                                                                                                                 ",
"                                                                                                                                                  @     @       @         @ @ > 6.!./.& 4 1.g.j.f.f.F.F.F.q.D.G.z.H.E.C.9.e.=.< ;.M p.!., > @                                                                                                                                                                   ",
"                                                                                                                                                                          @ 8.+ 6.!.M t._ <.l.f.F.F.F.F.F.I.q.x.H.G.A.x.E.'.e.J.=.;./.!.6.+ @ @                                                                                                                                                                 ",
"                                                                                                                                                                        @ > , = !.p.[.^ =.l.h.l.E.K.F.F.F.F.F.D.x.L.A.G.r.l.5.Q e.N M.; !.+ > @                                                                                                                                                                 ",
"                                                                                                                                                                @   @ @ @ > u.6.v.M t.;.N.C.r.r.r.G.O.F.F.F.I.P.Q.K.K.G.H.A.j.a.5.e.R.p.!.u.> @ @                                                                                                                                                               ",
"                                                                                                                                                                    @ @ , + 6.v./.i.d.S.&.q.A.y.T.T.Q.P.P.P.P.P.F.P.Q.K.G.r.F.j.a.&.U.p.!.] > @ @                                                                                                                                                               ",
"                                                                                                                                                      @           @ 8.8.+ 6.!.V.i.B._ J.a.f.D.T.W.T.K.P.P.P.P.P.P.F.F.P.K.K.F.j.a.}.N./.!.u., 8.                                                                                                                                                                ",
"                                                                                                                                                                  @ > , 6.!.p.i.B.X.=.&.j.F.Q.T.W.W.L.P.P.P.P.P.P.P.P.P.P.Q.F.j.j.a.Y.% v.u.> @                                                                                                                                                                 ",
"                                                                                                                                                      @         @ @ > u.!.v./.B.R.U.Z.a.F.F.`.T.W.W. +.+P..+P.P.P.P.P.P.P.P.F.f.j.a.Y.p.!.6., @ @                                                                                                                                                               ",
"                                                                                                                                                  @             @ 8.u.6.!./.B.} X Z.3.F.I.P.Q.T.++++y.Q.@+@+#+@+@+@+`.P.P.P.F.f.j.a.N./.!.u., @ @                                                                                                                                                               ",
"                                                                                                                                                              @ @ > u.!./.i.$+J.+.a.F.F.P.P.%+T.++++&+%+@+@+@+@+@+@+@+@+P.P.F.f.j.a.*+' !.u.> @                                                                                                                                                                 ",
"                                                                                                                                                        @     @ > + 6.v.V.;.N.'.=+D.Q.@+P.@+-+;+++++&+ +#+#+@+@+@+@+@+@+@+P.F.f.f.3.S.p.!.u.. @ @                                                                                                                                                               ",
"                                                                                                                                                              @ > + !.p.M.U.5.E.G.>+ +#+#+#+ +;+++++++,+'+#+#+#+#+#+#+@+@+.+F.f.j.s.;.p.6.+ @ @                                                                                                                                                                 ",
"                                                                                                                                                            @ 8.> u.!./.B.J.k.G.T.W.>+ +'+)+!+,+++++++;+~+'+{+{+'+'+#+@+@+P.F.F.f.Y.[.v.6.+ 8.@                                                                                                                                                                 ",
"                                                                                                                                                          @   8., 6.v.V.R.4.r.W.++++&+,+~+!+!+!+++++++++;+]+~+!+]+)+#+@+@+@+I.F.j.*+V.!.u., @ @                                                                                                                                                                 ",
"                                                                                                                                                            @ > , 6.p.V.^+C.T.W.++++&+]+]+!+/+'+++++++++++;+(+(+;+/+_+@+@+`.P.f.j.S.:+!.6.> 8.                                                                                                                                                                  ",
"                                                                                                                                                            @ 8.u.6.v.i.<+A.z.++++,+~+!+/+[+_+_+W.++++++++++++++;+/+#+#+@+@+P.F.}+;.V.!.u.8.@                                                                                                                                                                   ",
"                                                                                                                                                      @     @ > + !.:+M.o.y.W.++,+)+[+|+_+_+|+[+;+++++++++++++++1+|+#+#+#+`.Q.D.2+M.p.!.+ , @                                                                                                                                                                   ",
"                                                                                                                                                              > + 6.p.d.|.y.W.;+!+[+_+_+_+_+_+3+;+++++++++;+++++]+4+#+5+#+@+%+L.6+[.p.!.+ > @                                                                                                                                                                   ",
"                                                                                                                                                            @ > + !.p.R.C.T.++&+[+_+_+_+_+_+_+/+++++++++++++++++]+4+4+#+#+5+ +>+6+[.p.!.u., @                                                                                                                                                                   ",
"                                                                                                                                                            @ 8.u.6.p.7+D.T.W.~+#+4+_+_+_+_+|+8+++++++++;+++++++1+_+_+_+5+#+~+T.9+M.V.!.u.> @                                                                                                                                                                   ",
"                                                                                                                                                          @   8., 6.p.7+E.T.W. +5+5+4+4+4+4+|+1+++++++(+(+;+++++(+3+4+_+#+5+~+T.9+M.:+!.u.> @                                                                                                                                                                   ",
"                                                                                                                                                            @ 8.> 6.!.$+D.T.W.[+5+4+4+4+4+0+3+(+;+++;+a+8+(+;+++;+b+4+4+5+5+)+,+c+M.:+!.u., @       @                                                                                                                                                           ",
"                                                                                                                                                              8., u.!.R.=+T.T._+5+5+4+4+0+0+d+;+++++;+e+e+d+1+;+;+1+|+4+4+5+'+,+f+g+V.v.6.+ @ @     @                                                                                                                                                           ",
"                                                                                                                                                              8.> , 6.M.o.A.>+@+5+4+4+0+0+e+1+;+++;+1+|+|+h+i+(+++(+e+4+4+5+/+&+q.j+V.v.6.8.@ @   @                                                                                                                                                             ",
"                                                                                                                                                              @ 8., 6.v.*+].G.#+`.4+4+0+h+8+(+++;+;+i+k+k+k+l+a+;+;+8+|+4+4+/+;+K.7+V.v.6.8.@     8.                                                                                                                                                            ",
"                                                                                                                                                              @ 8.> 6.!.j+m+m.#+5+4+4+0+e+1+;+;+(+1+e+k+k+k+h+d+;+++1+n+k+|+8+;+ +o+p+v.6.+ 8.@   @                                                                                                                                                             ",
"                                                                                                                                                                @ 8.+ !.V.7+q+#+`.5+4+0+d+;+;+1+i+i+l+k+k+k+k+r+;+++;+a+d+b+(+++s+6+V.v.6.+ 8.@ @ @                                                                                                                                                             ",
"                                                                                                                                                                @ 8.+ u.v.V.t+@+`.5+4+0+8+(+a+i+r+l+k+k+k+k+k+r+(+;+;+(+1+1+;+;+&+2+p+v.!.u.8.@ @                                                                                                                                                               ",
"                                                                                                                                                                  8., u.!.p.u+`.`.`.4+0+8+1+n+l+k+v+v+v+v+v+v+w+1+;+;+;+;+(+++++(+x+p+v.!.u.8.  8.                                                                                                                                                              ",
"                                                                                                                                                                  @ . u.6.v.y+I..+5+5+0+8+d+l+k+v+v+v+v+v+v+v+v+i+(+++++;+;+++++;+x+p+v.!.u.8.@ @ @                                                                                                                                                             ",
"                                                                                                                                                                    8., 6.!.M.}+.+`.5+4+e+l+k+k+k+w+v+v+v+v+w+v+r+(+++++;+++++++;+x+V.v.6.u.> @ @                                                                                                                                                               ",
"                                                                                                                                                                  @ 8.> + 6.:+Y.I..+`.4+0+0+0+k+k+v+v+v+v+v+v+v+r+1+++;+;+++++++W.z+:+v.u.8.8.@ @ @                                                                                                                                                             ",
"                                                                                                                                                                      8.> u.!.A+s.I.`.5+4+0+0+0+k+v+v+v+v+w+v+v+r+1+++++++++++++;+B+v.!.+ > 8.@ @                                                                                                                                                               ",
"                                                                                                                                                                      8.> , 6.g+o+s.I.`.5+4+4+k+v+v+v+v+w+r+r+r+n+(+++;+;+++;+;+>+u+v.6.+ 8.8.@ @                                                                                                                                                               ",
"                                                                                                                                                                      @ 8.8.+ !.j+o+}+I.`.5+4+0+k+v+v+v+r+i+i+i+a+;+(+;+;+;+;+;+K.j+!.u., 8.8.@ @                                                                                                                                                               ",
"                                                                                                                                                                        @ 8.> u.p.y+<+}+.+5+4+4+k+k+v+r+i+a+1+a+1+;+;+;+;+;+;+&+z+p+!.u.8.8.@ @                                                                                                                                                                 ",
"                                                                                                                                                                          @ 8.> = v.y+o+}+`.5+4+0+k+k+n+1+(+;+(+(+;+;+;+;+;+&+x.o+!.u.+ 8.@   @                                                                                                                                                                 ",
"                                                                                                                                                                          @ @ 8.+ u.v.y+<+f+5+4+4+0+k+i+;+;+;+;+;+;+;+;+;+;+G.C+y+6.u.8.@ @ @                                                                                                                                                                   ",
"                                                                                                                                                                            @ @ 8., 6.:+y+c+@+{+4+4+0+1+;+;+;+;+;+;+;+;+;+y.q+u+:+u.> 8.@ @ @                                                                                                                                                                   ",
"                                                                                                                                                                              @ @ 8.+ 6./.A+|.-+_+4+0+1+;+;+;+;+;+;+++&+H.<.t+g+6.+ 8.8.8.                                                                                                                                                                      ",
"                                                                                                                                                                                  8., u.!.X.D+7.'+{+_+(+;+;+;+;+;+;+T.h.q+B+j+u.+ 8.8.@                                                                                                                                                                         ",
"                                                                                                                                                                                  @ 8., u.!.j+B+l. +'+,+;+;+;+;+T.r.q+B+u+g+6.> 8.@ @ @ @                                                                                                                                                                       "};
