/* XPM */
static char * 7_xpm[] = {
"200 180 256 2",
"  	c #000000",
". 	c #0A0400",
"+ 	c #1C0A00",
"@ 	c #2B0D00",
"# 	c #230B00",
"$ 	c #120500",
"% 	c #190700",
"& 	c #3C1200",
"* 	c #380F00",
"= 	c #431400",
"- 	c #521700",
"; 	c #541A01",
"> 	c #320E00",
", 	c #4B1600",
"' 	c #701F01",
") 	c #882A05",
"! 	c #642503",
"~ 	c #341201",
"{ 	c #933510",
"] 	c #140800",
"^ 	c #7A2B05",
"/ 	c #732A03",
"( 	c #6C1E00",
"_ 	c #572008",
": 	c #842601",
"< 	c #0E0800",
"[ 	c #5B1B00",
"} 	c #942A01",
"| 	c #631C00",
"1 	c #8C2A03",
"2 	c #7C2301",
"3 	c #6C2202",
"4 	c #AC3202",
"5 	c #A42F01",
"6 	c #B33302",
"7 	c #A63D12",
"8 	c #9C2C01",
"9 	c #BB3C09",
"0 	c #CF4C18",
"a 	c #D44509",
"b 	c #CD3B02",
"c 	c #E65419",
"d 	c #FC621B",
"e 	c #DB450A",
"f 	c #EB5214",
"g 	c #D53D02",
"h 	c #F95715",
"i 	c #C03602",
"j 	c #E94B09",
"k 	c #DB3E02",
"l 	c #C63902",
"m 	c #742101",
"n 	c #FC5916",
"o 	c #FD5409",
"p 	c #BC3502",
"q 	c #FF7124",
"r 	c #F74A05",
"s 	c #E44404",
"t 	c #EC4503",
"u 	c #AA3C06",
"v 	c #F44A05",
"w 	c #4C1B02",
"x 	c #F55707",
"y 	c #FE5C09",
"z 	c #DC4204",
"A 	c #FF6309",
"B 	c #FE6C0A",
"C 	c #FE7512",
"D 	c #FF7E1A",
"E 	c #FF8B24",
"F 	c #FF952C",
"G 	c #FF7A13",
"H 	c #FFA335",
"I 	c #FF8E2A",
"J 	c #FF8622",
"K 	c #FFAA35",
"L 	c #FF9830",
"M 	c #FF9A2D",
"N 	c #EE5E0B",
"O 	c #FFAD3C",
"P 	c #FF730C",
"Q 	c #E75907",
"R 	c #FF9224",
"S 	c #FFB241",
"T 	c #F36808",
"U 	c #D95707",
"V 	c #FF841D",
"W 	c #FE7C0B",
"X 	c #FF8412",
"Y 	c #FFB03D",
"Z 	c #FE8B1B",
"` 	c #241100",
" .	c #C84A07",
"..	c #FF9312",
"+.	c #FF9E24",
"@.	c #963707",
"#.	c #FF8C11",
"$.	c #FDA627",
"%.	c #441C00",
"&.	c #A63805",
"*.	c #FE830B",
"=.	c #FD9B1A",
"-.	c #2C1300",
";.	c #5B2303",
">.	c #9D4004",
",.	c #FFBE40",
"'.	c #FF8B0C",
").	c #FFA41A",
"!.	c #FFC441",
"~.	c #A64405",
"{.	c #3C1C01",
"].	c #6D3101",
"^.	c #FF9B12",
"/.	c #FFA311",
"(.	c #FEAA24",
"_.	c #FFB12C",
":.	c #FF920B",
"<.	c #FFCA43",
"[.	c #DC6712",
"}.	c #5C2C01",
"|.	c #832A03",
"1.	c #B84407",
"2.	c #EC6B14",
"3.	c #FA9718",
"4.	c #FF9C0C",
"5.	c #FFB837",
"6.	c #E48A14",
"7.	c #552102",
"8.	c #2F1800",
"9.	c #893703",
"0.	c #FA661A",
"a.	c #E98B29",
"b.	c #FFA40B",
"c.	c #FFB422",
"d.	c #FAA608",
"e.	c #E96205",
"f.	c #FFC737",
"g.	c #FFB82F",
"h.	c #FFAB1D",
"i.	c #FFD13C",
"j.	c #FFAA14",
"k.	c #CE7722",
"l.	c #341A00",
"m.	c #773502",
"n.	c #FFCB3C",
"o.	c #FFD945",
"p.	c #FFC629",
"q.	c #FFAC0A",
"r.	c #B34A03",
"s.	c #BC4505",
"t.	c #FFB313",
"u.	c #B66616",
"v.	c #FFD341",
"w.	c #FFBC21",
"x.	c #FFB91B",
"y.	c #FFE13E",
"z.	c #FFC71A",
"A.	c #FFB40A",
"B.	c #FFC324",
"C.	c #FFBB14",
"D.	c #C36912",
"E.	c #4C2301",
"F.	c #FFCB25",
"G.	c #FFB304",
"H.	c #D67C17",
"I.	c #642A01",
"J.	c #FFD334",
"K.	c #FFD42C",
"L.	c #FFD424",
"M.	c #4C2A03",
"N.	c #FA7707",
"O.	c #FFBC09",
"P.	c #6A2D00",
"Q.	c #C95705",
"R.	c #FECD2A",
"S.	c #FFC414",
"T.	c #FFDA2D",
"U.	c #FFBE03",
"V.	c #D66704",
"W.	c #FFEB34",
"X.	c #E96706",
"Y.	c #FFEF40",
"Z.	c #FFC40A",
"`.	c #3D2001",
" +	c #FFFF41",
".+	c #FFE42C",
"++	c #FFEC39",
"@+	c #FFDA23",
"#+	c #FFCC14",
"$+	c #FD9D03",
"%+	c #9B5505",
"&+	c #F88A04",
"*+	c #FFDA1C",
"=+	c #FFEC2C",
"-+	c #FFD414",
";+	c #FFC503",
">+	c #FFE534",
",+	c #E77D11",
"'+	c #FFF439",
")+	c #FFE224",
"!+	c #FFD51B",
"~+	c #FFF233",
"{+	c #CB7406",
"]+	c #FFCC0A",
"^+	c #C16F04",
"/+	c #FFE31C",
"(+	c #FFFE3C",
"_+	c #FFF32B",
":+	c #FFDB14",
"<+	c #FFCD03",
"[+	c #FFEA24",
"}+	c #FFFD34",
"|+	c #FFD50A",
"1+	c #B96704",
"2+	c #FFDB0C",
"3+	c #442301",
"4+	c #A95704",
"5+	c #FFD404",
"6+	c #8A4B05",
"7+	c #FFE20D",
"8+	c #FFED1B",
"9+	c #FFDB03",
"0+	c #FFEA11",
"a+	c #FFFE2C",
"b+	c #D87403",
"c+	c #FFF31D",
"d+	c #FFE311",
"e+	c #FFF216",
"f+	c #FFFA24",
"g+	c #633706",
"h+	c #FFE304",
"i+	c #573205",
"j+	c #FFE90A",
"k+	c #DCA112",
"l+	c #542E02",
"m+	c #E7980C",
"n+	c #EBA813",
"o+	c #FFF10F",
"p+	c #FFFA1C",
"q+	c #D89211",
"r+	c #EFBA1B",
"s+	c #A96713",
"t+	c #F1C224",
"u+	c #7C4708",
"v+	c #FFF521",
"w+	c #F0A51E",
"x+	c #ECB821",
"y+	c #BA7215",
"z+	c #D89B16",
"A+	c #E79524",
"B+	c #F4940B",
"C+	c #FFDF38",
"D+	c #E58204",
"E+	c #96570B",
"F+	c #AC640E",
"G+	c #FFFFFF",
"                                                                                                                                                                                                                                                                                                                                                                                                                ",
"                                                                                                                                                                                                                                                                                                                                                                                                                ",
"                                                                                                                                                                                                                                                                                                                                                                                                                ",
"                                                                                                                                                                                                                                                                                                                                                                                                                ",
"                                                                                                                                                                                                                                                                                                                                                                                                                ",
"                                                                                                                                                                                                                                                                                                                                                                                                                ",
"                                                                                                                                                                                                                                                                                                                                                                                                                ",
"                                                                                                                                                                                                                                                                                                                                                                                                                ",
"                                                                                                                                                                                                                                                                                                                                                                                                                ",
"                                                                                                                                                                                                                                                                                                                                                                                                                ",
"                                                                                                                                                                                                                                                                                                                                                                                                                ",
"                                                                                                                                                                                                                                                                                                                                                                                                                ",
"                                                                                                                                                                                                                                                                                                                                                                                                                ",
"                                                                                                                                                                                                                                                                                                                                                                                                                ",
"                                                                                                                                                                                                                                                                                                                                                                                                                ",
"                                                                                                                                                                                                                                                                                                                                                                                                                ",
"                                                                                                                                                                                                                                                                                                                                                                                                                ",
"                                                                                                                                                                                                                                                                                                                                                                                                                ",
"                                                                                                                                                                                                                                                                                                                                                                                                                ",
"                                                                                                                                                                                                                                                                                                                                                                                                                ",
"                                                                                                                                                                                                                                                                                                                                                                                                                ",
"                                                                                                                                                                                                                                                                                                                                                                                                                ",
"                                                                                                                                                                                                                                                                                                                                                                                                                ",
"                                                                                                                                                                                                                                                                                                                                                                                                                ",
"                                                                                                                                                                                                                                                                                                                                                                                                                ",
"                                                                                                                                                                                                                                                                                                                                                                                                                ",
"                                                                                                                                                                                                                                                                                                                                                                                                                ",
"                                                                                                                                                                                                                                                                                                                                                                                                                ",
"                                                                                                                                                                                                                                                                                                                                                                                                                ",
"                                                                                                                                                                                                                                                                                                                                                                                                                ",
"                                                                                                                                                                                                                                                                                                                                                                                                                ",
"                                                                                                                                                                                                                                                                                                                                                                                                                ",
"                                                                                                                                                                                  .                                                                                                                                                                                                                             ",
"                                                                                                                                                                                . +                                                                                                                                                                                                                             ",
"                                                                                                                                                                                . @                                                                                                                                                                                                                             ",
"                                                                                                                                                                              . . @ .                                                                                                                                                                                                                           ",
"                                                                                                                                                                              . . # .                                                                                                                                                                                                                           ",
"                                                                                                                                                                                  $                                                                                                                                                                                                                             ",
"                                                                                                                                                                                                                                                                                                                                                                                                                ",
"                                                                                                                                                                                                                                                                                                                                                                                                                ",
"                                                                                                                                                                                                                                                                                                                                                                                                                ",
"                                                                                                                                                                                                                                                                                                                                                                                                                ",
"                                                                                                                                                                                                                                          .                                                                                                                                                                     ",
"                                                                                                                                                                                                                                        $ . .                                                                                                                                                                   ",
"                                                                                                                                                                                                                                      . @ % .                                                                                                                                                                   ",
"                                                                                                                                                                                                                                      . & * # .                                                                                                                                                                 ",
"                                                                                                                                                                                                                                      . = - *                                                                                                                                                                   ",
"                                                                                                                                                                                                                                      . * ; =                                                                                                                                                                   ",
"                                                                                                                                                                                                                                        + = & .                                                                                                                                                                 ",
"                                                                                                                                                                                                                                      . . # @ . .                                                                                                                                                               ",
"                                                                                                                                                                                            .                                       .   . $ $                                                                                                                                                                   ",
"                                                                                                                                                                                        . . $ . . .                                 .                                                                                                                                                                           ",
"                                                                                                                                                                                        . . > $ . . .                                                                                                                                                                                                           ",
"                                                                                                                                                                                        . % , > .   .                                                                                                                                                                                                           ",
"                                                                                                                                                                                        . + ' , .   .                                                                                                                                                                                                           ",
"                                                                                                                                                                                    . . . @ ) ! $ . .                                                                                                                                                                                                           ",
"                                                                                                                                                                                    . . $ ~ ) ) $ $ . .                                                                                                                                                                                                         ",
"                                                                                                                                                                                  . .   . = ) { + . . . .                                                                                                                                                                                                       ",
"                                                                                                                                                                                    . . . = ) { ] . .   .                                                                                                                                                                                                       ",
"                                                                                                                                                                                      . . , ^ / ] .                                                                                                                                                                                                             ",
"                                                                                                                                                                                        . * ( _ $ .                                                                                                                                                                                                             ",
"                                                                                                                                                                                          # , >                                                                                                                                                                                                                 ",
"                                                                                                                                                                                .         . # $                                                                                                                                                                                                                 ",
"                                                                                                                                                                                            .                                                                                                                                                                                                                   ",
"                                                                                                                                                                                                                                                                                                                                                                                                                ",
"                                                                                                                                                                                                                                                                                                                                                                                                                ",
"                                                                                                                                                                                                                                                                                                                                                                                                                ",
"                                                                                                                                                                                                          .                                                                                                                                                                                                     ",
"                                                                                                                                                                                                                                                                                                                                                                                                                ",
"                                                                                                                                                                                                      .   .                                                                                                                                                                                                     ",
"                                                                                                                                                                                                      . .   . .                                                                                                                                                                                                 ",
"                                                                                                                                                                                                      .   . $ . . .                                                                                                                                                                                             ",
"                                                                                                                                                                                                    .   $ % # $ $ .                                                                                                                                                                                             ",
"                                                                                                                                                                                                  . . . $ @ , $ $ . .                                                                                                                                                                                           ",
"                                                                                                                                                                                                      $ $ & ( # $ $ .                                                                                                                                                                                           ",
"                                                                                                                                                                                                    . . $ - : = % $ < .                                                                                                                                                                                         ",
"                                                                                                                                                                                                  . . . $ [ } ( & $ $ .                                                                                                                                                                                         ",
"                                                                                                                                                                                                  . . < $ | } : [ % . . .                                                                                                                                                                                       ",
"                                                                                                                                                                                    .   . . .   . .   . $ ; 1 } ( $ .                                                                                                                                                                                           ",
"                                                                                                                                                                                  . . .   . . . . . . . . & 2 } ' $ . .                                                                                                                                                                                         ",
"                                                                                                                                                                              . . . . $ $ $ $ .   . . . . # - 1 [ . . .                                                                                                                                                                                         ",
"                                                                                                                                                                          . . . . $ $ $ % % % $ $ . . . . . @ 3 * .                                                                                                                                                                                             ",
"                                                                                                                                                                          . . . % % % % % & * $ $ .       . . , + .                                                                                                                                                                                             ",
"                                                                                                                                                                        . . $ % % % # # % | [ % $ . .         > .                         .                                                                                                                                                                     ",
"                                                                                                                                                                      . . $ % % # # # # * 1 : @ . . . .       . .                 . . . . . . . .                                                                                                                                                               ",
"                                                                                                                                                                    . . . % % # # > * * - 4 5 @ . $ . . .                   .   . $ $ $ $ $ $ $ . . .                                                                                                                                                           ",
"                                                                                                                                                                    . $ % % # > , [ | ! : 6 6 @ $ $ . .   .           . . . . $ . $ $ $ $ % % % $ $ . .                                                                                                                                                         ",
"                                                                                                                                                                    . $ % % @ _ 2 1 { 7 6 6 8 @ % . .       .         . . $ $ $ % % + # + # + % % $ $ $ .                                                                                                                                                       ",
"                                                                                                                                                                  . $ $ % # & 2 5 9 0 0 a 5 2 # $ $ .         .     . . $ $ % + # # # @ @ @ # # # + % $ $                                                                                                                                                       ",
"                                                                                                                                                                  . $ $ % # | 5 b c d d e : | # $ $ . .       .   . $ . $ % % # # @ > * = , & * @ # # % $ .                                                                                                                                                     ",
"                                                                                                                                                                  . $ % % > : b f d d c e [ > # $ $ .         . . . $ $ + # # @ > * - ' 2 2 ' | ; * # % $ . .                                                                                                                                                   ",
"                                                                                                                                                                    $ % # & 4 g f d h c g * # # % $ .         . . $ $ % # # * & = - : 8 4 4 5 1 : | > % % $ . .                                                                                                                                                 ",
"                                                                                                                                                                  . . $ % _ i g f f j e b * # % $ $ .       . . . $ % + @ , | | | : 9 a k e e a 6 : ; # % $ .                                                                                                                                                   ",
"                                                                                                                                                                  . $ $ % ( l g f j k k l , # # $ . . . . . . . $ $ % @ - m 1 1 1 9 c n o n n n e 4 : @ ] $ .                                                                                                                                                   ",
"                                                                                                                                                                    . $ $ | p g k k k g b | # % $ $ . . . . . . $ % # * 2 8 6 p 6 c q d n n n n r g 5 @ % $ . .                                                                                                                                                 ",
"                                                                                                                                                                    . . $ , : 6 b b b l b 1 # % $ $ . . . . . $ % % # [ 4 b k k k n q q n n n n r s 6 @ % $ .                                                                                                                                                   ",
"                                                                                                                                                                    . $ $ > [ : 5 6 8 8 5 4 # + . $ . . . $ . % % # # 2 g g p i i c d q d o r r t s } @ % $ . .                                                                                                                                                 ",
"                                                                                                                                                                  .   . . $ > ; 2 : m ' 2 8 # + $ $ $ . $ $ $ % # # @ : k 4 } } } u 0 c h r r v t g ' # $ $ .                                                                                                                                                   ",
"                                                                                                                                                                        . . . # = , & * = 2 = * $ $ $ $ $ % + # # > @ : i : | [ [ 3 ) 7 0 k v v t 6 & # $ . .                                                                                                                                                   ",
"                                                                                                                                                                          . . . % + % $ # ; 3 [ % % % + + % # @ = , , ( } - * > > & - 3 1 4 t v t 8 @ % $ . .                                                                                                                                                   ",
"                                                                                                                                                                            . . . . $ $ $ * 8 : % % + % # # @ * m : 2 ' ' * @ # # # @ & _ 2 b t s m + % $ .                                                                                                                                                     ",
"                                                                                                                                                                              . . . $ $ + # p 5 # # @ # @ > * = 6 i 6 1 [ @ # # # # # > = - 8 k l - $ $ . .                                                                                                                                                     ",
"                                                                                                                                                                                . . $ $ + # 5 } @ > > > ~ * & - k v t i 2 > # % + + @ [ ' | ( 6 } @ $ . .                                                                                                                                                       ",
"                                                                                                                                                                                . . $ $ + # : 2 ~ * * & = = , ; v o o t 5 > # + + % , : } ) [ 2 | % . .                                                                                                                                                         ",
"                                                                                                                                                                                . . $ + # > [ ; = , , , - w ; ' v o o o 6 @ # % + $ | 5 } } & = # $ . .                                                                                                                                                         ",
"                                                                                                                                                                                . . $ % # > = | 2 ' [ ; ; [ 3 5 x y o v } @ % + $ $ | 8 : 2 * $ . . . .                                                                                                                                                         ",
"                                                                                                                                                                              . . . $ # @ = m 5 p 6 } m m : 5 z o y o b | @ % $ $ . - | - w # . . .                                                                                                                                                             ",
"                                                                                                                                                                                . $ % # * ' 4 z v t g 4 4 p s o y y v 8 * # % $ $ . > * % % $ . .                                                                                                                                                               ",
"                                                                                                                                                                                . $ + @ & 4 s o y y h t t v o A A o a | # + $ . . . . . . .                                                                                                                                                                     ",
"                                                                                                                                                                              . . $ + # , s y A B C C A y A B A A t } * # + $ . .                                                                                                                                                                               ",
"                                                                                                                                                                                . $ + @ ; x A A B D E B B B B B A l [ > # % . .                                                                                                                                                                                 ",
"                                                                                                                                                                              . . $ % @ ; y A A B E F G G C B B y 1 , > # $ . .                                                                                                                                                                                 ",
"                                                                                                                                                                                . $ % @ , j y B C F H I J D C B x [ = @ + $ . .                                                                                                                                                                                 ",
"                                                                                                                                                                                . < $ # & 6 o A D H K L M I C B N w = @ + $ . .                                                                                                                                                                                 ",
"                                                                                                                                                                            .   . $ $ + > m a B I H K K O H D P Q ; = > # $ .                                                                                                                                                                                   ",
"                                                                                                                                                                                  . $ + @ = ) B I F F H O O E P N ; = * # $ . .                                                                                                                                                                                 ",
"                                                                                                                                                                                  . $ % # ~ _ d J J J R H S F G T [ , ~ # $ $ .                                                                                                                                                                                 ",
"                                                                                                                                                                                  . . % + * = U D G G V R O H D T ' - ~ @ % . . .                                                                                                                                                                               ",
"                                                                                                                                                                                  . . $ + > & 4 B C W W X K Y Z P : w * @ + $ .                                                                                                                                                                                 ",
"                                                                                                                                                                                    . < % > = 2 A C W W X M S F C u ; = > # $ . .                                                                                                                                                                               ",
"                                                                                                                                                                                    . $ + @ & [ N W W W X R Y K X a [ = ~ # ] . . . .                                                                                                                                                                           ",
"                                                                                                                                                                                    . $ + @ & w U G W X X Z K S Z A / , * ` + $ . . . . . .                                                                                                                                                                     ",
"                                                                                                                                                                                  . . $ # @ & -  .W W X X ..+.O M C @.w * @ + $ $ . . . . . . .                                                                                                                                                                 ",
"                                                                                                                                                                                  . $ ] + ~ = ; u W X X #.#.Z $.O V  .- = ~ # + ] $ $ $ $ $ . . .   .                                                                                                                                                           ",
"                                                                                                                                                                                . . $ ] # ~ %._ &.*.X #.#.#.#.=.S F N ! , ~ # + ] + + + ] ] $ $ . .                                                                                                                                                             ",
"                                                                                                                                                                              . . $ + + -.& w ;.>.*.X #.#.....=.,.K G ^ , * ` # + + + + + ] $ ] $ $   .                                                                                                                                                         ",
"                                                                                                                                                                              . < % + -.~ w ; !  .'.#.....=.).+.!.,.I ~.w {.> # # # # w > # + + $ .                                                                                                                                                             ",
"                                                                                                                                                                          . . < % % ` ~ {.; ! ].Q '.'...^./.(._.!.!.H  .w {.~ -.@ -.-.) 3 -.# + ] . .                                                                                                                                                           ",
"                                                                                                                                                                      . .   $ ] % ` * & w ;.m u G '.:.^.^.).(.(.!.<.O [.; = ~ -.> -.=  .u %.-.# % $ $                                                                                                                                                           ",
"                                                                                                                                                                        . . $ ] ` -.& w }.|.1.2.3.:.4.^.^././.(.5.<.,.6.7.%.* > > ~ ^ A x ^ -.# + ] $ .                                                                                                                                                         ",
"                                                                                                                                                                        . . ] # 8.& , ;.9. .0.I ).4.^.^.4.4.^.^.(.!.!.a.; %.& ~ ~ %.1.B B 9 ~ @ # ] ] . .                                                                                                                                                       ",
"                                                                                                                                                                        . $ + -.~ %.;.@.U q E (.).4.b./.b.4.4.4./._.<.a._ %.~ ~ ~ ! Q P P Q %.-.` + < $ .                                                                                                                                                       ",
"                                                                                                                                                                      . . ] # -.{._ u N E $._.c./.b./.b.b.d.b.4.^.).!.a._ %.* ~ ~ / B P P B ! ~ @ # ] $ .                                                                                                                                                       ",
"                                                                                                                                                                      . $ + ` & , 9.e.J K f.g.h.b./.b.b.b.b.d.4.4.(.!.a.7.%.~ ~ ` / A A B P @.~ -.# + ] . .                                                                                                                                                     ",
"                                                                                                                                                                      . ] + -.{._  .J _.i.i.h./.b./.d.b.b.b.b.b.4.j.!.k.7.w l.> -.!  .U Q B  .%.-.# + ] $ .                                                                                                                                                     ",
"                                                                                                                                                          .         . $ ] + ~ %.m.T _.n.o.p.j.b.b.q.q.q.q.q.b.b.4.(.n.k._ %.~ ~ @ %.9.5 r.x e./ ~ -.+ + $ .                                                                                                                                                     ",
"                                                                                                                                                                    . $ ] ` ~ w s.#.f.o.o.p.q.q.q.t.q.q.q.q.q.b.b.c.<.u.;.w {.~ -.-.; ! ^ s.x r.7.-.` + ] . .                                                                                                                                                   ",
"                                                                                                                                                          .         . $ % ` l.; 2._.v.o.o.w.q.q.t.x.q.q.q.q.q.q.b.p.n.u.! ; %.{.~ > ~ ~ {.^  .N @.& ` + ] . .                                                                                                                                                   ",
"                                                                                                                                                    .               . $ % ` l._ X 5.o.o.y.z.q.A.B.C.t.A.A.q.q.q.q.w.n.D.3 ;.w {.l.l.l.& {.w @.P U E.` # ] $ .                                                                                                                                                   ",
"                                                                                                                                                                .   . < ] ` & ;...n.o.o.o.F.A.q.F.B.A.G.A.A.A.q.q.x.n.H.m.! _ w %.%.%.{.%.%.I.W B m.-.` ] ] .                                                                                                                                                   ",
"                                                                                                                                                                    . < ] ` ~ I.).i.o.J.J.K.C.A.L.F.A.A.A.A.A.G.q.j.p.3.~.m.I.;.7.7.E.M.E.E.I.N.W r.8.` ] ] .                                                                                                                                                   ",
"                                                                                                                                                  .             .   . . + ` ~ I.(.v.n.B.F.K.z.A.K.L.O.A.A.A.A.A.A.A.C.).e.~.m.P.}.}.7.;.7.7.9.*.*.Q.` -.+ ] .                                                                                                                                                   ",
"                                                                                                                                                                    . $ $ ` 8.P.(.i.p.t.C.R.S.A.T.T.C.O.A.U.O.O.O.A.O.t.W e.r.&.9./ ].I.I.I.Q.'.'.V.-.@ ] ] .                                                                                                                                                   ",
"                                                                                                                                                  .               . . . ] + -.;.=.<.c.q.q.C.C.O.T.W.S.O.O.O.O.O.O.A.A.A.d.*.N.X.V.r.9.9.9.~.X.'.'.Q.` ` ] $ .                                                                                                                                                   ",
"                                                                                                                                                  .             .   . . ] + ` E.Z f.j.b.q.A.O.O.T.Y.L.Z.U.O.O.O.O.O.O.O.A.b.'.*.*.T U Q.Q.e.*.:.'.~.-.` ] $ .                                                                                                                                                   ",
"                                                                                                                                                                      . ] + ` `.[.$./.b.A.A.O.U.K. +.+z.S.Z.Z.S.O.O.O.O.O.O.C.j.j.4.X N.W *.:.:.W m.-.+ ] . .                                                                                                                                                   ",
"                                                                                                                                                  .                   . $ ] ` 8.9.2.:.b.q.O.O.O.L. +++L.@+@+@+@+#+Z.O.O.O.#+L.L.K.B.c.h.h.j.$+'.V.w ` + ] .                                                                                                                                                     ",
"                                                                                                                                                                      . . < + -.w %+&+q.q.A.O.O.*+ +W.@+.+=+=+W.-+;+Z.Z.Z.@+++++>+T.L.R.J.w.4.*.r.8.` ] $ .                                                                                                                                                     ",
"                                                                                                                                                                      . . < + 8.{.}.,+d.A.A.U.O.*+'+)+!+)+~+ +'+#+Z.Z.Z.#+y. + +++L.L.K.i.f.4.X.].` + ] . .                                                                                                                                                     ",
"                                                                                                                                                                      . . ] ] -.{.E.{+d.q.A.O.Z.)+++-+]+!+~+ +'+-+]+]+;+*+ + + +.+z.z.p.F.B.*.r.`.` + ] .                                                                                                                                                       ",
"                                                                                                                                                        .             . . ] ] -.l.w ^+d.q.O.O.Z.)+)+]+]+]+/+(+'+]+]+Z.Z.@+ + +'+L.O.A.x.x.j.V.P.-.+ ] <                                                                                                                                                         ",
"                                                                                                                                                    .                   . $ ] ` l.%.^+d.A.O.Z.!+)+-+]+]+]+-+~+_+]+]+]+]+:+(+ +~+#+A.A.q.b.,+9.8.` ] ] .                                                                                                                                                         ",
"                                                                                                                                                    .                   . . ] ` l.E.^+q.A.O.!+/+:+]+]+]+<+]+/+[+]+]+]+]+-+}+ +.+Z.A.G.d.$+Q.E.` + ] . .                                                                                                                                                         ",
"                                                                                                                                                          .             . < ] ` 8.%.^+q.A.#+)+=+:+]+<+;+<+<+:+/+|+<+]+]+|+~+(+@+Z.A.q.4.X.m.8.` + ] .                                                                                                                                                           ",
"                                                                                                                                                            .           . . ] ` 8.%.1+q.O.)+~+[+|+<+<+|+|+|+-+2+|+|+]+]+<+/+(+*+U.A.G.&+~.3+` ` ] .                                                                                                                                                             ",
"                                                                                                                                                      .                 . . ] ` 8.%.4+q.z.++~+:+<+5+|+|+|+|+5+|+|+<+<+;+|+:+'+*+O.G.G.V.I.8.` ] < .                                                                                                                                                             ",
"                                                                                                                                                        .               . . ] ` 8.3+6+A.@+'+)+|+<+-+|+|+|+|+5+2+7+|+<+<+<+:+}+)+Z.G.$+4+%.8.+ ] <                                                                                                                                                               ",
"                                                                                                                                                                          . ] ` 8.%.].A.>+=+:+<+|+5+|+|+|+|+-+2+8+|+|+|+<+|+_+W.!+G.&+].l.-.+ ] .                                                                                                                                                               ",
"                                                                                                                                                          .             . . ] ` 8.3+].S.W.)+5+5+9+5+5+5+5+|+|+0+a+7+5+|+5+5+_+(+@+G.b+E.l.` + ] .                                                                                                                                                               ",
"                                                                                                                                                                        . . ] ` 8.3+m.z.=+-+<+5+5+5+9+9+7+7+0+8+(+c+7+5+5+5+_+ +.+A.r.3+l.` ] $ .   .                                                                                                                                                           ",
"                                                                                                                                                                      . . < ] ` l.3+6+L.)+<+5+5+9+9+9+d+e+f+f+a+(+}+e+5+5+|+}+ +'+A.g+3+l.` < .     .                                                                                                                                                           ",
"                                                                                                                                                                        . . ] ` l.%.4+@+*+<+5+5+9+9+h+e+f+}+}+(+ +(+f+7+9+2+}+ +'+d.i+`.8.` < .   .                                                                                                                                                             ",
"                                                                                                                                                                        . < ] ` l.3+{+@+-+5+5+9+9+9+j+a+(+(+ +(+(+(+}+e+d+8+(+ +'+k+l+`.8.+ < .   .                                                                                                                                                             ",
"                                                                                                                                                                      . . ] ] ` {.M.m+!+]+<+5+9+9+h+8+}+ +(+ + + + +(+a+f+f+(+(+'+k+M.`.-.` < .   <                                                                                                                                                             ",
"                                                                                                                                                                        . . ] ` l.E.d.#+;+5+5+9+9+h+f+(+ + + + + + +(+(+}+}+(+ +}+k+M.{.8.] < . . .                                                                                                                                                             ",
"                                                                                                                                                                      . . . ] ` 8.3+n+Z.;+5+5+9+h+o+a+(+ + + + + +(+(+(+(+ + + +'+k+E.{.-.+ < . .                                                                                                                                                               ",
"                                                                                                                                                                        . . ] ` 8.3+n+#+;+5+9+9+h+p+(+ + + + + + +(+ +(+(+(+(+ +(+n+3+`.8.+ <   <                                                                                                                                                               ",
"                                                                                                                                                                        . . < + -.{.q+*+;+5+9+h+j+f+(+ + + + + + +(+ +(+(+ + + +(+r+3+l.8.` < . . .                                                                                                                                                             ",
"                                                                                                                                                                          < < + 8.l.s+@+:+2+7+0+o+a+(+ + + + + + + + + +(+ + + + +t+3+l.` + < . .                                                                                                                                                               ",
"                                                                                                                                                                        . . < ] ` l.u+F.)+/+8+v+p+a+ + + + + + + + + + +(+ + + +(+t+3+8.` ] < . . .                                                                                                                                                             ",
"                                                                                                                                                                          . < ] ` 8.l+w+=+_+v+p+a+}+(+ + + + + + + +(+(+(+ + + +(+x+{.8.+ ] < . .                                                                                                                                                               ",
"                                                                                                                                                                          . < < + 8.`.y+'+}+8+8+a+(+ + + + + + + + +(+a+}+(+ +(+'+z+l.` + ] <   .                                                                                                                                                               ",
"                                                                                                                                                                          . . < + ` `.6+++~+:+9+p+}+(+(+(+(+(+(+(+(+(+p+f+a+}+(+'+y+8.` ] < < . .                                                                                                                                                               ",
"                                                                                                                                                                              < ] ` 8.g+R.=+<+5+0+a+(+(+(+(+(+(+(+(+}+0+d+/+[+'+i.u+` ` ] < <                                                                                                                                                                   ",
"                                                                                                                                                                            < . < + ` `.z+T.;+<+9+v+(+(+(+(+(+(+(+(+}+9+<+]+#+J.A+`.` ] < <   .                                                                                                                                                                 ",
"                                                                                                                                                                          . . . < ] ` 8.s+w.U.;+<+:+a+(+}+(+(+(+(+(+_+<+;+U.d.w+s+` + < . . .                                                                                                                                                                   ",
"                                                                                                                                                                            . . < ] ] ` g+6.d.G.;+5+c+}+(+(+(+(+(+(+[+;+G.$+b+s+i+` < < . . .                                                                                                                                                                   ",
"                                                                                                                                                                              . . < ] ` l.%+b+&+G.;+:+_+(+(+(+(+(+~+#+b.&+b+%+g+-.] < . . .                                                                                                                                                                     ",
"                                                                                                                                                                                . < < ] ` M.6+1+&+G.;+*+}+(+(+(+++x+B+b+1+6+M.` ] ] . .   .                                                                                                                                                                     ",
"                                                                                                                                                                                    . < < ` `.g+%+b+$+A.L.C+C+J.(.q+%+u+l+l.` + < . . .                                                                                                                                                                         "};
