/* XPM */
static char * 8_xpm[] = {
"200 180 256 2",
"  	c #000000",
". 	c #120500",
"+ 	c #230B00",
"@ 	c #3B1200",
"# 	c #5B1A00",
"$ 	c #1B0A00",
"% 	c #631D00",
"& 	c #2B0D00",
"* 	c #0A0400",
"= 	c #190700",
"- 	c #140800",
"; 	c #4B1600",
"> 	c #701F01",
", 	c #842501",
"' 	c #320E00",
") 	c #511700",
"! 	c #942A01",
"~ 	c #9B2C01",
"{ 	c #431300",
"] 	c #732201",
"^ 	c #AA2F01",
"/ 	c #A43D10",
"( 	c #B23302",
"_ 	c #892701",
": 	c #B13A09",
"< 	c #C54A1A",
"[ 	c #A42E01",
"} 	c #C84715",
"| 	c #D34B15",
"1 	c #A93A0A",
"2 	c #7D2401",
"3 	c #762A05",
"4 	c #6B1E00",
"5 	c #BA3502",
"6 	c #C84509",
"7 	c #B93D09",
"8 	c #BB3905",
"9 	c #DB521C",
"0 	c #A43103",
"a 	c #CB3C04",
"b 	c #8D2A02",
"c 	c #9C3204",
"d 	c #BC4516",
"e 	c #9B3911",
"f 	c #C03702",
"g 	c #341301",
"h 	c #632304",
"i 	c #AB3202",
"j 	c #C43903",
"k 	c #D43C02",
"l 	c #DD490D",
"m 	c #E74B09",
"n 	c #EB5519",
"o 	c #EF5C22",
"p 	c #FC651A",
"q 	c #D84608",
"r 	c #FF6D21",
"s 	c #E24304",
"t 	c #F65A15",
"u 	c #E84504",
"v 	c #F54C05",
"w 	c #F44B05",
"x 	c #FC4D06",
"y 	c #FD5409",
"z 	c #FE5B09",
"A 	c #4C1A01",
"B 	c #A43A05",
"C 	c #FF6409",
"D 	c #CB4206",
"E 	c #6B2101",
"F 	c #FF6C0A",
"G 	c #FF7B21",
"H 	c #FF7E1B",
"I 	c #FF9631",
"J 	c #FA5209",
"K 	c #FF740C",
"L 	c #FF8422",
"M 	c #DB4204",
"N 	c #FF831B",
"O 	c #FF962B",
"P 	c #FF9C32",
"Q 	c #FF8B2A",
"R 	c #FF7A14",
"S 	c #FF7C0C",
"T 	c #FFA336",
"U 	c #FF7221",
"V 	c #ED5309",
"W 	c #FF9223",
"X 	c #FF8512",
"Y 	c #FE8D1C",
"Z 	c #FFAA3A",
"` 	c #FF8C24",
" .	c #6A2C01",
"..	c #FFB341",
"+.	c #FF8C11",
"@.	c #531A01",
"#.	c #2B1400",
"$.	c #FFA830",
"%.	c #FF992C",
"&.	c #7B2A05",
"*.	c #FA9A1A",
"=.	c #883507",
"-.	c #5B2402",
";.	c #FF820C",
">.	c #FF9419",
",.	c #B54906",
"'.	c #E76907",
").	c #E95707",
"!.	c #431C00",
"~.	c #FF9411",
"{.	c #241100",
"].	c #FF8B0B",
"^.	c #F66707",
"/.	c #FF9C11",
"(.	c #532201",
"_.	c #D85D07",
":.	c #FF940B",
"<.	c #973907",
"[.	c #BB5205",
"}.	c #FFA411",
"|.	c #AF4D05",
"1.	c #FF9C0C",
"2.	c #FFA719",
"3.	c #F87807",
"4.	c #331900",
"5.	c #4B2300",
"6.	c #FFA30C",
"7.	c #FEB31D",
"8.	c #FEBD32",
"9.	c #FC8A03",
"0.	c #B55A04",
"a.	c #FFD33B",
"b.	c #3B1B00",
"c.	c #C75804",
"d.	c #FFCB32",
"e.	c #FFDA43",
"f.	c #FFC22C",
"g.	c #FFAD12",
"h.	c #0E0800",
"i.	c #FFAB0A",
"j.	c #FFB30A",
"k.	c #FFD235",
"l.	c #FFE43B",
"m.	c #452301",
"n.	c #FFBB1C",
"o.	c #FFDE3B",
"p.	c #FFEB43",
"q.	c #2F1800",
"r.	c #FFC624",
"s.	c #FFE541",
"t.	c #FFB313",
"u.	c #FA7713",
"v.	c #FFDC35",
"w.	c #A74505",
"x.	c #FFCA24",
"y.	c #FFC11B",
"z.	c #FFD32D",
"A.	c #FFDC2D",
"B.	c #FFCC29",
"C.	c #1F1000",
"D.	c #944302",
"E.	c #FFBB13",
"F.	c #FFBB09",
"G.	c #FDB729",
"H.	c #843B04",
"I.	c #6C3201",
"J.	c #FFF443",
"K.	c #FFC633",
"L.	c #763704",
"M.	c #F69029",
"N.	c #FFE334",
"O.	c #FFC311",
"P.	c #FFC639",
"Q.	c #5B2B01",
"R.	c #FFFF41",
"S.	c #FFF33C",
"T.	c #FFD323",
"U.	c #FFBB03",
"V.	c #FCA728",
"W.	c #FFEC3B",
"X.	c #FFCB19",
"Y.	c #FFDC24",
"Z.	c #FFD31A",
"`.	c #FFE52B",
" +	c #FFEC33",
".+	c #FFCC0A",
"++	c #FFC50A",
"@+	c #FFC504",
"#+	c #8C4502",
"$+	c #613202",
"%+	c #FFCC14",
"&+	c #994B03",
"*+	c #502A03",
"=+	c #FFE423",
"-+	c #FFFF3C",
";+	c #C67616",
">+	c #CB6705",
",+	c #FFF235",
"'+	c #FFD413",
")+	c #FFCC03",
"!+	c #FFFD34",
"~+	c #FFEC2B",
"{+	c #E6941A",
"]+	c #E88203",
"^+	c #FFF32C",
"/+	c #5B3104",
"(+	c #F79406",
"_+	c #FFDD1D",
":+	c #FFEC1C",
"<+	c #FFE31A",
"[+	c #FFD50A",
"}+	c #FFDA14",
"|+	c #A85604",
"1+	c #FFEA25",
"2+	c #D86604",
"3+	c #FFAC03",
"4+	c #FFD304",
"5+	c #FFE214",
"6+	c #FFFB2C",
"7+	c #F98803",
"8+	c #F18402",
"9+	c #FFDB0A",
"0+	c #FF9E02",
"a+	c #EA7802",
"b+	c #3C2001",
"c+	c #FFB303",
"d+	c #FFA403",
"e+	c #FFF925",
"f+	c #FFF422",
"g+	c #FFE60A",
"h+	c #FFEA15",
"i+	c #FFF31C",
"j+	c #DB7403",
"k+	c #9C5203",
"l+	c #FFDC03",
"m+	c #FFE303",
"n+	c #4C2902",
"o+	c #CA7309",
"p+	c #874908",
"q+	c #693C06",
"r+	c #BC6808",
"s+	c #FFF818",
"t+	c #563004",
"u+	c #794509",
"v+	c #F6C32F",
"w+	c #D99724",
"x+	c #9E6014",
"y+	c #D48214",
"z+	c #D7851C",
"A+	c #6E4109",
"B+	c #8A510C",
"C+	c #B66B10",
"D+	c #BB7115",
"E+	c #E28F1F",
"F+	c #9B5D10",
"G+	c #FFFFFF",
"                                                                                                                                                                                                                                                                                                                                                                                                                ",
"                                                                                                                                                                                                                                                                                                                                                                                                                ",
"                                                                                                                                                                                                                                                                                                                                                                                                                ",
"                                                                                                                                                                                                                                                                                                                                                                                                                ",
"                                                                                                                                                                                                                                                                                                                                                                                                                ",
"                                                                                                                                                                                                                                                                                                                                                                                                                ",
"                                                                                                                                                                                                                                                                                                                                                                                                                ",
"                                                                                                                                                                                                                                                                                                                                                                                                                ",
"                                                                                                                                                                                                                                                                                                                                                                                                                ",
"                                                                                                                                                                                                                                                                                                                                                                                                                ",
"                                                                                                                                                                                                                                                                                                                                                                                                                ",
"                                                                                                                                                                                                                                                                                                                                                                                                                ",
"                                                                                                                                                                                                                                                                                                                                                                                                                ",
"                                                                                                                                                                                                                                                                                                                                                                                                                ",
"                                                                                                                                                                                                                                                                                                                                                                                                                ",
"                                                                                                                                                                                                                                                                                                                                                                                                                ",
"                                                                                                                                                                                                                                                                                                                                                                                                                ",
"                                                                                                                                                                                                                                                                                                                                                                                                                ",
"                                                                                                                                                                                                                                                                                                                                                                                                                ",
"                                                                                                                                                                                                                                                                                                                                                                                                                ",
"                                                                                                                                                                                                                                                                                                                                                                                                                ",
"                                                                                                                                                                                                                                                                                                                                                                                                                ",
"                                                                                                                                                                                                                                                                                                                                                                                                                ",
"                                                                                                                                                                                                                                                                                                                                                                                                                ",
"                                                                                                                                                                                                                                                                                                                                                                                                                ",
"                                                                                                                                                                                                                                                                                                                                                                                                                ",
"                                                                                                                                                                                                                                                                                                                                                                                                                ",
"                                                                                                                                                                                                                                                                                                                                                                                                                ",
"                                                                                                                                                                                                                                                                                                                                                                                                                ",
"                                                                                                                                                                                                                                                                                                                                                                                                                ",
"                                                                                                                                                                                                                                                                                                                                                                                                                ",
"                                                                                                                                                                                                                                                                                                                                                                                                                ",
"                                                                                                                                                                                                                                                                                                                                                                                                                ",
"                                                                                                                                                                                                                                                                                                                                                                                                                ",
"                                                                                                                                                                                                                                                                                                                                                                                                                ",
"                                                                                                                                                                                                                                                                                                                                                                                                                ",
"                                                                                                                                                                                                                                                                                                                                                                                                                ",
"                                                                                                                                                                                                                                                                                                                                                                                                                ",
"                                                                                                                                                                                                                                                                                                                                                                                                                ",
"                                                                                                                                                                                                                                                                                                                                                                                                                ",
"                                                                                                                                                                                              .                                                                                                                                                                                                                 ",
"                                                                                                                                                                                              +                                                                                                                                                                                                                 ",
"                                                                                                                                                                                            . @ .                                                                                                                                                                                                               ",
"                                                                                                                                                                                            . # $                                                                                                                                                                                                               ",
"                                                                                                                                                                                            . % &                                                                                                                                                                                                               ",
"                                                                                                                                                                                            . # &                                                                                                                                                                                                               ",
"                                                                                                                                                                                          * . @ +                                                                                                                                                                                                               ",
"                                                                                                                                                                                              + .                                                                                                                                                                                                               ",
"                                                                                                                                                                                              *                                                                                                                                                                                                                 ",
"                                                                                                                                                                                                                                                                                                                                                                                                                ",
"                                                                                                                                                                                                                                                                                                                                                                                                                ",
"                                                                                                                                                                                                                                                                                                                                                                                                                ",
"                                                                                                                                                                                                                                                                                                                                                                                                                ",
"                                                                                                                                                                                                                                                                                                                                                                                                                ",
"                                                                                                                                                                                                                                                                                                                                                                                                                ",
"                                                                                                                                                                                                                                                                                                                                                                                                                ",
"                                                                                                                                                                                                                                                                                                                                                                                                                ",
"                                                                                                                                                                                                                                                                                                                                                                                                                ",
"                                                                                                                                                                                                                                                                                                                                                                                                                ",
"                                                                                                                                                                                                                                                                                                                                                                                                                ",
"                                                                                                                                                                                                                                                                                                                                                                                                                ",
"                                                                                                                                                                                                                                                                                                                                                                                                                ",
"                                                                                                                                                                                                                                                                                                                                                                                                                ",
"                                                                                                                                                                                                                                                                                                                                                                                                                ",
"                                                                                                                                                                                                                                                                                                                                                                                                                ",
"                                                                                                                                                                                                                                                                                                                                                                                                                ",
"                                                                                                                                                                                    *                                                                                                                                                                                                                           ",
"                                                                                                                                                                                * * * * *   *             * *                                                                                                                                                                                                   ",
"                                                                                                                                                                              * * * * . . * * *           * * *                                                                                                                                                                                                 ",
"                                                                                                                                                                              * . . = - $ . * *               $ * *                                                                                                                                                                                             ",
"                                                                                                                                                                          * * . = - = & @ = . * *     *   * * @ $   *                                                                                                                                                                                           ",
"                                                                                                                                                                        * . . - = = $ ; % = . * *     * * * * # & * *                                                                                                                                                                                           ",
"                                                                                                                                                                      * * . - = $ + & > , + = * *     *     * > ' * *                                                                                                                                                                                           ",
"                                                                                                                                                                      . . . = + ' @ ) ! ~ ' = . * * *       * % &                 *                                                                                                                                                                             ",
"                                                                                                                                                                    *   . - $ { ) # ] ^ ^ @ = . . . *       * ; +         * * * . . * * * *                                                                                                                                                                     ",
"                                                                                                                                                                      * . . + % > ] / ( ^ ; = = * * *         & .     . * * * * * . . . * . *                                                                                                                                                                   ",
"                                                                                                                                                                      . . = ' _ ! : < : ^ ; $ . . * *         *   * * * * * . = = = - = - . . * *                                                                                                                                                               ",
"                                                                                                                                                                      . . = { [ ( } | : ^ { = . -   * * * *           * * . = & ' + $ $ = = . . . *                                                                                                                                                             ",
"                                                                                                                                                                      * * = # [ 1 < < : ! ' = . . * * * * *           * * * = @ # @ & & + $ $ . . *                                                                                                                                                             ",
"                                                                                                                                                                      * * * > [ ! / : ~ 2 + = . . . . * * * * * *   * * . = $ ) , % ; { & + $ $ . . .                                                                                                                                                           ",
"                                                                                                                                                                      * . . > ~ ] 3 3 ] # = = . . . . . * . . *       * . = = 4 [ _ > % ) ' + $ = . *                                                                                                                                                           ",
"                                                                                                                                                                      . * * # , { { ; ; & . = . = = . = . . . . . * . . . = + ] ( ( ^ ! , ) & + $ . . . .                                                                                                                                                       ",
"                                                                                                                                                                        * * @ % $ $ & + = . . = = = $ $ = = = . . . . . . = & , 5 6 } 7 ^ , { & + = . .                                                                                                                                                         ",
"                                                                                                                                                                            + @ * * . . . . = + & ' & + + + = = . . . . = = @ ! 8 } | 9 } 0 4 ; ' = . .                                                                                                                                                         ",
"                                                                                                                                                                            * . * * * . . . $ { # # # ; ' & + + = = = . . = # 0 : } } 9 9 a b > # + - . . *                                                                                                                                                     ",
"                                                                                                                                                                                  * *   . . $ # 2 2 2 > # @ & + + = = . . = > ^ c c 1 d < d ^ ! ] ' - . * *                                                                                                                                                     ",
"                                                                                                                                                                                      * * . $ 4 ~ [ [ ~ 2 # { @ + + $ = = = 2 b > > 3 e e e ^ ( ! { . . .                                                                                                                                                       ",
"                                                                                                                                                                                      *   . = % ( 5 f f ( ! ] % g + $ = = . 4 # { { { ) h % b ^ i # = . .                                                                                                                                                       ",
"                                                                                                                                                                                        * . . { ! ^ 5 j k 5 ~ _ # & = = . . ; @ $ = $ + ' @ > 0 i 4 - . .   *                                                                                                                                                   ",
"                                                                                                                                                                                          . . & > _ [ a k l a ( , ' + = . . + = . . . . . $ { , 0 > = . . * *                                                                                                                                                   ",
"                                                                                                                                                                                          * . = ; % > ^ m n n k ( # + $ . .   * *   . * . . + # ~ > . . . .                                                                                                                                                     ",
"                                                                                                                                                                                          * * . + @ ) ! l n o n a > + $ . . * *   * *   . . . g 2 4 . = . . * .                                                                                                                                                 ",
"                                                                                                                                                                                          * * . = + ' 4 a o p o q , + . . * *         .   . . = # # = = . . *                                                                                                                                                   ",
"                                                                                                                                                                                              . = + + { ( m p r l , $ . . .             * * . . g ; = = = . . . *                                                                                                                                               ",
"                                                                                                                                                                                            . . . + + ' ~ s t r | % = . *               * * . - + & & + $ = - . *                                                                                                                                               ",
"                                                                                                                                                                                            * . = = & ' ! s t o / { = . * .           * * . . = $ & # { + $ - . . *                                                                                                                                             ",
"                                                                                                                                                                                              . = $ + ' ^ u v < ] & $ * * *             * . = = + @ b > { & + . . *                                                                                                                                             ",
"                                                                                                                                                                                            * . = + & ) j u u e ; + $ . * *       * * . * * = = + % 5 ! ] # & = . * *                                                                                                                                           ",
"                                                                                                                                                                                          * * . . + & ! s w s # ' + $ . . * *   *       * . = + ' ! u a ^ b ' = . * *                                                                                                                                           ",
"                                                                                                                                                                                          *   . $ + ' f w v k { & + + . . * * *       * . . = + ; j u u k f { = . . *                                                                                                                                           ",
"                                                                                                                                                                                        * * . . $ + g s x x k { ' & + = - . .     * * * . . = + # s u s u s { . . *                                                                                                                                             ",
"                                                                                                                                                                                * * . .   . . . + & @ s x x u ; @ ' & $ = . . . * * * . . - $ + 4 u a 5 k s @ . . *                                                                                                                                             ",
"                                                                                                                                                                                  * * * . . . $ + & @ k y y v # { @ & & + $ = . . . . * . = $ + % u ( _ ( ( & . *                                                                                                                                               ",
"                                                                                                                                                                            * * . . . . . . = $ + ' @ 8 y y x 2 ; { @ g & + + = = . . . - = $ + ) f > ) , , = . * *                                                                                                                                             ",
"                                                                                                                                                                          * . . = $ $ $ $ $ = + & @ { i z y z f % A ; @ ' ' & + $ $ $ - = + g & ' , @ + { ; .                                                                                                                                                   ",
"                                                                                                                                                                        * . . - $ g + + + + & ' ' { ; B z z C u _ # ) ; @ @ ) ' + $ $ = = @ 4 # @ ) + . = = * *                                                                                                                                                 ",
"                                                                                                                                                                      * * . . $ + > ' ' ' ' ' @ @ ; ) : C C C z 6 , # ) ) # _ % + $ $ $ = ) b _ % + = . . * *                                                                                                                                                   ",
"                                                                                                                                                                      * . . $ + @ ^ ; g @ { @ { A ) # D C C C C t 7 _ h ] b f [ & + $ = = ) i 5 , . . . * .                                                                                                                                                     ",
"                                                                                                                                                                      * . - + & # s E ; ; A ) ) # % ] q C F F F G t 8 0 i j w a ' + = = - ; [ u 0 . . * * *                                                                                                                                                     ",
"                                                                                                                                                                    * * . . + ' c y i h # # % % E ] c z F F F H I r v s u J y w ' + = - . & 4 a ! . * *                                                                                                                                                         ",
"                                                                                                                                                                      . . = & g q z q [ b 2 , _ ! c s F F K K L I L z y z z y M ' $ - - . . @ ! % * * *                                                                                                                                                         ",
"                                                                                                                                                                      . . + & { v C y l | 6 6 k M s z K K K L I I N C z z z y ( & - - . * . = % g *                                                                                                                                                             ",
"                                                                                                                                                                    * * - $ & ) z C C C r r p p z z F K K H O P Q p v J y J M E = . . * *   . + *                                                                                                                                                               ",
"                                                                                                                                                                      . . $ & A z C F K N Q Q G R K S K K N T T U V a a M M c ' - . * * *                                                                                                                                                                       ",
"                                                                                                                                                                      . . $ & { z C F K L I T T W X S S S Y Z O t 5 b b [ c % = . .                                                                                                                                                                             ",
"                                                                                                                                                                      * . $ & @ V C F K R W Z Z Z O S S S ` T ` D  .A { # ) + . * * *                                                                                                                                                                           ",
"                                                                                                                                                                      * . = + g a C F K K X P ....P +.S S W T N c @.{ #.& $ . .                                                                                                                                                                                 ",
"                                                                                                                                                                        . . $ & ~ z C K K S O ....$.X X S ` %.R , ) { & + = . * *                                                                                                                                                                               ",
"                                                                                                                                                                          . = & # M C K K S ` Z ..T X X X X Y R &.) { & $ . * *                                                                                                                                                                                 ",
"                                                                                                                                                                          . - + g c V F K S X $...*.X X X S X K =.@.{ & + - . * *                                                                                                                                                                               ",
"                                                                                                                                                                        * * . = & -.8 z K S ;.%.$.>.+.+.X S X K B # { g + = . * *                                                                                                                                                                               ",
"                                                                                                                                                                          * . - + g ] l K S S >.*.+.+.+.X X ;.S ,.# A g & + . . * *                                                                                                                                                                             ",
"                                                                                                                                                                          * * - + & ; i F K ;.Y >.+.+.+.X +.X S | h @.{ ' + $ - . * *                                                                                                                                                                           ",
"                                                                                                                                                                          * * . = & g h F S S +.+.+.+.+.+.+.+.X '.&.-.A g ' + $ - . * *                                                                                                                                                                         ",
"                                                                                                                                                                          * * . = + ' A ).S ;.X +.+.+.+.+.+.+.+.K : E @.!.@ ' + $ = . * *                                                                                                                                                                       ",
"                                                                                                                                                                          *   * - + ' { 6 K ;.X +.+.~.~.+.~.~.+.;.V =.h @.!.g ' {.$ - . * *                                                                                                                                                                     ",
"                                                                                                                                                                              . - $ #.{ b K ;.].+.~.~.~.~.~.~.+.+.K q 3 h -.A @ g {.$ - . *                                                                                                                                                                     ",
"                                                                                                                                                                              * . $ & @ -.^.X ].~.~.~.~./././.~.~.X ^.B 3 h (.# !.' + $ - .                                                                                                                                                                     ",
"                                                                                                                                                                              . . - #.{ A _.;.].:./././././././.~.:.S ).c &.=.<.&.g #.+ . . *                                                                                                                                                                   ",
"                                                                                                                                                                              * . $ {.g A [.;.].:./././././././.}./.~.K ).q q ).6 (.g + = . * *                                                                                                                                                                 ",
"                                                                                                                                                                              * . - #.@ A |.+.].1././././.1././.2.2.1.].3.C C K C 3 4.& $ - *                                                                                                                                                                   ",
"                                                                                                                                                                              * . $ {.g 5.|.].~.:.1.1.}.6.1.1.}.7.8.}.1.9.S S ;.K B g & + - *                                                                                                                                                                   ",
"                                                                                                                                                                        *     . . $ #.{ A 0.].:.1.6.}.6.6.6.6.6.8.a.7.1.1.:.].].;.[.4.#.$ - *                                                                                                                                                                   ",
"                                                                                                                                                                            * * - $ g b.(.c.].:.1.6.6.6.6.6.6.6.d.e.f.g.1.1.:.].;.[.@ & + - * *   *                                                                                                                                                             ",
"                                                                                                                                                                        *   * h.- + g !.(._.:.:.6.6.6.i.6.6.6.j.k.l.k.g.1.1.:.].;.,.4.& $ - *                                                                                                                                                                   ",
"                                                                                                                                                          *             * * * h.$ {.g m.(.'.:.1.6.i.i.i.i.i.6.n.o.p.o.g.6.1.1.].;.<.b.& = - h.                                                                                                                                                                  ",
"                                                                                                                                                                          h.. - $ q.b.@.h 3.1.6.6.i.i.i.i.i.i.r.s.p.l.t.6.1.:.~.u.3 g & = - *                                                                                                                                                                   ",
"                                                                                                                                                                          * h.= {.g ; (.=.].1.6.g.n.t.j.i.j.n.v.s.s.a.t.6.6.:.:.'.(.g {.- h.*       *                                                                                                                                                           ",
"                                                                                                                                                        *               * - - {.#.b.5.-.w.:.1.g.r.x.n.j.n.y.z.l.v.A.B.j.6.1.1.1.[.!.g + - . *                                                                                                                                                                   ",
"                                                                                                                                                                    * . - $ $ #.@ !.(. ._.6.7.n.z.o.B.x.B.z.v.l.B.x.n.j.6.6.2.2./ !.#.C.- . *       *                                                                                                                                                           ",
"                                                                                                                                                                  * h.h.- C.& b.!.(.h D.X n.r.z.l.s.o.v.l.s.p.A.E.F.j.i.i.6.G.G.H.!.#.+ - h.*     *                                                                                                                                                             ",
"                                                                                                                                                  *               * - - C.& g !.5.-.I._.7.k.o.s.p.J.p.p.J.J.l.x.j.j.j.j.i.i.K.8.L.b.g C.- * *                                                                                                                                                                   ",
"                                                                                                                                                                * . - $ {.q.b.(.-.I.|.M.k.s.s.p.J.J.J.J.J.J.N.O.F.j.j.F.i.t.k.P.L.m.#.+ - . *                                                                                                                                                                   ",
"                                                                                                                                                  *             * h.$ {.4.!.Q.=.H.w.u.K.s.p.J.J.J.J.R.J.J.S.T.F.F.U.F.j.E.x.e.P.L.!.q.{.- - * *   *                                                                                                                                                             ",
"                                                                                                                                                              * h.- + q.b.A <.c.c.'.V.s.W.W.W.J.J.R.R.J.R.J.x.F.F.F.F.U.X.v.e.K.H.!.b.{.= - * * *                                                                                                                                                               ",
"                                                                                                                                                              * - = {.4.!. .'.3.3.>.k.W.W.N.N.N.J.J.J.R.J.J.O.F.F.F.F.F.x.l.s.f.H.A 4.{.$ - h.* *                                                                                                                                                               ",
"                                                                                                                                                  *           * - $ q.g (.[.9.1.1.r.W.N.A.Y.Z.Z.`.S.R.R.R. +.+++@+F.F.F.T.s.s.r.#+5.b.q.{.= - h.*                                                                                                                                                               ",
"                                                                                                                                                            * h.- {.4.m.$+^.1.i.E.N.W.Y.X.%+O..+Z. +J.R.R.`.++++++++++@+x.W.s.x.&+*+!.4.{.{.- h..                                                                                                                                                               ",
"                                                                                                                                                            * h.- {.b.5.D.].i.i.X.W.`.%+O.++++++.+=+R.R.R.`.++++++++++++%+W.p.z.0.Q.5.!.4.{.$ - - *                                                                                                                                                             ",
"                                                                                                                                                            * - $ {.b.5.0.6.i.F.T.J.Y.++++++@+++++Z. +-+R.`..+++++++++++O.W.J.v.;+$+(.5.b.q.{.C.- - h.*                                                                                                                                                         ",
"                                                                                                                                                            h.- $ {.!.(.>+i.i.O.`.,+'+++++)+.+.+.+%+=+!+R.~+%+.+.+++++++%+,+J.l.{+I.Q.(.m.b.4.{.C.- h.*                                                                                                                                                         ",
"                                                                                                                                                    *     . * - {.#.m.Q.]+j.j.%+ +~+%+.+.+.+.+.+.+.+'+`.R.^+'+)+.+.+.+.+Y.-+J.J.7.H.I./+(.-.5.q.{.= h.h.*                                                                                                                                                       ",
"                                                                                                                                                    *     * h.- {.q.!.I.(+j.F.%+`._+.+.+.+.+)+.+.+.+.+:+R.S.<+'+[+'+}+_+`.R.R.R.B.|+L.I.$+D.#+; #.$ - - *                                                                                                                                                       ",
"                                                                                                                                                            h.= {.q.A &+1.j.U.%+_+'+)+.+)+)+)+)+)+)+)+<+R.-+~+<+<+=+1+^+-+R.R.R.`.2+D.L.#+2+>+I.q.{.= h.*                                                                                                                                                       ",
"                                                                                                                                                            * - {.4.m.2+3+j.F..+%+)+)+)+4+[+[+[+[+[+[+5+R.R.-+6+6+!+!+-+-+R.R.R.^+9.'.c.'.7+7+0.4.{.C.- *                                                                                                                                                       ",
"                                                                                                                                                            . - {.q.5.8+3+j.F..+.+)+[+[+9+[+[+9+[+[+[+<+R.R.R.-+-+R.R.R.R.R.R.R.,+i.9.7+9.0+0+a+b+#.$ - * *                                                                                                                                                     ",
"                                                                                                                                                        *   . - {.q.m.(+3+c+@+++)+)+[+[+9+5+<+<+9+[+[+1+-+R.R.R.R.R.R.R.-+-+R.R.^+++d+0+d+3+d+8+!.q.$ - .                                                                                                                                                       ",
"                                                                                                                                                            h.- C.q.m.(+c+U.U.++)+4+[+9+:+e+6+e+5+[+[+e+R.R.-+R.R.R.-+!+e+!+R.R.~+[+@+U.U.c+3+(+b.{.C.h.* *                                                                                                                                                     ",
"                                                                                                                                                          * * - $ #.m.8+3+c+@+@+)+4+[+<+6+!+-+-+f+g+5+!+R.R.R.R.R.R.-+e+h+i+-+R.~+[+++@+U.c+d+a+b.{.$ h.*                                                                                                                                                       ",
"                                                                                                                                                            * - C.{.b.j+3+c+U.)+)+4+5+e+!+R.R.R.6+:+i+-+R.R.R.R.R.R.-+h+9+5+6+-+!+5+)+@+U.c+d+>+4.{.$ - *                                                                                                                                                       ",
"                                                                                                                                                              h.- {.4.k+d+c+U.@+)+4+:+-+-+R.R.R.-+!+!+R.R.R.R.R.R.R.6+9+9+[+i+-+-+~+'+U.U.3+9.D.q.C.h.h.*                                                                                                                                                       ",
"                                                                                                                                                            * h.- $ q.$+7+c+c+@+)+[+6+R.R.R.R.R.-+-+-+R.R.R.R.R.R.R.e+9+l+l+:+-+-+!+_+@+c+d+j+/+{.- - *                                                                                                                                                         ",
"                                                                                                                                                              * - $ {.m.j+3+c+@+)+'+!+R.R.R.R.R.R.R.R.R.-+R.R.R.R.-+i+l+l+l+i+!+-+-+1+F.c+9.k+4.{.- h.*                                                                                                                                                         ",
"                                                                                                                                                              . - - {.4.&+9.3+U.@+_+-+R.R.R.R.R.-+R.R.-+R.R.R.R.R.-+f+l+l+l+f+!+^+!+ +++0+j+/+{.$ - * *                                                                                                                                                         ",
"                                                                                                                                                                * - C.{./+j+0+c+++1+R.R.R.R.R.R.R.-+R.R.R.R.-+R.R.R.e+m+l+l+i+e+5+!+,+t.a+&+4.{.$ h.*                                                                                                                                                           ",
"                                                                                                                                                                * h.- C.4.#+a+3+++^+R.R.R.R.R.R.R.R.-+R.R.R.R.R.R.R.e+m+m+l+h+5+[+^+S.(+|+*+#.C.h.h.                                                                                                                                                            ",
"                                                                                                                                                                  * h.$ {.n+|+7+t.S.R.R.R.R.R.R.R.R.-+R.R.R.R.R.R.R.6+g+m+l+9+l+)+=+N.o+/+4.C.- .                                                                                                                                                               ",
"                                                                                                                                                                  * h.h.$ #.$+>+(+S.R.-+R.R.R.R.R.R.R.R.R.R.R.R.R.-+!+g+m+m+l+4+)+=+x.p+b.q.$ - * *                                                                                                                                                             ",
"                                                                                                                                                                    h.h.- {.4.q+r+v.R.R.R.R.R.R.R.R.R.R.R.R.R.-+R.R.-+s+g+m+l+4+)+Y.{+t+4.{.- h.*                                                                                                                                                               ",
"                                                                                                                                                                    * h.- {.#.b+u+v+-+R.R.R.R.R.R.R.R.R.R.R.R.R.R.R.-+e+s+h+4+4+++T.o+b.q.C.h.* * *                                                                                                                                                             ",
"                                                                                                                                                                      h.- - C.q.m.w+J.R.R.R.R.R.R.R.R.R.R.R.R.R.R.R.-+!+6+f+l+)+++t.p+4.{.C.h.* *                                                                                                                                                               ",
"                                                                                                                                                                      * h.- - {.4.x+o.-+-+R.-+-+-+-+R.R.R.R.R.R.R.R.R.-+-+6+[+@+U.y+*+q.C.- h.* *                                                                                                                                                               ",
"                                                                                                                                                                        h.- - C.& q+G.W.R.-+-+-+-+-+-+-+-+-+-+-+-+-+-+-+-+-+}+U.d+k+4.{.- - h.* *                                                                                                                                                               ",
"                                                                                                                                                                        * h.- - {.b+z+P.W.-+-+-+-+-+-+-+-+-+-+-+-+-+-+-+-+-+'+c+j+/+{.C.- - *                                                                                                                                                                   ",
"                                                                                                                                                                          * h.h.$ {.A+z+8.W.-+-+-+-+-+-+-+-+-+-+-+-+-+-+-+-+y.]+B+q.C.- h.*   *                                                                                                                                                                 ",
"                                                                                                                                                                          * * h.h.C.b+B+z+v+ +-+^+6+-+-+-+-+-+-+-+-+-+-+S.N.(+|+n+{.- h.h.* *                                                                                                                                                                   ",
"                                                                                                                                                                              h.h.- C.b+p+z+f.N.=+1+!+-+-+-+-+-+-+-+J.l.k.$.C+$+{.C.- h.* * *                                                                                                                                                                   ",
"                                                                                                                                                                              * h.- - C.4.B+z+V.t.O.=+,+-+-+-+S.W.v.d.G.{+;+A+{.$ - h.h.*                                                                                                                                                                       ",
"                                                                                                                                                                                * h.h.- C.b+u+D+j+(+g.r.v.a.k.v+G.V.E+D+F+q+#.- h.h.* *   *                                                                                                                                                                     ",
"                                                                                                                                                                                  * h.h.h.C.#.t+p+k+C+y+{+E+z+z+D+F+u+t+b+{.- h.h.* * *                                                                                                                                                                         "};
