/* XPM */
static char * 2_xpm[] = {
"202 272 146 2",
"  	c None",
". 	c #A76000",
"+ 	c #AA6200",
"@ 	c #A35E01",
"# 	c #754600",
"$ 	c #201E1B",
"% 	c #202224",
"& 	c #4C320F",
"* 	c #C37300",
"= 	c #CB7901",
"- 	c #BD7305",
"; 	c #D78304",
"> 	c #7B4603",
", 	c #0E0F10",
"' 	c #5B3605",
") 	c #FF9800",
"! 	c #FB9600",
"~ 	c #AF6800",
"{ 	c #0A0806",
"] 	c #060709",
"^ 	c #B86C03",
"/ 	c #B56C00",
"( 	c #857457",
"_ 	c #8C7955",
": 	c #7F7158",
"< 	c #87806F",
"[ 	c #8C8574",
"} 	c #876C42",
"| 	c #EC8C01",
"1 	c #996E2B",
"2 	c #878171",
"3 	c #837B6A",
"4 	c #C2B389",
"5 	c #EBC881",
"6 	c #BAA983",
"7 	c #CAD6D3",
"8 	c #EBFEFE",
"9 	c #EBF8F6",
"0 	c #E9F6F6",
"a 	c #BAB198",
"b 	c #F49100",
"c 	c #BD9A5D",
"d 	c #E3F4F4",
"e 	c #C9D7D8",
"f 	c #EEC97F",
"g 	c #D5C79B",
"h 	c #F1CB7F",
"i 	c #D2DAD5",
"j 	c #F1FFFF",
"k 	c #C6BA9E",
"l 	c #C09D61",
"m 	c #F0C586",
"n 	c #C3B595",
"o 	c #F0FAF4",
"p 	c #E38B08",
"q 	c #D5E3E3",
"r 	c #CDDBDC",
"s 	c #E1EFF0",
"t 	c #D9E7E8",
"u 	c #DBEBEB",
"v 	c #C1CFD0",
"w 	c #C0CECE",
"x 	c #C4D3D2",
"y 	c #BDCBCC",
"z 	c #D1DFE0",
"A 	c #E1EEEE",
"B 	c #D8E6E7",
"C 	c #0B0600",
"D 	c #B8C6C8",
"E 	c #B4C2C4",
"F 	c #B0BEC0",
"G 	c #ACBABC",
"H 	c #A8B6B9",
"I 	c #CFE1DF",
"J 	c #D0DEDF",
"K 	c #A6B4B6",
"L 	c #B7A986",
"M 	c #D9E0D5",
"N 	c #EECB93",
"O 	c #F08F00",
"P 	c #F0F7F0",
"Q 	c #D6C297",
"R 	c #C4CBC3",
"S 	c #B9C6C6",
"T 	c #F0EEDC",
"U 	c #EFD6AA",
"V 	c #EFE6CB",
"W 	c #EEDEBB",
"X 	c #F0F6EC",
"Y 	c #EED3A4",
"Z 	c #EEC586",
"` 	c #EFD8AE",
" .	c #EFDBB4",
"..	c #EEC689",
"+.	c #EEC88E",
"@.	c #EFEDDB",
"#.	c #F0E2C3",
"$.	c #F0D19F",
"%.	c #F0F2E4",
"&.	c #F0CD9A",
"*.	c #F0E6CA",
"=.	c #F0EAD4",
"-.	c #EFE2C4",
";.	c #C2C5B8",
">.	c #F0C689",
",.	c #EECE9A",
"'.	c #F0E8CF",
").	c #E8DFC5",
"!.	c #B7B7AA",
"~.	c #C3BBA5",
"{.	c #F0D7AC",
"].	c #D2D5C9",
"^.	c #F0DBB3",
"/.	c #EFEAD3",
"(.	c #EED19F",
"_.	c #B4BEB9",
":.	c #D3BE98",
"<.	c #E5D7B7",
"[.	c #ABB3AD",
"}.	c #ECE7D0",
"|.	c #F0CB94",
"1.	c #F0D2A2",
"2.	c #EFF0DF",
"3.	c #F0C98E",
"4.	c #EFE0BF",
"5.	c #F0DFBC",
"6.	c #F0F8EF",
"7.	c #E9F1E8",
"8.	c #BEC3BA",
"9.	c #C9CEC5",
"0.	c #D7CBAD",
"a.	c #B3BBB2",
"b.	c #C9D3CD",
"c.	c #E6C581",
"d.	c #84755D",
"e.	c #7E6C51",
"f.	c #867F70",
"g.	c #88806F",
"h.	c #9AA096",
"i.	c #7F6A4A",
"j.	c #786D58",
"k.	c #9C5902",
"l.	c #895509",
"m.	c #965802",
"n.	c #E68900",
"o.	c #6B4001",
". . . . + . . . . . . . . . . . . . + @ @ @ + . . . . . . . . . . . . . . . . . . . . . . . . . . . . + + . . . . . . + . . . . + . + . . . . . . . . . . . . . # $                                                                             % & . . . . . . . . . + . . . . . . . + . . . . + . . . . . . . . . . . . . . . . . + + . + . + . + . . . . . . . . + . + . . . . . . . . . . . . . + . + . . . . . ",
"* * * * * * * * * * * * * * * * * * * * * * * * * * * * * * * * * * * * * * * * * * * * * * * * * = * * * - - = - = * * * * - = * * * * * * * * * * * * * * - ; > ,                                                                             , ' * * * * * * * * * * * * - = - = * * * * - = * - * * * * * * * * * * * * * * * = - * * * * * * - * * * * * * * * * * * * * * = * * * * * * * * * * - * * * * - = ",
") ) ) ) ) ) ) ) ) ) ) ) ) ) ) ) ) ) ) ) ) ) ) ) ) ) ) ) ) ) ) ) ) ) ) ) ) ) ) ) ) ) ) ) ) ) ) ) ) ) ) ) ) ) ) ) ) ) ) ) ) ) ! ) ) ) ) ) ) ) ) ) ) ) ) ) ) ) ) ) ~ {                                                                             ] # ! ) ) ) ) ) ) ) ) ) ) ) ) ) ) ) ) ) ) ) ) ) ) ) ) ) ) ) ) ) ) ) ) ) ) ) ) ) ) ) ) ) ) ) ) ) ) ) ) ) ) ) ) ) ) ) ) ) ) ) ) ) ) ) ) ) ) ) ) ) ) ) ) ) ) ) ) ) ) ) ",
") ) ) ) ) ) ) ) ) ) ) ) ) ) ) ) ) ) ) ) ) ) ) ) ) ) ) ) ) ) ) ) ) ) ) ) ) ) ) ) ) ) ) ) ) ) ) ) ) ) ) ) ) ) ) ) ) ) ) ) ) ) ) ) ) ) ) ) ) ) ) ) ) ) ) ) ) ) ) ) + {                                                                             ] # ) ) ) ) ) ) ) ) ) ) ) ) ) ) ) ) ) ) ) ) ) ) ) ) ) ) ) ) ) ) ) ) ) ) ) ) ) ) ) ) ) ) ) ) ) ) ) ) ) ) ) ) ) ) ) ) ) ) ) ) ) ) ) ) ) ) ) ) ) ) ) ) ) ) ) ) ) ) ) ) ",
") ) ) ) ) ) ) ) ) ) ) ) ) ) ) ) ) ) ) ) ) ) ) ) ) ) ) ) ) ) ) ) ) ) ) ) ) ) ) ) ) ) ) ) ) ) ) ) ) ) ) ) ) ) ) ) ) ) ) ) ) ) ) ) ) ) ) ) ) ) ) ) ) ) ) ) ) ) ) ) ~ {                                                                             ] # ) ) ) ) ) ) ) ) ) ) ) ) ) ) ) ) ) ) ) ) ) ) ) ) ) ) ) ) ) ) ) ) ) ) ) ) ) ) ) ) ) ) ) ) ) ) ) ) ) ) ) ) ) ) ) ) ) ) ) ) ) ) ) ) ) ) ) ) ) ) ) ) ) ) ) ) ) ) ) ) ",
") ) ) ) ) ) ) ) ) ) ) ) ) ) ) ) ) ) ) ) ) ) ) ) ) ) ) ) ) ) ) ) ) ) ) ) ) ) ) ) ) ) ) ) ) ) ) ) ) ) ) ) ) ) ) ) ) ) ) ) ) ) ) ) ) ) ) ) ) ) ) ) ) ) ) ) ) ) ) ) + {                                                                             ] # ) ) ) ) ) ) ) ) ) ) ) ) ) ) ) ) ) ) ) ) ) ) ) ) ) ) ) ) ) ) ) ) ) ) ) ) ) ) ) ) ) ) ) ) ) ) ) ) ) ) ) ) ) ) ) ) ) ) ) ) ) ) ) ) ) ) ) ) ) ) ) ) ) ) ) ) ) ) ) ) ",
") ) ) ) ) ) ) ) ) ) ) ) ) ) ) ) ) ) ) ) ) ) ) ) ) ) ) ) ) ) ) ) ) ) ) ) ) ) ) ) ) ) ) ) ) ) ) ) ) ) ) ) ) ) ) ) ) ) ) ) ) ) ) ) ) ) ) ) ) ) ) ) ) ) ) ) ) ) ) ) + {                                                                             ] # ) ) ) ) ) ) ) ) ) ) ) ) ) ) ) ) ) ) ) ) ) ) ) ) ) ) ) ) ) ) ) ) ) ) ) ) ) ) ) ) ) ) ) ) ) ) ) ) ) ) ) ) ) ) ) ) ) ) ) ) ) ) ) ) ) ) ) ) ) ) ) ) ) ) ) ) ) ) ) ) ",
") ) ) ) ) ) ) ) ) ) ) ) ) ) ) ) ) ) ) ) ) ) ) ) ) ) ) ) ) ) ) ) ) ) ) ) ) ) ) ) ) ) ) ) ) ) ) ) ) ) ) ) ) ) ) ) ) ) ) ) ) ) ) ) ) ) ) ) ) ) ) ) ) ) ) ) ) ) ) ) + {                                                                             ] # ) ) ) ) ) ) ) ) ) ) ) ) ) ) ) ) ) ) ) ) ) ) ) ) ) ) ) ) ) ) ) ) ) ) ) ) ) ) ) ) ) ) ) ) ) ) ) ) ) ) ) ) ) ) ) ) ) ) ) ) ) ) ) ) ) ) ) ) ) ) ) ) ) ) ) ) ) ) ) ) ",
") ) ) ) ) ) ) ) ) ) ) ) ) ) ) ) ) ) ) ) ) ) ) ) ) ) ) ) ) ) ) ) ) ) ) ) ) ) ) ) ) ) ) ) ) ) ) ) ) ) ) ) ) ) ) ) ) ) ) ) ) ) ) ) ) ) ) ) ) ) ) ) ) ) ) ) ) ) ) ) + {                                                                             ] # ) ) ) ) ) ) ) ) ) ) ) ) ) ) ) ) ) ) ) ) ) ) ) ) ) ) ) ) ) ) ) ) ) ) ) ) ) ) ) ) ) ) ) ) ) ) ) ) ) ) ) ) ) ) ) ) ) ) ) ) ) ) ) ) ) ) ) ) ) ) ) ) ) ) ) ) ) ) ) ) ",
") ) ) ) ) ) ) ) ) ) ) ) ) ) ) ) ) ) ) ) ) ) ) ) ) ) ) ) ) ) ) ) ) ) ) ) ) ) ) ) ) ) ) ) ) ) ) ) ) ) ) ) ) ) ) ) ) ) ) ) ) ) ) ) ) ) ) ) ) ) ) ) ) ) ) ) ) ) ) ) . {                                                                             ] # ) ) ) ) ) ) ) ) ) ) ) ) ) ) ) ) ) ) ) ) ) ) ) ) ) ) ) ) ) ) ) ) ) ) ) ) ) ) ) ) ) ) ) ) ) ) ) ) ) ) ) ) ) ) ) ) ) ) ) ) ) ) ) ) ) ) ) ) ) ) ) ) ) ) ) ) ) ) ) ) ",
"^ - ^ ^ ^ ^ - / ^ ^ ^ ^ ^ ^ ^ ^ ^ ^ ^ ^ ^ ^ ^ ^ ^ ^ ^ ^ ^ ^ - / / - ^ ^ ^ ^ ^ ^ ^ ^ ^ ^ ^ ^ ^ ^ ^ ^ ^ ^ ^ ^ ^ ^ ^ ^ ^ ^ ^ ^ - / / - ^ ^ ^ ^ ^ ^ - / - ! ) ) ) ) ~ {                                                                             ] # ) ) ) ) ! = ^ ^ ^ ^ ^ ^ ^ ^ ^ ^ ^ ^ ^ ^ - / / - ^ ^ ^ ^ ^ ^ ^ ^ ^ ^ ^ ^ ^ ^ ^ ^ - / ^ ^ ^ ^ ^ ^ ^ ^ ^ ^ ^ ^ ^ ^ ^ ^ ^ ^ - / - / ^ ^ ^ ^ ^ ^ ^ ^ ^ ^ ^ ^ - - / ^ ",
"( _ _ _ _ _ : < [ [ [ [ [ [ [ [ [ [ [ [ [ [ [ [ [ [ [ [ [ [ [ [ [ [ [ [ [ [ [ [ [ [ [ [ [ [ [ [ [ [ [ [ [ [ [ [ [ [ [ [ [ [ [ [ [ [ [ [ [ [ [ [ [ [ } | ) ) ) ) ~ {                                                                             ] # ) ) ) ) ! 1 2 [ [ [ [ [ [ [ [ [ [ [ [ [ [ [ [ [ [ [ [ [ [ [ [ [ [ [ [ [ [ [ [ [ [ [ [ [ [ [ [ [ [ [ [ [ [ [ [ [ [ [ [ [ [ [ [ [ [ [ [ [ [ [ [ [ [ 3 : _ _ _ _ _ ",
"4 5 5 5 5 5 6 7 8 9 9 9 9 8 9 9 9 9 9 9 9 8 9 9 9 9 9 9 8 9 9 9 9 9 9 9 9 9 0 8 9 9 9 9 9 8 9 9 9 9 9 9 9 0 9 9 9 8 9 0 9 9 9 8 0 9 9 9 9 8 0 0 9 9 a | ) ) ! ) . {                                                                             ] # ) ) ) ) b c d 9 9 9 9 0 9 9 9 8 9 0 9 9 9 8 9 9 9 9 9 9 0 8 9 9 9 9 9 8 9 9 9 9 8 9 9 9 9 9 9 9 9 9 9 9 9 9 9 9 8 9 9 9 9 9 0 8 9 9 9 9 9 9 9 9 9 e 6 f 5 5 5 5 ",
"g h 5 5 h f 6 i j 8 j j j j j 8 j j j j j j j j j j j j j j j j j 8 j j j j j j j j j j j j j j j j j j j j j j j j j j j j j j j 8 j j j j j 8 8 8 k | ) ) ) ) + {                                                                             ] # ! ) ) ) ! l 9 j j j j j j j j j j j j j j j j 8 j j j j j j j j j j j j j j j j 8 j j j j j j j j j j j j j j j j j j j j j j 8 j j j j j j j j j i 4 h 5 h 5 5 ",
"g 5 h m h h 6 i j j j j j j j j j j j j j j j j j j j j j j j j j j j j j j j j j j j j j j j j j j j j j j j j j j j j j j j j j j j j j j j j j j n | ) ) ) ) ~ {                                                                             ] # ) ) ) ) b l 9 j j j j j j j j j j j j j j j j j j j j j j j j j j j j j j j j j j j j j j j j j j j j j j j j j j j j j j j j j j j j j j j j j j i 6 f h h h h ",
"g 5 h h h h 6 i j j j j j j j j j j j j j j j j j j j j j j j j j j j j j j j j j j j j j j j j j j j j j j j j j j j j j j j j j j j j j j j j j 8 n | ) ) ) ) ~ {                                                                             ] # ) ) ) ) b l 0 j j j j j j j j j j j j j j j j j j j j j j j j j j j j j j j j j j j j j j j j j j j j j j j j j j j j j j j j j j j j j j j j j j i 6 f h h h h ",
"g 5 5 h h f 6 i j j j j j j j j j j j j j j j j j j j j j j j j j j j j j j j j j j j j j j j j j j j j j j j j j j j j j j j j j j j j j j j j j j n | ) ) ) ) ~ {                                                                             ] # ) ) ) ) b l o j j j j j j j j j j j j j j j j j j j j j j j j j j j j j j j j j j j j j j j j j j j j j j j j j j j j j j j j j j j j j j j j j j i 6 f 5 h h h ",
"g h h h h f 6 i j j j j j j j j j j j j j j j j j j j j j j j j j j j j j j j j j j j j j j j j j j j j j j j j j j j j j j j j j j j j j j j j j j k | ) ) ) ) ~ {                                                                             ] # ) ) ) ) b l 9 j j j j j j j j j j j j j j j j j j j j j j j j j j j j j j j j j j j j j j j j j j j j j j j j j j j j j j j j j j j j j j j j j j i 6 f h h m h ",
"g 5 h h h h 6 i j j j j j j j j j j j j j j j j j j j j j j j j j j j j j j j j j j j j j j j j j j j j j j j j j j j j j j j j j j j j j j j j j j n | ) ) ) ) + {                                                                             ] # ) ) ) ) b l o j j j j j j j j j j j j j j j j j j 8 j j j j j j j j j j j j j j j j j j j j j j j j j j j j j j 8 j j j j j j j j j j j j j j j j i 6 f h h h h ",
"g h h h h h 6 i j j j j j j j j j j j j j j j j j j j j j j j j j j j j j j j j j j j j j j j j j j j o j j j j j j j j j j j j j o j 9 j j j j j j k p ) ) ) ) + {                                                                             ] # ! ) ) ) ! l 0 j j j j j j j j j j j j j j j j j j j j j j j j j j j j j j j j j j j j j j j j j j j j j j j j 8 j j j j j j j j j j j j j j j j 8 i 6 f h h h h ",
"g h h h h f 6 i j j j j j j j j j j j j j j j j j j j j 8 j j j j j j j j j j j j j j j j j j j j j j q q 8 j j j j j r q j j j s q q t u j j j j j n | ) ) ) ) + {                                                                             ] # ) ) ) ) b l 9 j j j j j j j j j j j j j j 8 j j j j j j j j j j j j j j j j j j j j j j j j j j j j j j j j j j j j j j j j j j j j j j j j j j j i l h h h h h ",
"g h h h h f 6 i j j j j j j j j j j j j j j j 8 j j j j j j j j j j j j j j j j j j j j j j j j j j j v v j j j j j j w x j j j j t s 9 t 9 j j j j n | ) ) ) ) + {                                                                             ] # ) ) ) ) b l 0 j j j j j j j j j j j j j j j j j j j j j j j j j j j j j j j j j j j j j j j j j j j j j j j j j j j j j j j j j j j j j j j j j j r a h h h h h ",
"g 5 h m h h 6 i j j j j j j j j j j j j j j j j j j j j j j j j j j j j j j j j j j j j j j j j j j j x v j j j j j j y x j j j j 0 t z A j j j j j n | ) ) ) ) ~ {                                                                             ] # ) ) ) ) b l 0 j j j j j j j j j j j j j j j j j j j j j j j j j j j j j j j j j j j j j j j j j j j j j j j j j j j j j j j j j j j j j j j j j j 7 6 h h h h h ",
"g 5 h h h h 6 i j j j j j j j j j j j j j j j j j j j j j j j j j j j j j j j 8 j j j j j j j j j j 8 v v j j j j j j y x j j j j 0 t B s j j j j j n | ) ) ) ) + {                                                                             ] # ! ) ) ) b l 9 j j j j j j j j j j j j j j j j j j j j j j j j j j j j j j j j j j j j j j j j j j j j j j j j j j j j j j j j j j j j j j j j j j i 6 5 h m h h ",
"g 5 h 5 5 f 6 i j j j j j j j j j j j j j j j j j j j j j j j j j j j j j j j j j j j j j j j j j j j x v j j j j j o w e j j j j t s 9 j j j j j j n | ) ) ) ) + C                                                                             ] # ) ) ) ) b l 0 j j j j j j j j j j j j j j j j j j j j j j j j j j j j j j j j j j j j j j j j j j j j j j j j j j j j j j j j j j j j j j j j j j i 6 f h h h h ",
"g h h h h h 6 i j j j j j j j j j j j j j j j j j j j j j j j j j j j j j j j j j j j j j j j j j j j v v j j j j j 8 w x j j j j s t t s j j j j j n | ) ) ) ) + {                                                                             ] # ) ) ) ) ! l 8 j j j j j j j j j j j j j j j j j j j j j j j j j j j j j j j j j j j j j j j j j j j j j j j j j j j j j j j j j j j j j j j j j j i 6 f h h h h ",
"g 5 h 5 h h 6 i j j j j j j j j j j j j j j j j j j j j j j j j j j j j j j j j j j j j j j j j j j j v w j j j j j j y x j j j j 0 B z A j j j j j n | ) ) ) ) + {                                                                             ] # ) ) ) ) b l 9 j j j j j j j j j j j j j j j j j j j j j j j j j j j j j j j j j j j j 8 j j j j j j j j j j j j j j j j j j j j j j j j j j j j j i 6 f h h h h ",
"g 5 h h h h 6 i j j j j j j j j j j j j j j j j j j j j j j j j j j j j j j j j j j j j j j j j j j j v w j j j j j o D e j j j j A z z z j j j j j n | ) ) ) ) + C                                                                             ] # ) ) ) ) b l 0 j j j j j j j j j j j j j j j j j j j j j j j j j j j j j j j j j j j j j j j j j j j j j j j j j j j j j j j j j j j j j j j j j j i 6 f h h h h ",
"g h 5 h h f 6 i j j j j j j j j j j j j j j j j j j j j j j j j j j j j j j j j j j j j j j j j j j j e E A A A A s u F z j j j j s s z q j j j j j n | ) ) ) ) ~ C                                                                             ] # ) ) ) ) ! l 9 j j j j j j j j j j j j j j j j j j j j j j j j j j j j j j j j j j j j j j j j j j j j j j j j j j j j j j j j j j j j j j j j 8 j i 4 h h h 5 m ",
"g h h h h f 6 i j j j j j j j j j j j j j j j j j j j j j j j j j j j j j j j j j j j j j j j j j j j A G H H G H H H F s j j j 0 A A z s j j j j j n | ) ) ) ) + {                                                                             ] # ) ) ) ) b l 9 j j j j j j j j j j j j j j j j j j j j j j j j j j j j j j j j j j j j j j j j j j j j j j j j j j j j j j j j j j j j j j j j j j I l h h h 5 5 ",
"g 5 h h h f 6 i j j j j j j j j j j j j j j j j j j j j j j j j j j j j j j j j j j j j j j j j j j j j t e e e e e r u j j j j 0 A B B s j j j j j n | ) ) ) ) . {                                                                             ] # ) ) ) ) b l o j j j j j j j j j j j j j j j j j j j j j j j j j j j j j j j j j j j j j j j j j j j j j j j j j j j j j j j j j j j j j j j j j j i 6 f h h 5 h ",
"g 5 h h h f 6 i j j j j j j j j j j j j j j j j j j j j j j j j j j j j j j j j j j j j j j j j j j j j j j j j j j j o j j j j j s q t s o j j j j n | ) ) ) ) + {                                                                             ] # ) ) ) ) ! l 0 j j j j j j j j j j j j j j j j j j j j j j j j j j j j j j j j j j j j j j j j j j j j j j j j j j j j j j j j j j j j j j j j j j i 6 f h h h h ",
"g 5 h h h f 6 i 8 j j j j j j j j j j j j j j j j j j j j j j 8 j j j j j j j j j j j j j j j j j j j r J j j q 0 j j e z j j j 9 t s 9 8 j j j j j n p ) ) ) ) ~ {                                                                             ] # ) ) ) ) b l 9 j j j j j j j j j j j j j j j j j j j j j j j j j 8 j j j j j j j j j j j j j j j j j j j j j j j j j 8 j j j j j j j j j j j j j j i 6 f h h h h ",
"g h h h h h 6 i j j j j j j j j j j j j j j j j j j j j j j j j j j j j j j j j j j j j j j j j j j j v v j o F q j 8 y x j j j d t t u d j j j j j n b ) ) ) ) ~ {                                                                             ] # ) ) ) ) b l 0 j j j j j j j j j j j j j j j j j j j j j j j j j j j j j j j j j j j j j j j j j j j j j j j j j j j j j j j j j j j j j j j j j j i 6 f h h h h ",
"g 5 h m h h 6 i j j j j j j j j j j j j j j j j j j j j j j j j j j j j j j j j j j j j j j j j j j j v v j 0 F t j j y e j j j j A 8 8 A o j j j j n | ) ) ) ) ~ {                                                                             ] # ) ) ) ) b l 0 j j j j j j j j j j j j j j j j j j j j j j j j j j j j j j j j j j j j j j j j j j j j j j j j j j j j j j j j j j j j j j j j j j i 6 f h h h h ",
"g 5 h h h h 6 i j j j j j j j j j j j j j j j j j j j j j j j j j j j j 8 j j j j j j j j j j j j j j v v j 9 D t j o y x j j j j A s 0 t 8 j j j j n | ) ) ) ) . {                                                                             ] # ) ) ) ) b l 9 j j j j j j j j j j j j j j j j j j j j j j j j j j j j j j j j j j j j j j j j j j j j j j j j j j j j j j j j j j j j j j j j j j i 6 f h h h h ",
"g h 5 h h f 6 i j j j j j j j j j j j j j j j j j j j j j j j j j j j j j j j j j j j j j j j j j j j x v j 0 F q j j y e j j j j 9 A q s j j j 8 8 k | ) ) ! ) ~ {                                                                             ] # ) ) ) ) ! l 8 j j j j j j j j j j j j j j j j j j j j j j j j j j j j j j j j j j j j j j j j j j j j j j j j j j j j j j j j j j j j j j j j j j i 6 f h h h h ",
"g h h h h f 6 i j j j j j j j j j j j j j j j j j j j j j j j j j j j j j j j j j j j j j j j j j j j v v j o F B j 8 y x j j j j s s z A j j j j 8 n | ) ) ! ! ~ {                                                                             ] # ! ) ) ) b l 9 j j j j j j j j j j j j j j j j j 8 j j j j j j j j j j j j j j j j j j j j j j j j j j j j j j j j j j j j j j j j j j j j j j j j i 6 h h h h h ",
"g 5 m h h h 4 i j j j j j j j j j j j j j j j j j j j j j j j j j j j j j j j j j j j j j j j j j j j v v j 0 F t j j y e j j j j s q s A 9 j j j j n | ) ) ) ) . {                                                                             ] # ) ) ) ) b l 9 j j j j j j j j j j j j j j j j j j j j j j j j j j j j j j j j j j j j j j j j j j j j j j j j j j j j j j j j j j j j j j j j j j i 6 f h h h h ",
"g 5 h h h h l i j j j j j j j j j j j j j j j j j j j j j j j j j j j j j j j j j j j j j j j j j j j v w s A F r 0 s D e j j j j s s 9 A j j j j j n | ) ) ) ) ~ {                                                                             ] # ) ) ) ) b l 0 j j j j j j j j j j j j j j j j j j j j j j j j j j j j j j j j j j j j j j j j j j j j 8 j j j j j j j j j j j j j j j j j j j j j i 6 f h h h h ",
"g 5 h h h h a i 8 j j j j j j j j j j j j j j j j j j j j j j j j j j j j j j j j j j j j j j j j j j x K G G K H G G K e j j j 0 J q B u j j j j j n | ) ) ) ) ~ {                                                                             ] # ) ) ) ) b l o j j j j j j j j j j j j j j j j j j j j j j j j j j j j j j j j j j j j j j j j j j j j j j j j j j j j j j j j j j j j j j j j j j i 6 f h h h h ",
"g h 5 h h 5 L i j j j j j j j j j j j j j j j j j j j j j j j j j j j j j j j j j j j j j j j j j j j t 7 e e x e e x e t j j j 8 s t t s j j j j j k | ) ) ) ) ~ {                                                                             ] # ) ) ) ) b l 9 j j j j j j j j j j j j j j j j j j j j j j j j j j j j j j j j j j j j j j j j j j j j j j j j j j j j j j j j j j j j j j j j j j 7 6 f h h h h ",
"g 5 5 h h h 6 i j j j j j j j j j j j j j j j j j j j j j j j j j j j j j j j j j j j j j j j j j j o 0 0 j j j j j j j j j j j j o s s q j j j j j n | ) ) ) ) + {                                                                             ] # ) ) ) ) b l o j j j j j j j j j j j j j j j j j j j j j j j j j j j j j j j j j j j j j j j j j j j j j j j j j j j j j j j j j j j j j j j j j j i 6 f f h h h ",
"g 5 h h h h 6 i j j j j j j j j j j j j j j j j j j j j j j j j j j j j j j j j j j j j j j j j j j j e x j j j j j j j j j j j j 9 s A t 8 j j j j n | ) ) ) ) + {                                                                             ] # ! ) ) ) ! l 0 j j j j j j j j j j j j j j j j j j j j j j j j j j j j j j j j j j j j j j j j j j j j j j j j j j j j j j j j j j j j j j j j j j i 6 f h h h h ",
"g h h h h h 6 i j j j j j j j j j j j j j j j j j j j j j j j j j j j j j j j j j j j j j j j j j j o x v j j j j j j j j j j j j 0 z s 0 j j j j j n | ) ) ) ) + {                                                                             ] # ) ) ) ) b l 9 j j j j j j j j j j j j j j j j j j j j j j j j j j j j j j j j j j j j j j j j j j j j j j j j j j j j j j j j j j j j j j j j 8 j i 6 f h h m h ",
"g h 5 h h 5 6 7 j j j j j j j j j j j j j j j j j j j j j j j j j j j j j j j j j j j j j j j j j j j v w j j j j j j j j j j j j A z s u o j j j j n | ) ) ) ) ~ {                                                                             ] # ) ) ) ) b l 0 j j j j j j j j j j j 8 j j j j j j j j j j j j j j j j j j j j j j j j j j j j j j j j j j j j j j j j j j j j j j j j j j j j j j i 6 f h h h h ",
"g h m h h h 6 i 8 j j j j j j j j j j 8 j j j j j j j j j j j j j j j j j j j j j j j j j j j j j j j v v j j j j j j j j j j j j A z q u j j j j j n | ) ) ) ) + {                                                                             ] # ) ) ) ) b l o j j j j j j j j j j j j j j j j j j j j j j j j j j j j j j j j j j j j j j j j j j j j j j j j j j j j j j j j j j j j j j j j j o I 6 5 h h h h ",
"g 5 h h h h 6 M j j j j j j j j j j j j j j j j j j j j j j j j j j j j j j j j j j j j j j j j j j j v F J z r r z J r s j j j j 0 z z 9 j j j j j n | ) ) ) ) + {                                                                             ] # ) ) ) ) ! l 0 j j j j j j j j j j j j j j j j j j j j j j j j j j j j j j j j j j j j j j j j j j j j j j j j j j j j j j j j j j j j j j j j j j M 6 5 h h h h ",
"g 5 h h h h 6 i j j j j j j j j j j j j j j j j j j j j j j j j j j j j j j j j j j j j j j j j j j j x K H K K H H H H i j j j 0 q A t s j j j j j n | ) ) ) ) + {                                                                             ] # ) ) ) ) b l 9 j j j j j j j j j j j j j j j j j j j j j j j j j j j j j j j j j j j j j j j j j j j j j j j j j j j j j j j j j j j j j j j j j j i l N h h h h ",
"g 5 h h h h 6 i j j j j j j j j j j j j j j j j j j j j j j j j j j j j j j j j j j j j j j j j j j j v D A A A A A A A 0 o j j A 0 j o t j j j j j n | ) ) ) ) + {                                                                             ] # ) ) ) ) b l 0 j j j j j j j j j j j j j j j j j j j j j j j j j j j j j j j j j j j j j j j 8 j j j j j j j j j j j j j j j j j j j j j j j j j j i 4 h h h h h ",
"g h h 5 h f 6 i j j j j j j j j j j j j j j j j j j j j j j j j j j j j j j j j j j j j j j j j j j j v v j j j j j j j j j j j B z A q q j j j j j n | ) ) ) ) + {                                                                             ] # ) ) ) ) b l 0 j j j j j j j j j j j j j j j j j j j j j j j j j j j j j j j j j j j j j j j j j j j j j j j j j j j j j j j j j j j j j j j j j j i 6 f h h h h ",
"g h h h h f 6 i j j j j j j j j j j j j j j j j j j j j j j j j j j j j j j j j j j j j j j 8 j j j j x v j j j j j j j j j j j 0 0 s s 0 j j j j j n | ) ) ) ) + C                                                                             ] # ) ) ) ) b l 9 j j j j j j j j 8 j j j j j j j j j j j j j j j j j j j j j j j j j j j j j j j j j j j j j j j j j j j j j j j j j j j j j j j j j i 6 f h h h h ",
"g h h 5 h f 6 i j j j j j j j j j j j j j j j j j j j j j j j j j j j j j j j j j j j j j j j j j j j x v j j j j j j j j j j j j j j j j j j j j j n | ) ) ) ) ~ C                                                                             ] # ) ) ) ) ! l 8 j j j j j j j j j j j j j j j j j j j j j j j j j j j j j j j j j j j j j j j j j j j j j j j j j j j j j j j j j j j j j j j j j j i 6 f h h 5 5 ",
"g h h h h f 6 i j j j j j j j j j j j j j j j j j j j j j j j j j j j j j j j j j j j j j j j j j j j x x j j j j j j j j j j j j 9 9 A s j j j j j n | ) ) ) ) + {                                                                             ] # ! ) ) ) b l 9 j j j j j j j j j j j j j j j j j j j j j j j j j 8 j j j j j j j j j j j j j j j j j j j j j j j j j j j j j j j j j j j j j j j j i 6 f h h m 5 ",
"g h h h h h 6 i j j j j j j j j j j j j j j j j j j j j j j j j j j j j j j j j j j j j j j j j j j j 0 d o j o o j j j j j j j j A u B t j j j j j n | ) ) ) ) + {                                                                             ] # ) ) ) ) O l 9 j j j j j j j j j j j j j j j j j j j j j j j j j j j j j j j j j j j j j j 8 j j j j j j j j j j j j j j j j j j j j j j j j j j j i 6 f h 5 h h ",
"g h h 5 h h 6 i j j j j j j j j j j j j j j j j j j j j j j j j j j j j j j j j j j j j j j j j j j j z v y y v v v w w q j j j j s z 0 0 8 j j j j n | ) ) ) ) + {                                                                             ] # ) ) ) ) b l 0 j j j j j j j j j j j j j j j j j j j j j j j j j j j j j j j j j j j j j j j j j j j j j j j j j j j j j j j j j j j j j j j j j j 7 6 f h h h h ",
"g h h m 5 h 6 i j j j j j j j j j j j j j j j j j j j j j j j j j j j j j j j j j j j j j j j j j j j e F F F K H G H H r j j j j 9 t t u j j j j j n p ) ) ) ) + {                                                                             ] # ) ) ) ) b l o j j j j j j j j j j j j j j j j j j j j j j j j j j j j j j j j j j j j j j j j j j j j j j j j j j j j j j j j j j j j j j j j j j i 6 f h h h h ",
"g h h h h h 6 i j j j j j j j j j j j j j j j j j j j j j j j j j j j j j j j j j j j j j j j j j j j 9 s 0 u F J 0 0 0 o j j j j j 9 9 t o j j j j n b ) ) ) ) . {                                                                             ] # ) ) ) ) ! l 9 j j j j j j j j j j j j j j j j j j j j j j j j j j j j j j j j j j j j j j j j j j j j j j j j j j 8 j j j j j j j j j j j j j j j i 6 h h h h h ",
"g h h h h h 6 i j j j j j 8 j j j j j j j j j j j j j j j j j j j j j j j j j j j j j j j j j j j j j j j j 9 F t j j j j j j j j 0 A B u j j j j j n | ) ) ) ) ~ {                                                                             ] # ) ) ) ) ! l 0 j j j j j j j j j j j j j j j j j j j j j j j j j j j j j j j j j j j j j j j j j j j j j j j j j j j j j j j j j j j j j j j j j j i 6 f h h h h ",
"g 5 h h h h 6 i j j j j j j j j j j j j j j j j j j j j j j j j j j j j j j j j j j j j j j j j j j j j j j 0 D t j j j j j j j j 0 B q A j j j j j n | ) ) ) ) ~ {                                                                             ] # ! ) ) ) b l 8 j j j j j j j j j j j j j j j j j j j j j j j j j j j j j j j j j j j j j j j j j j j j j j j j j j j j j j j j j j j j j j j j j j i 6 f h h h h ",
"g 5 h h h h 6 i j j j j j j j j j j j j j j j j j j j j j j j j j j j j j j j j j j j j j j j j j j j j j j 9 F q j j j j j j j j A q B B j j j 8 j k | ) ) ) ) . {                                                                             ] # ) ) ) ) b l 9 j j j j j j j j j j j j j j j j j j j j j j j j j j j j j j j j j j j j j j j j j j j j j j j j j j j j j j j j j j j j j j j j j j i 6 h h h h h ",
"g 5 h h h h 6 i j j j j j j j j j j j j j j j j j j j j j j j j j 8 j j j j j j j j j j j j j j j j j j j j 9 F B j j j j j j j j s s u B 8 j j 8 8 n | ) ) ) ) + {                                                                             ] # ) ) ) ) b l 9 j j j j j j j j j j j j j j j j j j j j j j j j j j j j j j j j j j j j j j j j j j j j j j j j j j j j j j j j j j j j j j j j j j i 6 h h h h h ",
"g h h h h f 6 i j j j j j j j j j j j j j j j j j j j j j j j j j j j j j j j j j j j j j j j j j j j j j j 9 E z j j j j j j j j j j 0 9 j j j j j n | ) ) ) ) ~ {                                                                             ] # ) ) ) ) b l 8 j j j j j j j j j j j j j j j j j j j j j j j j j j j j j j j j j j j j j j j j j j j j j j j j j j j j j j j j j j j j j j j j j j i 6 f h h h h ",
"g h h h 5 h 6 i j j j j j j j j j j j j j j j j j j j j j j j j j j j j j j j j j j j j j j j j j j j j j j 9 E B j j j j j j j j j j j j j j j j j n | ) ) ) ) ~ {                                                                             ] # ) ) ) ) b l 9 j j j j j j j j j j j j j j j j j j j j j j j j j j j j j j j j j j j j j j j j j j j j j j j j j j j j j j j j j j j j j j j j j j i 6 f h h h h ",
"g h m h h h 6 7 j j j j j j j j j j j j j j j j j j j j j j j 8 j j j j j j j j j j j j j j j j j j j s q q z G x B B q P j j j j 9 A u s j j j j j n | ) ) ) ) ~ {                                                                             ] # ) ) ) ) b l 0 j j j j j j j j j j j j j j j j j j j j j j j j j j j j j j j j j j j j j j j j j j j j j j j j j j j j j j j j j j j j j j j j j j i 6 f 5 h h h ",
"g h h h 5 h 6 i j j j j j j j j j j j j j j j j j j j j j j j j j j j j j j j j j j j j j j j j j j j x H H H H H H H K r j j j j t A 0 9 j j j j j k | ) ) ) ) ~ {                                                                             ] # ) ) ) ) b l 9 j j j j j j j j j j j j j j j j j j j j j j j j j j j j j j j j j j j j j j j j j j j j j j j j j j 8 j j j j j j j j j j j j j j j i 6 f h h m h ",
"g h h h h h 6 i j j j j j j j j j j j j j j j j j j j j j j j j j j j j j j j j j j j j j j j j j j j s t t t B B B t t s j j j j A q u s j j j j j n | ) ) ) ) + {                                                                             ] # ) ) ) ) ! l o j j j j j j j j j j j j j j j j j j j j j j j j j j j j j j j j j j j j j j j j j j j j j j j j j j j j j j j j j j j j j j j j j j i 6 f h h h h ",
"g f h h h h 6 i j j j j j j j j j j j j j j j j j j j j j j j j j j j j j j j j j j j j j j j j j j j o 9 j j j j j j 0 0 j j j j 0 t s 0 o j j j j k p ) ) ) ) + {                                                                             ] # ) ) ) ) b l 9 j j j j j j j j j j j j j j j j j j j j j j j j j j j j j j j j j j j j j j j j j j j j j j j j j j j j j j j j j j j j j j j j j 8 i 6 f h h h h ",
"g h h h h h 6 i j j j j j j j j j j j j j j j j j j j j j j j j j j j j j j j j j j j j j j j j j j j e 7 j j j j j j v z j j j j A z s A 8 j j j j n | ) ) ) ) + {                                                                             ] # ) ) ) ) b l 0 j j j j j j j j j j j j j j 8 j j j j j j j j j j j j j j j j j j j j j j j j j j j j j j j j j j j j j j j j j j j j j j j j j j j i l h h h h h ",
"g h h h h f 6 i j j j j j j j j j j j j j j j j j j j j j j j j j j j j j j j j j j j j j j j j j j j v v j j j j j o y e j j j j A z t u j j j j j n | ) ) ) ) + {                                                                             ] # ) ) ) ) b l 9 j j j j j j j j j j j j j j j j j j j j j j 8 j j j j j j j j j j j j j j j j j j j j j j j j j j j j j j j j j j j j j j j j j j j r a h h h h h ",
"g h h 5 h h 6 i j j j j j j j j j j j j j j j j j j j j j j j j j j j j j j j j j j j j j j j j j j j v v j j j j j j y x j j j 8 0 A s o j j j j j n | ) ) ) ) ~ {                                                                             ] # ) ) ) ) b l 0 j j j j j j j j j j j j j j j j j j j j j j j j j j j j j j j j j j j j j j j j j j j j j j j j j j j j j j j j j j j j j j j j j j 7 6 h h h h h ",
"g 5 h h h h 6 i j j j j j j j j j j j j j j j j j j j j j j j j j j j j j j j j j j j j j j j j j j j v v j j j j j o w e j j j j s q A 0 j j j j j n | ) ) ) ) + {                                                                             ] # ! ) ) ) b l 8 j j j j j j j j j j j j j j j j j j j j j j j j j j j j j j j j j j j j j j j j j j j j j j j j j j j j j j j j j j j j j j j j j j i 6 5 h m h h ",
"g 5 h h h 5 6 i j j j j j j j j j j j j j j j j j j j j j j j j j j j j j j j j j j j j j j j j j j j v w j j j j j 8 y e j j j j 0 t t s j j j j j n | ) ) ) ) + C                                                                             ] # ) ) ) ) b l 9 j j j j j j j j j j j j j j j j j j j j j j j j j j j j j j j j j 8 j j j j j j j j j j j j j j j j j j j j j j j j j j j j j j j j i 6 f h h h h ",
"g 5 5 h h h 6 i j j j j j j j j j j j j j j j j j j j j j j j j j j j j j j j j j j j j j j j j j j j v v j j j j j j y x j j j 9 0 t q q j j j j j n | ) ) ) ) + {                                                                             ] # ) ) ) ) b l 9 j j j j j j j j j j j j j j j j j j j j j j j j j j j j j j j j j j j j j j j j j j j j j j j j j j j j j j j j j j j j j j j j j j i 6 f h h h h ",
"Q h h 5 h f 6 i j j j j j j j j j j 8 j j j j j j j j j j j j j j j j j j j j j j j j j j j j j j j j v v j j j j j o y e 8 j j 0 9 9 0 q j j j j j n | ) ) ) ) + {                                                                             ] # ) ) ) ) b l 9 j j j j j j j j j j j j j j j j j j j j j j j 8 j j j j j j j j j j j j j j j j j j j j j j j j j j j j j j j j j j j j j j j j j j i 6 f h h h h ",
"g h h h h f 6 i j j j j j j j j j j j j j j j j j j j j j j j j j j j j j j j j j j j j j j j j j j j v w j j j j j o D e j j j 9 0 A u A j j j j j n | ) ) ) ) + C                                                                             ] # ) ) ) ) ! l 9 j j j j j j j j j j j j j j j j j j j j j j j j j j j j j j j j j j j j j j j j j j j j j j j j j j j j j j j j j j j j j j j j 8 j i 6 f h h h h ",
"g h h m h f 6 i j j j j j j j j j j j j j j j j j j j j j j j j j j j j j j j j j j j j j 8 j j j j j J G i q z z z e G q j j j j q u s A j j j j j n | ) ) ) ) ~ C                                                                             ] # ) ) ) ) O l o j j j j j j j j j j j j j j j j j j j j j j j j j j j j j j j j j j j j j j j j j j j j j j j j j j j j j j j j j j j j j j j j j j i 4 h h h 5 m ",
"g h h h h f 6 i j j j j j j j j j j j j j j j j j j j j j j j j j j j j j j j j j j j j j j j j j j j 0 D K H G H H H y 0 j j j 0 z q t A j j j j j n | ) ) ) ) + {                                                                             ] # ) ) ) ) b l 0 j j j j j j j 8 j j j j j j j j j j j j j j j j j j j j j j j j j j j j j j j j j j j j j j j j j j j j j j j j j j j j j j j j j j I l h h h 5 5 ",
"g 5 h 5 h h 6 i j j j j j j j j j j j j j j j j j j j j j j j j j j j j j j j j j j j j j j j j j j j j 0 A A B t A t 0 j j j j j 0 0 s A j j j j j n | ) ) ) ) . {                                                                             ] # ) ) ) ) b l 0 j j j j j j j j j j j j j j j j j j j j j j j j j j j j j j j j j j j j j j j j j j j j j j j j j j j j j j j j j j j j j j j j j j i 6 f h h 5 h ",
"g 5 h h h h 6 i j j j j j j j j j j j j j j j j j j j j j j j j j j j j j j j j j j j j j j j j j j j j j j j j 0 s s o j j j j 0 A r i d j j j j j n | ) ) ) ) + {                                                                             ] # ! ) ) ) b l 9 j j j j j j j j j j j j j j j j j j j j j j j j j j j j j j j j j j j j j j j j j j j j j j j j j j j j j j j j j j j j j j j j j j i 6 f h h h h ",
"g 5 5 h h f 6 i j j j j j j j j j j j j j j j j j j j j j j j j j j j j j j j j j j j j j j j j j j j z t j j z F H H w 0 j j j s t q q d 8 j j j j n p ) ) ) ) ~ {                                                                             ] # ) ) ) ) b l 0 j j j j j j j j j j j j j j j j j j j j j j j j j j j j j j j j j j j j j j j j 8 j j j j j j j j j j j j j j j j 8 j j j j j j j j i 6 f h h h h ",
"g h h h h f 6 i j j j j j j j j j j j j j j j j j j j j j j j j j j j j j j j j j j j j j j j 8 j j j x v j 9 R F z v G z j j j 9 s t t A j j j j j n b ) ) ) ) ~ {                                                                             ] # ) ) ) ) ! l 8 j j j j j j j j j j j j j j j j j j j j j j j j j j j j j j j j j j j j j j j j j j j j j j j j j j j j j j j j j j j j j j j j j j i 6 f h h h h ",
"g 5 h h h f 6 i j j j j j j j j j j j j j j j j j j j j j j j j j j j j j j j j j j j j j j j j j j j v v j o F z j j D r j j j j A 0 d A 8 j j j j n | ) ) ) ) ~ {                                                                             ] # ) ) ) ) b l 9 j j j j j j j j j j j j j j j j j j j j j j j j j j j j j j j j j j j j j j j j j j j j j j j j j j j j j j j j j j j j j j j j j j i 6 f h h h h ",
"g h h h h h 6 i j j j j j j j j j j j j j j j j j j j j j j j j j j j j j j j j j j j j j j j j j j j x v j 0 F A j j y x j j j 0 z q t s j j j j j n | ) ) ) ) . {                                                                             ] # ) ) ) ) b l 0 j j j j j j j j j j j j j j j j j j j j j j j j j j j j j j j j j j j j j j j j j j j j j j j j j j j j j j j j j j j j j j j j j j i 6 f h h h h ",
"g h h h h f 6 i j j j j j j j j j j j 8 j j j j j j j j j j j j j j j j j j j j j j j j j j j j j j j v x j 0 F z j o y e j j j j 0 q z t j j j 8 8 k | ) ) ! ) ~ {                                                                             ] # ) ) ) ) b l o j j j j j j j j j j j j j j j j j j j j j j j j j j j j j j j j j j j j j j j j j j j j j j j j j j j j j j j j j j j j j j j j j j i 6 h h h h h ",
"g h h h h f 6 i j j j j j j j j j j j j j j j j j j j j j j j j j j j j j j j j j j j j j j j j j j j x v j 9 F A j 8 y e j j j j t q z q j j j j 8 n | ) ) ! ! ~ {                                                                             ] # ) ) ) ) b l 9 j j j j j j j j j j j j j j j j j j j j j j j j j j j j j j j j j j j j j j j j j j j j j j j j j j j j j j j j j j j j j j j j j j i 6 h h h h h ",
"g 5 h m h h 6 i j j j j j j j j j j j j j j j j j j j j j j j j j j j j j j j j j j j j j j j j j j j x v j 0 F t j j y e j j j j 0 d J B j j j j j n | ) ) ) ) . {                                                                             ] # ) ) ) ) b l o j j j j j j j j j j j j j j j j j j j j j j j j j j j j j j j j j j j j j j j j j j j j j j j j 8 j j j j j j j j j j j j j j j j j i 6 f h h h h ",
"g 5 h h h h 6 i j j j j j j j j j j j j j j j j j j j j j j j j j j j j j j j j j j j j j j j j j j j v v j 0 F t j j w x j j j j 0 A q A j j j j j k | ) ) ) ) ~ {                                                                             ] # ) ) ) ) ! l 0 j j j j j j j j j j j j j j j j j j j j j j j j j j j j j j j j j j j j j j j j j j j j j j j j j j j j j j j j j j j j j j j j j j i 6 f h h h h ",
"g 5 h 5 5 h 6 i j j j j j j j j j j j j j j j j j j j j j j j j j j j j j j j j j j j j j j j j j j j x w j 0 F A j 9 y x j j j j A A 0 9 j j j j j n | ) ) ) ) ~ {                                                                             ] # ) ) ) ) b l 9 j j j j j j j j j j j j j j j j j j j j j j j j j j j j j j j j j j j j j j j j j j j j j j j j j j j j j j j j j j j j j j j j j j i 6 f h h h h ",
"g h h h h h 6 i j j j j j j j j j j j j j j j j j j j j j j j j j j j j j j j j j j j j j j j j j j j J G J 7 G A j j y x j j j j A q t s j j j j j n | ) ) ) ) ~ {                                                                             ] # ) ) ) ) b l 0 j j j j j j j j j j j j j j j j j j j j j j j 8 j j j j j j j j j j j j j j j j j j j j j j j j j j j 8 j j j j j j j j j j j j j j 7 6 f h h h h ",
"g 5 h 5 h h 6 i j j j j j j j j j j j j j j j j j j j j j j j j j j j j j j j j j j j j j j j j j j j s F K H v o j 8 x z j j j j u A 0 9 j j j j j n | ) ) ) ) + {                                                                             ] # ) ) ) ) b l 0 j j j j j j j j j j j j j j j j j j j j j j j j j j j j j j j j j j j j j j j j j j j j j j j j j j j j j j j j j j j j j j j j j j i 6 f f h h h ",
"g 5 h h h h 6 i j j j j j j j j j j j j j j j j j j j j j j j j j j j j j j j j j j j j j j j j j j j j 0 B t 9 j j j 9 9 j j j j s J J A j j j j j n | ) ) ) ) + {                                                                             ] # ) ) ) ) b l 9 j j j j j j j j j j j j j j j j j j j j j j j j j j j j j j j j j j j j j j j j j j j j j j j j j j j j j j j j j j j j j j j j j j i 6 f h h h h ",
"g h h 5 f f 6 i j j j j j j j j j j j j j j j j j j 8 j j j j j j j j j j j j j j j j j j j j j j j j t B j j j j j j j j j j j j 9 q B s j j j j j n | ) ) ) ) + {                                                                             ] # ) ) ) ) ! l 9 j j j j j j j j j j j j 8 j j j j j j j j j j j j j j j j j j j j j j j j j j j j j j j j j j j j j j j j j j j j j j j j j j j j j i 6 f h m h h ",
"g h h h h f 6 i j j j j j j j j j j j j j j j j j j j j j j j j j j j j j j j j j j j j j j j j j j j v v j j j j j j j j j j j j u 0 9 B 8 j j j j k | ) ) ) ) + {                                                                             ] # ! ) ) ) b l 8 j j j j j j j j j j j j j j j j j j j j j j j j j j j j j j j j j j j j j j j j j j j j j j j j j j j j j j j j j j j j j j j j j j i 6 f h h h h ",
"g h m h h h 6 i j j j j j j j j j j j j j j j j j j j j j j j j j j j j 8 j j j j j j j j j j j j j j v v j j j j j j j j j j j j s A t A j j j j j n | ) ) ) ) + {                                                                             ] # ) ) ) ) b l 9 j j j j j j j j j j j j j j j j j j j j j j j j j j j j j j j j j j j j j j j j j j j j j j j j j j j j j j j j j 8 j j j j j j j o I 6 5 h h h h ",
"g 5 h h h h 6 i j j j j j j j j j j j j j j j j j j j j j j j j j j j j j j j j j j j j j j j j j j j x v j j j j j j j j j j j j s s 0 A j j j j j n | ) ) ) ) + {                                                                             ] # ) ) ) ) b l 0 j j j j j j j j j j j j j j j j j j j j j j j j j j j j j j j j j j j j j j j j j j j j j j j j j j j j j j j j j j j j j j j j j j M 6 5 h h h h ",
"g 5 h h h h 6 i j j j j j j j j j j j j j j j j j j j j j j j j j j j j j j j j j j j j j j j j j j j x w 9 9 8 9 j o o 8 j j j 0 J q q A j j j j j n | ) ) ) ) + C                                                                             ] # ) ) ) ) b l o j j j j j j j j j j j j j j j j j j j j j j j j j j j j j j j j j j j j j 8 j j j j j j j j j j j j j j j j j j j j j j j j j j j j i l N h h h h ",
"g 5 h h h h 6 i j j j j j j j j j j j j j j j j j j j j j j j j j j j j j j j j j j j j j j j j j j j x H E E D F E F D z j j j j d t t A j j j j j n | ) ) ) ) + C                                                                             ] # ) ) ) ) b l 9 j j j j j j j j j j j j j j j j j j j j j j j j j j j j j j j j j j j j j j j j j j j j j j j j j j j j j j j j j j j j j j j j j j i 4 h h h h h ",
"g h h h 5 h 4 M j j j j j j j j j j j j j j j j j j j j j j j j j j j j j j j j j j j j j j j j j j 8 v H D E D E E S F z j j j j o 9 d t 8 j j j j n | ) ) ) ) + {                                                                             ] # ) ) ) ) b l o j j j j j j j j j j j j j j j j j j j j j j j j j j j j j j j j j j j j j j j j j j j j j j j j j j j j j j j j j j j j j j j j j j i 6 f h h h h ",
"g h 5 h h h 6 i j j j j j j j j j j j j j j j j j j j j j j j j j j j j j j j j j j j j j j j j j j j x v o o 9 9 8 o 8 j j j j j 0 u u t j j j j j n | ) ) ) ) + C                                                                             ] # ! ) ) ) ! l 0 j j j j j j j j j j j j j j j j j j j j j j j j j j j j j j j j j j j j j j j j j j j j j j j j j j j j j j j j j j j j j j j j j j i 6 f h h h h ",
"g h h h 5 h 6 i 8 j 8 j j j j j j j j j j j j j j j j j j j j j j j j j j j j j j j j j j j j j j j j v v j 8 j j j j j j j j j j 9 s t A j j j j j n | ) ) ) ) ~ C                                                                             ] # ) ) ) ) b l 9 j j j j j j j j j j j j j j j j 8 j j j j j j j j j j j j j j 8 j j j j j j j j j j j j j j j j j j j j j j j j j j j j j j j j j j i 6 f h h 5 5 ",
"g h h h h h 6 i j j j j j j j j j j j j j j j j j j j j j j j j j j j j j j j j j j j j j j j j j j j v v j j j j j j j j j j j 0 t B z 9 j j j j j n | ) ) ) ) + {                                                                             ] # ) ) ) ) b l 0 j j j j j j j j j j j j j j j j j j j j j j j j j j j j j j j j j j j j j j j j j j j j j j j j j j j j j j j j j j j j j j j j j j i 6 f h h m 5 ",
"g h 5 h h f 6 i j j j j j j j j j j j j j j j j j j j j j j j j j j j j j j j j j j j j j j j j j j j v w j j j j j j j j j j j A J B B o j j j j j n | ) ) ) ) + {                                                                             ] # ) ) ) ) b l 0 j j j j j j j j j j j j j j j j j j j j j j j j j j j j j j j j j j j j j j j j j j j j j j j j j j j j j j j j j j j j j j j j j j i 6 f h 5 h h ",
"g f h h h f 6 i j j j j j j j j j j j j j j j j j j j j j j j j j j j j j j j j j j j j j j j 8 j j j q q j j j j j j j j j j j j 9 d B s j j j j j n | ) ) ) ) + {                                                                             ] # ! ) ) ) b l 9 j j j j j j j j j j j j j j j j j j j j j j j j j j j j j j j j j j j j j j j j j j j j j j j j j j j j j j j j j j j j j j j j j j 7 6 f h h h h ",
"g h h h h f 6 i j j j j j j j j j j j 8 j j j j j j j j j j j j j j j j j j j j j j j j j j j j j j j 0 A s s 0 s s 0 j j j j j j j j j 8 j j j j j n p ) ) ) ) + {                                                                             ] # ) ) ) ) b l 0 j j j j j j j j j j j j j j j j j j j j j j j j j j j j j j j j j j j j j j j j j j j j j j j j j j j j j j j j j j j j j j j j j j i 6 f h h h h ",
"g h m h h f 6 i j j j j j j j j j j j j j j j j j j j j j j j j j j j j j j j j j j j j j j j j j j j 7 H G H G H G G x 9 j j j j j j j j j j j j j n b ) ) ) ) . {                                                                             ] # ) ) ) ) ! l 8 j j j j j j j j j j j j j j j j j j j j j j j j j j j j j j j j j j j j j j j j j j j j j j j j j j j j j j j j j j j j j j j j j j i 6 h h h h h ",
"g h h h h h 6 7 j j j j j j j j j j j j j j j j j j j j j j j j j j j j j j j j j j j j j j j j j j j q x x v x x x w G t j j j j j j j j j j j j j n | ) ) ) ) ~ {                                                                             ] # ) ) ) ) b l 9 j j j j j j j j j j j j j j j j j j j j j j j j j j j j j j j j j j j j j j j j j j j j j j j j j j j j j j j j j j j j j j j j j j i 6 f h h h h ",
"g 5 h h h h 6 i j j j j j j j j j j j j j j j j j j j j j j j j j j j j j j j j j j j j j j j j j j j j j j j j j j 9 D e j j j j j j j j j j j j j n | ) ) ) ) ~ {                                                                             ] # ) ) ) ) b l 0 j j j j j j j j j j j j j j j j j j j j j j j j j j j j j j j j j j j j j j j j j j j j j j j j j j j j j j j j j j j j j j j j j j i 6 f h h h h ",
"g 5 h h h h 6 i j j j j j j j j j j j j j j j j j j j j j j j j j j j j j j j j j j j j j j j j j j j j j j j j j j j y e j j j j j j j j j j j 8 j k | ) ) ! ) . {                                                                             ] # ) ) ) ) ! l 9 j j j j j j j 8 j j j j j j j j j j j j j j j j 8 j j j j j j j j j j j j j j j j j j j j j j j j j j j j j j j j j j j j j j j j j i 6 h h h h h ",
"g 5 h h h h 6 i j j j j j j j j j j j j j j j j j j j j j j j j j j j j j j j j j j j j j j j j j j j j j j j j j j j y x j j j j j j j j j j j 8 8 n | ) ) ) ) + {                                                                             ] # ) ) ) ) b l 9 j j j j j j j j j j j j j j j j j j j j j j j j j j j j j j j j j j j j j j j j j j j j j j j j j j j j j j j j j j j j j j j j j j i 6 h h h h h ",
"g h h 5 h h 6 i j j j j j j j j j j j j j j j j j j j j j j j j j j j j j j j j j j j j j j j j j j j j j j j j j j 8 y x j j j j j j j j j j j j j n | ) ) ) ) ~ {                                                                             ] # ) ) ) ) b l 8 j j j j j j j j j j j j j j j j j j j j j j j j j j j j j j j j j j j j j j j j j j j j j j j j j j j j j j j j j j j j j j j j j j i 6 f h h h h ",
"g h h h h h 6 i j j j j j j j j j j j j j j j j j j 8 j j j j j j j j j j j j j j j j j j j j j j j j j j j j j j j j y e j j j j j j j j j j j j j n | ) ) ) ) ~ {                                                                             ] # ) ) ) ) b l 9 j j j j j j j j j j j j j j j j j j j j j j j j j j j j j j j j j j j j j j j j j j j j j j j j j j j j j j j j j j j j j j j j j j i 6 f h h h h ",
"g h 5 h h 5 6 i j j j j j j j j j j j j j j j j j j j j j j j j j j j j j j j j j j j j j j j j j j j j j j j j j j o y e j j j j j j o j j j j j j n | ) ) ) ) ~ {                                                                             ] # ) ) ) ) b l 0 j j j j j o j j j j j j j j j j j j j j j j j j j j j j j j j j j j j j j j j j j j j j j 8 j j j j j j j j j j j j j j j j j j j j i 6 f 5 h m h ",
"g h h h h h 6 i j j j j j j j j j j j j j j j j j j j j j j j j j j j j j j j j j j j j j j j j j j j j j j j j j j 8 y e j j j j j T U V o j j j j k | ) ) ) ) ~ {                                                                             ] # ) ) ) ) b l 8 j j j o V W 9 j j j j j j j j j j j j j j j j j j j j j j j j j j j j j j j j j j j j j j j j j j j j j j j j j j j j j j j j j j 8 i 6 f h h h h ",
"g h h h h h 6 M j j j j j j j j j j j j j j j j j j j j j j j j j j j j j j j j j j j j 8 j j j j j j s t t A B B A r G q j j j 8 X Y Z ` j j j j j n | ) ) ) ) + {                                                                             ] # ) ) ) ) ! l 9 j j j o Y Z  .o j j j j j j j j j j j j j j j j j j j j j j j j j j j j j j j j j j j j j j j j j j 8 j j j j j j j j j j j j j j j i 6 f h h h h ",
"g h 5 h h h 6 i j j j j j j j j j j j j j j j j j j j j j j j j j j j j j j j j j j j j j j j j j j o e K H K K K K K S d j j j o ` ..+.@.j j j j j k p ) ) ) ) + {                                                                             ] # ) ) ) ) b l 9 j j j j #...+.#.j j j j j j j j j j j j j j j j j j j j j j j j j j j j j j j j j j j j j j j j j j j j j j j j j j j j j j j j j j i 6 f h h h h ",
"g h h h m h 6 7 j j j j j j j j j j j j j j j j j j j j j j j j j j j j j j j j j j j j j j j j j j j s z B A z z z B 9 j j j o W ..m $.P j j j j j n | ) ) ) ) + {                                                                             ] # ) ) ) ) b l o j j j j %.&.m +.V o j j j j j j j j j j j j j j j j j j j j j j j j j j j j j j j j j j j j j j j j j j j j j j j j j j j j j j j j i l h h h h h ",
"g h h h h h 6 i j j j j j j j j j j j j j j j j j j j j j j j j j j j j j j j j j j j j j j j j j j j o o j o j j j j 9 8 j o  ...Z ..W j j j j j j n | ) ) ) ) + {                                                                             ] # ) ) ) ) b l 0 j j j j o U m m N *.j j j j j j j j j j j j j j j j j j j j j j j j j j j j j j j j j j j j j j j j j j j j j j j j j j j j j j j j r a h h h h h ",
"g h h h h f 6 i j j j j j j j j j j j j j j j j j j j j j j j j j j j j j j j j j j j j j j j j j j j e e j o J d j j v z P ` +...Z +.=.j j j j j j n | ) ) ) ) ~ {                                                                             ] # ) ) ) ) O l o j j j j j #.Z m m N -.o j j j j j j j j j j j j j j j j 8 j j j j j j j j j j j j j j j j j j j j j j j j j j j j j j j j j j j j j 7 6 h h h h h ",
"g 5 h m h f 6 i j j j j j j j j j j j j j j j j j j j j j j 8 j j j j j j j j j j j j j j j j j j j 8 v v j o F z j 8 y ;.U ..N Y ..&.X j j j j j j n | ) ) ) ) + {                                                                             ] # ! ) ) ) b l 9 j j j j j =.+.+.Y ..+.W o j j j j j j j j j j j j j j j j j j j j j j j j j j j j j j j j j j j j j j j j j j j j j j j j j j j j j i 6 5 h m h h ",
"g 5 h h h f 6 i j j j j j j j j j j j j j j j j j j j j j j j j j j j j j j j j j j j j j j j j j j j v v j 9 E t j 8 D k >.,.'.-...U o j j j j j j n | ) ) ) ) + C                                                                             ] # ) ) ) ) b l 0 j j j j j X ,.+.=.W N ..U %.j j j j j j j j j j j j j j j j j j j j j j j j j j j j j j j j j j j j j j j j j j j j j j j j j j j j i 6 f h h h h ",
"g 5 h h h f 6 i j j j j j j j j 8 j j j j j j j j j j j j j j j j j j j j j j j j j j j j j j j j j j v v j 9 E q o ).!.~.$.T o W ..W j j j j j j 8 n | ) ) ) ) + C                                                                             ] # ) ) ) ) b l 9 j j j j j o {...*.o -.N ..,.T j j j j j j j j j j j j j j j j j j j j j j j j j j j j j j j j j j j j j j j j j j j j j j j j j j j i 6 f h h h h ",
"g h h h h h 6 7 j j j j j j j j j j j j j j j j j j j j j j j j j j j j j j j j j j j j j j j j j j j v v j 9 F ].` +.!.;.X j o U m V j j j j j j j n | ) ) ) ) + {                                                                             ] # ) ) ) ) b l j j j j j j j ^.Z W j j /.(...N -.o j j j j j j j j j j j j j j j j j j j j j j j j j j j j j j j j j j j j j j j j j j j j j j j j j i 6 f h h h h ",
"g h h h h h 6 i j j j j j j j j j j j j j j j j j j j j j j j j j j j j j j j j j j j j j j j j j j j x v j 0 _.:.>.N !.x j j P &.>.@.j j j j j j j n O ) ) ) ) ~ {                                                                             ] # ) ) ) ) b l 9 j j j j j j -.Z U o j j X U m m U %.o j j j j j j j j j j j j j j j j j j j j j j j j j j j j j j j j j j j j j j j j j j j j j j j i 6 f h h h h ",
"g h h 5 h f 6 i j j j j j j j j j j j j j j j j j j j j j j j j j j j j j j j j j j j j j j j j j j j v v %.<.[.:.U }.y x j j %.|.|.%.j j j j j j j n O ) ) ) ) + {                                                                             ] # ) ) ) ) b l 9 j j j j j j }.m Y P j j j P #.&.m ,.-.o j j j j j j j j j j j j j j j j j j j j j j j j j j j j j j j j j j j j j j j j j j j j 8 j i 4 h h h 5 m ",
"g h h h h f 6 i j j j j j j j j j j j j j j j j j j j j j j j j j j j j j j j j j j j j j j j j j j j v _.g :.[.~.z B F x j j T >.&.X j j j j j j j n | ) ) ) ) + ]                                                                             ] # ) ) ) ) b l 9 j j j j j j T >.N X j j j j j T 1.....Y T o j j j j j j j j j j j j j j j 8 j j j j j j j j j j j j j j j j j j j j j j j j j j j j I l h h h 5 5 ",
"g h m h h h 6 i j j j j j j j j j j j j j j j j j j j j j j j j j j j j j j j j j j j j j j j j j o @.~.K K K K K K K K x j j '.m $.o j j j j j j j n | ) ) ) ) . {                                                                             ] # ) ) ) ) b l o j j j j j j %.&.>.2.j j j j j j P -.N Z 3.W %.j j j j j j j j j j j j j j j j j j j j j j j j j j j j j j j j j j j j j j j j j j j i 6 f h h 5 h ",
"g 5 h h h h 6 i j j j j j j j j j j j j j j j j j j j j j j j j j j j j j j j j j j j j j j j o %. .N :.~.7 r z z z J z s j j *.>.U o j j j j j j j n | ) ) ) ) + {                                                                             ] # ) ) ) ) ! l 0 j j j j j j X &.>.T j j j j j j j 8 @.{.3...,.*.X j j j j j j j j j j j j j j j j j j j j j j j j j j j 8 j j j j j j j j j j j j j i 6 f h h h h ",
"g 5 h h h h 6 i j j j j j j j j j j j j j j j j j j j j j j j j j j j j j j j j j j j j j j X W ,.Z N ` 2.o 9 o j 9 9 j j j j #.m ` j j j j j j j j n p ) ) ) ) ~ {                                                                             ] # ) ) ) ) b l 9 j j j j j j o 1.>.'.j j j j j j j j j o *.(.Z ..(.'.o j j j j j j j j j j j j j j j j j j j j j j j j j j j j j j j j j j j j j j j i 6 f h h h h ",
"g 5 h h h h 6 i j j j j j j j j j j j j j j j j j j j j j j j j j j j j j j j j j j j j %.4.,.Z ..Y '.0 z D D F D F y q j j j ^.Z  .j j j j j j j j n b ) ) ) ) ~ {                                                                             ] # ) ) ) ) b l 0 j j j j j j o U ..V j j j j j j j j j j j X 5.,.m m Y =.o j j j j j j j j j j j j j j j j j j j j j j j j j j j j j j j j j j j j j i 6 f h h h h ",
"g h h h 5 h 4 M j j j j j j j j j j j j j j j j j j j j j j j j j j j j j j j j j o %.W ,.....(.-.o j A H F D E D D F G s j o ^...5.j j j j j j j j n | ) ) ) ) ~ {                                                                             ] # ) ) ) ) b l 0 j j j j j j j U Z #.j o s A t t A t A u A 9 j %. .N Z +.Y *.o j j j j j j j j j j j j j j j 8 j j j j j j j j j j j j j j j j j j j i 6 f h h h h ",
"g h 5 h h h 6 i j j j j j j j j j j j j j j j j j j j j j j j 8 j j j j j j j o T W N Z ..(.#.X j j j e F 0 j 9 o 8 s F z j j ` m #.j j j j j j j j n | ) ) ) ) . {                                                                             ] # ) ) ) ) b l 9 j j j j j j o U ..#.j 8 v K H H K K K K K r j j o %.^.|.Z ..(.#.X o j j j j j j j j j j j j j j j j j j j j j j j j j j j j j j j j i 6 f h h h h ",
"g h h h 5 h 6 7 j j j j j j j j j j j j j j j j j j j j j j j j j j j j o X -.Y +.Z +.(.V X j j j j j v v j j j j j o y e j j {.m #.j j j j j j 8 8 k | ) ) ! ) ~ {                                                                             ] # ) ) ) ) ! l 8 j j j j j j j  .m 5.j o y F r e r r e e G r j j j j o %. .,.Z m ,. .@.o j j j j j j j j j j j j j j j j j j j j j j j j j j j j j j i 6 f h h h h ",
"g h h h h h 6 i j j j j j j j j j j j j j j j j j j j j j j j j j o X '.` ,.m m +.{.'.X j j j j j j j v v j j j j j j w x j o {.Z #.j j j j j j j 8 n | ) ) ! ! ~ {                                                                             ] # ! ) ) ) b l 9 j j j j j j o ^.Z 5.j j w x j j j j j 8 D r j j j j j j o %.5.&.....+.(.4.@.o o j j j j j j j j j j j j j j j j j j j j j j j j j j i 6 h h h h h ",
"g h h h h f 6 i j j j j j j j j j j j j j j j j j j j j j X =.*.5.{.|.....+.,.W T o j j j j j j j j j v v j j j j j j y v j o U Z #.j j j j j j j 8 n | ) ) ) ) . {                                                                             ] # ) ) ) ) b l 9 j j j j j j o ^.m  .j 8 y e j j j j j o D r j j j j j j j j j X V U +.Z Z >.Y  .*.=.%.o j j j j j j j j j j j j j j j j j j j j j j i 6 f h h h h ",
"g f h m h f 6 i j j j j 8 j j j j j j j j j j j j j j j o U ....Z Z m m Y =.6.j j j j j j j j j j j j v w j j j j j o y e j o U m *.j j j j j j j j n | ) ) ) ) ~ {                                                                             ] # ) ) ) ) b l 0 j j j j j j j 5.Z ^.j j y 7 j j j j j 8 D J j j j j j j j j j j j o %.-.,.m m ......N W o j j j j j j j j j j j j j j j j j j j j j i 6 f h h h h ",
"g h h h h f 6 i j j j j j j j j j j j j j j j j j j j j o W ,.N +...Z m ,. .=.6.o j j j j j j j j j j v v j j j j j 8 y x j o 1.m *.j j j j j j j j n | ) ) ) ) ~ {                                                                             ] # ) ) ) ) b l o j j j j j j j  .m ^.j o y x j j j j j o D e j j j j j j j j j j j o T 4.,.m m m m +.N #.j j j j j j j j j j j j j j j j j j j j j j i 6 f h h h h ",
"g h h h h f 6 i j j j j j j j j j j j j j j j j j j j j j o X %.@.-.U N +.Z +.Y -.%.o j j j j j j j j v v j j j j j j y e j j U m #.j j j j j j j j k | ) ) ) ) ~ {                                                                             ] # ) ) ) ) b l 9 j j j j j j o  .Z 5.j 8 y x j j j j j o D J j j j j j j j j o X -.Y +.Z ..N U #.=.2.%.o j j j j j j j j j j j j j j j j j j j j j j 7 6 f h h h h ",
"g h h h h h 6 7 j j j j j j j j j j j j j j j j j j j j j j j j j j o X V ` N Z m |. .@.o j j j j j o v v o j o j o 8 y 7 j o {.Z #.j j j j j j j j n | ) ) ) ) + {                                                                             ] # ) ) ) ) b l o j j j j j j j ^.m ^.j 8 y x j j j j j 9 D J j j j j j j o T  .,.m m 3.U -.%.o j j j j j j j j j j j j j j j j j j j j j j j j j j j i 6 f f h h h ",
"g 5 h h h h 6 i j j j j j j j j j j j j j j j j j j j j j j j j j j j j j o %.4.$...Z N U =.o j j j o v F y y w y y y G x j j U m -.j j j j j j j j n | ) ) ) ) + {                                                                             ] # ! ) ) ) ! l 0 j j j j j j o ` Z 5.j j y v j j j j j 8 S J j j j j o @.` N ..+.,.5.2.o j j j j j j j j j j j j j j j j j j j j j j j j j j j 8 j j i 6 f h h h h ",
"g 5 h 5 h f 6 i j j j j j j j j j j j j j j j j j j j j j j j j j j j j j j j j 6.=.U +.Z 3.U =.o j 8 e F H F F F F G G r j j  .Z 5.j j j j j j j j n | ) ) ) ) + {                                                                             ] # ) ) ) ) b l 9 j j j j j j j  .m #.j j e F s 0 9 0 0 q G q j j o =.{.N Z +.U V X j j j j j j j 8 j j j j j j j j j j j j j j j j j j j j j j j j j i 6 f h h m h ",
"g 5 h h h f 6 i j j j j j j j j j j j j j j j j j j j j j 8 j j j j j j j j j j j j o T ` N Z +. .T j o 0 d s d d d d 0 8 j o  .Z W j j j j j j j j n | ) ) ) ) + {                                                                             ] # ) ) ) ) b l 0 j j j j j j o U Z #.j j A G G G G G G H E 0 j T {.3.m N U '.o j j j j j j j j j j j j j j j j j j j j j j j j j j j j j j j j j j j i 6 f h h h h ",
"g h h h h h 6 i j j j j j j j j j j j j j j j j j j j j j j j j j j j j j j j j j j j j o T ` +.m +. .7.j j j j j j j j j j j ^.m W j j j j j j j j n | ) ) ) ) ~ {                                                                             ] # ) ) ) ) b l o j j j j j j o U m *.j j j t x v w v v e A %. .N m +.` @.o j j j j j j j j j j j j j j j j j j j j j j j j j j j j j j j j j j j j o I 6 5 h h h h ",
"g h h 5 h h 6 i j j j j j j j j j j j j j j j j j j j j j j j j j j j j j j j j j j j j j j o =.U +...,.#.P j j j j j j j j j #.m {.o j j j j j j j n | ) ) ) ) + {                                                                             ] # ) ) ) ) ! l 0 j j j j j j o $.m '.j j j j j j j j 8 9 -.,...+.U @.o j j j j j j j j j j j j j j j 8 j j j j j j j j j j j j j j j j j j j j j j j M 6 5 h h h h ",
"g h h 5 5 h 6 i j j j j j j j j j j j j j j j j j j j j j j j j j j j j j j j j j j j j j j j j o '.$.....1./.8 j j j j j j j *.m 1.o j j j j j j j n | ) ) ) ) + C                                                                             ] # ) ) ) ) b l 9 j j j j j j X &.m T j j J v v x x v v 8.!.:.$.*.o j j j j j j j j j j j j j j j j j j j j j j j j j j j j j j j j j j j j j j j j j i l N h h h h ",
"g h h h h h 6 i j j j j j j j j j j j j j j j j j j j j j j j j j j j j j j j j j j j j j j j j j j P #.N ..N W X j j j j j j =.>.&.P j j j j j j j n | ) ) ) ) . C                                                                             ] # ) ) ) ) b l 0 j j j j j j X &.>.2.j 8 y K G G K K [.[.K 9.X j j j j j j j j j j j j j j j j j j j j j j j j j j j j j j j j j j j j j j j j j j j i 4 h h h h h ",
"g h h h h h 6 M j j j j j j j j j j j j j j j j j j j j j j j j j j j j j j j j j j j j j j j j j j j j 2.` +...$./.o j j j j T >.&.X j j j j j j j n O ) ) ) ) + C                                                                             ] # ) ) ) ) b l 0 j j j j j j T |.&.X j j y y s ).!.!.:.0.F J j j j j j j j j j j j j j j j j j j j j j j j j j j j j j j j j j j j j j j j j j j j j i 6 f h h h h ",
"g h h m h h 6 i j j j j j j j j j j j j j j j 8 j j j j j j j j j j j j j j j j j j j j j j j j j j j j j o V ,.m N 5.X j j j X ,.>.@.j j j j j j j n | ) ) ) ) ~ {                                                                             ] # ) ) ) ) b l 9 j j j j j j /.m 1.P j o y R W N ~.a.V P y r j j j j j j 8 j j j j j j j j j j j j j j j j j j j j j j j j j j j j j j j j j j j j j i 6 f h h h h ",
"g h h h h h 6 7 j j j j j j j j j j j j j j j j j j j j j j j j j j j j j j j j j j j j j j j j j j j j j j j %.` >.>.U %.8 j o $.+.'.j j j j j j j n | ) ) ) ) ~ {                                                                             ] # ) ) ) ) ! l 8 j j j j j j -...{.o j 8 y ~...m ~.D o 9 D J j j j j j j j j j j j j j j j j j j j j j j j j j j j j j j j j j j j j j j j j j j j j i 6 f h h 5 5 ",
"g h h h h h 6 i j j j j j j j j j j j j j j j j j j j j j j j j j j j j j j j j j j j j j j j j j j j j j j j j o V N ..,.'.j o U ..-.j j j j j j j n | ) ) ) ) + ]                                                                             ] # ! ) ) ) b l 9 j j j j j j ^.Z 5.j o '.a.~.N *.b.D 8 o y r j j j j j j j j j j j j j j j j j j j j j j j j j j j j j j j j j j j j j j j j j j j j i 6 f h h m 5 ",
"g h h h h f 6 i j j j j j j j j 8 j j j j j j j j j j j j j j j j j j j j j j j j j j j j j j j j j j j j j j j j j T Y Z N -.o W ..` j j j j j j j n | ) ) ) ) . {                                                                             ] # ) ) ) ) b l 9 j j j j j o U ..V o #.+.!._.T j r D 8 o D r j j j j j j j j j j j j 8 j j j j j j j j j j j j j j j j j 8 j j j j j j j j j j j j j i 6 f f h h h ",
"g 5 h m h f 6 i j j j j j j j j j j j j j j j j j j j j j j j j j j j j j j j j j j j j j j j j j j j j j j j j j j j X  .....W -...Y o j j j j j j n | ) ) ) ) + {                                                                             ] # ) ) ) ) ! l 0 j j j j j X ,.+.V  .....!.7 j j r y j 9 D J j j j j j j j j j j j j j j j j j j j j j j j j j j j j j j j j j j j j j j j j j j j j i 6 f h h h f ",
"g 5 h h h f 6 i j j j j j j j j j j j j j j j j j j j j j j j j j j j j j j j j j j j j j j j j j j j j j j j j j j j j o -.+...,...N 2.j j j j j j n p ) ) ) ) ~ {                                                                             ] # ) ) ) ) b l 0 j j j j j @.+.+.,...N #.E x j j J D j 9 D r j j j j j j j j j j j j j j j j j j j j j j j j j j j j j j j j j j j j j j j j j j j j i 6 f h h h h ",
"g 5 h h h f 6 i j j j j j j j j j j j j j j j j j j j j j j j j j j j j j j j j j j j j j j j j j j j j j j j j j j j j j o V N m m ..V j j j j j j n b ) ) ) ) ~ {                                                                             ] # ) ) ) ) b l 9 j j j j j -.Z ..Z N '.o r z j j s t j j e q j j j j j j j j j j j j j j j j j j j j j j j j j j j j j j j j j j j j j j j j j j j j i 6 f h h h h ",
"g h h h h h 6 7 j j j j j j j j j j j j j j j j j j j j j j j j j j j j j j j j j j j j j j j j j j j j j j j j j j j j j j o V N m m ^.j j j j j j n | ) ) ) ) ~ {                                                                             ] # ) ) ) ) ! l o j j j j o Y m ..,.'.j j o j j j j j j j j j j j j j j j j j j j j j j j j j j j j j j j j j j j j j j j j j j j j j j j j j j j j j i 6 f h h h h ",
"g h h h h h 6 i j j j j j j j j j j j j j j j j j j j j j j j j j j j j j j 8 j j j j j j j j j j j j j j j j j j j j j j j j j *.N m &.X j j j j j n | ) ) ) ) . {                                                                             ] # ! ) ) ) b l 0 j j j j 2.N m N }.j j j j t e x e x e x x u j j j j j j j j j j j j j j j j j j j j j j j j j j j j j j j j j j j j j j j j j j j j i 6 f h h h h ",
"g h h 5 h f 6 i j j j j j j j j j j j j j j j j j j j j j j j j j j j j j j j j j j j j j j j j j j j j j j j j j j j j j j j j j -.+...*.j j j 8 j k | ) ) ! ) ~ {                                                                             ] # ) ) ) ) b l 9 j j j j -.Z +.*.j j j j A G H G G G G G G z j j j j j j j j j j j j j j j j j j j j j j j j j j j j j j j j j j j j j j j j j j j j i 6 f h h h h ",
"g h h h h f 6 i j j j j j j j j j j j j j j j j j j j j j j j j j j j j j j j j j j j j j 8 j j j j j j j j j j j j j j j j j j j o  .Z  .j j j 8 8 n | ) ) ! ! ~ {                                                                             ] # ) ) ) ) b l 9 j j j o Y ..4.o j j j j x F A s 0 s s s 0 9 j j j j j j j j j j j j j j j j j j j j j j j j j j j j j j j j j j j j j j j j j j j j i 6 f h h h h ",
"g h h h h h 6 i j j j j j j j j j j j j j j j j j j j j j j j j j j j j j j j j j j j j j j j j j j j j j j j j j j j j j j j j j j P -.@.j j j j j n | ) ) ) ) . {                                                                             ] # ) ) ) ) b l 0 j j j j V W 9 j j j j j y x j j j j j j j j j j j j j j j j j j j j j j j j j j j j j j j j j j j j j j j j j j j j j j j j j j j j i 6 f h h h h ",
"g f h 5 5 h 6 i j j j j j j j j j j j j j j j j j j j j j j j j j j j j j j j j j j j j j j j j j j j j j j j j j j j j j j j j j j j j j j j j j j k | ) ) ) ) ~ {                                                                             ] # ! ) ) ) b l 9 j j j j j j j j j j j j y e j j j j j j j j j j j j j j j j j j j j j j j j j j j j j j j 8 j j j j j j j j j j j j j j j j j j j j i 6 f h f h h ",
"g h h 5 h h 6 i j j j j j j j j j j j j j j j j j j j j j j j j j j 8 j j j j j j j j j j j j j j j j j j j j j j j j j j j j j j j j j j j j j j j n | ) ) ) ) ~ {                                                                             ] # ) ) ) ) b l 0 j j j j j j j j j j j o y x j j j j j j j j j j j j j j j j j j j j j j j j j j j j j j j j j j j j j j j j j j j j j j j j j j j j i 6 f h h h h ",
"g h h h h h 6 i j j j j j j j j j j j j j j j j j j j j j j j j j j j j j j j j j j j j j j j j j j j j j j j j j j j j j j j j j j j j j j j j j j n | ) ) ) ) ~ {                                                                             ] # ) ) ) ) ! l 8 j j j j j j j j j j j j y x j j j j j j j j j j j j j j j j j j j j j j j j j j j j j j j j j j j j j j j j j j j j j j j j j j j j 7 6 f h h h h ",
"g h h 5 h f 6 i j j j j j j j j j j j j j j j j j j j j j j j j j j j j j j j j j j j j j j j j j j j j j j j j j j j j j j j j 8 j j j j j j j j j n | ) ) ) ) + {                                                                             ] # ) ) ) ) b l 9 j j j j j j j j j j j o v e j j j j j j j j j j j j j j j j j j j j j j j j j j j j j j j j j j j j j j j j j j j j j j j j j j j j i 6 f h h h h ",
"g 5 h h h f 6 i j j j j j j j j j j j j j j j j j j j j j j j j j j j j j j j j j j j j j j j j j j j j j j j j j j j j j j j j j j j j j j j j j j k | ) ) ) ) + {                                                                             ] # ) ) ) ) b l 0 j j j j j j j j j j j 8 y x j j j j 8 j j j j j j j j j j j j j j j j j j j j j j j j j j j j j j j j j j j j j j j j j j j j j j j i 6 f h h h h ",
"g 5 h m h f 6 i j j j j j j j j j j j j j j j j j j j j j j j j j j j j j j j j j j j j j j j j j j j j j j j j j j j j j j j j j j j j j j j j j 8 n | ) ) ) ) + {                                                                             ] # ) ) ) ) b l o j j j j j j j j j j j j v y o j o o o 8 o j j j j j j j j j j j j j j j j j j j j j j j j j j j j j j j j j j j j j j j j j j j j j i 6 h h h h h ",
"g 5 h h h f 6 i j j j j j j j j j j j j j j j j j j j j j j j j j j j j j j j j j j j j j j j j j j j j j j j j j j j j j j j j j j j j j j j j j j n | ) ) ) ) + {                                                                             ] # ) ) ) ) b l 9 j j j j j j j j j j j 8 z F F D D D D D D q j j j j j j j j j j j j j j j j j j j j j j j j j j j j j j j j j j j j j j j j j j j j i 6 h h h h h ",
"g h h h h h 6 i j j j j j j j j j j j j j j j j j j j j j j j j j j j j j j j j j j j j j j j j j j j j j j j j j j j j j j j j j j j j j j j j j j n | ) ) ) ) + {                                                                             ] # ) ) ) ) b l o j j j j j j j j j j j j 9 e D F F F F F F B j j j j j j j j j j j j j j j j j j j j j j j j j j j j j j j j j j j j j j j j 8 j j j i 6 f h h h h ",
"g h h h h h 6 i j j j j j j j j j j j j j j j j j j j j j j j j j j j j j j j j j j j j j j j j j j j j j j j j j j j j j j j j j j j j j j j j j j n | ) ) ) ) + {                                                                             ] # ) ) ) ) ! l 0 j j j j 9 j j j j j j j j j 9 0 o 9 9 8 0 o j j j j j j j j j j j j j j j j j j j j j j j j j j j j j j j j j j j j j j j j j j j j i 6 f h h h h ",
"g h h h h h 6 i j j j j j j j j j j j j j j j j j j j j j j j j j j j j j j j j j j j j j j j j j j j j j j j j j j j j j j j j j j j j j j j j j j n | ) ) ) ) + C                                                                             ] # ) ) ) ) b l 9 j j j j A z A 0 j j j j j j j j j j j o x B j j j j j j j j j j j j 8 j j j j j j j j j j j j j j j j j j j j j j j j j j j j j j j i 6 f h h h h ",
"g h h h h f 6 i j j j j j j j j j j j j j j j j j j j j j j j j j j j j j j j j j j j j j j j j j j j j j j j j j j j j j j j j j j j j j j j j j j n | ) ) ) ) + C                                                                             ] # ) ) ) ) b l 0 j j j j j q t r s j j j j j j j j j 8 o D r j j j j j j j j j j j j j j j j j j j j j j j j j j j j j j j j j j j j j j j j j j j j i 6 f h h 5 h ",
"g h h h h h 6 i j j j j j j j j j j j j j j j j j j j j j j j j j j j j j j j j j j j j j j j j j j j j j j j j j j j j j j j j j j j j j j j j j j n O ) ) ) ) + C                                                                             ] # ) ) ) ) b l 0 j j j j A z A s 9 j j j j j j j j j j o D J j j j j j j j j j j j j j j j j j j j j j j j j j j j j j j j j j j j j j j j j j j j j i 6 f h h h h ",
"g 5 h 5 5 h 6 i j j j j j j j j j j j j j j j j j j j j j j j j j j j j j j j j j j j j j 8 j j j j j j j j j 8 j j j j j j j j j j j j j j j j j j n | ) ) ) ) ~ {                                                                             ] # ) ) ) ) b l 9 j j j j t t s 8 j j j j j j j j j j j o D r j j j j j j j j j j j j j j j j j j j j j j j j j j j j j j j j j j j j j j j j j j j j i 6 f h h h h ",
"g h h 5 h h 6 i j j j j j j j j j j j j j j j 8 j j j j j j j j j j j j j j j j j j j j j j j j j j j j j j j j j j j j j j j j j j j j j j j j j j n | ) ) ) ) ~ {                                                                             ] # ) ) ) ) ! l 9 j j j 9 B s s o j j j j 9 s 0 0 s 0 0 s F r j j j j j j j j j j j j j j j j j j j j j j j j j j j j j j j j j j j j j j j j j j j j i 6 h h h 5 m ",
"g h h h h h 6 i j j j j j j j j j j j j j j j j j j j j j j j j j j j j j j j j j j j j j j j j j j j j j j j j j j j j j j j j j j j j j j j j j j n | ) ) ) ) + ]                                                                             ] # ! ) ) ) b l 8 j j j o B s s j j j j j x G G G G G G G K J j j j j j j j j j j j j j j j j j j j j j j j j j j j j j j j j j j j j j j j j j j j j M 6 h h h 5 5 ",
"g h h h h f 6 i j j j j j j j j j j j j j j j j j j j j j j j j j j j j j j j j j j j j j j j j j j j j j j j j j j j j j j j j j j j j j j j j j j k | ) ) ) ) . {                                                                             ] # ) ) ) ) b l 9 j j j j s u u s j j j j J w w v v w v w G r j j j j j j j j j j j j j j j j j j j j j j j j j j j j j j j j j j j j j j j j j j j j i 6 f h h 5 h ",
"g f h 5 h f 6 i j j j j j j j j j j j j 8 j j j j j j j j j j j j j j j j j j j j j j j j j j j j j j j j j j j j j j j j j j j j j j j j j j j j j n | ) ) ) ) + {                                                                             ] # ) ) ) ) b l 0 j j j 8 t t q z 9 j j j j j j j j j j 9 D r j j j j j j j j j j j j j j j j j j j j j j j j j j j j j j j j j j j j j j j j j j j j i 6 f h h h h ",
"g h h m h f 6 i j j j j j j j j j j j j j j j j j j j j j j j j j j j j j j j j j j j j j j j j j j j j 8 j j j j j j j j j j j j j j j j j j j j j n | ) ) ) ) . {                                                                             ] # ) ) ) ) ! l 0 j j j o s s s 9 j j j j j j j j j j j o E r j j j j j j j j j j j j j j j j j j j j j j j j j j j j j j j j j j j j j j j j j j j j i 6 f h h h h ",
"g h h h h f 6 i j j j j j j j j j j j j j j j j j j j j j j j j j j j j j j j j j j j j j j j j 8 j j j j j j j j j j j j j j j j j j j j j j j j 8 n | ) ) ) ) ~ {                                                                             ] # ) ) ) ) b l 9 j j j j t A u 0 j j j j j j j j j j j 8 y r j j j j j j j j j j j j j j j j j j j j j j j j j j j j j j j j j j j j j j j j j j j j i 6 f h h h h ",
"g h h h h h 6 i 8 j j j j j j j j j j j j j j j j j j j j j j j j j j j j j j j j j j j j j j j j j j j j j j j j j j j j j j j j j j j j j j j j j n | ) ) ) ) ~ {                                                                             ] # ) ) ) ) ! l o j j j 9 t 9 s s j j j j j j j j j j j 8 E J j j j j j j j j j j j j j j j j j j j j j j j j j j j j j j j j j j j j j j j j j j j j 7 6 f h h h h ",
"g 5 h h h h 6 i j j j j j j j j j j j j j j j j j j j j j j j j j j j j j j j j j j j j j j j j j j j j j j j j j j j j j j j j j j j j j j j j j j n | ) ) ) ) ~ {                                                                             ] # ! ) ) ) b l 0 j j j j A B t 9 j j j j j j j j j j j j A d j j j j j j j j j j j j j j j j j j j j j j j j j j j j j j j j j j j j j j j j j j j j i 6 f h h h h ",
"g 5 h h h f 6 i j j j j j j j j j j j j j j j j j j j j j j j j j j j j j j j j j j j j j j j j j j j j j j j j j j j j j j j j j j j j j j j j 8 8 k | ) ) ) ) + {                                                                             ] # ) ) ) ) b l 9 j j j j t z z 0 j j j j d 0 j j j s r r s j j j j j j j j j j j j j j j j j j j j j j 8 j j j j j j j 8 j j j j j j j j j j 8 j j j i 6 h h h h h ",
"g 5 h h h f 6 i j j j j j j j j j j j j j j j j j j j j j j j j j j j j j j j j j j j j j j j j j j j j j j j j j j j j j j j j j j j j j j j j j 8 n | ) ) ) ) + {                                                                             ] # ) ) ) ) b l 0 j j j j 0 0 t A j j j j v e j j s F K K _.0 j j j j j j j j j j j j j j j j j j j j j j j j j j j j j j j j j j j j j j j j j j j j i 6 h h h h h ",
"g h h h h h 6 i j j j j j j j j j j j j j j j j j j j j j j j j j j j j j j j j j j j j j j j j j j j j j j j j j j j j j j j j j j j j j j j j j j n | ) ) ) ) + {                                                                             ] # ) ) ) ) b l o j j j j s A q s j j j o y e j j z F B B F z j j j j j j j j j j j j j j j j j j j j j j j j j j j j j j j j j j j j j j j j j j j j i 6 f h h h h ",
"g h h 5 5 h 6 i j j j j j j j j j j j j j j j j j j j j j j j j j j j j j j j j j j j j j j j j j j j j j j j j j j j j j j j j j j j j j j j j j j k | ) ) ) ) . {                                                                             ] # ! ) ) ) b l 9 j j j j 0 s u s j j j j y e 8 j z D o 0 D r j j j j j j j j j j j j j j j j j j j j j j j j j j j j j j j j j j j j j j j j j j j j i 6 f h h h h ",
"g h h 5 h h 6 i j j j j j j j j j j j j j j j j j j j j j j j j j j j j j j j j j j j j j j j j j j j j j j j j j j j j j j j j j j j j j j j j j j n | ) ) ) ) ~ {                                                                             ] # ) ) ) ) b l 8 j j j j u B A 8 j j j j v x j j J D 8 o D r j j j j j j j j j j j j j j j j j j j j j j j j j j j j j j j j j j j j j j j j j j j j i 6 f h h h h ",
"g h h h h h 6 i j j j j j j j j j j j j j j j j j j j j j j j j j j j j j j j j j j j j j j j j j j j j j j j j j j j j j j j j j j j j j j j j j j k | ) ) ) ) ~ {                                                                             ] # ) ) ) ) b l 9 j j j o z z 0 0 j j j o y 7 j j J D o 8 D r j j j j j j j 8 j j j j j j j j j j j j j j j j j j j j j j j j j j j j j j j j j j j j i 6 f h h h h ",
"g h h m h f 6 i j j j j j j j j j j j j j j j j j j j j j j j j j j j j j j j j j j j j j j j j j j j j j j j j j j j j j j j j j j j j j j j j j j n | ) ) ) ) + {                                                                             ] # ) ) ) ) b l 9 j j j 9 z z z s j j j j y e j j J D 8 o D r j j j j j j j j j j j j j j j j j j j j j j j j j j j j j j j j j j j j j j j j j j j j i 6 f f h h h ",
"g h h h h f 6 i j j j j j j j j j j j j j j j j j j j j j j j j j j j j j j j j j j j j j j j j j j j j j j j j j j j j j j j j j j 8 j j j j j j j k p ) ) ) ) + {                                                                             ] # ) ) ) ) b l o j j j j u z t 0 j j j j y x j j r D o o D J j j j j j j j j j j j j j j j j j j j j j j j j j j j j j j j j j j j j j j j j j j j j i 6 f h h h h ",
"g h h h h f 6 i j j j j j j j j j j j j j j j j j j j j j j j j j j j j j j j j j j j j j j j j j j j j j j j j j j j j j j j j j j j j j j j j j j n | ) ) ) ) + {                                                                             ] # ) ) ) ) b l 0 j j j j t t B z 0 j j j y e j j J D 8 8 D r j j j j j j j j j j j j j j j j j j j j j j j j j j j j j j j j j j j j j j j j j j j j i 6 f h m h h ",
"g h h h h f 6 i j j j j j j j j j j j j j j j j j j j j j j j j 8 j j j j j j j j j j j j j j j j j j j j j j j j j j j j j j j j j j j j j j j j j n | ) ) ) ) + {                                                                             ] # ) ) ) ) b l 9 j j j 9 A 0 s 0 o j j j v y o o 7 y 8 o D r j j j j j j j j j j j j j j j j j j j j j j j j j j j j j j j j j j j j j j j j j j j j i 6 f h h h h ",
"g 5 h h h f 6 i j j j j j j j j j j j j j j j j j j j j 8 j j j j j j j j j j j j j j j j j j j j j j j j j j j j j j j j j j j j j j j j j j j j j n | ) ) ) ) ~ {                                                                             ] # ) ) ) ) b l o j j j 8 A t u 0 o j j j J G D y G 7 j o y r j j j j j j j j j j j j j j j j j j j j j j j j j j j j j j j j j j j 8 j j j j j j j o I 6 5 h h h h ",
"g 5 h h h f 6 i j j j j j j j j j j j j j j j j j j j j j j j j j j j j j j j j j j j j j j j j j j j j j j j j j j j j j j j j j j j j j j j j j j n | ) ) ) ) + {                                                                             ] # ! ) ) ) b l 9 j j j j t z z B s j j j 0 w F G y 0 j j u s j j j j j j j j j j j j j j j j j j j j j j j j j j j j j j j j j j j j j j j j j j j j M 6 5 h h h h ",
"g 5 h h h f 6 i 8 j j j j j j j j j j j j j j j j j j j j j j j j j j j j j j j j j j j j j j j j j j j j j j j j j j j j j j j j j j j j j j j j j n | ) ) ) ) + {                                                                             ] # ) ) ) ) b l 8 j j j j s r z 0 o j j j j o 0 0 j j j j j j j j j j j j j j j j j j j j j j j j j j j j j j j j j j j j j j j j j j j j j j j j j j i l N h h h h ",
"g h h h h h 6 i j j j j j j j j j j j j j j j j j j j j j j j j j j j j j j j j j j j j j j j j j j j j j j j 8 j j j j j j j j j j j j j j j j j j n | ) ) ) ) + {                                                                             ] # ) ) ) ) b l 9 j j j j A 0 d 0 j j j j 8 u J J J J J z s j j j j j j j j j j j j j j j j j j j j j j j j j j j j j j j j j j j j j j j j j j j j j i 4 h h h h h ",
"g 5 h m h h 6 i j j j j j j j j j j j j j j j j j j j j j j j j j j j j j j j j j j j j j j j j j j j j j j j j j j j j j j j j j j j j j j j j j j n O ) ) ) ) + {                                                                             ] # ) ) ) ) b l 9 j j j j B z J z 9 j j j t F H H H H H K F 0 j j j j j j j j j j j j j j j j j j j j j j j j j j j j j j j j j j j j j j j j j j j j i 6 f h h h h ",
"g 5 h h h h 6 i j j j j j j j j j j j j j j j j j j j j j j j j j j j j j j j j j j j j j j j j j j j j j j j j j j j j j j j j j j j j j j j j j 8 n | ) ) ) ) + C                                                                             ] # ) ) ) ) b l 0 j j j j A 0 s s j j j j e F t s s A A z F q j j j j j j j j j j j j j j j j j j j j j j j j j j j j j j j j j j j j j j j j j j j j i 6 f h h h h ",
"g h 5 h h f 6 i j j j j j j j j j j j j j j j j j j j j j j j j j j j j j j j j j j j j j j j j j j j j j j j j j j j j j j j j j j j j j j j j j j n O ) ) ) ) + C                                                                             ] # ) ) ) ) ! l 0 j j j 8 t t A 0 8 j j j v v j j j j j o S J j j j j j j j j j j j j j j j j j j j j j 8 j j j j j j j j j j j j j j j j j j j j j j i 6 f h h 5 5 ",
"g h h h h f 6 i j j j j j j j j j j j j j j j j j j j j j j j j j j j j j j j 8 j j j j j j j j j j j j j j j j j j j j j j j j j j j j j j j j j j n | ) ) ) ) ~ ]                                                                             ] # ) ) ) ) b l 9 j j j 9 t 9 9 9 0 j j o v x j j j j j o D r j j j j j j j j j j j j j j j j j j j j j j j j j j j j j j j j j j j j j j j j j j j j i 6 f h h m 5 ",
"g 5 h h h f 6 i j j j j j j j j j j j j j j j j j j j j j j j j j j j j j j j j j j j j j j j j j j j j j j j j j j j j j j j j j j j j j j j j j j n | ) ) ) ) . {                                                                             ] # ) ) ) ) b l o j j j j q B B 0 9 j j 8 w e j j j j j 9 D J j j j j j j j j j j j j j j j j j j j j j j j j j j j j j j j j j j j j j j j j j j j j i 6 f h 5 h h ",
"g 5 h h h f 6 i j j j j j j j j j j j j j j j j j j j j j j j j j j j j j j j j j j j j j j j j j j j j j j 8 j j j j j j j j j j j j j j j j j j j n | ) ) ) ) + {                                                                             ] # ) ) ) ) ) l 0 j j j j u B B 9 j j j o v v j j j j j 8 D r j j j j j j j j j j j j j j j j j j j j j j j j j j j j j j j j j j j j j j j j j j j j 7 6 f h h h h ",
"g 5 h h h f 6 i 8 j j j j j j j j j j j j j j j j j j j j j j j j j j j j j j j j j j j j j j j j j j j j j j j j j j j j j j j j j j j j j j j j j n p ) ) ) ) ~ {                                                                             ] # ) ) ) ) b l 9 j j j j 0 s t 0 j j j o y x j j j j j 9 D r j j j j j j j j j j j j j j j j j j j j j j j j j j j j j j j j j j j j j j j j j j j j i 6 f h h h h ",
"g h h h h h 6 i j j j j j j j j j j j j j j j j j j j j j j j j j j j j j j j j j j j j j j j j j j j j j j j j j j j j j j j j j j j j j j j j j j n b ) ) ) ) ~ {                                                                             ] # ) ) ) ) b l 0 j j j j 0 t t 9 j j j j y x j j j j j o D r j j j j j j j j j j j j j j j j j j j j j j j j j j j j j j j j j j j j j j j j j j j j i 6 h h h h h ",
"g 5 h m h h 6 i j j j j j j j j j j j j 8 j j j j j j j j j j j j j j j j j j j j j j j j j j j j j j j j j j j j j j j j j j j j j j j j j j j j j n | ) ) ) ) ~ {                                                                             ] # ) ) ) ) b l 0 j j j 9 t B z s j j j o y e j j j j j 8 D r j j j j j j j j j j j j j j j j j j j j j j j j j j j j j j j j j j j j j j j j j j j j i 6 f h h h h ",
"g 5 h h h h 6 i j j j j j j j j j j j j j j j j j j j j j j j j j j j j j j j j j j j j j j j j j j j j j j j j j j j j j j j j j j j j j j j j j j n | ) ) ) ) . {                                                                             ] # ) ) ) ) b l 9 j j j 8 s A z 0 j j j 8 r z j j j j j o e q j j j j j j j j j j j j j j j j j j j j j j j j j j j j j j j j j j j j j j j j j j j j i 6 f h h h h ",
"g h 5 h h f 6 i j j j j j 8 j j j j j j j j j j j j j j j j j j j j j j j j j j j j j j j j j j j j j j j j j j j j j j j j j j j j j j j j j j 8 j k | ) ) ! ) ~ {                                                                             ] # ) ) ) ) ! l 8 j j j j s A B 9 j j j j o o j j j j j j j j j j j j j j j j j j j j j j j j j j j j j j j j j j j j j j j j j j j j j j j j j j j j i 6 h h h h h ",
"g h h h h f 6 i j j j j j j j j j j j j j j j j j j j j j j j j j j j j j j j j j j j j j j j j j j j j j j j j j j j j j j j j j j j j j j j j 8 8 n | ) ) ! ! ~ {                                                                             ] # ! ) ) ) b l 9 j j j j 0 s t s j j j j t r r e r r e e e A j j j j j j j j j j j j j j j j j j j j j j j j j j j j j j j j j j j j j j j j j j j j i 6 h h h h h ",
"g h m h h h 6 i 8 j j j j j j j j j j j j j j j j j j j j j j j j j j j j j j j j j j j j j j j j j j j j j j j j j j j j j j j j j j j j j j j j j n | ) ) ) ) . {                                                                             ] # ) ) ) ) b l 9 j j j j s s t d j j j o v H G G H H H G G z j j j j j j j j j j j j j j j j j j j j j j j j j j j j j j j j j j j j j j j j j j j j i 6 f h h h h ",
"g 5 h h h h 6 M j j j j j j j j j j j j j j j j j j j j j j j j j j j j j j j j j j j j j j j j j j j j j j j j j j j j j j j j j j j j j j j j j 8 n | ) ) ) ) ~ {                                                                             ] # ) ) ) ) b l 0 j j j j 0 s 0 j j j j j 0 s s s v F s s s 9 j j j j j j j j j j j j j j j j j j j j j j j j j j j j j j j j j j j j j j j j j j j j i 6 f h h h h ",
"g 5 h h h h 6 i j j j j j j j j j j j j j j j j j j j j j j j j j j j j j j j j j j j 8 j j j j j j j j j j j j j j j j j j j j j j j j j j j j j j n | ) ) ) ) ~ {                                                                             ] # ) ) ) ) ! l 0 j j j j j j j j j j j j j j j j J D o j j j j j j j j j j j j j j j j j j j j j j j j j j j j j j j j j j j j j j j j j j j j j j j i 6 f 5 h m h ",
"g 5 h h h h 6 i j j j j j j j j j j j j j j j j j j j j j j j j j j j j j j j j j j j j j j j j j j j j j j j j j j j j j j j j j j j j j j j j j j k | ) ) ) ) ~ {                                                                             ] # ) ) ) ) b l 9 j j j j s s o 8 j j j j j j j j r y 8 j j j j j j j j j j j j j j j j j j j j j j j j j j j j j j j j j j j j j j j j j j j j j j 8 i 6 f h h h h ",
"g h h 5 h f 6 i j j j j j j j j j j j j j j j j j j j j j j j j j j j j j j j j j j j j j j j j j j j j j j j j j j j j j j j j j j j j j j j j j j n | ) ) ) ) + {                                                                             ] # ) ) ) ) ! l o j j j 9 B t s s j j j j j j j j r y o j j j j j j j j j j j j j j j j j j j j j j j j j j j j j 8 j 8 j j j j j j j j j j j j j j j i 6 f h h h h ",
"g h h h h f 6 i j j j j j j j j j j j j j j j j j j j j j j j j j j j j j j j j j j j j j j j j j j j j j j j j j j j j j j j j j j j j j j j j j j n | ) ) ) ) + {                                                                             ] # ! ) ) ) b l 0 j j j j q z z 0 j j j j j j j j e D 8 j j j j j j j j j j j j j j j j j j j j j j j j j j j j j j j j j j j j j j j j j j j j j j j i 6 f h h h h ",
"g h h 5 h f 6 i j j j j j j j j j j j j j j j j j j j j j j j j j j j j j j j j j j j j j j j j j j j j j j j j j j j j j j j j j j j j j j j j j j n | ) ) ) ) + {                                                                             ] # ) ) ) ) b l 9 j j j j s t A 9 j j j j j j j j J D o j j j j j j j j j j j j j j j j j j j j j j j j j j j j j j j j j j j j j j j j j j j j j j j i l h h h h h ",
"g h h h h f 6 i j j j j j j j j j j j j j j j j j j j j j j j j j j j j j j j j j j j j j j j j j j j j j j j j j j j j j j j j j j j j j j j j j j n | ) ) ) ) + {                                                                             ] # ) ) ) ) b l 0 j j j 9 t s s o j j j j j j j j r y j j j j j j j j j j j j j j j j j j j j j j j j j j j j j j j j j j j j j j j j j j j j j j j j r a h h h h h ",
"g h h h h h 6 i j j j j j j j j j j j j j j j j j j j j j j j j j j j j j j j j j j j j j j j j j j j j j j j j j j j j j j j j j j j j j j j j j j n | ) ) ) ) ~ {                                                                             ] # ) ) ) ) O l 0 j j j o B s 0 j j j j j 0 t A t v F t u t 9 j j j j j j j j j j j j j j j j j j j j j j j j j j j j j j j j j j j j j j j j j j j j 7 6 h h h h h ",
"g f h 5 h h 6 i j j j j j j j j j j j j j j j j j j j j j j j j j j 8 j j j j j j j j j j j j j j j j j j j j j j j 8 j j j j j j j j j j j j j j 8 n | ) ) ) ) + {                                                                             ] # ) ! ) ) b l 9 j j j 8 s t t 9 j j j o x K H K K K K H H z j j j j j j j j j j j j j j j j j j j j j j j j j j j j j j j j j j j j j j j j j j j j i 6 5 h m h h ",
"g h h 5 5 h 6 i j j j j j j j j j j j j j j j j j j j j j j j j j j j j j j j j j j j j j j j j j j j j j j j j j j j j j j j j j j j j j j j j j j n O ) ) ) ) + C                                                                             ] # ) ) ) ) b l o j j j 9 s s z 0 j j j j B r r r r r r r r s j j j j j j j j j j j j j j j j j j j j j j j j j j j j j j j j j j j j j j j j j j j j i 6 f h h h h ",
"g h h h h h 6 i j j j j j j j j j j j j j j j j j j j j j j j j j j j j j j j j j j j j j j j j j j j j j j j j j j j j j j j j j j j j j j j j j j n | ) ) ) ) . C                                                                             ] # ) ) ) ) b l o j j j j t B s s j j j j j j j j j j j j A 0 j j j j j j j j j j j j j j j j j j j j j j j j j j j j j j j j j j j j j j j j j j j j i 6 f h h h h ",
"g h h h h h 6 i j j j j j j j j j j j j j j j j j j j j j j j j j j j j j j j j j j j j j j j j j j j j j j j j j j j j j j j j j j j j j j j j j j n | ) ) ) ) + C                                                                             ] # ) ) ) ) b l 9 j j j j 0 0 o o j j j j j j j j j j j o y J j j j j j j j j j j j j j j 8 j j j j j j j j j j j j j j j j j j j j j j j j j j j j j i 6 f h h h h ",
"g 5 h m h h 6 i j j j j j j j j j j j j j j j j j j j j j j j j j j j j j j j j j j j j j j j j j j j j j j j j j j j j j j j j j j j j j j j j j j n | ) ) ) ) ~ {                                                                             ] # ) ) ) ) b l 0 j j j j j j j j j j j j j j j j j j j 8 D r j j j j j j j j j j j j j j j j j j j j j j j j j j j j j j j j j j j j j j j j j j j j i 6 f h h h h ",
"g 5 h h h h 6 i j j j j j j j j j j j j j j j j j j j j j 8 j j j j j j j j j j j j j j j j j j j j j j j j j j j j j j j j j j j j j j j j j j j j n O ) ) ) ) ~ {                                                                             ] # ) ) ) ) b l o j j j j A A t A 0 j j j j j j j j j j 8 D r j j j j j j j j j j j j j j j j j j j j j j j j j j j j j j j j j j j j j j j j j j 8 j i 4 h h h 5 m ",
"g 5 h h h h 6 i j j j j j j j j j j j j j j j j j j j j j j j j j j j j j j j j j j j j j j j j j j j j j j j j j j j j j j j j j j j j j j j j j j n | ) ) ) ) . ]                                                                             ] # ) ) ) ) ! l 9 j j j 9 z s s z A j j j j j j j j j j o D r j j j j j j j j j j j j j j j j j j j j j j j j j j j j j j j j j j j j j j j j j j j j I l h h h 5 5 ",
"g h h h h f 6 i j j j j j j j j j j j j j j j j j j j j j j j j j j j j j j j j j j j j j j j j j j j j j j j j j j j j j j j j j j j j j j j j j j n | ) ) ) ) . {                                                                             ] # ) ) ) ) b l o j j j 8 t 8 j s s j j j u z z z z z z J G J j j j j j j j j j j j j j j j j j j j j j j j j j j j j j j j j j j j j j j j j j j j j i 6 f h h h h ",
"g h h 5 h f 6 i j j j j j j j j j j j j j j j j j j j j j j j j j j j j j j j j j j j j j j j j j j j j j j j j j j j j j j j j j j j j j j j j j j n | ) ) ) ) + {                                                                             ] # ! ) ) ) b l 9 j j j j s B t t j j j j v K H H G H H H K J j j j j j j j j j j j j j j j j j j j j j j j j j j j j j j j 8 j j j j j j j j j j j j i 6 f h h h h ",
"g h h m h f 6 i j j j j j j j j j j j j j j j j j j j j j j j j j j j j j j j j j 8 j j j j j j j j j j j j j j j j j j j j j j j 8 j j j j j j j j n p ) ) ) ) ~ {                                                                             ] # ) ) ) ) b l 8 j j j j s r z 9 j j j j s A t t A t A t F r j j j j j j j j j j j j j j j j j j j j j j j j j j j j j j j j j j j j j j j j j j j j i 6 f h h h h ",
"g h h h h f 6 i j j j j j j j j j j j j j j j j j j j j j j j j j j j j j j j j j j j j j j j j j j j j j j j j j j j j j j j j j j j j j j j j j j n b ) ) ) ) ~ {                                                                             ] # ) ) ) ) b l 9 j j j 9 A t q s j j j j j j j j j j j 8 D r j j j j j j j j j j j j j j j j j j j j j j j j j j j j j j j j j j j j j j j j j j j j i 6 f h h h h ",
"g h h h h h 6 7 j j j j j j j j j j j j j j j j j j j j j j j j j j j j j j j j j j j j j j j j j j j j j j j j j j j j j j j j j j j j j j j j j j n | ) ) ) ) ~ {                                                                             ] # ) ) ) ) b l 9 j j j 9 s A z 0 j j j j j j j j j j j 9 D r j j j j j j j j j j j j j j j j j j j j j j j j j j j j j j j j j j j j j j j j j j j j i 6 f h h h h ",
"g f h h h h 6 i j j j j j j j j j j j j j j j j j j j j j j j j j j j j j j j j j j j j j j j j j j j j j j j j j j j j j j j j j j j j j j j j j j n | ) ) ) ) . {                                                                             ] # ) ) ) ) b l 0 j j j j s t q 9 j j j j j j j j j j j o D r j j j j j j j j j j j j j j j j j j j j j j j j j j j j j j j j j j j j j j j j j j j j i 6 h h h h h ",
"g h h h h h 6 i j j j j j j j j j j j j j j j j j j j j j j j j j j j j j j j j j j j j j j j j j j j j j j j j j j j j j j j j j j j j j j j j 8 8 k | ) ) ! ) ~ {                                                                             ] # ) ) ) ) ! l 0 j j j 9 t 0 0 o j j j j j j j j j j j j x z j j j j j j j j j j j j j j j j j j j j j j j j j j j j j j j j j j j j j j j j j j j j i 6 h h h h h ",
"g h h h h f 6 i j j j j j j j j j j j j j j j j j j j j j j j j j j j j j j j j j j j j j j j j j j j j j j j j j j j j j j j j j j j j j j j j j 8 n | ) ) ! ! ~ {                                                                             ] # ) ) ) ) b l 9 j j j j q t s 0 j j j j j o j 8 o o j o 0 j j j j j j j j j j j j j j j j j j j j j j j j j j j j j j j j j j j j j j j j j j j j j i 6 h h h h h ",
"g h h h h h 6 i j j j j j j j j j j j j j j j j j j j j j j j j j j j j j j j j j j j j j j j j j j j j j j j j j j j j j j j j j j j j j j j j j 8 n | ) ) ) ) . {                                                                             ] # ) ) ) ) b l o j j j j s t t s j j j j r D D y D y y y y t j j j j j j j j j j j j j j j j j j j j j j j j j j j j j j j j j j j j j j j j j j j j 7 6 h h h h h ",
"g 5 h 5 5 h 6 i j j j j j j j j j j j j j j j j j j j j j j j j j j j j j j j j j j j j j j j j j j j j j j j j j j j j j j j j j j j j j j j j j j n | ) ) ) ) ~ {                                                                             ] # ) ) ) ) ) l 0 j j 8 o t u z z 9 j j j y H D F F H F F H J j j j j j j j j j j j j j j j j j j j j j j j j j j j j j j j j j j j j j j j j j j j j i 6 5 h 5 h h ",
"g 5 h h h h 6 i j j j j j j j j j j j j j j j j j j j j j j j j j j j j j j j j j j j j j j j j j j j j j j j j j j j j j j j j j j j j j j j j j j n | ) ) ) ) ~ {                                                                             ] # ) ) ) ) b l 9 j j j 8 s o s 0 j j j 8 v v 9 o r D 9 0 D r j j j j j j j j j j j j j j j j j j j j j j j j j j j j j j j j j j j j j j j j j j j j i 6 f h 5 h h ",
"g 5 h 5 h h 6 i j j j j j j j j j j j j j j j j j j j j j j j j j 8 j j j j j j j j j j j j j j j j j j j j j j j j j j j j j j j j j j j j j j j j k | ) ) ) ) ~ {                                                                             ] # ) ) ) ) b l 0 j j j o u t B s j j j o y e j j r D j 8 D r j j j j j j j j j j j j j j j j j j j j j j j j j j j j j j j j j 8 j j j j j j j j j j i 6 f h h h h ",
"Q h h m h f 6 i j j j j j j j j j j j j j j 8 j j j j j j j j j j j j j j j j j j j j j j j j j j j 8 j j j j j j j j j j j j j j j j j j j j j j j n | ) ) ) ) + {                                                                             ] # ) ) ) ) b l 0 j j j 8 t B 0 0 j j j o v e j j r D j o D r j j j j j j j j j j j j j j j j j j j j j j j j j j j j j j j j j j j j j j j j j j j j i 6 f h h h h ",
"g h h h h f 6 i j j j j j j j j j j j j j j j j j j j j j j j j j j j j j j j j j j j j j j j j j j j j j j j j j j j j j j j j j j j j j j j j j j n | ) ) ) ) + {                                                                             ] # ) ) ) ) b l 9 j j j j A q t 9 j j j 8 y e j j e D o 0 D r j j j j j j j j j j j j j j j j j j j j 8 j j j j j j j j j j j j j j j j j j j j j j j i 6 f h h h h ",
"g h h h h f 6 i j j j j j j j j j j j j j j j j j j j j j j j j j j j j j j j j j j j j j j j j j j j j j j j j j j j j j j j j j j j j j j j j j j n | ) ) ) ) + {                                                                             ] # ) ) ) ) ! l 8 j j j 9 t 9 s s j j j j y x j j r D j 9 D r j j j j j j j j j j j j j j j j j j j j j j j j j j j j j j j j j j j j j j j j j j j j i 4 h h h 5 m ",
"g h h h h f 6 i j j j j j j j j j j j j j j j j j j j j j j j j j j j j j j j j j j j j j j j j j j j j j j j j j j j j j j j j j j j j j j j j j j n | ) ) ) ) + {                                                                             ] # ! ) ) ) b l 9 j j j j s j 0 s j j j o w e j j e y 8 o D J j j j j j j j j j j j j j j j j j j j j j j j j j j j j j j j j j j j j j j j j j j j j I l h h h 5 5 ",
"g 5 h h h f 6 i j j j j j j j j j j j j j j j j j j j j j j j j j j j j j j j j j j j j j j j j j j j j j j j j j j j j j j j j j j j j j j j j j j n | ) ) ) ) ~ {                                                                             ] # ) ) ) ) b l 9 j j j j A t t t 0 j j j y x j j r y 8 o D r j j j j j j j j j j j j j j j j j j j j j j j j j j j j j j j j j j j j j j j j j j j j i 6 f f h h h ",
"g 5 h h h h 6 7 j j j j j j j j j j j j j j j j j j j j j j j j j j j j j j j j j j j j j j j j j j j j j j j j j j j j j j j j j j j j j j j j j 8 n | ) ) ) ) + {                                                                             ] # ) ) ) ) b l o j j j j 9 9 A s j j j j z B j j 0 s j 8 z t j j j j j j j j j j j j j j j j j j j j j j j j j j j j j j j j j j j j j j j j j j j j i 6 f h h h h ",
"g 5 h h h f 6 i j j j j j j j j j j j j j j j j j j j j j j j j j j j j j j j j j j j j j j j j j j j j j j j j j j j j j j j j j j j j j j j j j j n | ) ) ) ) + {                                                                             ] # ) ) ) ) b l 0 j j j j t q B 0 j j j j j j 9 j j j o j j j j j j j j j j j j j j j j j j j j j j j j j j j j j j j j j j j j j j j j j j j j j j j i 6 f h h h h ",
"g h h h h f 6 i j j j j j j j j j j j j j j j j j j j j j j j j j j j j j j j j j j j j j j j j j j j j j j j j j j j j j j j j j j j j j j j j j j n | ) ) ) ) + {                                                                             ] # ) ) ) ) b l 9 j j j j A q q B 0 j j j 9 r y y y y y w z j j j j j j j j j j j j j j j j j j j j j j j j j j j j j j j j j j j j j j j j j j j j j i 6 f h h h h ",
"g 5 m h h h 6 i j j j j j j j j j j j j j j j j j j j j j j j j j j j j j j j j j j j j j j j j j j j j j j j j j j j j j j j j j j j j j j j j j j n O ) ) ) ) + {                                                                             ] # ) ) ) ) ! l o j j j j t B s 0 9 j j j z H G F F F F F F s j j j j j j j j j j j j j j j j j j j j j j j j j j j j j j j j j j j j j j j j j j j j i 6 f h h h h ",
"g 5 h h h h 6 i j j j j j j j j j j j j j j j j j j j j j j j j j j j j j j j j j j j j j j j j 8 j j j j j j j j j j j j j j j j j j j j j j j j j n | ) ) ) ) + C                                                                             ] # ! ) ) ) b l 0 j j j 9 z q s s j j j j v y 0 9 9 0 9 s F z j j j j j j j j j j j j j j j j j j j j j j j j j j j j j j j j j j j j j j j j j j j j i 6 f h h h h ",
"g h h h f f 6 i j j j j j j j j j j j j j j j j j j j j j j j j j j j j j j j j j j j j j j j j j j j j j j j j j j j j j j j j j j j j j j j j j j n O ) ) ) ) + {                                                                             ] # ) ) ) ) b l 9 j j j 9 z r z s j j j j y x j j j j j o S J j j j j j j j j j j j j j j j 8 j j j j j j j j j j j j j j j j j j j j j j j j j j j j 7 6 f h h h h ",
"g h h f h f 6 i j j j j j j j j j j j j j j j j j j j j j j j j j j j j j j j j j j j j j j j j j j j j j j j j j j j j j j j j j j j j j j j j j j n | ) ) ) ) ~ ]                                                                             ] # ) ) ) ) O l o j j j j u q t j j j j j v x j j j j j o D J j j j j j j j j j j j j j j j j j j j j j j j j j j j j j j j j j j j j j j j j j j j j i 6 f h h h h ",
"g 5 h h h f 6 i j j j j j j j j j j j j j j j j j j j j j j j j j j j j j j j j j j j j j j j j j j j j j j j j j j j j j j j j j j j j j j j j j j n | ) ) ) ) . {                                                                             ] # ) ) ! ) O l 0 j j j j s A t 0 j j j o y e j j j j j 9 D r j j j j j j j j j j j j j j j j j j j j j j j j j j j j j j j j j j j j j j j j j j j j i 6 h h h h h ",
"g 5 h h h f 6 i j j j j j j j j j j j j j j j j j j j j j j j j j j j j j j j j j j j j j j j j j j j j j j j j j j j j j j j j j j j j j j j j j j n | ) ) ) ) + {                                                                             ] # ) ) ) ) b l 9 j j j j 0 0 t A j j j o y e 8 j j j j j D r j j j j j j j j j j j j j j j j j j j j j j j j j j j j j j j j j j j j j j j j j j j j i 6 f h h h h ",
"g 5 h h h f 6 i j j j j j j j j j j j j j j j j j j j 8 j j j j j j j j j j j j j j j j j j j j j j j j j j j j j j j j j j j j j j j j j j j j j j n | ) ) ) ) . {                                                                             ] # ) ) ) ) ! l o j j j j A z t 9 j j j j w x j j j j j 8 D r j j j 8 j j j j j j j j j j j j j j j j j j j j j j j j j j j j 8 j j j j j j j j j j j 7 6 f h h h h ",
"g h h h h f 6 i j j j j j j j j j j j j j j j j j j j j j j j j j j j j j j j j j j j j j j j j j j j j j j j j j j j j j j j j j j j j j j j j j j k | ) ) ) ) ~ {                                                                             ] # ) ) ) ) b l 0 j j j j t t t 0 j j j j w x j j j j j o D r j j j j j j j j j j j j j j j j j j j j j j j j j j j j j j j j j j j j j j j j j j j j i 6 f h h h h ",
"g 5 h h m f 6 i j j j j j j j j j j j j j j j j j j j j j j j j j j j j j j j j j j j j j j j j j j j j j j j j j j j j j j 8 j j j j j j j j j j j n | ) ) ) ) ~ {                                                                             ] # ) ) ! ) O l 9 j j j 9 t 9 s A 8 j j j w e j j j j j 8 D r j j j j j j j j j j j j j j j j j j j j j j j j j j j j j j j j j j j j j j j j j j j j i 6 f h h h h ",
"g 5 h h h f 6 i j j j j j j j j j j j j j j j j j j j j j j j j j j j j j j j j 8 j j j j j j j j j j j j j j j j j j j j j j j j j 8 j j j j j j j n | ) ) ) ) ~ {                                                                             ] # ) ) ) ) b l o j j j j u t q B 0 j j j B t j j j j j o q A j j j j j j j j j j j j j j j j j j j j j j j j j j j j j j j j j j j j j j j j j j j j i 6 f h h h h ",
"g h h h h f 6 i j j j j j j j j j j j j j j j j j j j j j j j j j j j j j j j j j j j j j j j j j j j j j j j j j j j j j j j j j j j j j j j j 8 j k | ) ) ) ) . {                                                                             ] # ) ) ) ) b l 9 j j j j j j j o j j j j j j j j j j j j j j j j j j j j j j j j j j j j j j j j j j j j j j j j j j j j j j j j j j j j j j j j j j i 6 f m h h h ",
"g h h h h f 6 i j j j j j j j j j j j j j j j j j j j j j j j j j j j j j j j j j j j j j j j j j j j j j j j j j j j j j j j j j j j j j j j j 8 8 n | ) ) ) ) + {                                                                             ] # ) ) ) ) ! l 0 j j j j j j j j j j j j j j j j j j j j j j j j j j j j j j j j j j j j j j j j j j j j j j j j j j j j j j j j j j j j j j j j j j i 6 f h h h h ",
"g h 5 h h h 6 i j j j j j j j j j j j j j j j j j j j j j j j j j j j j j j j j j j j j j j j j j j j j j j j j j j j j j j j j j j j j j j j j j j n | ) ) ) ) . {                                                                             ] # ) ) ) ) O l 0 j j j j j j j j j j j j j j j j j j j j j j j j j j j j j j j j j j j j j j j j j j j j j j j j j j j j j j j j j j j j j j j j j j i 6 f h h h h ",
"g h h h h h 6 i j j j j j j j j j j j j j j j j j j j j j j j j j j j j j j j j j j j j j j j j j j j j j j j j j j j j j j j j j j j j j j j j j j n | ) ) ) ) ~ {                                                                             ] # ) ) ) ) b l 9 j j j j j j j j j j j j j j j j j j j j j j j j j j j j j j j j j j j j j j j j j j j j j j j j j j j j j j j j j j j j j j j j j j i 6 f h h h h ",
"g h 5 h h h 6 i j j j j j j j j j j j j j j j j j j j j j j j j j j j j j j j j j j j j j j j j j j j j j j j j j j j j j j j j j j j j j j j j j j n | ) ) ) ) ~ {                                                                             ] # ) ) ) ) b l o j j j j j j j j j j j j j j j j j j j j j j j j j j j j j j j j j j j j j j j j j j j j j j j j j j j j j j j j j j j j j j j j j j i 6 h h h h h ",
"g h h h 5 h 6 i j j j j j j j j j j j j j j j j j j j j j j j j j j j j j j j j j j j j j j j j j j j j j j j j j j j j j j j j j j j j j j j j j j n | ) ) ) ) ~ {                                                                             ] # ) ) ! ) b l o j j j j j j j j j j j j j j j j j j j j j j j j j j j j j j j j j j j j j j j j j j j j j j j j j j j j j j j j j j j j j j j j j j i 6 h h h h h ",
"g f h h h f 6 i j j j j j j j j j j j j j j j j j j j j j j j j j j j j j j j j j j j j j j j j j j j j j j j j j j j j j j j j j j j j j j j j j j n O ) ) ) ) + {                                                                             ] # ) ) ) ) b l 0 j j j j j j j j j j j j j j j j j j j j j j j j j j j j j j j j j j j j j j j j j j j j j j j j j j j j j j j j j j j j j j j j j j i 6 f 5 h h h ",
"g 5 h h h Z 6 i j j j j j j j j j o j j j j j j j j j j j j j j j o j j j j j j j j j j j j j j j j j j j j j j j 8 j j j j j j j j j j j j j j j j n | ) ) ) ) + {                                                                             ] # ) ) ) ) b l 0 j j j j j j j j j j j j j j j j j j j j j j j j 8 j j j j j j j j j j j j j j j j j j j j j j j 8 j j j j j j j j j j j j j j j j j i 6 f h h h h ",
"6 5 5 c.5 c.6 b.0 0 9 9 9 0 s 0 0 0 0 s X 0 9 s d 0 9 s s P s 0 d d 9 0 9 P P 0 s 0 P 0 P 0 0 s 9 P 9 7.0 9 0 s 0 0 0 9 7.0 s 9 9 9 s 0 9 P s 0 P 0 a O ) ) ) ) + {                                                                             ] # ) ) ) ) b l s 0 0 0 s P 0 0 0 9 s 0 9 P 0 9 P s 9 7.0 9 0 s 0 0 0 9 7.0 s 9 9 9 P 0 9 0 0 9 P s 9 P 0 9 0 s 0 0 0 0 7.0 7.0 0 P s 0 7.0 0 0 s A 0 e L f c.c.f f ",
"d._ _ d.( ( e.3 f.f.f.f.3 3 f.f.2 [ f.f.g.f.f.f.f.f.f.f.f.f.f.f.: h.3 f.3 f.f.f.3 f.f.3 f.f.3 f.f.f.f.f.3 f.f.f.2 2 f.f.f.f.f.f.3 f.f.3 f.f.f.f.f.3 i.| ) ) ) ) + {                                                                             ] # ) ) ) ) b 1 f.f.f.f.f.f.3 f.3 f.3 f.f.f.3 f.f.f.f.f.3 f.f.f.2 2 f.f.f.f.f.f.3 f.f.3 f.f.3 3 f.f.f.f.3 f.f.f.2 2 f.f.f.f.f.f.f.f.f.f.f.f.f.f.f.h.f.: j.( ( ( ( ( ",
"k.k.k.k.k.k.k.k.k.k.k.k.k.k.k.l.k.k.@ k.k.k.k.k.k.k.k.k.k.k.k.k.k.k.l.k.k.k.k.k.k.k.k.k.k.k.k.k.k.k.k.k.k.k.k.k.k.k.k.k.k.k.k.k.k.k.@ k.k.k.k.k.k.k.@ b ) ) ) ) + {                                                                             ] # ) ) ) ) ! / m.k.k.k.k.k.k.k.k.k.@ k.k.k.k.k.k.k.k.k.k.k.k.k.k.k.k.k.k.k.k.k.k.k.@ k.k.k.k.k.k.k.k.k.k.k.k.k.k.k.k.k.k.k.k.k.k.k.k.k.k.k.l.k.l.k.k.k.k.k.k.k.k.k.",
") ! ! ! ! ! ! ! ! ) ! ! ! ! ! ! ) ! ! ! ! ! ! ! ! ! ! ! ! ! ! ! ! ! ) ! ) ! ! ! ! ! ! ! ! ! ! ! ! ! ! ! ! ! ! ! ! ) ! ! ! ! ! ! ! ! ! ! ! ! ! ! ! ! ) ) ) ) ) ) ~ {                                                                             ] # ) ) ) ) ) ) b ) ! ! ! ! ! ! ! ! ! ! ! ! b ) ! ! ! ! ! ! ! ! ! ) ! ! ! ! ! ! ! ! ! ! ! ! ! ! ! ! ! ! ! ! ! ! ) ! ! ! ! ! ! ! ! ! ! ! ) ! ) ) ! ) ! ! ! ) ! ! ! ! ",
") ) ) ) ) ) ) ) ) ) ) ) ) ) ) ) ) ) ) ) ) ) ) ) ) ) ) ) ! ! ) ) ) ) ) ) ) ) ) ) ) ) ! ) ) ) ) ) ! ! ) ) ) ) ) ) ) ) ) ) ) ) ) ) ) ) ) ) ! ! ) ) ) ) ) ) ! ) ) ) + C                                                                             ] # ) ) ) ) ) ) ) ) ) ) ) ) ) ) ) ) ) ) ) ) ) ) ! ! ) ) ) ) ) ) ) ) ) ) ) ) ) ) ) ) ) ) ! ! ) ) ) ) ) ) ! ! ) ) ) ) ! ! ! ! ) ) ! ! ) ) ) ) ) ) ) ) ) ) ) ) ) ) ) ) ",
") ) ) ) ) ) ! ) ) ) ) ) ) ) ) ) ) ! ) ) ) ) ) ) ) ! ) ) ) ! ) ) ) ! ) ) ! ) ) ) ) ) ) ) ) ) ) ) ! ! ) ) ! ) ) ) ) ) ) ) ) ) ) ) ) ) ) ! ! ! ) ! ) ) ) ) ) ) ) ) + C                                                                             ] # ) ) ) ) ) ) ) ) ) ) ) ) ) ) ) ! ) ! ) ) ) ) ) ) ) ) ! ) ) ) ) ) ) ) ) ) ) ) ) ) ) ) ! ! ! ) ) ) ) ) ) ! ! ) ) ) ! ! ! ! ) ) ) ! ! ) ) ) ) ) ) ) ) ) ) ) ) ) ) ) ",
") ) ) ) ) ) ) ) ) ) ) ) ) ) ) ) ) ) ) ) ) ) ! ) ) ) ! ) ) ) ! ) ) ) ) ) ) ) ) ! ) ) ) ) ) ) ) ! ) ) ! ) ) ) ! ) ) ) ) ) ) ) ) ) ) ) ) ) ) ) ) ) ) ) ) ! ) ) ) ) + C                                                                             ] # ) ) ) ) ) ) ) ) ) ) ) ) ) ) ) ) ) ) ) ) ) ) ) ) ) ) ) ) ) ! ) ) ) ) ) ) ) ) ) ) ) ) ) ) ) ) ) ) ) ) ) ) ) ) ) ) ) ) ) ) ! ) ) ) ) ! ) ) ) ) ) ) ) ) ) ) ) ) ! ) ",
") ) ) ) ) ) ! ) ) ) ) ) ) ) ) ) ) ) ) ) ) ) ) ) ) ) ) ) ) ) ) ) ) ) ) ) ) ) ) ) ) ) ! ) ) ) ) ) ) ) ) ) ) ) ) ) ) ) ) ) ) ) ) ) ) ) ) ! ) ) ) ! ) ) ) ) ) ) ) ) . {                                                                             ] # ) ) ) ) ) ) ) ) ) ) ) ) ) ! ) ) ) ! ) ) ! ) ) ) ! ) ) ) ) ) ) ) ) ) ) ) ) ) ) ) ) ) ) ) ! ) ) ) ) ) ) ) ! ) ) ) ) ! ) ) ) ) ) ) ) ) ) ) ! ) ) ) ! ) ) ) ) ) ) ) ",
") ) ! ) ) ! ) ) ) ! ) ) ) ) ) ) ) ) ) ) ! ) ) ) ! ) ) ) ! ) ) ) ! ) ) ) ) ) ) ) ) ) ) ) ) ! ) ) ) ) ) ) ! ) ) ) ) ) ) ) ) ) ) ) ) ) ) ) ) ) ) ) ) ) ) ) ) ) ) ) + {                                                                             ] # ) ) ) ) ) ) ) ) ) ) ) ) ) ) ) ) ) ) ) ) ) ) ) ! ) ) ) ! ) ) ) ) ) ) ) ) ) ) ) ) ! ) ) ! ) ) ) ! ! ) ) ! ) ) ) ! ) ) ) ) ) ) ! ) ) ) ) ) ) ) ) ! ) ) ) ! ) ) ) ) ",
") ! ) ) ) ) ) ) ) ) ) ) ) ) ) ) ) ) ) ) ) ) ) ) ) ) ) ) ) ) ) ) ) ) ) ) ) ) ) ) ! ) ) ) ) ) ) ) ! ) ) ) ) ) ) ) ) ) ) ) ) ) ) ) ) ) ) ) ) ! ) ) ) ! ) ) ! ) ) ) + ,                                                                             ] # ! ) ) ) ) ) ) ) ) ) ) ) ) ) ) ! ) ) ) ! ) ) ) ) ) ) ) ) ) ) ) ) ) ) ) ) ) ) ) ) ) ) ) ) ) ) ) ) ) ) ) ) ) ) ) ) ! ) ) ! ) ) ) ) ) ) ! ) ) ) ) ) ) ) ) ) ) ! ) ) ",
") ! ) ) ) ) ) ) ) ) ) ) ) ) ) ) ) ) ) ) ) ) ) ) ) ) ) ) ) ) ) ) ) ) ) ! ) ) ) ) ) ) ) ) ) ) ) ) ) ) ) ) ) ) ) ) ) ) ) ) ) ) ) ) ) ) ) ) ) ) ) ) ) ) ) ) ) ) ) ) ~ C                                                                             ] # ) ) ) ) ) ) ) ) ) ! ! ) ) ) ) ) ) ) ) ) ) ) ) ) ) ) ) ) ) ) ) ) ) ) ) ) ) ) ) ) ) ) ) ) ) ) ) ) ) ) ) ) ) ) ) ) ) ) ) ) ) ) ) ) ) ) ) ) ) ) ) ) ) ) ) ) ) ) ) ) ",
"n.| n.n.| n.n.n.| n.n.n.| n.n.| n.n.| n.n.n.| n.n.n.| n.n.n.n.n.n.n.p p p p n.n.n.n.n.p | n.n.n.n.n.n.n.| n.| n.n.n.| n.n.n.| n.n.n.n.| n.n.| n.n.n.| n.n.n.n.| m.,                                                                             ] o.| n.n.n.n.n.n.n.p p p p n.| n.n.n.n.n.n.p n.n.n.n.n.| n.| n.n.n.n.| n.n.n.n.| n.| n.n.n.| n.n.n.| n.n.n.| n.n.n.p n.n.n.n.n.p | n.n.n.n.n.n.n.n.n.n.n.n.| n.n.n."};
